mathias31415/motion_primitives_from_planned_trajectory/data/trajectory_20250702_090334_planned.csv
time_from_start,shoulder_pan_joint_pos,shoulder_lift_joint_pos,elbow_joint_pos,wrist_1_joint_pos,wrist_2_joint_pos,wrist_3_joint_pos,shoulder_pan_joint_vel,shoulder_lift_joint_vel,elbow_joint_vel,wrist_1_joint_vel,wrist_2_joint_vel,wrist_3_joint_vel,shoulder_pan_joint_acc,shoulder_lift_joint_acc,elbow_joint_acc,wrist_1_joint_acc,wrist_2_joint_acc,wrist_3_joint_acc,pose_x,pose_y,pose_z,pose_qx,pose_qy,pose_qz,pose_qw
0.000000,-1.600734,-1.726986,-2.203011,-0.807957,1.595143,-0.031171,-0.000010,0.000030,0.000500,-0.000004,0.000004,-0.000267,-0.009805,0.029872,0.500000,-0.004330,0.003604,-0.266938,-0.189647,-0.609668,0.261041,-0.000461,0.999844,0.012403,0.012557
0.100000,-1.600783,-1.726837,-2.200511,-0.807979,1.595161,-0.032506,-0.000981,0.002987,0.050000,-0.000433,0.000360,-0.026694,-0.009805,0.029872,0.500000,-0.004330,0.003604,-0.266938,-0.189714,-0.610954,0.262431,-0.001120,0.999859,0.011081,0.012534
0.200000,-1.600930,-1.726389,-2.193011,-0.808044,1.595215,-0.036510,-0.001961,0.005974,0.100000,-0.000866,0.000721,-0.053388,-0.009805,0.029872,0.500000,-0.004330,0.003604,-0.266938,-0.189914,-0.614790,0.266625,-0.003096,0.999892,0.007116,0.012453
0.300000,-1.601175,-1.725642,-2.180511,-0.808152,1.595305,-0.043183,-0.002942,0.008961,0.150000,-0.001299,0.001081,-0.080081,-0.009805,0.029872,0.500000,-0.004330,0.003604,-0.266938,-0.190247,-0.621110,0.273687,-0.006390,0.999904,0.000506,0.012281
0.400000,-1.601518,-1.724596,-2.163011,-0.808303,1.595431,-0.052526,-0.003922,0.011949,0.200000,-0.001732,0.001442,-0.106775,-0.009805,0.029872,0.500000,-0.004330,0.003604,-0.266938,-0.190715,-0.629801,0.283723,-0.011002,0.999830,-0.008744,0.011963
0.500000,-1.601960,-1.723252,-2.140511,-0.808498,1.595594,-0.064538,-0.004903,0.014936,0.250000,-0.002165,0.001802,-0.133469,-0.009805,0.029872,0.500000,-0.004330,0.003604,-0.266938,-0.191316,-0.640702,0.296878,-0.016931,0.999579,-0.020631,0.011422
0.600000,-1.602499,-1.721609,-2.113011,-0.808736,1.595792,-0.079220,-0.005883,0.017923,0.300000,-0.002598,0.002162,-0.160163,-0.009805,0.029872,0.500000,-0.004330,0.003604,-0.266938,-0.192051,-0.653598,0.313331,-0.024172,0.999034,-0.035146,0.010558
0.700000,-1.603111,-1.719744,-2.081796,-0.809007,1.596017,-0.095885,-0.006161,0.018769,0.314159,-0.002720,0.002264,-0.167722,0.000000,-0.000000,-0.000000,0.000000,-0.000000,0.000000,-0.192883,-0.667653,0.332488,-0.032378,0.998100,-0.051597,0.009308
0.800000,-1.603727,-1.717867,-2.050380,-0.809279,1.596243,-0.112657,-0.006161,0.018769,0.314159,-0.002720,0.002264,-0.167722,0.000000,-0.000000,-0.000000,0.000000,-0.000000,0.000000,-0.193716,-0.681157,0.352267,-0.040615,0.996820,-0.068120,0.007760
0.900000,-1.604343,-1.715990,-2.018964,-0.809551,1.596470,-0.129429,-0.006161,0.018769,0.314159,-0.002720,0.002264,-0.167722,0.000000,-0.000000,-0.000000,0.000000,-0.000000,0.000000,-0.194545,-0.694000,0.372523,-0.048825,0.995200,-0.084600,0.005925
1.000000,-1.604959,-1.714114,-1.987548,-0.809823,1.596696,-0.146202,-0.006161,0.018769,0.314159,-0.002720,0.002264,-0.167722,-0.000000,0.000000,0.000000,-0.000000,0.000000,-0.000000,-0.195366,-0.706167,0.393235,-0.057000,0.993242,-0.101028,0.003801
1.100000,-1.605575,-1.712237,-1.956132,-0.810095,1.596923,-0.162974,-0.006161,0.018769,0.314159,-0.002720,0.002264,-0.167722,-0.000000,0.000000,0.000000,-0.000000,0.000000,-0.000000,-0.196178,-0.717643,0.414379,-0.065132,0.990946,-0.117397,0.001391
1.200000,-1.606191,-1.710360,-1.924716,-0.810367,1.597149,-0.179746,-0.006161,0.018769,0.314159,-0.002720,0.002264,-0.167722,-0.000000,0.000000,0.000000,-0.000000,0.000000,-0.000000,-0.196979,-0.728415,0.435934,-0.073214,0.988313,-0.133699,-0.001303
1.300000,-1.606807,-1.708483,-1.893300,-0.810639,1.597375,-0.196518,-0.006161,0.018769,0.314159,-0.002720,0.002264,-0.167722,-0.000000,0.000000,0.000000,-0.000000,0.000000,-0.000000,-0.197768,-0.738469,0.457874,-0.081240,0.985345,-0.149924,-0.004281
1.400000,-1.607424,-1.706606,-1.861884,-0.810911,1.597602,-0.213290,-0.006161,0.018769,0.314159,-0.002720,0.002264,-0.167722,-0.000000,0.000000,0.000000,-0.000000,0.000000,-0.000000,-0.198543,-0.747792,0.480176,-0.089202,0.982043,-0.166066,-0.007539
1.500000,-1.608040,-1.704729,-1.830468,-0.811183,1.597828,-0.230063,-0.006161,0.018769,0.314159,-0.002720,0.002264,-0.167722,-0.000000,0.000000,0.000000,-0.000000,0.000000,-0.000000,-0.199301,-0.756373,0.502815,-0.097092,0.978409,-0.182116,-0.011077
1.600000,-1.608656,-1.702852,-1.799052,-0.811455,1.598055,-0.246835,-0.006161,0.018769,0.314159,-0.002720,0.002264,-0.167722,-0.000000,0.000000,0.000000,-0.000000,0.000000,-0.000000,-0.200042,-0.764201,0.525767,-0.104906,0.974445,-0.198066,-0.014891
1.700000,-1.609272,-1.700975,-1.767636,-0.811727,1.598281,-0.263607,-0.006161,0.018769,0.314159,-0.002720,0.002264,-0.167722,-0.000000,0.000000,0.000000,-0.000000,0.000000,-0.000000,-0.200763,-0.771266,0.549007,-0.112634,0.970153,-0.213908,-0.018980
1.800000,-1.609888,-1.699098,-1.736220,-0.811999,1.598508,-0.280379,-0.006161,0.018769,0.314159,-0.002720,0.002264,-0.167722,-0.000000,0.000000,0.000000,-0.000000,0.000000,-0.000000,-0.201463,-0.777559,0.572508,-0.120271,0.965535,-0.229634,-0.023340
1.900000,-1.610504,-1.697222,-1.704804,-0.812271,1.598734,-0.297151,-0.006161,0.018769,0.314159,-0.002720,0.002264,-0.167722,-0.000000,0.000000,0.000000,-0.000000,0.000000,-0.000000,-0.202139,-0.783072,0.596246,-0.127809,0.960594,-0.245237,-0.027968
2.000000,-1.611120,-1.695345,-1.673389,-0.812543,1.598961,-0.313924,-0.006161,0.018769,0.314159,-0.002720,0.002264,-0.167722,0.000000,-0.000000,-0.000000,0.000000,-0.000000,0.000000,-0.202791,-0.787797,0.620194,-0.135241,0.955333,-0.260709,-0.032863
2.100000,-1.611736,-1.693468,-1.641973,-0.812815,1.599187,-0.330696,-0.006161,0.018769,0.314159,-0.002720,0.002264,-0.167722,0.000000,-0.000000,-0.000000,0.000000,-0.000000,0.000000,-0.203416,-0.791727,0.644325,-0.142562,0.949754,-0.276041,-0.038019
2.200000,-1.612352,-1.691591,-1.610557,-0.813087,1.599413,-0.347468,-0.006161,0.018769,0.314159,-0.002720,0.002264,-0.167722,0.000000,-0.000000,-0.000000,0.000000,-0.000000,0.000000,-0.204013,-0.794858,0.668614,-0.149764,0.943860,-0.291227,-0.043435
2.300000,-1.612968,-1.689714,-1.579141,-0.813359,1.599640,-0.364240,-0.006161,0.018769,0.314159,-0.002720,0.002264,-0.167722,0.000000,-0.000000,-0.000000,0.000000,-0.000000,0.000000,-0.204579,-0.797183,0.693034,-0.156841,0.937654,-0.306259,-0.049105
2.400000,-1.613584,-1.687837,-1.547725,-0.813631,1.599866,-0.381012,-0.006161,0.018769,0.314159,-0.002720,0.002264,-0.167722,0.000000,-0.000000,-0.000000,0.000000,-0.000000,0.000000,-0.205114,-0.798701,0.717557,-0.163786,0.931140,-0.321129,-0.055027
2.500000,-1.614200,-1.685960,-1.516309,-0.813903,1.600093,-0.397785,-0.006161,0.018769,0.314159,-0.002720,0.002264,-0.167722,0.000000,-0.000000,-0.000000,0.000000,-0.000000,0.000000,-0.205616,-0.799406,0.742158,-0.170593,0.924322,-0.335831,-0.061197
2.600000,-1.614816,-1.684083,-1.484893,-0.814175,1.600319,-0.414557,-0.006161,0.018769,0.314159,-0.002720,0.002264,-0.167722,0.000000,-0.000000,-0.000000,0.000000,-0.000000,0.000000,-0.206083,-0.799297,0.766808,-0.177255,0.917202,-0.350357,-0.067610
2.700000,-1.615432,-1.682206,-1.453477,-0.814447,1.600546,-0.431329,-0.006161,0.018769,0.314159,-0.002720,0.002264,-0.167722,0.000000,-0.000000,-0.000000,0.000000,-0.000000,0.000000,-0.206513,-0.798374,0.791481,-0.183767,0.909785,-0.364700,-0.074261
2.800000,-1.616049,-1.680329,-1.422061,-0.814719,1.600772,-0.448101,-0.006161,0.018769,0.314159,-0.002720,0.002264,-0.167722,0.000000,-0.000000,-0.000000,0.000000,-0.000000,0.000000,-0.206906,-0.796635,0.816150,-0.190121,0.902075,-0.378853,-0.081148
2.900000,-1.616665,-1.678453,-1.390645,-0.814991,1.600999,-0.464873,-0.006161,0.018769,0.314159,-0.002720,0.002264,-0.167722,0.000000,-0.000000,-0.000000,0.000000,-0.000000,0.000000,-0.207259,-0.794081,0.840787,-0.196313,0.894076,-0.392809,-0.088264
3.000000,-1.617281,-1.676576,-1.359229,-0.815263,1.601225,-0.481646,-0.006161,0.018769,0.314159,-0.002720,0.002264,-0.167722,0.000000,-0.000000,-0.000000,0.000000,-0.000000,0.000000,-0.207571,-0.790714,0.865366,-0.202336,0.885792,-0.406562,-0.095605
3.100000,-1.617897,-1.674699,-1.327813,-0.815536,1.601452,-0.498418,-0.006161,0.018769,0.314159,-0.002720,0.002264,-0.167722,0.000000,-0.000000,-0.000000,0.000000,-0.000000,0.000000,-0.207841,-0.786537,0.889860,-0.208184,0.877228,-0.420104,-0.103166
3.200000,-1.618513,-1.672822,-1.296397,-0.815808,1.601678,-0.515190,-0.006161,0.018769,0.314159,-0.002720,0.002264,-0.167722,0.000000,-0.000000,-0.000000,0.000000,-0.000000,0.000000,-0.208067,-0.781552,0.914241,-0.213852,0.868388,-0.433430,-0.110941
3.300000,-1.619129,-1.670945,-1.264982,-0.816080,1.601904,-0.531962,-0.006161,0.018769,0.314159,-0.002720,0.002264,-0.167722,0.000000,-0.000000,-0.000000,0.000000,-0.000000,0.000000,-0.208248,-0.775763,0.938483,-0.219333,0.859277,-0.446533,-0.118927
3.400000,-1.619745,-1.669068,-1.233566,-0.816352,1.602131,-0.548734,-0.006161,0.018769,0.314159,-0.002720,0.002264,-0.167722,0.000000,-0.000000,-0.000000,0.000000,-0.000000,0.000000,-0.208383,-0.769176,0.962559,-0.224623,0.849901,-0.459407,-0.127116
3.500000,-1.620361,-1.667191,-1.202150,-0.816624,1.602357,-0.565507,-0.006161,0.018769,0.314159,-0.002720,0.002264,-0.167722,0.000000,-0.000000,-0.000000,0.000000,-0.000000,0.000000,-0.208471,-0.761797,0.986443,-0.229716,0.840263,-0.472046,-0.135504
3.600000,-1.620977,-1.665314,-1.170734,-0.816896,1.602584,-0.582279,-0.006161,0.018769,0.314159,-0.002720,0.002264,-0.167722,0.000000,-0.000000,-0.000000,0.000000,-0.000000,0.000000,-0.208510,-0.753632,1.010108,-0.234607,0.830370,-0.484443,-0.144084
3.700000,-1.621593,-1.663437,-1.139318,-0.817168,1.602810,-0.599051,-0.006161,0.018769,0.314159,-0.002720,0.002264,-0.167722,0.000000,-0.000000,-0.000000,0.000000,-0.000000,0.000000,-0.208500,-0.744689,1.033529,-0.239290,0.820226,-0.496594,-0.152852
3.800000,-1.622209,-1.661561,-1.107902,-0.817440,1.603037,-0.615823,-0.006161,0.018769,0.314159,-0.002720,0.002264,-0.167722,0.000000,-0.000000,-0.000000,0.000000,-0.000000,0.000000,-0.208439,-0.734978,1.056679,-0.243761,0.809838,-0.508492,-0.161800
3.900000,-1.622825,-1.659684,-1.076486,-0.817712,1.603263,-0.632595,-0.006161,0.018769,0.314159,-0.002720,0.002264,-0.167722,0.000000,-0.000000,-0.000000,0.000000,-0.000000,0.000000,-0.208327,-0.724506,1.079534,-0.248015,0.799210,-0.520132,-0.170923
4.000000,-1.623441,-1.657807,-1.045070,-0.817984,1.603490,-0.649367,-0.006161,0.018769,0.314159,-0.002720,0.002264,-0.167722,-0.000000,0.000000,0.000000,-0.000000,0.000000,-0.000000,-0.208162,-0.713285,1.102068,-0.252046,0.788349,-0.531509,-0.180214
4.100000,-1.624057,-1.655930,-1.013654,-0.818256,1.603716,-0.666140,-0.006161,0.018769,0.314159,-0.002720,0.002264,-0.167722,0.000000,-0.000000,-0.000000,0.000000,-0.000000,0.000000,-0.207944,-0.701325,1.124256,-0.255851,0.777260,-0.542617,-0.189667
4.200000,-1.624674,-1.654053,-0.982238,-0.818528,1.603942,-0.682912,-0.006161,0.018769,0.314159,-0.002720,0.002264,-0.167722,0.000000,-0.000000,-0.000000,0.000000,-0.000000,0.000000,-0.207673,-0.688639,1.146074,-0.259425,0.765950,-0.553452,-0.199275
4.300000,-1.625290,-1.652176,-0.950822,-0.818800,1.604169,-0.699684,-0.006161,0.018769,0.314159,-0.002720,0.002264,-0.167722,0.000000,-0.000000,-0.000000,0.000000,-0.000000,0.000000,-0.207347,-0.675238,1.167499,-0.262764,0.754423,-0.564009,-0.209033
4.400000,-1.625906,-1.650299,-0.919406,-0.819072,1.604395,-0.716456,-0.006161,0.018769,0.314159,-0.002720,0.002264,-0.167722,0.000000,-0.000000,-0.000000,0.000000,-0.000000,0.000000,-0.206965,-0.661138,1.188505,-0.265863,0.742688,-0.574282,-0.218932
4.500000,-1.626522,-1.648422,-0.887990,-0.819344,1.604622,-0.733228,-0.006161,0.018769,0.314159,-0.002720,0.002264,-0.167722,0.000000,-0.000000,-0.000000,0.000000,-0.000000,0.000000,-0.206529,-0.646351,1.209071,-0.268718,0.730750,-0.584269,-0.228966
4.600000,-1.627138,-1.646545,-0.856574,-0.819616,1.604848,-0.750001,-0.006161,0.018769,0.314159,-0.002720,0.002264,-0.167722,0.000000,-0.000000,-0.000000,0.000000,-0.000000,0.000000,-0.206036,-0.630893,1.229174,-0.271326,0.718615,-0.593963,-0.239129
4.700000,-1.627754,-1.644669,-0.825159,-0.819888,1.605075,-0.766773,-0.006161,0.018769,0.314159,-0.002720,0.002264,-0.167722,0.000000,-0.000000,-0.000000,0.000000,-0.000000,0.000000,-0.205486,-0.614779,1.248791,-0.273683,0.706290,-0.603362,-0.249412
4.800000,-1.628370,-1.642792,-0.793743,-0.820160,1.605301,-0.783545,-0.006161,0.018769,0.314159,-0.002720,0.002264,-0.167722,0.000000,-0.000000,-0.000000,0.000000,-0.000000,0.000000,-0.204880,-0.598027,1.267901,-0.275786,0.693781,-0.612462,-0.259810
4.900000,-1.628986,-1.640915,-0.762327,-0.820432,1.605528,-0.800317,-0.006161,0.018769,0.314159,-0.002720,0.002264,-0.167722,0.000000,-0.000000,-0.000000,0.000000,-0.000000,0.000000,-0.204218,-0.580653,1.286484,-0.277630,0.681096,-0.621257,-0.270314
5.000000,-1.629602,-1.639038,-0.730911,-0.820704,1.605754,-0.817089,-0.006161,0.018769,0.314159,-0.002720,0.002264,-0.167722,0.000000,-0.000000,-0.000000,0.000000,-0.000000,0.000000,-0.203498,-0.562675,1.304518,-0.279212,0.668241,-0.629746,-0.280917
5.100000,-1.630218,-1.637161,-0.699495,-0.820976,1.605981,-0.833862,-0.006161,0.018769,0.314159,-0.002720,0.002264,-0.167722,0.000000,-0.000000,-0.000000,0.000000,-0.000000,0.000000,-0.202721,-0.544112,1.321983,-0.280531,0.655223,-0.637924,-0.291613
5.200000,-1.630834,-1.635284,-0.668079,-0.821248,1.606207,-0.850634,-0.006161,0.018769,0.314159,-0.002720,0.002264,-0.167722,0.000000,-0.000000,-0.000000,0.000000,-0.000000,0.000000,-0.201887,-0.524983,1.338862,0.281582,-0.642049,0.645789,0.302392
5.300000,-1.631450,-1.633407,-0.636663,-0.821520,1.606433,-0.867406,-0.006161,0.018769,0.314159,-0.002720,0.002264,-0.167722,0.000000,-0.000000,-0.000000,0.000000,-0.000000,0.000000,-0.200997,-0.505307,1.355134,0.282363,-0.628726,0.653337,0.313249
5.400000,-1.632066,-1.631530,-0.605247,-0.821792,1.606660,-0.884178,-0.006161,0.018769,0.314159,-0.002720,0.002264,-0.167722,0.000000,-0.000000,-0.000000,0.000000,-0.000000,0.000000,-0.200050,-0.485106,1.370783,0.282872,-0.615261,0.660566,0.324175
5.500000,-1.632682,-1.629653,-0.573831,-0.822064,1.606886,-0.900950,-0.006161,0.018769,0.314159,-0.002720,0.002264,-0.167722,0.000000,-0.000000,-0.000000,0.000000,-0.000000,0.000000,-0.199047,-0.464400,1.385790,0.283105,-0.601662,0.667473,0.335162
5.600000,-1.633299,-1.627777,-0.542415,-0.822336,1.607113,-0.917723,-0.006161,0.018769,0.314159,-0.002720,0.002264,-0.167722,0.000000,-0.000000,-0.000000,0.000000,-0.000000,0.000000,-0.197988,-0.443210,1.400140,0.283062,-0.587936,0.674056,0.346203
5.700000,-1.633915,-1.625900,-0.510999,-0.822608,1.607339,-0.934495,-0.006161,0.018769,0.314159,-0.002720,0.002264,-0.167722,0.000000,-0.000000,-0.000000,0.000000,-0.000000,0.000000,-0.196874,-0.421559,1.413816,0.282739,-0.574089,0.680312,0.357289
5.800000,-1.634531,-1.624023,-0.479583,-0.822881,1.607566,-0.951267,-0.006161,0.018769,0.314159,-0.002720,0.002264,-0.167722,0.000000,-0.000000,-0.000000,0.000000,-0.000000,0.000000,-0.195706,-0.399470,1.426805,0.282136,-0.560131,0.686239,0.368414
5.900000,-1.635147,-1.622146,-0.448167,-0.823153,1.607792,-0.968039,-0.006161,0.018769,0.314159,-0.002720,0.002264,-0.167722,0.000000,-0.000000,-0.000000,0.000000,-0.000000,0.000000,-0.194483,-0.376965,1.439090,0.281249,-0.546067,0.691836,0.379569
6.000000,-1.635758,-1.620282,-0.416976,-0.823423,1.608017,-0.984691,-0.005860,0.017853,0.298831,-0.002588,0.002154,-0.159538,0.009805,-0.029872,-0.500000,0.004330,-0.003604,0.266938,-0.193216,-0.354233,1.450579,0.280088,-0.532007,0.697065,0.390666
6.100000,-1.636296,-1.618645,-0.389560,-0.823660,1.608215,-0.999328,-0.004880,0.014866,0.248831,-0.002155,0.001794,-0.132845,0.009805,-0.029872,-0.500000,0.004330,-0.003604,0.266938,-0.192060,-0.333952,1.460085,0.278835,-0.519575,0.701390,0.400432
6.200000,-1.636736,-1.617305,-0.367144,-0.823854,1.608376,-1.011296,-0.003899,0.011879,0.198831,-0.001722,0.001433,-0.106151,0.009805,-0.029872,-0.500000,0.004330,-0.003604,0.266938,-0.191085,-0.317172,1.467440,0.277648,-0.509363,0.704736,0.408421
6.300000,-1.637077,-1.616265,-0.349728,-0.824005,1.608502,-1.020594,-0.002919,0.008892,0.148831,-0.001289,0.001073,-0.079457,0.009805,-0.029872,-0.500000,0.004330,-0.003604,0.266938,-0.190310,-0.304019,1.472891,0.276625,-0.501401,0.707219,0.414629
6.400000,-1.635805,-1.615085,-0.335460,-0.824762,1.608619,-1.026485,0.034761,0.016408,0.141926,-0.016564,0.001381,-0.033997,0.418708,0.084176,-0.066459,-0.169914,0.003506,0.499908,-0.189186,-0.293138,1.477243,0.275740,-0.494995,0.709792,0.418501
6.500000,-1.630422,-1.613083,-0.321926,-0.827187,1.608771,-1.027425,0.071994,0.023201,0.125192,-0.031493,0.001613,0.015999,0.327494,0.052245,-0.264762,-0.129352,0.001169,0.499961,-0.186901,-0.282656,1.481373,0.274902,-0.489267,0.713850,0.418885
6.600000,-1.622081,-1.610645,-0.311328,-0.830770,1.608929,-1.023571,0.090052,0.024254,0.081984,-0.038149,0.001466,0.058217,0.072103,-0.016700,-0.499754,-0.021120,-0.003007,0.336128,-0.184009,-0.274284,1.484639,0.274271,-0.485130,0.718644,0.415902
6.700000,-1.612927,-1.608348,-0.305629,-0.834604,1.609058,-1.016304,0.091086,0.021280,0.031998,-0.037738,0.001106,0.084963,-0.045523,-0.041551,-0.499932,0.026927,-0.004132,0.205343,-0.181208,-0.269613,1.486506,0.273986,-0.483307,0.723035,0.410569
6.800000,-1.604222,-1.606464,-0.304928,-0.838172,1.609147,-1.006977,0.081312,0.016021,-0.017999,-0.032912,0.000643,0.099689,-0.148461,-0.063292,-0.499964,0.068973,-0.005115,0.090824,-0.178764,-0.268790,1.486982,0.274054,-0.483739,0.726485,0.403869
6.900000,-1.597012,-1.605217,-0.309228,-0.841045,1.609184,-0.996753,0.061044,0.008548,-0.067989,-0.023800,0.000080,0.102735,-0.259026,-0.086631,-0.499823,0.114131,-0.006169,-0.032269,-0.176864,-0.271869,1.486055,0.274458,-0.486334,0.728567,0.396663
7.000000,-1.591385,-1.604616,-0.318420,-0.843190,1.609169,-0.985786,0.064293,0.006254,-0.114626,-0.024350,-0.000234,0.130231,0.246843,0.024013,-0.440087,-0.093488,-0.000898,0.500000,-0.175455,-0.278765,1.483711,0.275164,-0.491032,0.729237,0.389083
7.100000,-1.583734,-1.603871,-0.332061,-0.846088,1.609142,-0.970287,0.088977,0.008656,-0.158634,-0.033699,-0.000324,0.180231,0.246843,0.024013,-0.440087,-0.093488,-0.000898,0.500000,-0.173435,-0.288973,1.480102,0.276148,-0.497930,0.729807,0.378403
7.200000,-1.573614,-1.602887,-0.350104,-0.849921,1.609105,-0.949788,0.113662,0.011057,-0.202643,-0.043047,-0.000413,0.230231,0.246843,0.024013,-0.440087,-0.093488,-0.000898,0.500000,-0.170539,-0.302372,1.475133,0.277346,-0.507030,0.730262,0.364304
7.300000,-1.561025,-1.601662,-0.372547,-0.854688,1.609059,-0.924289,0.138346,0.013458,-0.246652,-0.052396,-0.000503,0.280231,0.246843,0.024013,-0.440087,-0.093488,-0.000898,0.500000,-0.166584,-0.318867,1.468644,0.278672,-0.518307,0.730354,0.346819
7.400000,-1.546092,-1.600209,-0.399171,-0.860344,1.609005,-0.894041,0.155096,0.015088,-0.276515,-0.058740,-0.000564,0.314159,-0.000000,-0.000000,0.000000,0.000000,0.000000,-0.000000,-0.161394,-0.338168,1.460507,0.280013,-0.531619,0.729784,0.326174
7.500000,-1.530582,-1.598701,-0.426822,-0.866218,1.608948,-0.862625,0.155096,0.015088,-0.276515,-0.058740,-0.000564,0.314159,-0.000000,-0.000000,0.000000,0.000000,0.000000,-0.000000,-0.155442,-0.357882,1.451557,0.281137,-0.545364,0.728419,0.304872
7.600000,-1.515073,-1.597192,-0.454474,-0.872092,1.608892,-0.831209,0.155096,0.015088,-0.276515,-0.058740,-0.000564,0.314159,-0.000000,-0.000000,0.000000,0.000000,0.000000,-0.000000,-0.148932,-0.377233,1.442107,0.281989,-0.559019,0.726271,0.283743
7.700000,-1.499563,-1.595683,-0.482125,-0.877966,1.608835,-0.799794,0.155096,0.015088,-0.276515,-0.058740,-0.000564,0.314159,-0.000000,-0.000000,0.000000,0.000000,0.000000,-0.000000,-0.141879,-0.396194,1.432163,0.282571,-0.572577,0.723351,0.262817
7.800000,-1.484054,-1.594174,-0.509777,-0.883840,1.608779,-0.768378,0.155096,0.015088,-0.276515,-0.058740,-0.000564,0.314159,-0.000000,-0.000000,0.000000,0.000000,0.000000,-0.000000,-0.134299,-0.414739,1.421733,0.282884,-0.586032,0.719666,0.242124
7.900000,-1.468544,-1.592666,-0.537428,-0.889714,1.608723,-0.736962,0.155096,0.015088,-0.276515,-0.058740,-0.000564,0.314159,-0.000000,-0.000000,0.000000,0.000000,0.000000,-0.000000,-0.126208,-0.432844,1.410827,0.282931,-0.599376,0.715228,0.221693
8.000000,-1.453034,-1.591157,-0.565080,-0.895588,1.608666,-0.705546,0.155096,0.015088,-0.276515,-0.058740,-0.000564,0.314159,0.000000,0.000000,-0.000000,-0.000000,-0.000000,0.000000,-0.117624,-0.450486,1.399451,0.282711,-0.612603,0.710048,0.201554
8.100000,-1.437525,-1.589648,-0.592731,-0.901462,1.608610,-0.674130,0.155096,0.015088,-0.276515,-0.058740,-0.000564,0.314159,0.000000,0.000000,-0.000000,-0.000000,-0.000000,0.000000,-0.108568,-0.467641,1.387615,0.282228,-0.625706,0.704139,0.181735
8.200000,-1.422015,-1.588139,-0.620383,-0.907336,1.608553,-0.642714,0.155096,0.015088,-0.276515,-0.058740,-0.000564,0.314159,0.000000,0.000000,-0.000000,-0.000000,-0.000000,0.000000,-0.099058,-0.484287,1.375328,0.281484,-0.638678,0.697515,0.162265
8.300000,-1.406506,-1.586630,-0.648034,-0.913210,1.608497,-0.611298,0.155096,0.015088,-0.276515,-0.058740,-0.000564,0.314159,0.000000,0.000000,-0.000000,-0.000000,-0.000000,0.000000,-0.089115,-0.500403,1.362600,0.280481,-0.651513,0.690191,0.143170
8.400000,-1.390996,-1.585122,-0.675685,-0.919084,1.608441,-0.579882,0.155096,0.015088,-0.276515,-0.058740,-0.000564,0.314159,0.000000,0.000000,-0.000000,-0.000000,-0.000000,0.000000,-0.078761,-0.515968,1.349442,0.279222,-0.664203,0.682184,0.124478
8.500000,-1.375486,-1.583613,-0.703337,-0.924958,1.608384,-0.548466,0.155096,0.015088,-0.276515,-0.058740,-0.000564,0.314159,0.000000,0.000000,-0.000000,-0.000000,-0.000000,0.000000,-0.068019,-0.530964,1.335862,-0.277708,0.676744,-0.673509,-0.106214
8.600000,-1.359977,-1.582104,-0.730988,-0.930832,1.608328,-0.517050,0.155096,0.015088,-0.276515,-0.058740,-0.000564,0.314159,0.000000,0.000000,-0.000000,-0.000000,-0.000000,0.000000,-0.056912,-0.545371,1.321872,-0.275943,0.689127,-0.664187,-0.088405
8.700000,-1.344467,-1.580595,-0.758640,-0.936706,1.608271,-0.485634,0.155096,0.015088,-0.276515,-0.058740,-0.000564,0.314159,0.000000,0.000000,-0.000000,-0.000000,-0.000000,0.000000,-0.045463,-0.559173,1.307483,-0.273930,0.701347,-0.654235,-0.071074
8.800000,-1.328958,-1.579087,-0.786291,-0.942580,1.608215,-0.454218,0.155096,0.015088,-0.276515,-0.058740,-0.000564,0.314159,0.000000,0.000000,-0.000000,-0.000000,-0.000000,0.000000,-0.033698,-0.572354,1.292706,-0.271672,0.713397,-0.643674,-0.054247
8.900000,-1.313448,-1.577578,-0.813943,-0.948454,1.608159,-0.422802,0.155096,0.015088,-0.276515,-0.058740,-0.000564,0.314159,0.000000,0.000000,-0.000000,-0.000000,-0.000000,0.000000,-0.021643,-0.584898,1.277552,-0.269172,0.725272,-0.632525,-0.037945
9.000000,-1.297938,-1.576069,-0.841594,-0.954328,1.608102,-0.391386,0.155096,0.015088,-0.276515,-0.058740,-0.000564,0.314159,0.000000,0.000000,-0.000000,-0.000000,-0.000000,0.000000,-0.009322,-0.596792,1.262034,-0.266433,0.736965,-0.620809,-0.022192
9.100000,-1.282429,-1.574560,-0.869246,-0.960202,1.608046,-0.359971,0.155096,0.015088,-0.276515,-0.058740,-0.000564,0.314159,0.000000,0.000000,-0.000000,-0.000000,-0.000000,0.000000,0.003238,-0.608023,1.246163,-0.263458,0.748470,-0.608551,-0.007008
9.200000,-1.266919,-1.573051,-0.896897,-0.966076,1.607989,-0.328555,0.155096,0.015088,-0.276515,-0.058740,-0.000564,0.314159,0.000000,0.000000,-0.000000,-0.000000,-0.000000,0.000000,0.016010,-0.618579,1.229953,-0.260252,0.759781,-0.595772,0.007585
9.300000,-1.251410,-1.571543,-0.924549,-0.971950,1.607933,-0.297139,0.155096,0.015088,-0.276515,-0.058740,-0.000564,0.314159,0.000000,0.000000,-0.000000,-0.000000,-0.000000,0.000000,0.028965,-0.628450,1.213414,-0.256818,0.770892,-0.582499,0.021569
9.400000,-1.235900,-1.570034,-0.952200,-0.977824,1.607876,-0.265723,0.155096,0.015088,-0.276515,-0.058740,-0.000564,0.314159,0.000000,0.000000,-0.000000,-0.000000,-0.000000,0.000000,0.042078,-0.637626,1.196562,-0.253160,0.781798,-0.568755,0.034924
9.500000,-1.220391,-1.568525,-0.979852,-0.983698,1.607820,-0.234307,0.155096,0.015088,-0.276515,-0.058740,-0.000564,0.314159,0.000000,0.000000,-0.000000,-0.000000,-0.000000,0.000000,0.055319,-0.646101,1.179408,-0.249283,0.792493,-0.554567,0.047634
9.600000,-1.204881,-1.567016,-1.007503,-0.989572,1.607764,-0.202891,0.155096,0.015088,-0.276515,-0.058740,-0.000564,0.314159,0.000000,0.000000,-0.000000,-0.000000,-0.000000,0.000000,0.068659,-0.653867,1.161966,-0.245189,0.802971,-0.539961,0.059682
9.700000,-1.189371,-1.565508,-1.035155,-0.995446,1.607707,-0.171475,0.155096,0.015088,-0.276515,-0.058740,-0.000564,0.314159,0.000000,0.000000,-0.000000,-0.000000,-0.000000,0.000000,0.082072,-0.660919,1.144250,-0.240884,0.813227,-0.524965,0.071052
9.800000,-1.173862,-1.563999,-1.062806,-1.001320,1.607651,-0.140059,0.155096,0.015088,-0.276515,-0.058740,-0.000564,0.314159,0.000000,0.000000,-0.000000,-0.000000,-0.000000,0.000000,0.095527,-0.667252,1.126274,-0.236372,0.823256,-0.509605,0.081730
9.900000,-1.158352,-1.562490,-1.090458,-1.007194,1.607594,-0.108643,0.155096,0.015088,-0.276515,-0.058740,-0.000564,0.314159,0.000000,0.000000,-0.000000,-0.000000,-0.000000,0.000000,0.108996,-0.672865,1.108051,-0.231657,0.833053,-0.493911,0.091703
10.000000,-1.142843,-1.560981,-1.118109,-1.013068,1.607538,-0.077227,0.155096,0.015088,-0.276515,-0.058740,-0.000564,0.314159,0.000000,0.000000,-0.000000,-0.000000,-0.000000,0.000000,0.122449,-0.677755,1.089595,-0.226744,0.842612,-0.477911,0.100959
10.100000,-1.127333,-1.559472,-1.145761,-1.018942,1.607482,-0.045811,0.155096,0.015088,-0.276515,-0.058740,-0.000564,0.314159,0.000000,0.000000,-0.000000,-0.000000,-0.000000,0.000000,0.135859,-0.681922,1.070922,-0.221639,0.851929,-0.461635,0.109486
10.200000,-1.111823,-1.557964,-1.173412,-1.024816,1.607425,-0.014395,0.155096,0.015088,-0.276515,-0.058740,-0.000564,0.314159,0.000000,0.000000,-0.000000,-0.000000,-0.000000,0.000000,0.149196,-0.685368,1.052045,-0.216345,0.860998,-0.445112,0.117276
10.300000,-1.096314,-1.556455,-1.201063,-1.030690,1.607369,0.017021,0.155096,0.015088,-0.276515,-0.058740,-0.000564,0.314159,0.000000,0.000000,-0.000000,-0.000000,-0.000000,0.000000,0.162431,-0.688094,1.032980,-0.210867,0.869815,-0.428371,0.124319
10.400000,-1.080804,-1.554946,-1.228715,-1.036564,1.607312,0.048436,0.155096,0.015088,-0.276515,-0.058740,-0.000564,0.314159,0.000000,0.000000,-0.000000,-0.000000,-0.000000,0.000000,0.175536,-0.690105,1.013741,-0.205212,0.878375,-0.411444,0.130608
10.500000,-1.065295,-1.553437,-1.256366,-1.042438,1.607256,0.079852,0.155096,0.015088,-0.276515,-0.058740,-0.000564,0.314159,0.000000,0.000000,-0.000000,-0.000000,-0.000000,0.000000,0.188482,-0.691404,0.994342,-0.199384,0.886675,-0.394361,0.136138
10.600000,-1.049785,-1.551929,-1.284018,-1.048312,1.607200,0.111268,0.155096,0.015088,-0.276515,-0.058740,-0.000564,0.314159,0.000000,0.000000,-0.000000,-0.000000,-0.000000,0.000000,0.201241,-0.691999,0.974800,-0.193388,0.894709,-0.377152,0.140902
10.700000,-1.034275,-1.550420,-1.311669,-1.054186,1.607143,0.142684,0.155096,0.015088,-0.276515,-0.058740,-0.000564,0.314159,0.000000,0.000000,-0.000000,-0.000000,-0.000000,0.000000,0.213786,-0.691897,0.955130,-0.187230,0.902474,-0.359849,0.144897
10.800000,-1.018766,-1.548911,-1.339321,-1.060060,1.607087,0.174100,0.155096,0.015088,-0.276515,-0.058740,-0.000564,0.314159,0.000000,0.000000,-0.000000,-0.000000,-0.000000,0.000000,0.226089,-0.691105,0.935345,-0.180915,0.909965,-0.342482,0.148121
10.900000,-1.003256,-1.547402,-1.366972,-1.065934,1.607030,0.205516,0.155096,0.015088,-0.276515,-0.058740,-0.000564,0.314159,0.000000,0.000000,-0.000000,-0.000000,-0.000000,0.000000,0.238123,-0.689634,0.915463,-0.174449,0.917178,-0.325084,0.150573
11.000000,-0.987747,-1.545893,-1.394624,-1.071808,1.606974,0.236932,0.155096,0.015088,-0.276515,-0.058740,-0.000564,0.314159,0.000000,0.000000,-0.000000,-0.000000,-0.000000,0.000000,0.249862,-0.687496,0.895498,-0.167838,0.924111,-0.307683,0.152252
11.100000,-0.972237,-1.544385,-1.422275,-1.077682,1.606917,0.268348,0.155096,0.015088,-0.276515,-0.058740,-0.000564,0.314159,-0.000000,-0.000000,0.000000,0.000000,0.000000,-0.000000,0.261280,-0.684701,0.875466,-0.161088,0.930758,-0.290313,0.153159
11.200000,-0.956727,-1.542876,-1.449927,-1.083556,1.606861,0.299764,0.155096,0.015088,-0.276515,-0.058740,-0.000564,0.314159,-0.000000,-0.000000,0.000000,0.000000,0.000000,-0.000000,0.272351,-0.681263,0.855382,-0.154203,0.937118,-0.273004,0.153298
11.300000,-0.941218,-1.541367,-1.477578,-1.089430,1.606805,0.331180,0.155096,0.015088,-0.276515,-0.058740,-0.000564,0.314159,-0.000000,-0.000000,0.000000,0.000000,0.000000,-0.000000,0.283050,-0.677198,0.835261,-0.147191,0.943186,-0.255787,0.152671
11.400000,-0.925708,-1.539858,-1.505230,-1.095304,1.606748,0.362596,0.155096,0.015088,-0.276515,-0.058740,-0.000564,0.314159,-0.000000,-0.000000,0.000000,0.000000,0.000000,-0.000000,0.293355,-0.672519,0.815120,-0.140057,0.948959,-0.238693,0.151284
11.500000,-0.910199,-1.538350,-1.532881,-1.101178,1.606692,0.394012,0.155096,0.015088,-0.276515,-0.058740,-0.000564,0.314159,-0.000000,-0.000000,0.000000,0.000000,0.000000,-0.000000,0.303241,-0.667245,0.794974,-0.132808,0.954434,-0.221751,0.149142
11.600000,-0.894689,-1.536841,-1.560533,-1.107052,1.606635,0.425428,0.155096,0.015088,-0.276515,-0.058740,-0.000564,0.314159,-0.000000,-0.000000,0.000000,0.000000,0.000000,-0.000000,0.312686,-0.661391,0.774838,-0.125449,0.959609,-0.204994,0.146253
11.700000,-0.879179,-1.535332,-1.588184,-1.112926,1.606579,0.456844,0.155096,0.015088,-0.276515,-0.058740,-0.000564,0.314159,-0.000000,-0.000000,0.000000,0.000000,0.000000,-0.000000,0.321668,-0.654978,0.754729,-0.117987,0.964481,-0.188449,0.142625
11.800000,-0.863670,-1.533823,-1.615836,-1.118800,1.606523,0.488259,0.155096,0.015088,-0.276515,-0.058740,-0.000564,0.314159,-0.000000,-0.000000,0.000000,0.000000,0.000000,-0.000000,0.330166,-0.648024,0.734660,-0.110428,0.969047,-0.172147,0.138268
11.900000,-0.848160,-1.532314,-1.643487,-1.124674,1.606466,0.519675,0.155096,0.015088,-0.276515,-0.058740,-0.000564,0.314159,-0.000000,-0.000000,0.000000,0.000000,0.000000,-0.000000,0.338161,-0.640550,0.714648,-0.102778,0.973305,-0.156118,0.133194
12.000000,-0.832651,-1.530806,-1.671139,-1.130548,1.606410,0.551091,0.155096,0.015088,-0.276515,-0.058740,-0.000564,0.314159,-0.000000,-0.000000,0.000000,0.000000,0.000000,-0.000000,0.345634,-0.632576,0.694709,-0.095044,0.977253,-0.140389,0.127412
12.100000,-0.817141,-1.529297,-1.698790,-1.136422,1.606353,0.582507,0.155096,0.015088,-0.276515,-0.058740,-0.000564,0.314159,-0.000000,-0.000000,0.000000,0.000000,0.000000,-0.000000,0.352566,-0.624126,0.674857,-0.087232,0.980888,-0.124989,0.120938
12.200000,-0.801631,-1.527788,-1.726441,-1.142296,1.606297,0.613923,0.155096,0.015088,-0.276515,-0.058740,-0.000564,0.314159,-0.000000,-0.000000,0.000000,0.000000,0.000000,-0.000000,0.358940,-0.615222,0.655107,-0.079349,0.984210,-0.109946,0.113785
12.300000,-0.786122,-1.526279,-1.754093,-1.148170,1.606241,0.645339,0.155096,0.015088,-0.276515,-0.058740,-0.000564,0.314159,-0.000000,-0.000000,0.000000,0.000000,0.000000,-0.000000,0.364741,-0.605888,0.635476,-0.071401,0.987215,-0.095287,0.105968
12.400000,-0.770612,-1.524771,-1.781744,-1.154044,1.606184,0.676755,0.155096,0.015088,-0.276515,-0.058740,-0.000564,0.314159,-0.000000,-0.000000,0.000000,0.000000,0.000000,-0.000000,0.369954,-0.596148,0.615977,-0.063395,0.989902,-0.081038,0.097504
12.500000,-0.755103,-1.523262,-1.809396,-1.159918,1.606128,0.708171,0.155096,0.015088,-0.276515,-0.058740,-0.000564,0.314159,-0.000000,-0.000000,0.000000,0.000000,0.000000,-0.000000,0.374564,-0.586027,0.596626,-0.055338,0.992271,-0.067225,0.088410
12.600000,-0.739593,-1.521753,-1.837047,-1.165792,1.606071,0.739587,0.155096,0.015088,-0.276515,-0.058740,-0.000564,0.314159,-0.000000,-0.000000,0.000000,0.000000,0.000000,-0.000000,0.378560,-0.575551,0.577438,-0.047235,0.994320,-0.053873,0.078704
12.700000,-0.724083,-1.520244,-1.864699,-1.171666,1.606015,0.771003,0.155096,0.015088,-0.276515,-0.058740,-0.000564,0.314159,-0.000000,-0.000000,0.000000,0.000000,0.000000,-0.000000,0.381929,-0.564745,0.558427,-0.039095,0.996048,-0.041006,0.068406
12.800000,-0.708574,-1.518735,-1.892350,-1.177540,1.605958,0.802419,0.155096,0.015088,-0.276515,-0.058740,-0.000564,0.314159,-0.000000,-0.000000,0.000000,0.000000,0.000000,-0.000000,0.384661,-0.553637,0.539607,-0.030922,0.997453,-0.028648,0.057537
12.900000,-0.693287,-1.517248,-1.919604,-1.183329,1.605903,0.833383,0.144403,0.014048,-0.257451,-0.054690,-0.000525,0.292500,-0.246843,-0.024013,0.440087,0.093488,0.000898,-0.500000,0.386722,-0.542419,0.521260,-0.022843,0.998523,-0.016988,0.046284
13.000000,-0.680062,-1.515962,-1.943184,-1.188338,1.605855,0.860172,0.119719,0.011646,-0.213442,-0.045341,-0.000435,0.242500,-0.246843,-0.024013,0.440087,0.093488,0.000898,-0.500000,0.387992,-0.532517,0.505557,-0.015839,0.999195,-0.007332,0.036134
13.100000,-0.669304,-1.514915,-1.962363,-1.192412,1.605816,0.881962,0.095035,0.009245,-0.169433,-0.035993,-0.000346,0.192500,-0.246843,-0.024013,0.440087,0.093488,0.000898,-0.500000,0.388673,-0.524342,0.492909,-0.010135,0.999568,0.000216,0.027604
13.200000,-0.661015,-1.514109,-1.977140,-1.195552,1.605785,0.898752,0.070350,0.006844,-0.125425,-0.026644,-0.000256,0.142500,-0.246843,-0.024013,0.440087,0.093488,0.000898,-0.500000,0.388979,-0.517976,0.483243,-0.005737,0.999749,0.005840,0.020869
13.300000,-0.655195,-1.513543,-1.987518,-1.197756,1.605764,0.910542,0.045666,0.004442,-0.081416,-0.017295,-0.000166,0.092500,-0.246843,-0.024013,0.440087,0.093488,0.000898,-0.500000,0.389080,-0.513472,0.476497,-0.002648,0.999821,0.009688,0.016057
13.400000,-0.651843,-1.513217,-1.993494,-1.199026,1.605752,0.917332,0.020982,0.002041,-0.037407,-0.007946,-0.000076,0.042500,-0.246843,-0.024013,0.440087,0.093488,0.000898,-0.500000,0.389096,-0.510867,0.472628,-0.000869,0.999841,0.011865,0.013256
13.485797,-0.650934,-1.513128,-1.995114,-1.199370,1.605749,0.919172,0.000000,0.000000,-0.000000,-0.000000,-0.000000,0.000000,-0.246843,-0.024013,0.440087,0.093488,0.000898,-0.500000,0.389095,-0.510160,0.471582,-0.000387,0.999844,0.012450,0.012493
