mathias31415/motion_primitives_from_planned_trajectory/data/trajectory_20250701_085217_executed.csv
timestamp,shoulder_lift_joint_pos,elbow_joint_pos,wrist_1_joint_pos,wrist_2_joint_pos,wrist_3_joint_pos,shoulder_pan_joint_pos,shoulder_lift_joint_vel,elbow_joint_vel,wrist_1_joint_vel,wrist_2_joint_vel,wrist_3_joint_vel,shoulder_pan_joint_vel,shoulder_lift_joint_eff,elbow_joint_eff,wrist_1_joint_eff,wrist_2_joint_eff,wrist_3_joint_eff,shoulder_pan_joint_eff
1751352763.381473541,-1.821519000,-1.195870000,-1.728311000,1.583009000,-0.437827000,-2.007661000,0.000000000,0.000000000,0.000000000,0.000000000,0.000000000,0.000000000,5.183430651,4.258911032,0.299857931,0.001007635,0.000000000,0.000000000
1751352763.383903503,-1.821519000,-1.195870000,-1.728311000,1.583009000,-0.437827000,-2.007661000,0.000000000,0.000000000,0.000000000,0.000000000,0.000000000,0.000000000,5.183430651,4.258911032,0.299857931,0.001007635,0.000000000,0.000000000
1751352763.385148764,-1.821519000,-1.195870000,-1.728311000,1.583009000,-0.437827000,-2.007661000,0.000000000,0.000000000,0.000000000,0.000000000,0.000000000,0.000000000,5.183430651,4.258911032,0.299857931,0.001007635,0.000000000,0.000000000
1751352763.387265682,-1.821519000,-1.195870000,-1.728311000,1.583009000,-0.437827000,-2.007661000,0.000000000,0.000000000,0.000000000,0.000000000,0.000000000,0.000000000,5.183430651,4.258911032,0.299857931,0.001007635,0.000000000,0.000000000
1751352763.389477730,-1.821519000,-1.195870000,-1.728311000,1.583009000,-0.437827000,-2.007661000,0.000000000,0.000000000,0.000000000,0.000000000,0.000000000,0.000000000,5.183430651,4.258911032,0.299857931,0.001007635,0.000000000,0.000000000
1751352763.391339064,-1.821519000,-1.195870000,-1.728311000,1.583009000,-0.437827000,-2.007661000,0.000000000,0.000000000,0.000000000,0.000000000,0.000000000,0.000000000,5.183430651,4.258911032,0.299857931,0.001007635,0.000000000,0.000000000
1751352763.393479109,-1.821519000,-1.195870000,-1.728311000,1.583009000,-0.437827000,-2.007661000,0.000000000,0.000000000,0.000000000,0.000000000,0.000000000,0.000000000,5.183430651,4.258911032,0.299857931,0.001007635,0.000000000,0.000000000
1751352763.395338535,-1.821519000,-1.195870000,-1.728311000,1.583009000,-0.437827000,-2.007661000,0.000000000,0.000000000,0.000000000,0.000000000,0.000000000,0.000000000,5.183430651,4.258911032,0.299857931,0.001007635,0.000000000,0.000000000
1751352763.397331476,-1.821519000,-1.195870000,-1.728311000,1.583009000,-0.437827000,-2.007661000,0.000000000,0.000000000,0.000000000,0.000000000,0.000000000,0.000000000,5.183430651,4.258911032,0.299857931,0.001007635,0.000000000,0.000000000
1751352763.399435997,-1.821519000,-1.195870000,-1.728311000,1.583009000,-0.437827000,-2.007661000,0.000000000,0.000000000,0.000000000,0.000000000,0.000000000,0.000000000,5.183430651,4.258911032,0.299857931,0.001007635,0.000000000,0.000000000
1751352763.401431561,-1.821519000,-1.195870000,-1.728311000,1.583009000,-0.437827000,-2.007661000,0.000000000,0.000000000,0.000000000,0.000000000,0.000000000,0.000000000,5.183430651,4.258911032,0.299857931,0.001007635,0.000000000,0.000000000
1751352763.403489590,-1.821519000,-1.195870000,-1.728311000,1.583009000,-0.437827000,-2.007661000,0.000000000,0.000000000,0.000000000,0.000000000,0.000000000,0.000000000,5.183430651,4.258911032,0.299857931,0.001007635,0.000000000,0.000000000
1751352763.409335852,-1.821519000,-1.195870000,-1.728311000,1.583009000,-0.437827000,-2.007661000,0.000000000,0.000000000,0.000000000,0.000000000,0.000000000,0.000000000,5.183430651,4.258911032,0.299857931,0.001007635,0.000000000,0.000000000
1751352763.411507607,-1.821519000,-1.195870000,-1.728311000,1.583009000,-0.437827000,-2.007661000,0.000000000,0.000000000,0.000000000,0.000000000,0.000000000,0.000000000,5.183430651,4.258911032,0.299857931,0.001007635,0.000000000,0.000000000
1751352763.412366152,-1.821519000,-1.195870000,-1.728311000,1.583009000,-0.437827000,-2.007661000,0.000000000,0.000000000,0.000000000,0.000000000,0.000000000,0.000000000,5.183430651,4.258911032,0.299857931,0.001007635,0.000000000,0.000000000
1751352763.415228128,-1.821519000,-1.195870000,-1.728311000,1.583009000,-0.437827000,-2.007661000,0.000000000,0.000000000,0.000000000,0.000000000,0.000000000,0.000000000,5.183430651,4.258911032,0.299857931,0.001007635,0.000000000,0.000000000
1751352763.415516376,-1.821519000,-1.195870000,-1.728311000,1.583009000,-0.437827000,-2.007661000,0.000000000,0.000000000,0.000000000,0.000000000,0.000000000,0.000000000,5.183430651,4.258911032,0.299857931,0.001007635,0.000000000,0.000000000
1751352763.419586897,-1.821519000,-1.195870000,-1.728311000,1.583009000,-0.437827000,-2.007661000,0.000000000,0.000000000,0.000000000,0.000000000,0.000000000,0.000000000,5.183430651,4.258911032,0.299857931,0.001007635,0.000000000,0.000000000
1751352763.419897795,-1.821519000,-1.195870000,-1.728311000,1.583009000,-0.437827000,-2.007661000,0.000000000,0.000000000,0.000000000,0.000000000,0.000000000,0.000000000,5.183430651,4.258911032,0.299857931,0.001007635,0.000000000,0.000000000
1751352763.423190832,-1.821519000,-1.195870000,-1.728311000,1.583009000,-0.437827000,-2.007661000,0.000000000,0.000000000,0.000000000,0.000000000,0.000000000,0.000000000,5.183430651,4.258911032,0.299857931,0.001007635,0.000000000,0.000000000
1751352763.423780203,-1.821519000,-1.195870000,-1.728311000,1.583009000,-0.437827000,-2.007661000,0.000000000,0.000000000,0.000000000,0.000000000,0.000000000,0.000000000,5.183430651,4.258911032,0.299857931,0.001007635,0.000000000,0.000000000
1751352763.426379442,-1.821519000,-1.195870000,-1.728311000,1.583009000,-0.437827000,-2.007661000,0.000000000,0.000000000,0.000000000,0.000000000,0.000000000,0.000000000,5.183430651,4.258911032,0.299857931,0.001007635,0.000000000,0.000000000
1751352763.427660227,-1.821519000,-1.195870000,-1.728311000,1.583009000,-0.437827000,-2.007661000,0.000000000,0.000000000,0.000000000,0.000000000,0.000000000,0.000000000,5.183430651,4.258911032,0.299857931,0.001007635,0.000000000,0.000000000
1751352763.429216623,-1.821519000,-1.195870000,-1.728311000,1.583009000,-0.437827000,-2.007661000,0.000000000,0.000000000,0.000000000,0.000000000,0.000000000,0.000000000,5.183430651,4.258911032,0.299857931,0.001007635,0.000000000,0.000000000
1751352763.431389332,-1.821519000,-1.195870000,-1.728311000,1.583009000,-0.437827000,-2.007661000,0.000000000,0.000000000,0.000000000,0.000000000,0.000000000,0.000000000,5.183430651,4.258911032,0.299857931,0.001007635,0.000000000,0.000000000
1751352763.433556795,-1.821519000,-1.195870000,-1.728311000,1.583009000,-0.437827000,-2.007661000,0.000000000,0.000000000,0.000000000,0.000000000,0.000000000,0.000000000,5.183430651,4.258911032,0.299857931,0.001007635,0.000000000,0.000000000
1751352763.437231541,-1.821519000,-1.195870000,-1.728311000,1.583009000,-0.437827000,-2.007661000,0.000000000,0.000000000,0.000000000,0.000000000,0.000000000,0.000000000,5.183430651,4.258911032,0.299857931,0.001007635,0.000000000,0.000000000
1751352763.437370777,-1.821519000,-1.195870000,-1.728311000,1.583009000,-0.437827000,-2.007661000,0.000000000,0.000000000,0.000000000,0.000000000,0.000000000,0.000000000,5.183430651,4.258911032,0.299857931,0.001007635,0.000000000,0.000000000
1751352763.439388752,-1.821519000,-1.195870000,-1.728311000,1.583009000,-0.437827000,-2.007661000,0.000000000,0.000000000,0.000000000,0.000000000,0.000000000,0.000000000,5.183430651,4.258911032,0.299857931,0.001007635,0.000000000,0.000000000
1751352763.441361904,-1.821519000,-1.195870000,-1.728311000,1.583009000,-0.437827000,-2.007661000,0.000000000,0.000000000,0.000000000,0.000000000,0.000000000,0.000000000,5.183430651,4.258911032,0.299857931,0.001007635,0.000000000,0.000000000
1751352763.443190098,-1.821519000,-1.195870000,-1.728311000,1.583009000,-0.437827000,-2.007661000,0.000000000,0.000000000,0.000000000,0.000000000,0.000000000,0.000000000,5.183430651,4.258911032,0.299857931,0.001007635,0.000000000,0.000000000
1751352763.445276737,-1.821519000,-1.195870000,-1.728311000,1.583009000,-0.437827000,-2.007661000,0.000000000,0.000000000,0.000000000,0.000000000,0.000000000,0.000000000,5.183430651,4.258911032,0.299857931,0.001007635,0.000000000,0.000000000
1751352763.447187901,-1.821518805,-1.195869420,-1.728311163,1.583008925,-0.437826000,-2.007661641,0.000195121,0.000579620,-0.000162998,-0.000074565,0.001000000,-0.000640658,5.421185098,4.428178946,0.302393620,-0.003330546,0.028195874,-0.298395259
1751352763.449193001,-1.821518220,-1.195867682,-1.728311652,1.583008702,-0.437823000,-2.007663563,0.000390242,0.001159240,-0.000325995,-0.000149130,0.002000000,-0.001281316,5.421181411,4.428178079,0.302393769,-0.003330559,0.028195874,-0.298394941
1751352763.451105118,-1.821517244,-1.195864783,-1.728312467,1.583008329,-0.437818000,-2.007666766,0.000585363,0.001738860,-0.000488993,-0.000223695,0.003000000,-0.001921975,5.421175266,4.428176633,0.302394016,-0.003330579,0.028195874,-0.298394411
1751352763.454148531,-1.821515878,-1.195860726,-1.728313608,1.583007807,-0.437811000,-2.007671251,0.000780484,0.002318481,-0.000651990,-0.000298260,0.004000000,-0.002562633,5.421166662,4.428174608,0.302394362,-0.003330608,0.028195874,-0.298393668
1751352763.455142736,-1.821514122,-1.195855509,-1.728315075,1.583007136,-0.437802000,-2.007677016,0.000975605,0.002898101,-0.000814988,-0.000372825,0.005000000,-0.003203291,5.421155600,4.428172005,0.302394807,-0.003330644,0.028195874,-0.298392714
1751352763.457253218,-1.821511976,-1.195849134,-1.728316868,1.583006316,-0.437791000,-2.007684064,0.001170726,0.003477721,-0.000977986,-0.000447390,0.006000000,-0.003843949,5.421142079,4.428168823,0.302395351,-0.003330689,0.028195875,-0.298391547
1751352763.459146976,-1.821509439,-1.195841599,-1.728318987,1.583005346,-0.437778000,-2.007692392,0.001365847,0.004057341,-0.001140983,-0.000521955,0.007000000,-0.004484607,5.421126099,4.428165062,0.302395995,-0.003330742,0.028195875,-0.298390168
1751352763.461325407,-1.821506512,-1.195832904,-1.728321432,1.583004228,-0.437763000,-2.007702002,0.001560968,0.004636961,-0.001303981,-0.000596520,0.008000000,-0.005125266,5.421107661,4.428160723,0.302396736,-0.003330804,0.028195875,-0.298388577
1751352763.463167429,-1.821503195,-1.195823051,-1.728324203,1.583002960,-0.437746000,-2.007712893,0.001756089,0.005216581,-0.001466978,-0.000671085,0.009000000,-0.005765924,5.421086764,4.428155803,0.302397577,-0.003330873,0.028195875,-0.298386774
1751352763.465551138,-1.821503195,-1.195823051,-1.728324203,1.583002960,-0.437746000,-2.007712893,0.001756089,0.005216581,-0.001466978,-0.000671085,0.009000000,-0.005765924,5.421086764,4.428155803,0.302397577,-0.003330873,0.028195875,-0.298386774
1751352763.467462301,-1.821499488,-1.195812038,-1.728327300,1.583001544,-0.437727000,-2.007725066,0.001951210,0.005796201,-0.001629976,-0.000745650,0.010000000,-0.006406582,5.421063408,4.428150305,0.302398517,-0.003330951,0.028195875,-0.298384758
1751352763.469688654,-1.821495390,-1.195799866,-1.728330723,1.582999978,-0.437706000,-2.007738520,0.002146330,0.006375821,-0.001792974,-0.000820215,0.011000000,-0.007047240,5.421037592,4.428144227,0.302399556,-0.003331037,0.028195875,-0.298382530
1751352763.471233368,-1.821490903,-1.195786535,-1.728334472,1.582998263,-0.437683000,-2.007753255,0.002341451,0.006955442,-0.001955971,-0.000894780,0.012000000,-0.007687898,5.421009317,4.428137568,0.302400693,-0.003331131,0.028195875,-0.298380089
1751352763.473195791,-1.821486025,-1.195772044,-1.728338547,1.582996399,-0.437658000,-2.007769271,0.002536572,0.007535062,-0.002118969,-0.000969345,0.013000000,-0.008328557,5.420978581,4.428130329,0.302401930,-0.003331233,0.028195875,-0.298377436
1751352763.475137711,-1.821480756,-1.195756394,-1.728342948,1.582994385,-0.437631000,-2.007786569,0.002731693,0.008114682,-0.002281966,-0.001043910,0.014000000,-0.008969215,5.420945386,4.428122510,0.302403265,-0.003331343,0.028195875,-0.298374570
1751352763.477274179,-1.821475098,-1.195739585,-1.728347674,1.582992223,-0.437602000,-2.007805148,0.002926814,0.008694302,-0.002444964,-0.001118475,0.015000000,-0.009609873,5.420909729,4.428114110,0.302404699,-0.003331461,0.028195875,-0.298371492
1751352763.488043070,-1.821448561,-1.195660757,-1.728369842,1.582982082,-0.437466000,-2.007892278,0.003707298,0.011012783,-0.003096954,-0.001416735,0.019000000,-0.012172506,5.420742491,4.428074688,0.302411422,-0.003332017,0.028195875,-0.298357051
1751352763.488094807,-1.821440952,-1.195638152,-1.728376199,1.582979174,-0.437427000,-2.007917263,0.003902419,0.011592403,-0.003259952,-0.001491300,0.020000000,-0.012813164,5.420694525,4.428063376,0.302413350,-0.003332176,0.028195876,-0.298352908
1751352763.489221811,-1.821432952,-1.195614388,-1.728382882,1.582976117,-0.437386000,-2.007943530,0.004097540,0.012172023,-0.003422950,-0.001565865,0.021000000,-0.013453822,5.420644097,4.428051480,0.302415377,-0.003332343,0.028195876,-0.298348553
1751352763.492660761,-1.821424561,-1.195589464,-1.728389891,1.582972911,-0.437343000,-2.007971079,0.004292661,0.012751643,-0.003585947,-0.001640430,0.022000000,-0.014094480,5.420591205,4.428038999,0.302417502,-0.003332519,0.028195876,-0.298343983
1751352763.493321180,-1.821415781,-1.195563381,-1.728397226,1.582969555,-0.437298000,-2.007999908,0.004487782,0.013331263,-0.003748945,-0.001714995,0.023000000,-0.014735139,5.420535849,4.428025934,0.302419726,-0.003332703,0.028195876,-0.298339201
1751352763.495718479,-1.821406610,-1.195536139,-1.728404887,1.582966051,-0.437251000,-2.008030019,0.004682903,0.013910883,-0.003911942,-0.001789560,0.024000000,-0.015375797,5.420478028,4.428012282,0.302422048,-0.003332895,0.028195876,-0.298334204
1751352763.497295141,-1.821397049,-1.195507737,-1.728412873,1.582962397,-0.437202000,-2.008061411,0.004878024,0.014490503,-0.004074940,-0.001864125,0.025000000,-0.016016455,5.420417742,4.427998045,0.302424469,-0.003333095,0.028195876,-0.298328995
1751352763.499238253,-1.821387098,-1.195478177,-1.728421186,1.582958594,-0.437151000,-2.008094085,0.005073145,0.015070124,-0.004237937,-0.001938690,0.026000000,-0.016657113,5.420354990,4.427983220,0.302426989,-0.003333303,0.028195876,-0.298323571
1751352763.501179457,-1.821376757,-1.195447457,-1.728429825,1.582954642,-0.437098000,-2.008128040,0.005268266,0.015649744,-0.004400935,-0.002013255,0.027000000,-0.017297771,5.420289771,4.427967808,0.302429607,-0.003333519,0.028195877,-0.298317933
1751352763.503169298,-1.821366025,-1.195415578,-1.728438790,1.582950541,-0.437043000,-2.008163276,0.005463387,0.016229364,-0.004563933,-0.002087820,0.028000000,-0.017938430,5.420222085,4.427951808,0.302432323,-0.003333743,0.028195877,-0.298312081
1751352763.505432844,-1.821354903,-1.195382539,-1.728448081,1.582946291,-0.436986000,-2.008199794,0.005658508,0.016808984,-0.004726930,-0.002162385,0.029000000,-0.018579088,5.420151932,4.427935218,0.302435138,-0.003333976,0.028195877,-0.298306015
1751352763.508449554,-1.821354903,-1.195382539,-1.728448081,1.582946291,-0.436986000,-2.008199794,0.005658508,0.016808984,-0.004726930,-0.002162385,0.029000000,-0.018579088,5.420151932,4.427935218,0.302435138,-0.003333976,0.028195877,-0.298306015
1751352763.509080887,-1.821331489,-1.195312985,-1.728467641,1.582937343,-0.436866000,-2.008276673,0.006048749,0.017968224,-0.005052925,-0.002311515,0.031000000,-0.019860404,5.420004218,4.427900269,0.302441064,-0.003334465,0.028195877,-0.298293240
1751352763.511173725,-1.821319196,-1.195276469,-1.728477910,1.582932645,-0.436803000,-2.008317034,0.006243870,0.018547844,-0.005215923,-0.002386080,0.032000000,-0.020501062,5.419926656,4.427881907,0.302444174,-0.003334722,0.028195877,-0.298286530
1751352763.513150692,-1.821306513,-1.195238794,-1.728488504,1.582927799,-0.436738000,-2.008358677,0.006438991,0.019127464,-0.005378921,-0.002460645,0.033000000,-0.021141721,5.419846624,4.427862953,0.302447383,-0.003334987,0.028195878,-0.298279606
1751352763.515139103,-1.821293440,-1.195199959,-1.728499425,1.582922803,-0.436671000,-2.008401601,0.006634112,0.019707085,-0.005541918,-0.002535210,0.034000000,-0.021782379,5.419764120,4.427843405,0.302450689,-0.003335260,0.028195878,-0.298272466
1751352763.517167330,-1.821279977,-1.195159965,-1.728510672,1.582917658,-0.436602000,-2.008445806,0.006829233,0.020286705,-0.005704916,-0.002609775,0.035000000,-0.022423037,5.419679143,4.427823264,0.302454094,-0.003335541,0.028195878,-0.298265111
1751352763.519326687,-1.821279977,-1.195159965,-1.728510672,1.582917658,-0.436602000,-2.008445806,0.006829233,0.020286705,-0.005704916,-0.002609775,0.035000000,-0.022423037,5.419679143,4.427823264,0.302454094,-0.003335541,0.028195878,-0.298265111
1751352763.521389246,-1.821266123,-1.195118812,-1.728522245,1.582912364,-0.436531000,-2.008491293,0.007024354,0.020866325,-0.005867913,-0.002684340,0.036000000,-0.023063695,5.419591693,4.427802527,0.302457598,-0.003335831,0.028195878,-0.298257541
1751352763.523169756,-1.821251879,-1.195076500,-1.728534144,1.582906921,-0.436458000,-2.008538061,0.007219475,0.021445945,-0.006030911,-0.002758904,0.037000000,-0.023704353,5.419501769,4.427781194,0.302461199,-0.003336128,0.028195878,-0.298249755
1751352763.525238276,-1.821237245,-1.195033029,-1.728546369,1.582901328,-0.436383000,-2.008586110,0.007414596,0.022025565,-0.006193909,-0.002833469,0.038000000,-0.024345012,5.419409370,4.427759264,0.302464899,-0.003336434,0.028195879,-0.298241753
1751352763.527217388,-1.821222221,-1.194988398,-1.728558919,1.582895587,-0.436306000,-2.008635441,0.007609717,0.022605185,-0.006356906,-0.002908034,0.039000000,-0.024985670,5.419314495,4.427736736,0.302468696,-0.003336747,0.028195879,-0.298233535
1751352763.529188395,-1.821206806,-1.194942608,-1.728571796,1.582889696,-0.436227000,-2.008686053,0.007804838,0.023184805,-0.006519904,-0.002982599,0.040000000,-0.025626328,5.419217143,4.427713609,0.302472592,-0.003337069,0.028195879,-0.298225101
1751352763.531194210,-1.821191002,-1.194895659,-1.728584999,1.582883656,-0.436146000,-2.008737946,0.007999959,0.023764426,-0.006682901,-0.003057164,0.041000000,-0.026266986,5.419117312,4.427689881,0.302476585,-0.003337399,0.028195879,-0.298216450
1751352763.533835173,-1.821174807,-1.194847550,-1.728598528,1.582877467,-0.436063000,-2.008791121,0.008195080,0.024344046,-0.006845899,-0.003131729,0.042000000,-0.026907645,5.419015003,4.427665552,0.302480677,-0.003337737,0.028195880,-0.298207582
1751352763.535040855,-1.821158221,-1.194798282,-1.728612383,1.582871129,-0.435978000,-2.008845577,0.008390201,0.024923666,-0.007008897,-0.003206294,0.043000000,-0.027548303,5.418910214,4.427640621,0.302484866,-0.003338083,0.028195880,-0.298198498
1751352763.537077427,-1.821141246,-1.194747855,-1.728626563,1.582864642,-0.435891000,-2.008901314,0.008585322,0.025503286,-0.007171894,-0.003280859,0.044000000,-0.028188961,5.418802944,4.427615085,0.302489153,-0.003338437,0.028195880,-0.298189197
1751352763.539101362,-1.821123880,-1.194696269,-1.728641070,1.582858006,-0.435802000,-2.008958333,0.008780443,0.026082906,-0.007334892,-0.003355424,0.045000000,-0.028829619,5.418693192,4.427588945,0.302493538,-0.003338799,0.028195880,-0.298179678
1751352763.549227953,-1.821106124,-1.194643524,-1.728655903,1.582851220,-0.435711000,-2.009016633,0.008975564,0.026662526,-0.007497889,-0.003429989,0.046000000,-0.029470277,5.418580956,4.427562199,0.302498021,-0.003339169,0.028195881,-0.298169941
1751352763.549350500,-1.821031198,-1.194420950,-1.728718494,1.582822588,-0.435327000,-2.009262646,0.009756048,0.028981007,-0.008149880,-0.003728249,0.050000000,-0.032032910,5.418107160,4.427449128,0.302516927,-0.003340730,0.028195882,-0.298128814
1751352763.551451445,-1.821011490,-1.194362408,-1.728734957,1.582815056,-0.435226000,-2.009327352,0.009951168,0.029560627,-0.008312877,-0.003802814,0.051000000,-0.032673568,5.417982491,4.427419332,0.302521897,-0.003341141,0.028195882,-0.298117985
1751352763.553134441,-1.820991393,-1.194302707,-1.728751745,1.582807376,-0.435123000,-2.009393340,0.010146289,0.030140247,-0.008475875,-0.003877379,0.052000000,-0.033314227,5.417855332,4.427388922,0.302526965,-0.003341559,0.028195882,-0.298106937
1751352763.555135489,-1.820970905,-1.194241847,-1.728768860,1.582799547,-0.435018000,-2.009460609,0.010341410,0.030719867,-0.008638873,-0.003951944,0.053000000,-0.033954885,5.417725681,4.427357897,0.302532129,-0.003341986,0.028195883,-0.298095670
1751352763.557096243,-1.820950027,-1.194179828,-1.728786301,1.582791569,-0.434911000,-2.009529159,0.010536531,0.031299487,-0.008801870,-0.004026509,0.054000000,-0.034595543,5.417593537,4.427326255,0.302537392,-0.003342420,0.028195883,-0.298084183
1751352763.560541391,-1.820928759,-1.194116649,-1.728804068,1.582783441,-0.434802000,-2.009598991,0.010731652,0.031879107,-0.008964868,-0.004101074,0.055000000,-0.035236201,5.417458899,4.427293995,0.302542751,-0.003342863,0.028195883,-0.298072476
1751352763.561156750,-1.820907101,-1.194052311,-1.728822160,1.582775164,-0.434691000,-2.009670104,0.010926773,0.032458728,-0.009127865,-0.004175639,0.056000000,-0.035876859,5.417321766,4.427261115,0.302548207,-0.003343313,0.028195884,-0.298060548
1751352763.563369751,-1.820885052,-1.193986814,-1.728840579,1.582766738,-0.434578000,-2.009742498,0.011121894,0.033038348,-0.009290863,-0.004250204,0.057000000,-0.036517518,5.417182135,4.427227613,0.302553761,-0.003343772,0.028195884,-0.298048400
1751352763.565284967,-1.820862613,-1.193920158,-1.728859324,1.582758163,-0.434463000,-2.009816174,0.011317015,0.033617968,-0.009453861,-0.004324769,0.058000000,-0.037158176,5.417040007,4.427193489,0.302559411,-0.003344239,0.028195884,-0.298036031
1751352763.567183018,-1.820839784,-1.193852342,-1.728878395,1.582749439,-0.434346000,-2.009891131,0.011512136,0.034197588,-0.009616858,-0.004399334,0.059000000,-0.037798834,5.416895378,4.427158740,0.302565158,-0.003344713,0.028195885,-0.298023440
1751352763.569123268,-1.820816565,-1.193783368,-1.728897791,1.582740566,-0.434227000,-2.009967370,0.011707257,0.034777208,-0.009779856,-0.004473899,0.060000000,-0.038439492,5.416748249,4.427123366,0.302571002,-0.003345196,0.028195885,-0.298010628
1751352763.571117163,-1.820792955,-1.193713233,-1.728917514,1.582731544,-0.434106000,-2.010044889,0.011902378,0.035356828,-0.009942853,-0.004548464,0.061000000,-0.039080150,5.416598616,4.427087363,0.302576943,-0.003345686,0.028195885,-0.297997594
1751352763.573147297,-1.820768955,-1.193641940,-1.728937563,1.582722372,-0.433983000,-2.010123690,0.012097499,0.035936448,-0.010105851,-0.004623029,0.062000000,-0.039720809,5.416446480,4.427050732,0.302582981,-0.003346185,0.028195886,-0.297984338
1751352763.575250149,-1.820744565,-1.193569488,-1.728957937,1.582713052,-0.433858000,-2.010203772,0.012292620,0.036516069,-0.010268849,-0.004697594,0.063000000,-0.040361467,5.416291837,4.427013469,0.302589115,-0.003346691,0.028195886,-0.297970859
1751352763.577297211,-1.820744565,-1.193569488,-1.728957937,1.582713052,-0.433858000,-2.010203772,0.012292620,0.036516069,-0.010268849,-0.004697594,0.063000000,-0.040361467,5.416291837,4.427013469,0.302589115,-0.003346691,0.028195886,-0.297970859
1751352763.579222441,-1.820719785,-1.193495876,-1.728978638,1.582703582,-0.433731000,-2.010285136,0.012487741,0.037095689,-0.010431846,-0.004772159,0.064000000,-0.041002125,5.416134688,4.426975574,0.302595345,-0.003347206,0.028195886,-0.297957157
1751352763.581366539,-1.820694614,-1.193421105,-1.728999665,1.582693963,-0.433602000,-2.010367781,0.012682862,0.037675309,-0.010594844,-0.004846724,0.065000000,-0.041642783,5.415975030,4.426937044,0.302601672,-0.003347728,0.028195887,-0.297943232
1751352763.583398819,-1.820669053,-1.193345175,-1.729021018,1.582684195,-0.433471000,-2.010451707,0.012877983,0.038254929,-0.010757841,-0.004921289,0.066000000,-0.042283441,5.415812861,4.426897878,0.302608096,-0.003348258,0.028195887,-0.297929083
1751352763.585295200,-1.820643102,-1.193268085,-1.729042696,1.582674278,-0.433338000,-2.010536915,0.013073104,0.038834549,-0.010920839,-0.004995854,0.067000000,-0.042924100,5.415648180,4.426858074,0.302614615,-0.003348797,0.028195887,-0.297914711
1751352763.587133408,-1.820616761,-1.193189836,-1.729064701,1.582664212,-0.433203000,-2.010623404,0.013268225,0.039414169,-0.011083837,-0.005070419,0.068000000,-0.043564758,5.415480986,4.426817631,0.302621231,-0.003349343,0.028195888,-0.297900113
1751352763.589243174,-1.820590029,-1.193110429,-1.729087032,1.582653996,-0.433066000,-2.010711174,0.013463346,0.039993789,-0.011246834,-0.005144984,0.069000000,-0.044205416,5.415311276,4.426776545,0.302627943,-0.003349897,0.028195888,-0.297885292
1751352763.597039461,-1.820562907,-1.193029861,-1.729109688,1.582643632,-0.432927000,-2.010800225,0.013658467,0.040573409,-0.011409832,-0.005219549,0.070000000,-0.044846074,5.415139050,4.426734816,0.302634751,-0.003350459,0.028195889,-0.297870245
1751352763.597221851,-1.820507493,-1.192865249,-1.729155980,1.582622455,-0.432643000,-2.010982172,0.014048708,0.041732650,-0.011735827,-0.005368679,0.072000000,-0.046127391,5.414787038,4.426649420,0.302648655,-0.003351607,0.028195889,-0.297839474
1751352763.599846125,-1.820450518,-1.192696000,-1.729203575,1.582600682,-0.432351000,-2.011169244,0.014438950,0.042891890,-0.012061822,-0.005517809,0.074000000,-0.047408707,5.414424938,4.426561427,0.302662942,-0.003352786,0.028195890,-0.297807798
1751352763.601341963,-1.820421445,-1.192609637,-1.729227861,1.582589572,-0.432202000,-2.011264702,0.014634071,0.043471510,-0.012224820,-0.005592374,0.075000000,-0.048049365,5.414240100,4.426516452,0.302670229,-0.003353388,0.028195891,-0.297791620
1751352763.603139162,-1.820391981,-1.192522114,-1.729252474,1.582578313,-0.432051000,-2.011361442,0.014829192,0.044051130,-0.012387817,-0.005666939,0.076000000,-0.048690023,5.414052734,4.426470821,0.302677611,-0.003353997,0.028195891,-0.297775215
1751352763.605213881,-1.820362128,-1.192433432,-1.729277413,1.582566904,-0.431898000,-2.011459462,0.015024313,0.044630750,-0.012550815,-0.005741504,0.077000000,-0.049330682,5.413862839,4.426424532,0.302685089,-0.003354614,0.028195891,-0.297758581
1751352763.607154608,-1.820331884,-1.192343591,-1.729302677,1.582555347,-0.431743000,-2.011558765,0.015219434,0.045210371,-0.012713812,-0.005816069,0.078000000,-0.049971340,5.413670412,4.426377584,0.302692662,-0.003355239,0.028195892,-0.297741719
1751352763.609221935,-1.820301250,-1.192252591,-1.729328268,1.582543640,-0.431586000,-2.011659348,0.015414555,0.045789991,-0.012876810,-0.005890634,0.079000000,-0.050611998,5.413475452,4.426329975,0.302700331,-0.003355872,0.028195892,-0.297724629
1751352763.611622572,-1.820270226,-1.192160431,-1.729354185,1.582531784,-0.431427000,-2.011761212,0.015609676,0.046369611,-0.013039808,-0.005965199,0.080000000,-0.051252656,5.413277956,4.426281702,0.302708094,-0.003356513,0.028195893,-0.297707309
1751352763.613281250,-1.820238811,-1.192067112,-1.729380427,1.582519779,-0.431266000,-2.011864358,0.015804797,0.046949231,-0.013202805,-0.006039764,0.081000000,-0.051893314,5.413077923,4.426232762,0.302715953,-0.003357162,0.028195893,-0.297689760
1751352763.615182877,-1.820207007,-1.191972634,-1.729406996,1.582507625,-0.431103000,-2.011968786,0.015999918,0.047528851,-0.013365803,-0.006114329,0.082000000,-0.052533973,5.412875351,4.426183155,0.302723906,-0.003357818,0.028195894,-0.297671981
1751352763.617210627,-1.820174812,-1.191876997,-1.729433890,1.582495322,-0.430938000,-2.012074494,0.016195039,0.048108471,-0.013528800,-0.006188894,0.083000000,-0.053174631,5.412670238,4.426132877,0.302731955,-0.003358483,0.028195894,-0.297653972
1751352763.619218111,-1.820142227,-1.191780200,-1.729461111,1.582482869,-0.430771000,-2.012181484,0.016390160,0.048688091,-0.013691798,-0.006263459,0.084000000,-0.053815289,5.412462581,4.426081927,0.302740098,-0.003359155,0.028195895,-0.297635731
1751352763.621217251,-1.820109251,-1.191682245,-1.729488658,1.582470268,-0.430602000,-2.012289756,0.016585281,0.049267711,-0.013854796,-0.006338024,0.085000000,-0.054455947,5.412252379,4.426030302,0.302748335,-0.003359834,0.028195895,-0.297617260
1751352763.623226166,-1.820075885,-1.191583129,-1.729516530,1.582457517,-0.430431000,-2.012399308,0.016780402,0.049847332,-0.014017793,-0.006412589,0.086000000,-0.055096605,5.412039629,4.425977999,0.302756668,-0.003360522,0.028195896,-0.297598556
1751352763.625189543,-1.820042130,-1.191482855,-1.729544729,1.582444618,-0.430258000,-2.012510142,0.016975523,0.050426952,-0.014180791,-0.006487154,0.087000000,-0.055737264,5.411824330,4.425925017,0.302765094,-0.003361218,0.028195896,-0.297579620
1751352763.627178431,-1.820007983,-1.191381422,-1.729573253,1.582431569,-0.430083000,-2.012622257,0.017170644,0.051006572,-0.014343788,-0.006561719,0.088000000,-0.056377922,5.411606479,4.425871353,0.302773615,-0.003361921,0.028195897,-0.297560452
1751352763.629192114,-1.819973447,-1.191278829,-1.729602104,1.582418371,-0.429906000,-2.012735654,0.017365765,0.051586192,-0.014506786,-0.006636284,0.089000000,-0.057018580,5.411386074,4.425817005,0.302782230,-0.003362632,0.028195897,-0.297541050
1751352763.631175518,-1.819938520,-1.191175077,-1.729631281,1.582405024,-0.429727000,-2.012850331,0.017560886,0.052165812,-0.014669784,-0.006710849,0.090000000,-0.057659238,5.411163113,4.425761969,0.302790940,-0.003363350,0.028195898,-0.297521415
1751352763.633297920,-1.819938520,-1.191175077,-1.729631281,1.582405024,-0.429727000,-2.012850331,0.017560886,0.052165812,-0.014669784,-0.006710849,0.090000000,-0.057659238,5.411163113,4.425761969,0.302790940,-0.003363350,0.028195898,-0.297521415
1751352763.635210991,-1.819903203,-1.191070166,-1.729660783,1.582391527,-0.429546000,-2.012966291,0.017756006,0.052745432,-0.014832781,-0.006785414,0.091000000,-0.058299896,5.410937594,4.425706245,0.302799743,-0.003364077,0.028195898,-0.297501545
1751352763.641103983,-1.819867496,-1.190964095,-1.729690612,1.582377882,-0.429363000,-2.013083531,0.017951127,0.053325052,-0.014995779,-0.006859979,0.092000000,-0.058940555,5.410709514,4.425649829,0.302808640,-0.003364811,0.028195899,-0.297481441
1751352763.641174793,-1.819794911,-1.190748476,-1.729751247,1.582350144,-0.428991000,-2.013321856,0.018341369,0.054484293,-0.015321774,-0.007009109,0.094000000,-0.060221871,5.410245663,4.425534912,0.302826716,-0.003366303,0.028195900,-0.297440527
1751352763.643184423,-1.819794911,-1.190748476,-1.729751247,1.582350144,-0.428991000,-2.013321856,0.018341369,0.054484293,-0.015321774,-0.007009109,0.094000000,-0.060221871,5.410245663,4.425534912,0.302826716,-0.003366303,0.028195900,-0.297440527
1751352763.645349264,-1.819794911,-1.190748476,-1.729751247,1.582350144,-0.428991000,-2.013321856,0.018341369,0.054484293,-0.015321774,-0.007009109,0.094000000,-0.060221871,5.410245663,4.425534912,0.302826716,-0.003366303,0.028195900,-0.297440527
1751352763.647286892,-1.819758033,-1.190638928,-1.729782053,1.582336051,-0.428802000,-2.013442940,0.018536490,0.055063913,-0.015484772,-0.007083674,0.095000000,-0.060862529,5.410009888,4.425476406,0.302835894,-0.003367060,0.028195900,-0.297419716
1751352763.649143696,-1.819720765,-1.190528221,-1.729813186,1.582321809,-0.428611000,-2.013565306,0.018731611,0.055643533,-0.015647769,-0.007158239,0.096000000,-0.061503187,5.409771543,4.425417198,0.302845165,-0.003367825,0.028195901,-0.297398669
1751352763.651134014,-1.819683107,-1.190416354,-1.729844644,1.582307418,-0.428418000,-2.013688953,0.018926732,0.056223153,-0.015810767,-0.007232804,0.097000000,-0.062143846,5.409530626,4.425357285,0.302854530,-0.003368598,0.028195901,-0.297377384
1751352763.653090239,-1.819645058,-1.190303328,-1.729876429,1.582292878,-0.428223000,-2.013813881,0.019121853,0.056802773,-0.015973764,-0.007307369,0.098000000,-0.062784504,5.409287134,4.425296665,0.302863988,-0.003369378,0.028195902,-0.297355862
1751352763.656523943,-1.819606620,-1.190189143,-1.729908539,1.582278189,-0.428026000,-2.013940091,0.019316974,0.057382393,-0.016136762,-0.007381934,0.099000000,-0.063425162,5.409041066,4.425235336,0.302873540,-0.003370166,0.028195902,-0.297334101
1751352763.657060385,-1.819567790,-1.190073799,-1.729940976,1.582263350,-0.427827000,-2.014067582,0.019512095,0.057962014,-0.016299760,-0.007456499,0.100000000,-0.064065820,5.408792418,4.425173294,0.302883184,-0.003370962,0.028195903,-0.297312101
1751352763.659085751,-1.819528571,-1.189957295,-1.729973738,1.582248363,-0.427626000,-2.014196354,0.019707216,0.058541634,-0.016462757,-0.007531064,0.101000000,-0.064706478,5.408541188,4.425110537,0.302892921,-0.003371765,0.028195903,-0.297289863
1751352763.661071777,-1.819488962,-1.189839632,-1.730006827,1.582233226,-0.427423000,-2.014326408,0.019902337,0.059121254,-0.016625755,-0.007605629,0.102000000,-0.065347137,5.408287374,4.425047062,0.302902750,-0.003372576,0.028195904,-0.297267384
1751352763.663067818,-1.819448962,-1.189720810,-1.730040241,1.582217940,-0.427218000,-2.014457743,0.020097458,0.059700874,-0.016788752,-0.007680194,0.103000000,-0.065987795,5.408030973,4.424982866,0.302912673,-0.003373394,0.028195904,-0.297244665
1751352763.665082693,-1.819408572,-1.189600829,-1.730073982,1.582202505,-0.427011000,-2.014590359,0.020292579,0.060280494,-0.016951750,-0.007754759,0.104000000,-0.066628453,5.407771982,4.424917947,0.302922687,-0.003374221,0.028195905,-0.297221706
1751352763.667199850,-1.819367792,-1.189479688,-1.730108048,1.582186921,-0.426802000,-2.014724257,0.020487700,0.060860114,-0.017114748,-0.007829324,0.105000000,-0.067269111,5.407510400,4.424852301,0.302932795,-0.003375054,0.028195906,-0.297198504
1751352763.669199944,-1.819326621,-1.189357388,-1.730142441,1.582171188,-0.426591000,-2.014859436,0.020682821,0.061439734,-0.017277745,-0.007903889,0.106000000,-0.067909769,5.407246223,4.424785926,0.302942994,-0.003375896,0.028195906,-0.297175061
1751352763.671205044,-1.819285060,-1.189233929,-1.730177159,1.582155305,-0.426378000,-2.014995896,0.020877942,0.062019354,-0.017440743,-0.007978454,0.107000000,-0.068550428,5.406979449,4.424718819,0.302953285,-0.003376745,0.028195907,-0.297151375
1751352763.673092604,-1.819243109,-1.189109311,-1.730212204,1.582139274,-0.426163000,-2.015133637,0.021073063,0.062598975,-0.017603740,-0.008053019,0.108000000,-0.069191086,5.406710076,4.424650977,0.302963668,-0.003377601,0.028195907,-0.297127446
1751352763.675199032,-1.819200768,-1.188983533,-1.730247574,1.582123093,-0.425946000,-2.015272660,0.021268184,0.063178595,-0.017766738,-0.008127584,0.109000000,-0.069831744,5.406438100,4.424582397,0.302974144,-0.003378465,0.028195908,-0.297103274
1751352763.677072525,-1.819158037,-1.188856596,-1.730283271,1.582106764,-0.425727000,-2.015412964,0.021463305,0.063758215,-0.017929736,-0.008202148,0.110000000,-0.070472402,5.406163519,4.424513076,0.302984710,-0.003379337,0.028195909,-0.297078856
1751352763.679122210,-1.819114915,-1.188728500,-1.730319293,1.582090285,-0.425506000,-2.015554550,0.021658425,0.064337835,-0.018092733,-0.008276713,0.111000000,-0.071113060,5.405886330,4.424443011,0.302995369,-0.003380216,0.028195909,-0.297054194
1751352763.689153433,-1.819071403,-1.188599245,-1.730355642,1.582073657,-0.425283000,-2.015697416,0.021853546,0.064917455,-0.018255731,-0.008351278,0.112000000,-0.071753719,5.405606530,4.424372200,0.303006119,-0.003381102,0.028195910,-0.297029287
1751352763.689220190,-1.819027501,-1.188468830,-1.730392316,1.582056880,-0.425058000,-2.015841565,0.022048667,0.065497075,-0.018418728,-0.008425843,0.113000000,-0.072394377,5.405324117,4.424300638,0.303016960,-0.003381996,0.028195910,-0.297004133
1751352763.689238310,-1.819027501,-1.188468830,-1.730392316,1.582056880,-0.425058000,-2.015841565,0.022048667,0.065497075,-0.018418728,-0.008425843,0.113000000,-0.072394377,5.405324117,4.424300638,0.303016960,-0.003381996,0.028195910,-0.297004133
1751352763.691797256,-1.818983208,-1.188337257,-1.730429317,1.582039953,-0.424831000,-2.015986994,0.022243788,0.066076695,-0.018581726,-0.008500408,0.114000000,-0.073035035,5.405039088,4.424228323,0.303027892,-0.003382898,0.028195911,-0.296978733
1751352763.691854000,-1.818938525,-1.188204524,-1.730466643,1.582022878,-0.424602000,-2.016133705,0.022438909,0.066656316,-0.018744724,-0.008574973,0.115000000,-0.073675693,5.404751440,4.424155252,0.303038915,-0.003383807,0.028195912,-0.296953085
1751352763.693177938,-1.818893452,-1.188070631,-1.730504296,1.582005654,-0.424371000,-2.016281697,0.022634030,0.067235936,-0.018907721,-0.008649538,0.116000000,-0.074316351,5.404461170,4.424081422,0.303050029,-0.003384724,0.028195912,-0.296927190
1751352763.695079565,-1.818847989,-1.187935580,-1.730542274,1.581988280,-0.424138000,-2.016430970,0.022829151,0.067815556,-0.019070719,-0.008724103,0.117000000,-0.074957010,5.404168276,4.424006829,0.303061234,-0.003385648,0.028195913,-0.296901045
1751352763.697090149,-1.818802136,-1.187799369,-1.730580579,1.581970757,-0.423903000,-2.016581525,0.023024272,0.068395176,-0.019233716,-0.008798668,0.118000000,-0.075597668,5.403872754,4.423931470,0.303072529,-0.003386579,0.028195913,-0.296874652
1751352763.699140787,-1.818755892,-1.187661999,-1.730619209,1.581953085,-0.423666000,-2.016733361,0.023219393,0.068974796,-0.019396714,-0.008873233,0.119000000,-0.076238326,5.403574602,4.423855343,0.303083915,-0.003387518,0.028195914,-0.296848009
1751352763.701362371,-1.818709258,-1.187523470,-1.730658165,1.581935264,-0.423427000,-2.016886478,0.023414514,0.069554416,-0.019559712,-0.008947798,0.120000000,-0.076878984,5.403273817,4.423778443,0.303095391,-0.003388464,0.028195915,-0.296821115
1751352763.703291893,-1.818662234,-1.187383782,-1.730697448,1.581917294,-0.423186000,-2.017040877,0.023609635,0.070134036,-0.019722709,-0.009022363,0.121000000,-0.077519642,5.402970395,4.423700769,0.303106957,-0.003389418,0.028195915,-0.296793971
1751352763.705217600,-1.818614820,-1.187242934,-1.730737056,1.581899175,-0.422943000,-2.017196557,0.023804756,0.070713656,-0.019885707,-0.009096928,0.122000000,-0.078160301,5.402664334,4.423622315,0.303118614,-0.003390379,0.028195916,-0.296766574
1751352763.707258224,-1.818567015,-1.187100927,-1.730776991,1.581880906,-0.422698000,-2.017353518,0.023999877,0.071293277,-0.020048704,-0.009171493,0.123000000,-0.078800959,5.402355630,4.423543080,0.303130360,-0.003391347,0.028195917,-0.296738926
1751352763.709145546,-1.818518820,-1.186957761,-1.730817251,1.581862489,-0.422451000,-2.017511761,0.024194998,0.071872897,-0.020211702,-0.009246058,0.124000000,-0.079441617,5.402044281,4.423463059,0.303142195,-0.003392323,0.028195917,-0.296711024
1751352763.711206436,-1.818470235,-1.186813435,-1.730857837,1.581843922,-0.422202000,-2.017671284,0.024390119,0.072452517,-0.020374699,-0.009320623,0.125000000,-0.080082275,5.401730284,4.423382249,0.303154121,-0.003393306,0.028195918,-0.296682869
1751352763.713176012,-1.818421260,-1.186667951,-1.730898750,1.581825206,-0.421951000,-2.017832090,0.024585240,0.073032137,-0.020537697,-0.009395188,0.126000000,-0.080722934,5.401413635,4.423300647,0.303166135,-0.003394296,0.028195919,-0.296654459
1751352763.715299129,-1.818421260,-1.186667951,-1.730898750,1.581825206,-0.421951000,-2.017832090,0.024585240,0.073032137,-0.020537697,-0.009395188,0.126000000,-0.080722934,5.401413635,4.423300647,0.303166135,-0.003394296,0.028195919,-0.296654459
1751352763.717173100,-1.818371894,-1.186521307,-1.730939988,1.581806341,-0.421698000,-2.017994176,0.024780361,0.073611757,-0.020700695,-0.009469753,0.127000000,-0.081363592,5.401094332,4.423218250,0.303178239,-0.003395294,0.028195919,-0.296625794
1751352763.719136477,-1.818322138,-1.186373504,-1.730981553,1.581787327,-0.421443000,-2.018157544,0.024975482,0.074191377,-0.020863692,-0.009544318,0.128000000,-0.082004250,5.400772371,4.423135054,0.303190432,-0.003396299,0.028195920,-0.296596873
1751352763.721226454,-1.818271992,-1.186224541,-1.731023443,1.581768164,-0.421186000,-2.018322193,0.025170603,0.074770997,-0.021026690,-0.009618883,0.129000000,-0.082644908,5.400447749,4.423051055,0.303202714,-0.003397312,0.028195921,-0.296567697
1751352763.723183632,-1.818221456,-1.186074420,-1.731065659,1.581748852,-0.420927000,-2.018488124,0.025365724,0.075350618,-0.021189687,-0.009693448,0.130000000,-0.083285566,5.400120463,4.422966250,0.303215085,-0.003398331,0.028195921,-0.296538263
1751352763.725173950,-1.818170529,-1.185923139,-1.731108202,1.581729390,-0.420666000,-2.018655335,0.025560844,0.075930238,-0.021352685,-0.009768013,0.131000000,-0.083926225,5.399790510,4.422880635,0.303227545,-0.003399358,0.028195922,-0.296508571
1751352763.727184534,-1.818119213,-1.185770699,-1.731151070,1.581709780,-0.420403000,-2.018823829,0.025755965,0.076509858,-0.021515683,-0.009842578,0.132000000,-0.084566883,5.399457886,4.422794208,0.303240092,-0.003400392,0.028195923,-0.296478621
1751352763.735431671,-1.818067506,-1.185617099,-1.731194264,1.581690020,-0.420138000,-2.018993603,0.025951086,0.077089478,-0.021678680,-0.009917143,0.133000000,-0.085207541,5.399122589,4.422706963,0.303252728,-0.003401434,0.028195923,-0.296448412
1751352763.735487700,-1.818015408,-1.185462341,-1.731237785,1.581670111,-0.419871000,-2.019164659,0.026146207,0.077669098,-0.021841678,-0.009991708,0.134000000,-0.085848199,5.398784614,4.422618899,0.303265453,-0.003402483,0.028195924,-0.296417943
1751352763.735504866,-1.817962921,-1.185306423,-1.731281631,1.581650053,-0.419602000,-2.019336996,0.026341328,0.078248718,-0.022004675,-0.010066273,0.135000000,-0.086488857,5.398443959,4.422530010,0.303278265,-0.003403538,0.028195925,-0.296387213
1751352763.735586405,-1.817962921,-1.185306423,-1.731281631,1.581650053,-0.419602000,-2.019336996,0.026341328,0.078248718,-0.022004675,-0.010066273,0.135000000,-0.086488857,5.398443959,4.422530010,0.303278265,-0.003403538,0.028195925,-0.296387213
1751352763.737257719,-1.817856775,-1.184991110,-1.731370302,1.581609490,-0.419058000,-2.019685514,0.026731570,0.079407959,-0.022330671,-0.010215403,0.137000000,-0.087770174,5.397754595,4.422349745,0.303304152,-0.003405672,0.028195926,-0.296324970
1751352763.739292860,-1.817803117,-1.184831714,-1.731415126,1.581588984,-0.418783000,-2.019861695,0.026926691,0.079987579,-0.022493668,-0.010289968,0.138000000,-0.088410832,5.397405879,4.422258363,0.303317228,-0.003406749,0.028195927,-0.296293454
1751352763.741170168,-1.817749068,-1.184671159,-1.731460277,1.581568330,-0.418506000,-2.020039157,0.027121812,0.080567199,-0.022656666,-0.010364533,0.139000000,-0.089051490,5.397054469,4.422166141,0.303330390,-0.003407834,0.028195928,-0.296261675
1751352763.743032932,-1.817694629,-1.184509445,-1.731505753,1.581547526,-0.418227000,-2.020217901,0.027316933,0.081146819,-0.022819663,-0.010439098,0.140000000,-0.089692148,5.396700362,4.422073076,0.303343639,-0.003408925,0.028195928,-0.296229632
1751352763.745171547,-1.817639800,-1.184346572,-1.731551555,1.581526574,-0.417946000,-2.020397926,0.027512054,0.081726439,-0.022982661,-0.010513663,0.141000000,-0.090332807,5.396343554,4.421979165,0.303356976,-0.003410024,0.028195929,-0.296197324
1751352763.747114420,-1.817639800,-1.184346572,-1.731551555,1.581526574,-0.417946000,-2.020397926,0.027512054,0.081726439,-0.022982661,-0.010513663,0.141000000,-0.090332807,5.396343554,4.421979165,0.303356976,-0.003410024,0.028195929,-0.296197324
1751352763.750699997,-1.817584581,-1.184182540,-1.731597684,1.581505472,-0.417663000,-2.020579232,0.027707175,0.082306059,-0.023145659,-0.010588228,0.142000000,-0.090973465,5.395984042,4.421884404,0.303370399,-0.003411130,0.028195930,-0.296164751
1751352763.751097441,-1.817528972,-1.184017348,-1.731644138,1.581484221,-0.417378000,-2.020761820,0.027902296,0.082885679,-0.023308656,-0.010662793,0.143000000,-0.091614123,5.395621822,4.421788788,0.303383909,-0.003412243,0.028195930,-0.296131911
1751352763.753234148,-1.817472972,-1.183850997,-1.731690918,1.581462820,-0.417091000,-2.020945688,0.028097417,0.083465299,-0.023471654,-0.010737358,0.144000000,-0.092254781,5.395256890,4.421692314,0.303397505,-0.003413363,0.028195931,-0.296098804
1751352763.755120039,-1.817416582,-1.183683487,-1.731738024,1.581441271,-0.416802000,-2.021130839,0.028292538,0.084044920,-0.023634651,-0.010811923,0.145000000,-0.092895439,5.394889244,4.421594978,0.303411188,-0.003414490,0.028195932,-0.296065429
1751352763.757335186,-1.817359802,-1.183514817,-1.731785457,1.581419573,-0.416511000,-2.021317270,0.028487659,0.084624540,-0.023797649,-0.010886488,0.146000000,-0.093536098,5.394518880,4.421496777,0.303424957,-0.003415624,0.028195933,-0.296031785
1751352763.759209871,-1.817359802,-1.183514817,-1.731785457,1.581419573,-0.416511000,-2.021317270,0.028487659,0.084624540,-0.023797649,-0.010886488,0.146000000,-0.093536098,5.394518880,4.421496777,0.303424957,-0.003415624,0.028195933,-0.296031785
1751352763.761103868,-1.817302631,-1.183344988,-1.731833215,1.581397725,-0.416218000,-2.021504983,0.028682780,0.085204160,-0.023960647,-0.010961053,0.147000000,-0.094176756,5.394145793,4.421397705,0.303438811,-0.003416765,0.028195933,-0.295997872
1751352763.763033152,-1.817245071,-1.183174001,-1.731881299,1.581375729,-0.415923000,-2.021693977,0.028877901,0.085783780,-0.024123644,-0.011035618,0.148000000,-0.094817414,5.393769981,4.421297759,0.303452751,-0.003417914,0.028195934,-0.295963688
1751352763.765197754,-1.817187120,-1.183001853,-1.731929710,1.581353583,-0.415626000,-2.021884253,0.029073022,0.086363400,-0.024286642,-0.011110183,0.149000000,-0.095458072,5.393391440,4.421196935,0.303466777,-0.003419069,0.028195935,-0.295929234
1751352763.767165422,-1.817128779,-1.182828547,-1.731978446,1.581331288,-0.415327000,-2.022075810,0.029268143,0.086943020,-0.024449639,-0.011184748,0.150000000,-0.096098730,5.393010165,4.421095230,0.303480888,-0.003420231,0.028195936,-0.295894508
1751352763.769138098,-1.817070047,-1.182654081,-1.732027508,1.581308844,-0.415026000,-2.022268648,0.029463263,0.087522640,-0.024612637,-0.011259313,0.151000000,-0.096739389,5.392626154,4.420992638,0.303495085,-0.003421400,0.028195936,-0.295859509
1751352763.771100998,-1.817010926,-1.182478456,-1.732076896,1.581286251,-0.414723000,-2.022462767,0.029658384,0.088102261,-0.024775635,-0.011333878,0.152000000,-0.097380047,5.392239402,4.420889155,0.303509366,-0.003422576,0.028195937,-0.295824238
1751352763.773117542,-1.816951414,-1.182301672,-1.732126611,1.581263508,-0.414418000,-2.022658168,0.029853505,0.088681881,-0.024938632,-0.011408443,0.153000000,-0.098020705,5.391849907,4.420784779,0.303523732,-0.003423759,0.028195938,-0.295788691
1751352763.775132895,-1.816891512,-1.182123729,-1.732176651,1.581240617,-0.414111000,-2.022854850,0.030048626,0.089261501,-0.025101630,-0.011483008,0.154000000,-0.098661363,5.391457663,4.420679504,0.303538183,-0.003424949,0.028195939,-0.295752870
1751352763.787727833,-1.816831219,-1.181944626,-1.732227017,1.581217576,-0.413802000,-2.023052813,0.030243747,0.089841121,-0.025264627,-0.011557573,0.155000000,-0.099302021,5.391062667,4.420573326,0.303552718,-0.003426146,0.028195939,-0.295716774
1751352763.787799597,-1.816648001,-1.181400363,-1.732380072,1.581147560,-0.412863000,-2.023654391,0.030829110,0.091579981,-0.025753620,-0.011781268,0.158000000,-0.101223996,5.389861131,4.420249332,0.303596828,-0.003429778,0.028195942,-0.295606821
1751352763.787817955,-1.816586147,-1.181216623,-1.732431742,1.581123923,-0.412546000,-2.023857480,0.031024231,0.092159601,-0.025916618,-0.011855833,0.159000000,-0.101864654,5.389455090,4.420139501,0.303611700,-0.003431002,0.028195942,-0.295569613
1751352763.789269447,-1.816523904,-1.181031725,-1.732483738,1.581100136,-0.412227000,-2.024061850,0.031219352,0.092739222,-0.026079615,-0.011930398,0.160000000,-0.102505312,5.389046277,4.420028745,0.303626654,-0.003432233,0.028195943,-0.295532125
1751352763.791174889,-1.816461270,-1.180845666,-1.732536061,1.581076201,-0.411906000,-2.024267501,0.031414473,0.093318842,-0.026242613,-0.012004963,0.161000000,-0.103145971,5.388634689,4.419917060,0.303641692,-0.003433471,0.028195944,-0.295494357
1751352763.793154478,-1.816398246,-1.180658449,-1.732588709,1.581052117,-0.411583000,-2.024474434,0.031609594,0.093898462,-0.026405611,-0.012079528,0.162000000,-0.103786629,5.388220322,4.419804443,0.303656813,-0.003434715,0.028195945,-0.295456307
1751352763.796305418,-1.816334831,-1.180470073,-1.732641683,1.581027883,-0.411258000,-2.024682648,0.031804715,0.094478082,-0.026568608,-0.012154093,0.163000000,-0.104427287,5.387803172,4.419690888,0.303672016,-0.003435967,0.028195946,-0.295417975
1751352763.797211647,-1.816271027,-1.180280537,-1.732694983,1.581003500,-0.410931000,-2.024892143,0.031999836,0.095057702,-0.026731606,-0.012228658,0.164000000,-0.105067945,5.387383235,4.419576392,0.303687303,-0.003437225,0.028195946,-0.295379360
1751352763.799421072,-1.816206832,-1.180089842,-1.732748610,1.580978968,-0.410602000,-2.025102920,0.032194957,0.095637322,-0.026894603,-0.012303223,0.165000000,-0.105708603,5.386960506,4.419460949,0.303702672,-0.003438490,0.028195947,-0.295340460
1751352763.801121235,-1.816142247,-1.179897988,-1.732802562,1.580954287,-0.410271000,-2.025314977,0.032390078,0.096216942,-0.027057601,-0.012377788,0.166000000,-0.106349262,5.386534983,4.419344556,0.303718123,-0.003439761,0.028195948,-0.295301276
1751352763.803022385,-1.816077272,-1.179704974,-1.732856840,1.580929457,-0.409938000,-2.025528317,0.032585199,0.096796563,-0.027220599,-0.012452353,0.167000000,-0.106989920,5.386106659,4.419227207,0.303733656,-0.003441039,0.028195949,-0.295261806
1751352763.805154800,-1.816011906,-1.179510801,-1.732911444,1.580904478,-0.409603000,-2.025742937,0.032780320,0.097376183,-0.027383596,-0.012526918,0.168000000,-0.107630578,5.385675532,4.419108898,0.303749271,-0.003442324,0.028195950,-0.295222049
1751352763.807118177,-1.815946151,-1.179315469,-1.732966374,1.580879349,-0.409266000,-2.025958839,0.032975441,0.097955803,-0.027546594,-0.012601483,0.169000000,-0.108271236,5.385241598,4.418989625,0.303764968,-0.003443616,0.028195950,-0.295182004
1751352763.809172392,-1.815880005,-1.179118978,-1.733021631,1.580854072,-0.408927000,-2.026176022,0.033170562,0.098535423,-0.027709591,-0.012676048,0.170000000,-0.108911894,5.384804851,4.418869383,0.303780746,-0.003444914,0.028195951,-0.295141672
1751352763.811109066,-1.815813468,-1.178921328,-1.733077213,1.580828645,-0.408586000,-2.026394486,0.033365682,0.099115043,-0.027872589,-0.012750613,0.171000000,-0.109552553,5.384365288,4.418748167,0.303796605,-0.003446219,0.028195952,-0.295101050
1751352763.813045979,-1.815746542,-1.178722518,-1.733133121,1.580803069,-0.408243000,-2.026614232,0.033560803,0.099694663,-0.028035586,-0.012825178,0.172000000,-0.110193211,5.383922905,4.418625973,0.303812546,-0.003447530,0.028195953,-0.295060138
1751352763.815118790,-1.815679225,-1.178522549,-1.733189355,1.580777345,-0.407898000,-2.026835259,0.033755924,0.100274283,-0.028198584,-0.012899743,0.173000000,-0.110833869,5.383477697,4.418502796,0.303828567,-0.003448848,0.028195954,-0.295018934
1751352763.817033768,-1.815611518,-1.178321421,-1.733245915,1.580751470,-0.407551000,-2.027057568,0.033951045,0.100853904,-0.028361582,-0.012974308,0.174000000,-0.111474527,5.383029661,4.418378631,0.303844669,-0.003450172,0.028195954,-0.294977439
1751352763.819114923,-1.815543421,-1.178119133,-1.733302801,1.580725447,-0.407202000,-2.027281157,0.034146166,0.101433524,-0.028524579,-0.013048873,0.175000000,-0.112115185,5.382578791,4.418253474,0.303860851,-0.003451503,0.028195955,-0.294935651
1751352763.821046114,-1.815474933,-1.177915687,-1.733360014,1.580699275,-0.406851000,-2.027506028,0.034341287,0.102013144,-0.028687577,-0.013123438,0.176000000,-0.112755844,5.382125083,4.418127319,0.303877114,-0.003452841,0.028195956,-0.294893570
1751352763.830562353,-1.815406056,-1.177711081,-1.733417552,1.580672954,-0.406498000,-2.027732181,0.034536408,0.102592764,-0.028850574,-0.013198003,0.177000000,-0.113396502,5.381668534,4.418000163,0.303893456,-0.003454185,0.028195957,-0.294851193
1751352763.830617428,-1.815336788,-1.177505316,-1.733475416,1.580646483,-0.406143000,-2.027959614,0.034731529,0.103172384,-0.029013572,-0.013272568,0.178000000,-0.114037160,5.381209138,4.417871999,0.303909878,-0.003455536,0.028195958,-0.294808522
1751352763.830635071,-1.815336788,-1.177505316,-1.733475416,1.580646483,-0.406143000,-2.027959614,0.034731529,0.103172384,-0.029013572,-0.013272568,0.178000000,-0.114037160,5.381209138,4.417871999,0.303909878,-0.003455536,0.028195958,-0.294808522
1751352763.831223249,-1.815267130,-1.177298391,-1.733533606,1.580619863,-0.405786000,-2.028188329,0.034926650,0.103752004,-0.029176570,-0.013347133,0.179000000,-0.114677818,5.380746892,4.417742824,0.303926380,-0.003456893,0.028195959,-0.294765553
1751352763.833423615,-1.815267130,-1.177298391,-1.733533606,1.580619863,-0.405786000,-2.028188329,0.034926650,0.103752004,-0.029176570,-0.013347133,0.179000000,-0.114677818,5.380746892,4.417742824,0.303926380,-0.003456893,0.028195959,-0.294765553
1751352763.835207701,-1.815126643,-1.176881065,-1.733650964,1.580566176,-0.405066000,-2.028649603,0.035316892,0.104911244,-0.029502565,-0.013496263,0.181000000,-0.115959135,5.379813829,4.417481419,0.303959621,-0.003459626,0.028195960,-0.294678723
1751352763.837243557,-1.815055814,-1.176670663,-1.733710132,1.580539109,-0.404703000,-2.028882162,0.035512013,0.105490865,-0.029665562,-0.013570828,0.182000000,-0.116599793,5.379343004,4.417349180,0.303976360,-0.003461002,0.028195961,-0.294634860
1751352763.839108467,-1.814984595,-1.176459101,-1.733769626,1.580511893,-0.404338000,-2.029116003,0.035707134,0.106070485,-0.029828560,-0.013645392,0.183000000,-0.117240451,5.378869310,4.417215909,0.303993178,-0.003462385,0.028195962,-0.294590697
1751352763.841084719,-1.814912985,-1.176246381,-1.733829447,1.580484528,-0.403971000,-2.029351124,0.035902255,0.106650105,-0.029991558,-0.013719957,0.184000000,-0.117881109,5.378392743,4.417081601,0.304010074,-0.003463774,0.028195963,-0.294546232
1751352763.843372345,-1.814840985,-1.176032501,-1.733889593,1.580457013,-0.403602000,-2.029587527,0.036097376,0.107229725,-0.030154555,-0.013794522,0.185000000,-0.118521767,5.377913298,4.416946252,0.304027048,-0.003465169,0.028195964,-0.294501465
1751352763.845235348,-1.814768596,-1.175817462,-1.733950065,1.580429350,-0.403231000,-2.029825211,0.036292497,0.107809345,-0.030317553,-0.013869087,0.186000000,-0.119162426,5.377430971,4.416809857,0.304044101,-0.003466571,0.028195964,-0.294456396
1751352763.847092628,-1.814695815,-1.175601263,-1.734010863,1.580401537,-0.402858000,-2.030064177,0.036487618,0.108388965,-0.030480550,-0.013943652,0.187000000,-0.119803084,5.376945757,4.416672410,0.304061231,-0.003467979,0.028195965,-0.294411022
1751352763.849245787,-1.814622645,-1.175383906,-1.734071987,1.580373575,-0.402483000,-2.030304424,0.036682739,0.108968585,-0.030643548,-0.014018217,0.188000000,-0.120443742,5.376457651,4.416533906,0.304078438,-0.003469393,0.028195966,-0.294365343
1751352763.851088285,-1.814622645,-1.175383906,-1.734071987,1.580373575,-0.402483000,-2.030304424,0.036682739,0.108968585,-0.030643548,-0.014018217,0.188000000,-0.120443742,5.376457651,4.416533906,0.304078438,-0.003469393,0.028195966,-0.294365343
1751352763.853074789,-1.814549085,-1.175165389,-1.734133437,1.580345464,-0.402106000,-2.030545952,0.036877860,0.109548206,-0.030806546,-0.014092782,0.189000000,-0.121084400,5.375966649,4.416394341,0.304095723,-0.003470813,0.028195967,-0.294319359
1751352763.855046034,-1.814475134,-1.174945713,-1.734195213,1.580317204,-0.401727000,-2.030788761,0.037072981,0.110127826,-0.030969543,-0.014167347,0.190000000,-0.121725058,5.375472747,4.416253709,0.304113085,-0.003472240,0.028195968,-0.294273068
1751352763.857166052,-1.814400793,-1.174724878,-1.734257315,1.580288795,-0.401346000,-2.031032852,0.037268101,0.110707446,-0.031132541,-0.014241912,0.191000000,-0.122365717,5.374975938,4.416112005,0.304130523,-0.003473673,0.028195969,-0.294226468
1751352763.859199524,-1.814326061,-1.174502883,-1.734319743,1.580260236,-0.400963000,-2.031278224,0.037463222,0.111287066,-0.031295538,-0.014316477,0.192000000,-0.123006375,5.374476220,4.415969223,0.304148038,-0.003475112,0.028195970,-0.294179561
1751352763.861050367,-1.814250940,-1.174279730,-1.734382497,1.580231529,-0.400578000,-2.031524877,0.037658343,0.111866686,-0.031458536,-0.014391042,0.193000000,-0.123647033,5.373973586,4.415825359,0.304165630,-0.003476558,0.028195970,-0.294132343
1751352763.863147020,-1.814175428,-1.174055417,-1.734445578,1.580202672,-0.400191000,-2.031772812,0.037853464,0.112446306,-0.031621534,-0.014465607,0.194000000,-0.124287691,5.373468032,4.415680408,0.304183297,-0.003478009,0.028195971,-0.294084814
1751352763.865175724,-1.814099526,-1.173829944,-1.734508984,1.580173666,-0.399802000,-2.032022028,0.038048585,0.113025926,-0.031784531,-0.014540172,0.195000000,-0.124928349,5.372959554,4.415534363,0.304201041,-0.003479467,0.028195972,-0.294036974
1751352763.867140055,-1.814023234,-1.173603313,-1.734572716,1.580144511,-0.399411000,-2.032272526,0.038243706,0.113605547,-0.031947529,-0.014614737,0.196000000,-0.125569008,5.372448146,4.415387220,0.304218860,-0.003480930,0.028195973,-0.293988821
1751352763.872072458,-1.813946551,-1.173375522,-1.734636774,1.580115207,-0.399018000,-2.032524304,0.038438827,0.114185167,-0.032110526,-0.014689302,0.197000000,-0.126209666,5.371933803,4.415238973,0.304236754,-0.003482400,0.028195974,-0.293940355
1751352763.872139454,-1.813946551,-1.173375522,-1.734636774,1.580115207,-0.399018000,-2.032524304,0.038438827,0.114185167,-0.032110526,-0.014689302,0.197000000,-0.126209666,5.371933803,4.415238973,0.304236754,-0.003482400,0.028195974,-0.293940355
1751352763.873661757,-1.813946551,-1.173375522,-1.734636774,1.580115207,-0.399018000,-2.032524304,0.038438827,0.114185167,-0.032110526,-0.014689302,0.197000000,-0.126209666,5.371933803,4.415238973,0.304236754,-0.003482400,0.028195974,-0.293940355
1751352763.879263163,-1.813635918,-1.172452767,-1.734896266,1.579996500,-0.397426000,-2.033544232,0.039219311,0.116503647,-0.032762517,-0.014987562,0.201000000,-0.128772299,5.369846992,4.414634840,0.304309081,-0.003488340,0.028195977,-0.293743331
1751352763.879337788,-1.813635918,-1.172452767,-1.734896266,1.579996500,-0.397426000,-2.033544232,0.039219311,0.116503647,-0.032762517,-0.014987562,0.201000000,-0.128772299,5.369846992,4.414634840,0.304309081,-0.003488340,0.028195977,-0.293743331
1751352763.881168842,-1.813557285,-1.172219180,-1.734961954,1.579966450,-0.397023000,-2.033802417,0.039414432,0.117083267,-0.032925514,-0.015062127,0.202000000,-0.129412957,5.369317904,4.414480993,0.304327349,-0.003489840,0.028195978,-0.293693281
1751352763.883126259,-1.813478261,-1.171984434,-1.735027968,1.579936251,-0.396618000,-2.034061884,0.039609553,0.117662887,-0.033088512,-0.015136692,0.203000000,-0.130053615,5.368785851,4.414326010,0.304345690,-0.003491346,0.028195979,-0.293642910
1751352763.885148525,-1.813398847,-1.171748528,-1.735094308,1.579905904,-0.396211000,-2.034322632,0.039804674,0.118242508,-0.033251510,-0.015211257,0.204000000,-0.130694273,5.368250830,4.414169885,0.304364106,-0.003492857,0.028195980,-0.293592220
1751352763.889078379,-1.813319042,-1.171511464,-1.735160974,1.579875406,-0.395802000,-2.034584661,0.039999795,0.118822128,-0.033414507,-0.015285822,0.205000000,-0.131334931,5.367712834,4.414012613,0.304382594,-0.003494375,0.028195981,-0.293541207
1751352763.889288902,-1.813319042,-1.171511464,-1.735160974,1.579875406,-0.395802000,-2.034584661,0.039999795,0.118822128,-0.033414507,-0.015285822,0.205000000,-0.131334931,5.367712834,4.414012613,0.304382594,-0.003494375,0.028195981,-0.293541207
1751352763.891243219,-1.813158262,-1.171033857,-1.735295284,1.579813965,-0.394978000,-2.035112563,0.040390037,0.119981368,-0.033740502,-0.015434952,0.207000000,-0.132616248,5.366627899,4.413694603,0.304419791,-0.003497428,0.028195983,-0.293438212
1751352763.893121719,-1.813077287,-1.170793314,-1.735362928,1.579783020,-0.394563000,-2.035378436,0.040585158,0.120560988,-0.033903500,-0.015509517,0.208000000,-0.133256906,5.366080950,4.413533855,0.304438498,-0.003498964,0.028195983,-0.293386227
1751352763.895175695,-1.812995922,-1.170551613,-1.735430898,1.579751927,-0.394146000,-2.035645591,0.040780279,0.121140608,-0.034066498,-0.015584082,0.209000000,-0.133897564,5.365531006,4.413371937,0.304457278,-0.003500505,0.028195984,-0.293333917
1751352763.897070169,-1.812914166,-1.170308752,-1.735499194,1.579720684,-0.393727000,-2.035914027,0.040975400,0.121720228,-0.034229495,-0.015658647,0.210000000,-0.134538223,5.364978062,4.413208843,0.304476130,-0.003502052,0.028195985,-0.293281279
1751352763.899300098,-1.812832020,-1.170064732,-1.735567816,1.579689292,-0.393306000,-2.036183744,0.041170520,0.122299849,-0.034392493,-0.015733212,0.211000000,-0.135178881,5.364422114,4.413044567,0.304495054,-0.003503604,0.028195986,-0.293228314
1751352763.901122093,-1.812749484,-1.169819553,-1.735636764,1.579657751,-0.392883000,-2.036454742,0.041365641,0.122879469,-0.034555490,-0.015807777,0.212000000,-0.135819539,5.363863154,4.412879105,0.304514049,-0.003505163,0.028195987,-0.293175019
1751352763.903256178,-1.812749484,-1.169819553,-1.735636764,1.579657751,-0.392883000,-2.036454742,0.041365641,0.122879469,-0.034555490,-0.015807777,0.212000000,-0.135819539,5.363863154,4.412879105,0.304514049,-0.003505163,0.028195987,-0.293175019
1751352763.905361652,-1.812666558,-1.169573214,-1.735706038,1.579626061,-0.392458000,-2.036727022,0.041560762,0.123459089,-0.034718488,-0.015882342,0.213000000,-0.136460197,5.363301179,4.412712449,0.304533116,-0.003506727,0.028195988,-0.293121394
1751352763.907122135,-1.812583241,-1.169325716,-1.735775638,1.579594222,-0.392031000,-2.037000583,0.041755883,0.124038709,-0.034881486,-0.015956907,0.214000000,-0.137100855,5.362736183,4.412544595,0.304552253,-0.003508297,0.028195989,-0.293067438
1751352763.909197569,-1.812499534,-1.169077059,-1.735845564,1.579562234,-0.391602000,-2.037275425,0.041951004,0.124618329,-0.035044483,-0.016031472,0.215000000,-0.137741514,5.362168161,4.412375536,0.304571462,-0.003509873,0.028195990,-0.293013149
1751352763.911192179,-1.812415437,-1.168827243,-1.735915816,1.579530096,-0.391171000,-2.037551549,0.042146125,0.125197949,-0.035207481,-0.016106037,0.216000000,-0.138382172,5.361597107,4.412205267,0.304590741,-0.003511454,0.028195990,-0.292958528
1751352763.913153172,-1.812330950,-1.168576267,-1.735986394,1.579497809,-0.390738000,-2.037828954,0.042341246,0.125777569,-0.035370478,-0.016180602,0.217000000,-0.139022830,5.361023016,4.412033782,0.304610091,-0.003513041,0.028195991,-0.292903571
1751352763.919467926,-1.812246072,-1.168324133,-1.736057298,1.579465374,-0.390303000,-2.038107640,0.042536367,0.126357189,-0.035533476,-0.016255167,0.218000000,-0.139663488,5.360445883,4.411861074,0.304629510,-0.003514633,0.028195992,-0.292848279
1751352763.919521332,-1.812160804,-1.168070839,-1.736128528,1.579432789,-0.389866000,-2.038387608,0.042731488,0.126936810,-0.035696474,-0.016329732,0.219000000,-0.140304146,5.359865702,4.411687138,0.304648999,-0.003516231,0.028195993,-0.292792650
1751352763.921314478,-1.812075146,-1.167816385,-1.736200084,1.579400055,-0.389427000,-2.038668857,0.042926609,0.127516430,-0.035859471,-0.016404297,0.220000000,-0.140944805,5.359282468,4.411511968,0.304668558,-0.003517835,0.028195994,-0.292736684
1751352763.923385859,-1.811989098,-1.167560773,-1.736271966,1.579367172,-0.388986000,-2.038951387,0.043121730,0.128096050,-0.036022469,-0.016478862,0.221000000,-0.141585463,5.358696175,4.411335558,0.304688186,-0.003519444,0.028195995,-0.292680379
1751352763.926066637,-1.811815830,-1.167046070,-1.736416707,1.579300958,-0.388098000,-2.039520292,0.043511972,0.129255290,-0.036348464,-0.016627992,0.223000000,-0.142866779,5.357514391,4.410978994,0.304727648,-0.003522679,0.028195997,-0.292566748
1751352763.927140951,-1.811815830,-1.167046070,-1.736416707,1.579300958,-0.388098000,-2.039520292,0.043511972,0.129255290,-0.036348464,-0.016627992,0.223000000,-0.142866779,5.357514391,4.410978994,0.304727648,-0.003522679,0.028195997,-0.292566748
1751352763.929101229,-1.811728611,-1.166786980,-1.736489567,1.579267627,-0.387651000,-2.039806666,0.043707093,0.129834910,-0.036511461,-0.016702557,0.224000000,-0.143507437,5.356918889,4.410798827,0.304747482,-0.003524304,0.028195998,-0.292509419
1751352763.931033850,-1.811641002,-1.166526731,-1.736562753,1.579234148,-0.387202000,-2.040094321,0.043902214,0.130414530,-0.036674459,-0.016777122,0.225000000,-0.144148096,5.356320306,4.410617396,0.304767384,-0.003525935,0.028195998,-0.292451748
1751352763.933707237,-1.811553002,-1.166265322,-1.736636265,1.579200519,-0.386751000,-2.040383258,0.044097335,0.130994151,-0.036837457,-0.016851687,0.226000000,-0.144788754,5.355718637,4.410434694,0.304787354,-0.003527572,0.028195999,-0.292393732
1751352763.935122490,-1.811464613,-1.166002754,-1.736710103,1.579166741,-0.386298000,-2.040673477,0.044292456,0.131573771,-0.037000454,-0.016926252,0.227000000,-0.145429412,5.355113875,4.410250716,0.304807391,-0.003529214,0.028196000,-0.292335370
1751352763.938112736,-1.811375833,-1.165739027,-1.736784267,1.579132814,-0.385843000,-2.040964976,0.044487577,0.132153391,-0.037163452,-0.017000817,0.228000000,-0.146070070,5.354506016,4.410065455,0.304827496,-0.003530861,0.028196001,-0.292276662
1751352763.939275265,-1.811286662,-1.165474140,-1.736858757,1.579098738,-0.385386000,-2.041257757,0.044682698,0.132733011,-0.037326449,-0.017075382,0.229000000,-0.146710728,5.353895054,4.409878905,0.304847668,-0.003532513,0.028196002,-0.292217607
1751352763.941157818,-1.811197102,-1.165208095,-1.736933573,1.579064512,-0.384927000,-2.041551819,0.044877819,0.133312631,-0.037489447,-0.017149947,0.230000000,-0.147351387,5.353280982,4.409691059,0.304867906,-0.003534171,0.028196003,-0.292158202
1751352763.943101406,-1.811107151,-1.164940890,-1.737008715,1.579030138,-0.384466000,-2.041847162,0.045072939,0.133892251,-0.037652445,-0.017224512,0.231000000,-0.147992045,5.352663796,4.409501912,0.304888211,-0.003535834,0.028196004,-0.292098448
1751352763.945084095,-1.811016810,-1.164672526,-1.737084183,1.578995614,-0.384003000,-2.042143787,0.045268060,0.134471871,-0.037815442,-0.017299077,0.232000000,-0.148632703,5.352043489,4.409311457,0.304908582,-0.003537503,0.028196005,-0.292038342
1751352763.947084188,-1.810926079,-1.164403002,-1.737159976,1.578960941,-0.383538000,-2.042441693,0.045463181,0.135051492,-0.037978440,-0.017373642,0.233000000,-0.149273361,5.351420055,4.409119688,0.304929018,-0.003539176,0.028196006,-0.291977884
1751352763.949155807,-1.810834957,-1.164132320,-1.737236096,1.578926120,-0.383071000,-2.042740881,0.045658302,0.135631112,-0.038141437,-0.017448207,0.234000000,-0.149914019,5.350793490,4.408926598,0.304949521,-0.003540855,0.028196006,-0.291917073
1751352763.951076746,-1.810743446,-1.163860478,-1.737312542,1.578891149,-0.382602000,-2.043041349,0.045853423,0.136210732,-0.038304435,-0.017522772,0.235000000,-0.150554678,5.350163787,4.408732182,0.304970088,-0.003542539,0.028196007,-0.291855907
1751352763.953046083,-1.810651544,-1.163587477,-1.737389314,1.578856029,-0.382131000,-2.043343099,0.046048544,0.136790352,-0.038467433,-0.017597337,0.236000000,-0.151195336,5.349530940,4.408536432,0.304990721,-0.003544228,0.028196008,-0.291794386
1751352763.955040455,-1.810559251,-1.163313317,-1.737466412,1.578820759,-0.381658000,-2.043646131,0.046243665,0.137369972,-0.038630430,-0.017671902,0.237000000,-0.151835994,5.348894943,4.408339342,0.305011418,-0.003545923,0.028196009,-0.291732508
1751352763.957036734,-1.810466569,-1.163037997,-1.737543836,1.578785341,-0.381183000,-2.043950443,0.046438786,0.137949592,-0.038793428,-0.017746467,0.238000000,-0.152476652,5.348255791,4.408140906,0.305032179,-0.003547622,0.028196010,-0.291670272
1751352763.959056616,-1.810373496,-1.162761518,-1.737621586,1.578749773,-0.380706000,-2.044256037,0.046633907,0.138529212,-0.038956425,-0.017821032,0.239000000,-0.153117310,5.347613477,4.407941117,0.305053005,-0.003549326,0.028196011,-0.291607676
1751352763.961035252,-1.810280033,-1.162483880,-1.737699662,1.578714057,-0.380227000,-2.044562912,0.046829028,0.139108832,-0.039119423,-0.017895597,0.240000000,-0.153757969,5.346967996,4.407739970,0.305073895,-0.003551036,0.028196012,-0.291544721
1751352763.963070869,-1.810280033,-1.162483880,-1.737699662,1.578714057,-0.380227000,-2.044562912,0.046829028,0.139108832,-0.039119423,-0.017895597,0.240000000,-0.153757969,5.346967996,4.407739970,0.305073895,-0.003551036,0.028196012,-0.291544721
1751352763.971403599,-1.810091937,-1.161925126,-1.737856791,1.578642176,-0.379263000,-2.045180507,0.047219270,0.140268073,-0.039445418,-0.018044727,0.242000000,-0.155039285,5.345667507,4.407333570,0.305115864,-0.003554470,0.028196013,-0.291417724
1751352763.971454382,-1.810091937,-1.161925126,-1.737856791,1.578642176,-0.379263000,-2.045180507,0.047219270,0.140268073,-0.039445418,-0.018044727,0.242000000,-0.155039285,5.345667507,4.407333570,0.305115864,-0.003554470,0.028196013,-0.291417724
1751352763.973348379,-1.809902279,-1.161361736,-1.738015225,1.578569699,-0.378291000,-2.045803227,0.047609512,0.141427313,-0.039771413,-0.018193857,0.244000000,-0.156320601,5.344354276,4.406921655,0.305158085,-0.003557924,0.028196015,-0.291289272
1751352763.975403786,-1.809806865,-1.161078301,-1.738094931,1.578533237,-0.377802000,-2.046116509,0.047804633,0.142006933,-0.039934411,-0.018268422,0.245000000,-0.156961260,5.343692867,4.406713612,0.305179289,-0.003559658,0.028196016,-0.291224498
1751352763.977059841,-1.809711061,-1.160793708,-1.738174963,1.578496625,-0.377311000,-2.046431072,0.047999754,0.142586553,-0.040097409,-0.018342987,0.246000000,-0.157601918,5.343028255,4.406504171,0.305200555,-0.003561397,0.028196017,-0.291159356
1751352763.979190350,-1.809614866,-1.160507955,-1.738255320,1.578459865,-0.376818000,-2.046746916,0.048194875,0.143166173,-0.040260406,-0.018417552,0.247000000,-0.158242576,5.342360433,4.406293324,0.305221882,-0.003563141,0.028196018,-0.291093845
1751352763.981145382,-1.809518281,-1.160221043,-1.738336004,1.578422955,-0.376323000,-2.047064042,0.048389996,0.143745794,-0.040423404,-0.018492117,0.248000000,-0.158883234,5.341689395,4.406081065,0.305243271,-0.003564890,0.028196019,-0.291027965
1751352763.983184099,-1.809421306,-1.159932972,-1.738417014,1.578385896,-0.375826000,-2.047382449,0.048585117,0.144325414,-0.040586401,-0.018566682,0.249000000,-0.159523892,5.341015135,4.405867387,0.305264721,-0.003566644,0.028196020,-0.290961714
1751352763.985161543,-1.809323941,-1.159643742,-1.738498350,1.578348688,-0.375327000,-2.047702138,0.048780238,0.144905034,-0.040749399,-0.018641247,0.250000000,-0.160164551,5.340337646,4.405652283,0.305286232,-0.003568402,0.028196020,-0.290895091
1751352763.987746477,-1.809323941,-1.159643742,-1.738498350,1.578348688,-0.375327000,-2.047702138,0.048780238,0.144905034,-0.040749399,-0.018641247,0.250000000,-0.160164551,5.340337646,4.405652283,0.305286232,-0.003568402,0.028196020,-0.290895091
1751352763.989308834,-1.809226185,-1.159353352,-1.738580012,1.578311331,-0.374826000,-2.048023107,0.048975358,0.145484654,-0.040912397,-0.018715812,0.251000000,-0.160805209,5.339656923,4.405435746,0.305307804,-0.003570166,0.028196021,-0.290828094
1751352763.991145134,-1.809128039,-1.159061803,-1.738661999,1.578273825,-0.374323000,-2.048345358,0.049170479,0.146064274,-0.041075394,-0.018790377,0.252000000,-0.161445867,5.338972959,4.405217770,0.305329435,-0.003571933,0.028196022,-0.290760723
1751352763.993144035,-1.809029503,-1.158769095,-1.738744313,1.578236170,-0.373818000,-2.048668891,0.049365600,0.146643894,-0.041238392,-0.018864942,0.253000000,-0.162086525,5.338285748,4.404998347,0.305351127,-0.003573706,0.028196023,-0.290692976
1751352763.995156527,-1.808930577,-1.158475227,-1.738826953,1.578198365,-0.373311000,-2.048993705,0.049560721,0.147223514,-0.041401389,-0.018939507,0.254000000,-0.162727183,5.337595283,4.404777472,0.305372877,-0.003575483,0.028196024,-0.290624853
1751352763.997105598,-1.808831260,-1.158180201,-1.738909919,1.578160412,-0.372802000,-2.049319800,0.049755842,0.147803134,-0.041564387,-0.019014071,0.255000000,-0.163367842,5.336901559,4.404555136,0.305394688,-0.003577265,0.028196025,-0.290556351
1751352763.999209642,-1.808731553,-1.157884015,-1.738993210,1.578122309,-0.372291000,-2.049647176,0.049950963,0.148382755,-0.041727385,-0.019088636,0.256000000,-0.164008500,5.336204568,4.404331333,0.305416556,-0.003579052,0.028196026,-0.290487470
1751352764.001196146,-1.808631456,-1.157586670,-1.739076828,1.578084057,-0.371778000,-2.049975834,0.050146084,0.148962375,-0.041890382,-0.019163201,0.257000000,-0.164649158,5.335504306,4.404106056,0.305438484,-0.003580843,0.028196026,-0.290418208
1751352764.003146172,-1.808530969,-1.157288165,-1.739160772,1.578045656,-0.371263000,-2.050305773,0.050341205,0.149541995,-0.042053380,-0.019237766,0.258000000,-0.165289816,5.334800764,4.403879298,0.305460470,-0.003582638,0.028196027,-0.290348565
1751352764.005287170,-1.808430092,-1.156988502,-1.739245042,1.578007106,-0.370746000,-2.050636993,0.050536326,0.150121615,-0.042216377,-0.019312331,0.259000000,-0.165930474,5.334093936,4.403651052,0.305482513,-0.003584438,0.028196028,-0.290278538
1751352764.007226229,-1.808328824,-1.156687679,-1.739329637,1.577968407,-0.370227000,-2.050969494,0.050731447,0.150701235,-0.042379375,-0.019386896,0.260000000,-0.166571133,5.333383817,4.403421310,0.305504615,-0.003586243,0.028196029,-0.290208128
1751352764.009136438,-1.808227166,-1.156385697,-1.739414559,1.577929559,-0.369706000,-2.051303277,0.050926568,0.151280855,-0.042542373,-0.019461461,0.261000000,-0.167211791,5.332670400,4.403190067,0.305526773,-0.003588052,0.028196030,-0.290137332
1751352764.011124849,-1.808125118,-1.156082555,-1.739499807,1.577890561,-0.369183000,-2.051638342,0.051121689,0.151860475,-0.042705370,-0.019536026,0.262000000,-0.167852449,5.331953678,4.402957314,0.305548989,-0.003589866,0.028196031,-0.290066149
1751352764.013127089,-1.808022679,-1.155778255,-1.739585381,1.577851414,-0.368658000,-2.051974687,0.051316810,0.152440096,-0.042868368,-0.019610591,0.263000000,-0.168493107,5.331233645,4.402723045,0.305571261,-0.003591683,0.028196032,-0.289994578
1751352764.022233248,-1.808022679,-1.155778255,-1.739585381,1.577851414,-0.368658000,-2.051974687,0.051316810,0.152440096,-0.042868368,-0.019610591,0.263000000,-0.168493107,5.331233645,4.402723045,0.305571261,-0.003591683,0.028196032,-0.289994578
1751352764.024326324,-1.807609023,-1.154549460,-1.739930936,1.577693337,-0.366538000,-2.053332883,0.052097294,0.154758576,-0.043520358,-0.019908851,0.267000000,-0.171055740,5.328320266,4.401770660,0.305660909,-0.003598998,0.028196035,-0.289704390
1751352764.025362253,-1.807504633,-1.154239363,-1.740018139,1.577653444,-0.366003000,-2.053675635,0.052292415,0.155338196,-0.043683356,-0.019983416,0.268000000,-0.171696398,5.327583577,4.401528700,0.305683460,-0.003600838,0.028196036,-0.289630861
1751352764.027160406,-1.807399853,-1.153928107,-1.740105669,1.577613403,-0.365466000,-2.054019668,0.052487536,0.155917816,-0.043846353,-0.020057981,0.269000000,-0.172337056,5.326843537,4.401285181,0.305706065,-0.003602681,0.028196037,-0.289556937
1751352764.029165506,-1.807294683,-1.153615692,-1.740193525,1.577573213,-0.364927000,-2.054364983,0.052682657,0.156497437,-0.044009351,-0.020132546,0.270000000,-0.172977715,5.326100139,4.401040094,0.305728724,-0.003604529,0.028196037,-0.289482615
1751352764.031164646,-1.807189122,-1.153302118,-1.740281706,1.577532873,-0.364386000,-2.054711579,0.052877777,0.157077057,-0.044172348,-0.020207111,0.271000000,-0.173618373,5.325353376,4.400793433,0.305751437,-0.003606381,0.028196038,-0.289407896
1751352764.033268213,-1.807083172,-1.152987384,-1.740370214,1.577492384,-0.363843000,-2.055059456,0.053072898,0.157656677,-0.044335346,-0.020281676,0.272000000,-0.174259031,5.324603242,4.400545190,0.305774204,-0.003608237,0.028196039,-0.289332778
1751352764.036992788,-1.806976831,-1.152671491,-1.740459048,1.577451746,-0.363298000,-2.055408615,0.053268019,0.158236297,-0.044498344,-0.020356241,0.273000000,-0.174899689,5.323849731,4.400295358,0.305797024,-0.003610097,0.028196040,-0.289257259
1751352764.037402868,-1.806976831,-1.152671491,-1.740459048,1.577451746,-0.363298000,-2.055408615,0.053268019,0.158236297,-0.044498344,-0.020356241,0.273000000,-0.174899689,5.323849731,4.400295358,0.305797024,-0.003610097,0.028196040,-0.289257259
1751352764.039434195,-1.806870100,-1.152354439,-1.740548208,1.577410959,-0.362751000,-2.055759055,0.053463140,0.158815917,-0.044661341,-0.020430806,0.274000000,-0.175540347,5.323092834,4.400043929,0.305819897,-0.003611961,0.028196041,-0.289181338
1751352764.041240931,-1.806762978,-1.152036227,-1.740637693,1.577370023,-0.362202000,-2.056110777,0.053658261,0.159395537,-0.044824339,-0.020505371,0.275000000,-0.176181006,5.322332545,4.399790896,0.305842823,-0.003613830,0.028196042,-0.289105015
1751352764.043167114,-1.806655467,-1.151716857,-1.740727505,1.577328938,-0.361651000,-2.056463779,0.053853382,0.159975157,-0.044987336,-0.020579936,0.276000000,-0.176821664,5.321568858,4.399536251,0.305865801,-0.003615702,0.028196042,-0.289028287
1751352764.045204639,-1.806547565,-1.151396327,-1.740817643,1.577287703,-0.361098000,-2.056818063,0.054048503,0.160554777,-0.045150334,-0.020654501,0.277000000,-0.177462322,5.320801765,4.399279987,0.305888831,-0.003617578,0.028196043,-0.288951153
1751352764.047172070,-1.806439272,-1.151074637,-1.740908106,1.577246320,-0.360543000,-2.057173629,0.054243624,0.161134398,-0.045313332,-0.020729066,0.278000000,-0.178102980,5.320031260,4.399022096,0.305911913,-0.003619458,0.028196044,-0.288873613
1751352764.049197674,-1.806330590,-1.150751789,-1.740998896,1.577204787,-0.359986000,-2.057530475,0.054438745,0.161714018,-0.045476329,-0.020803631,0.279000000,-0.178743638,5.319257335,4.398762571,0.305935046,-0.003621342,0.028196045,-0.288795665
1751352764.051232815,-1.806221518,-1.150427781,-1.741090012,1.577163105,-0.359427000,-2.057888603,0.054633866,0.162293638,-0.045639327,-0.020878196,0.280000000,-0.179384297,5.318479984,4.398501404,0.305958229,-0.003623230,0.028196046,-0.288717307
1751352764.053236246,-1.806112055,-1.150102615,-1.741181453,1.577121274,-0.358866000,-2.058248012,0.054828987,0.162873258,-0.045802324,-0.020952761,0.281000000,-0.180024955,5.317699200,4.398238588,0.305981463,-0.003625122,0.028196046,-0.288638538
1751352764.055335522,-1.806002202,-1.149776288,-1.741273221,1.577079294,-0.358303000,-2.058608703,0.055024108,0.163452878,-0.045965322,-0.021027326,0.282000000,-0.180665613,5.316914975,4.397974114,0.306004748,-0.003627018,0.028196047,-0.288559358
1751352764.057140827,-1.805891958,-1.149448803,-1.741365314,1.577037165,-0.357738000,-2.058970675,0.055219229,0.164032498,-0.046128320,-0.021101891,0.283000000,-0.181306271,5.316127303,4.397707976,0.306028082,-0.003628917,0.028196048,-0.288479764
1751352764.059202909,-1.805781325,-1.149120158,-1.741457734,1.576994886,-0.357171000,-2.059333928,0.055414350,0.164612118,-0.046291317,-0.021176456,0.284000000,-0.181946929,5.315336176,4.397440165,0.306051466,-0.003630820,0.028196049,-0.288399756
1751352764.061135292,-1.805670301,-1.148790355,-1.741550480,1.576952459,-0.356602000,-2.059698462,0.055609471,0.165191739,-0.046454315,-0.021251021,0.285000000,-0.182587588,5.314541588,4.397170674,0.306074899,-0.003632727,0.028196050,-0.288319332
1751352764.063162804,-1.805558887,-1.148459391,-1.741643551,1.576909882,-0.356031000,-2.060064278,0.055804592,0.165771359,-0.046617312,-0.021325586,0.286000000,-0.183228246,5.313743531,4.396899495,0.306098380,-0.003634637,0.028196050,-0.288238490
1751352764.065210342,-1.805447082,-1.148127269,-1.741736949,1.576867157,-0.355458000,-2.060431375,0.055999713,0.166350979,-0.046780310,-0.021400151,0.287000000,-0.183868904,5.312941998,4.396626620,0.306121910,-0.003636552,0.028196051,-0.288157230
1751352764.067210197,-1.805334888,-1.147793988,-1.741830673,1.576824282,-0.354883000,-2.060799754,0.056194834,0.166930599,-0.046943308,-0.021474716,0.288000000,-0.184509562,5.312136983,4.396352041,0.306145488,-0.003638469,0.028196052,-0.288075551
1751352764.076069832,-1.805222303,-1.147459547,-1.741924722,1.576781258,-0.354306000,-2.061169414,0.056389955,0.167510219,-0.047106305,-0.021549281,0.289000000,-0.185150221,5.311328476,4.396075751,0.306169114,-0.003640391,0.028196053,-0.287993450
1751352764.076382637,-1.804995963,-1.146787187,-1.742113799,1.576694762,-0.353146000,-2.061912577,0.056780196,0.168669459,-0.047432300,-0.021698411,0.291000000,-0.186431537,5.309700964,4.395518005,0.306216507,-0.003644244,0.028196054,-0.287827980
1751352764.076406717,-1.804882207,-1.146449269,-1.742208827,1.576651291,-0.352563000,-2.062286081,0.056975317,0.169249079,-0.047595298,-0.021772976,0.292000000,-0.187072195,5.308881944,4.395236534,0.306240274,-0.003646176,0.028196055,-0.287744609
1751352764.077757597,-1.804768062,-1.146110191,-1.742304181,1.576607670,-0.351978000,-2.062660866,0.057170438,0.169828700,-0.047758296,-0.021847541,0.293000000,-0.187712853,5.308059405,4.394953319,0.306264087,-0.003648111,0.028196056,-0.287660811
1751352764.079525471,-1.804653526,-1.145769954,-1.742399860,1.576563901,-0.351391000,-2.063036932,0.057365559,0.170408320,-0.047921293,-0.021922106,0.294000000,-0.188353512,5.307233338,4.394668353,0.306287945,-0.003650050,0.028196057,-0.287576585
1751352764.081230402,-1.804538599,-1.145428558,-1.742495866,1.576519982,-0.350802000,-2.063414280,0.057560680,0.170987940,-0.048084291,-0.021996671,0.295000000,-0.188994170,5.306403738,4.394381629,0.306311850,-0.003651992,0.028196057,-0.287491930
1751352764.083322048,-1.804423283,-1.145086002,-1.742592197,1.576475914,-0.350211000,-2.063792909,0.057755801,0.171567560,-0.048247288,-0.022071236,0.296000000,-0.189634828,5.305570596,4.394093137,0.306335799,-0.003653937,0.028196058,-0.287406845
1751352764.085125208,-1.804307576,-1.144742287,-1.742688855,1.576431697,-0.349618000,-2.064172819,0.057950922,0.172147180,-0.048410286,-0.022145801,0.297000000,-0.190275486,5.304733906,4.393802870,0.306359793,-0.003655886,0.028196059,-0.287321329
1751352764.087208748,-1.804191479,-1.144397414,-1.742785839,1.576387331,-0.349023000,-2.064554011,0.058146043,0.172726800,-0.048573284,-0.022220366,0.298000000,-0.190916144,5.303893659,4.393510820,0.306383832,-0.003657838,0.028196059,-0.287235379
1751352764.089614868,-1.804191479,-1.144397414,-1.742785839,1.576387331,-0.349023000,-2.064554011,0.058146043,0.172726800,-0.048573284,-0.022220366,0.298000000,-0.190916144,5.303893659,4.393510820,0.306383832,-0.003657838,0.028196059,-0.287235379
1751352764.091525078,-1.804074992,-1.144051380,-1.742883148,1.576342816,-0.348426000,-2.064936484,0.058341164,0.173306420,-0.048736281,-0.022294931,0.299000000,-0.191556803,5.303049849,4.393216979,0.306407914,-0.003659793,0.028196060,-0.287148995
1751352764.093301773,-1.803958114,-1.143704188,-1.742980784,1.576298151,-0.347827000,-2.065320238,0.058536285,0.173886041,-0.048899279,-0.022369496,0.300000000,-0.192197461,5.302202468,4.392921338,0.306432041,-0.003661752,0.028196061,-0.287062176
1751352764.095189095,-1.803840847,-1.143355836,-1.743078745,1.576253338,-0.347226000,-2.065705274,0.058731406,0.174465661,-0.049062276,-0.022444061,0.301000000,-0.192838119,5.301351507,4.392623890,0.306456210,-0.003663713,0.028196062,-0.286974920
1751352764.097223520,-1.803723189,-1.143006325,-1.743177033,1.576208375,-0.346623000,-2.066091591,0.058926527,0.175045281,-0.049225274,-0.022518626,0.302000000,-0.193478777,5.300496961,4.392324626,0.306480422,-0.003665678,0.028196062,-0.286887225
1751352764.099141121,-1.803605141,-1.142655655,-1.743275646,1.576163263,-0.346018000,-2.066479189,0.059121648,0.175624901,-0.049388272,-0.022593191,0.303000000,-0.194119435,5.299638821,4.392023538,0.306504677,-0.003667646,0.028196063,-0.286799091
1751352764.101236820,-1.803486702,-1.142303826,-1.743374586,1.576118002,-0.345411000,-2.066868068,0.059316769,0.176204521,-0.049551269,-0.022667756,0.304000000,-0.194760094,5.298777080,4.391720618,0.306528974,-0.003669617,0.028196064,-0.286710516
1751352764.103203773,-1.803367874,-1.141950837,-1.743473851,1.576072592,-0.344802000,-2.067258229,0.059511890,0.176784141,-0.049714267,-0.022742321,0.305000000,-0.195400752,5.297911729,4.391415857,0.306553313,-0.003671591,0.028196065,-0.286621499
1751352764.105199814,-1.803248655,-1.141596689,-1.743573443,1.576027033,-0.344191000,-2.067649671,0.059707011,0.177363761,-0.049877264,-0.022816886,0.306000000,-0.196041410,5.297042762,4.391109248,0.306577693,-0.003673568,0.028196065,-0.286532038
1751352764.107205391,-1.803129046,-1.141241382,-1.743673360,1.575981325,-0.343578000,-2.068042395,0.059902132,0.177943382,-0.050040262,-0.022891451,0.307000000,-0.196682068,5.296170171,4.390800781,0.306602114,-0.003675548,0.028196066,-0.286442132
1751352764.109179974,-1.803009046,-1.140884915,-1.743773604,1.575935467,-0.342963000,-2.068436400,0.060097253,0.178523002,-0.050203260,-0.022966016,0.308000000,-0.197322726,5.295293948,4.390490449,0.306626576,-0.003677531,0.028196067,-0.286351779
1751352764.111179829,-1.802888657,-1.140527290,-1.743874173,1.575889461,-0.342346000,-2.068831686,0.060292374,0.179102622,-0.050366257,-0.023040581,0.309000000,-0.197963385,5.294414085,4.390178244,0.306651078,-0.003679516,0.028196067,-0.286260979
1751352764.113227844,-1.802767877,-1.140168505,-1.743975069,1.575843305,-0.341727000,-2.069228253,0.060487495,0.179682242,-0.050529255,-0.023115146,0.310000000,-0.198604043,5.293530575,4.389864156,0.306675620,-0.003681505,0.028196068,-0.286169731
1751352764.115180016,-1.802646707,-1.139808561,-1.744076290,1.575797000,-0.341106000,-2.069626102,0.060682615,0.180261862,-0.050692252,-0.023189711,0.311000000,-0.199244701,5.292643410,4.389548177,0.306700201,-0.003683496,0.028196069,-0.286078031
1751352764.123048782,-1.802646707,-1.139808561,-1.744076290,1.575797000,-0.341106000,-2.069626102,0.060682615,0.180261862,-0.050692252,-0.023189711,0.311000000,-0.199244701,5.292643410,4.389548177,0.306700201,-0.003683496,0.028196069,-0.286078031
1751352764.123106956,-1.802646707,-1.139808561,-1.744076290,1.575797000,-0.341106000,-2.069626102,0.060682615,0.180261862,-0.050692252,-0.023189711,0.311000000,-0.199244701,5.292643410,4.389548177,0.306700201,-0.003683496,0.028196069,-0.286078031
1751352764.123124361,-1.802158124,-1.138357192,-1.744484436,1.575610289,-0.338602000,-2.071230310,0.061463099,0.182580343,-0.051344243,-0.023487971,0.315000000,-0.201807334,5.289058041,4.388265188,0.306798912,-0.003691490,0.028196071,-0.285706703
1751352764.123140812,-1.802158124,-1.138357192,-1.744484436,1.575610289,-0.338602000,-2.071230310,0.061463099,0.182580343,-0.051344243,-0.023487971,0.315000000,-0.201807334,5.289058041,4.388265188,0.306798912,-0.003691490,0.028196071,-0.285706703
1751352764.125316620,-1.802035002,-1.137991452,-1.744587288,1.575563239,-0.337971000,-2.071634565,0.061658220,0.183159963,-0.051507240,-0.023562536,0.316000000,-0.202447992,5.288152483,4.387939629,0.306823684,-0.003693495,0.028196072,-0.285612732
1751352764.127379179,-1.802035002,-1.137991452,-1.744587288,1.575563239,-0.337971000,-2.071634565,0.061658220,0.183159963,-0.051507240,-0.023562536,0.316000000,-0.202447992,5.288152483,4.387939629,0.306823684,-0.003693495,0.028196072,-0.285612732
1751352764.129188061,-1.801787589,-1.137256493,-1.744793969,1.575468690,-0.336703000,-2.072446920,0.062048462,0.184319203,-0.051833236,-0.023711666,0.318000000,-0.203729308,5.286330251,4.387282677,0.306873340,-0.003697512,0.028196073,-0.285423412
1751352764.131338835,-1.801663297,-1.136887275,-1.744897798,1.575421192,-0.336066000,-2.072855019,0.062243583,0.184898823,-0.051996233,-0.023786231,0.319000000,-0.204369967,5.285413562,4.386951267,0.306898222,-0.003699525,0.028196074,-0.285328061
1751352764.133190870,-1.801538615,-1.136516898,-1.745001954,1.575373545,-0.335427000,-2.073264400,0.062438704,0.185478443,-0.052159231,-0.023860796,0.320000000,-0.205010625,5.284493146,4.386617889,0.306923141,-0.003701540,0.028196074,-0.285232247
1751352764.135653019,-1.801413542,-1.136145362,-1.745106435,1.575325749,-0.334786000,-2.073675062,0.062633825,0.186058063,-0.052322228,-0.023935361,0.321000000,-0.205651283,5.283568997,4.386282535,0.306948094,-0.003703558,0.028196075,-0.285135970
1751352764.138064861,-1.801413542,-1.136145362,-1.745106435,1.575325749,-0.334786000,-2.073675062,0.062633825,0.186058063,-0.052322228,-0.023935361,0.321000000,-0.205651283,5.283568997,4.386282535,0.306948094,-0.003703558,0.028196075,-0.285135970
1751352764.139335394,-1.801288079,-1.135772666,-1.745211243,1.575277804,-0.334143000,-2.074087005,0.062828946,0.186637684,-0.052485226,-0.024009926,0.322000000,-0.206291941,5.282641105,4.385945196,0.306973083,-0.003705578,0.028196076,-0.285039227
1751352764.141181231,-1.801162226,-1.135398811,-1.745316376,1.575229710,-0.333498000,-2.074500230,0.063024067,0.187217304,-0.052648223,-0.024084491,0.323000000,-0.206932599,5.281709463,4.385605863,0.306998107,-0.003707600,0.028196076,-0.284942017
1751352764.143156052,-1.801035983,-1.135023797,-1.745421836,1.575181466,-0.332851000,-2.074914735,0.063219188,0.187796924,-0.052811221,-0.024159056,0.324000000,-0.207573258,5.280774062,4.385264527,0.307023164,-0.003709625,0.028196077,-0.284844340
1751352764.145127535,-1.800909350,-1.134647623,-1.745527621,1.575133073,-0.332202000,-2.075330523,0.063414309,0.188376544,-0.052974219,-0.024233621,0.325000000,-0.208213916,5.279834895,4.384921180,0.307048256,-0.003711652,0.028196078,-0.284746193
1751352764.147180557,-1.800782326,-1.134270291,-1.745633733,1.575084532,-0.331551000,-2.075747591,0.063609430,0.188956164,-0.053137216,-0.024308186,0.326000000,-0.208854574,5.278891953,4.384575813,0.307073381,-0.003713681,0.028196078,-0.284647575
1751352764.149188757,-1.800654912,-1.133891799,-1.745740170,1.575035841,-0.330898000,-2.076165941,0.063804551,0.189535784,-0.053300214,-0.024382751,0.327000000,-0.209495232,5.277945228,4.384228417,0.307098539,-0.003715713,0.028196079,-0.284548484
1751352764.151255369,-1.800527108,-1.133512147,-1.745846933,1.574987001,-0.330243000,-2.076585572,0.063999672,0.190115404,-0.053463211,-0.024457315,0.328000000,-0.210135890,5.276994712,4.383878982,0.307123729,-0.003717747,0.028196079,-0.284448921
1751352764.153185844,-1.800398913,-1.133131337,-1.745954023,1.574938011,-0.329586000,-2.077006484,0.064194793,0.190695024,-0.053626209,-0.024531880,0.329000000,-0.210776549,5.276040397,4.383527501,0.307148952,-0.003719782,0.028196080,-0.284348882
1751352764.154994965,-1.800270329,-1.132749367,-1.746061438,1.574888873,-0.328927000,-2.077428678,0.064389914,0.191274645,-0.053789207,-0.024606445,0.330000000,-0.211417207,5.275082274,4.383173964,0.307174207,-0.003721820,0.028196080,-0.284248367
1751352764.157053947,-1.800141354,-1.132366238,-1.746169180,1.574839586,-0.328266000,-2.077852153,0.064585034,0.191854265,-0.053952204,-0.024681010,0.331000000,-0.212057865,5.274120335,4.382818362,0.307199493,-0.003723861,0.028196081,-0.284147374
1751352764.159180880,-1.800011988,-1.131981950,-1.746277247,1.574790149,-0.327603000,-2.078276910,0.064780155,0.192433885,-0.054115202,-0.024755575,0.332000000,-0.212698523,5.273154573,4.382460687,0.307224809,-0.003725903,0.028196082,-0.284045903
1751352764.161043644,-1.799882233,-1.131596503,-1.746385640,1.574740563,-0.326938000,-2.078702947,0.064975276,0.193013505,-0.054278199,-0.024830140,0.333000000,-0.213339181,5.272184977,4.382100929,0.307250157,-0.003727947,0.028196082,-0.283943950
1751352764.163227081,-1.799752087,-1.131209896,-1.746494360,1.574690828,-0.326271000,-2.079130266,0.065170397,0.193593125,-0.054441197,-0.024904705,0.334000000,-0.213979840,5.271211541,4.381739079,0.307275534,-0.003729993,0.028196083,-0.283841516
1751352764.165174961,-1.799621551,-1.130822130,-1.746603405,1.574640944,-0.325602000,-2.079558867,0.065365518,0.194172745,-0.054604195,-0.024979270,0.335000000,-0.214620498,5.270234255,4.381375128,0.307300942,-0.003732041,0.028196083,-0.283738599
1751352764.169809818,-1.799490625,-1.130433205,-1.746712777,1.574590911,-0.324931000,-2.079988748,0.065560639,0.194752365,-0.054767192,-0.025053835,0.336000000,-0.215261156,5.269253112,4.381009067,0.307326378,-0.003734091,0.028196084,-0.283635197
1751352764.171463013,-1.799490625,-1.130433205,-1.746712777,1.574590911,-0.324931000,-2.079988748,0.065560639,0.194752365,-0.054767192,-0.025053835,0.336000000,-0.215261156,5.269253112,4.381009067,0.307326378,-0.003734091,0.028196084,-0.283635197
1751352764.175713539,-1.799359309,-1.130043121,-1.746822474,1.574540729,-0.324258000,-2.080419911,0.065755760,0.195331986,-0.054930190,-0.025128400,0.337000000,-0.215901814,5.268268103,4.380640887,0.307351843,-0.003736142,0.028196084,-0.283531309
1751352764.175767660,-1.799095505,-1.129259474,-1.747042847,1.574439917,-0.322906000,-2.081286081,0.066146002,0.196491226,-0.055256185,-0.025277530,0.339000000,-0.217183131,5.266286453,4.379898133,0.307402858,-0.003740251,0.028196085,-0.283322070
1751352764.175786018,-1.799095505,-1.129259474,-1.747042847,1.574439917,-0.322906000,-2.081286081,0.066146002,0.196491226,-0.055256185,-0.025277530,0.339000000,-0.217183131,5.266286453,4.379898133,0.307402858,-0.003740251,0.028196085,-0.283322070
1751352764.177386284,-1.798963018,-1.128865912,-1.747153522,1.574389288,-0.322227000,-2.081721088,0.066341123,0.197070846,-0.055419183,-0.025352095,0.340000000,-0.217823789,5.265289794,4.379523541,0.307428408,-0.003742308,0.028196086,-0.283216716
1751352764.179255247,-1.798830141,-1.128471191,-1.747264523,1.574338509,-0.321546000,-2.082157376,0.066536244,0.197650466,-0.055582180,-0.025426660,0.341000000,-0.218464447,5.264289236,4.379146793,0.307453984,-0.003744367,0.028196086,-0.283110870
1751352764.181233883,-1.798696873,-1.128075311,-1.747375851,1.574287581,-0.320863000,-2.082594946,0.066731365,0.198230086,-0.055745178,-0.025501225,0.342000000,-0.219105105,5.263284769,4.378767880,0.307479587,-0.003746427,0.028196087,-0.283004532
1751352764.183133841,-1.798563215,-1.127678271,-1.747487504,1.574236504,-0.320178000,-2.083033797,0.066926486,0.198809706,-0.055908175,-0.025575790,0.343000000,-0.219745763,5.262276385,4.378386792,0.307505216,-0.003748489,0.028196087,-0.282897699
1751352764.185130596,-1.798429167,-1.127280072,-1.747599484,1.574185278,-0.319491000,-2.083473929,0.067121607,0.199389327,-0.056071173,-0.025650355,0.344000000,-0.220386422,5.261264074,4.378003521,0.307530871,-0.003750552,0.028196088,-0.282790370
1751352764.188099623,-1.798429167,-1.127280072,-1.747599484,1.574185278,-0.319491000,-2.083473929,0.067121607,0.199389327,-0.056071173,-0.025650355,0.344000000,-0.220386422,5.261264074,4.378003521,0.307530871,-0.003750552,0.028196088,-0.282790370
1751352764.189217329,-1.798294729,-1.126880713,-1.747711789,1.574133903,-0.318802000,-2.083915343,0.067316728,0.199968947,-0.056234171,-0.025724920,0.345000000,-0.221027080,5.260247830,4.377618057,0.307556552,-0.003752617,0.028196088,-0.282682544
1751352764.191144228,-1.798159900,-1.126480196,-1.747824420,1.574082378,-0.318111000,-2.084358037,0.067511849,0.200548567,-0.056397168,-0.025799485,0.346000000,-0.221667738,5.259227642,4.377230391,0.307582257,-0.003754684,0.028196088,-0.282574220
1751352764.193068266,-1.798024682,-1.126078519,-1.747937378,1.574030705,-0.317418000,-2.084802013,0.067706970,0.201128187,-0.056560166,-0.025874050,0.347000000,-0.222308396,5.258203502,4.376840512,0.307607987,-0.003756751,0.028196089,-0.282465396
1751352764.195189953,-1.797889072,-1.125675683,-1.748050661,1.573978882,-0.316723000,-2.085247271,0.067902091,0.201707807,-0.056723163,-0.025948615,0.348000000,-0.222949054,5.257175402,4.376448413,0.307633741,-0.003758821,0.028196089,-0.282356070
1751352764.197139740,-1.797753073,-1.125271688,-1.748164270,1.573926910,-0.316026000,-2.085693810,0.068097212,0.202287427,-0.056886161,-0.026023180,0.349000000,-0.223589713,5.256143333,4.376054083,0.307659519,-0.003760891,0.028196090,-0.282246242
1751352764.199200869,-1.797616684,-1.124866533,-1.748278205,1.573874789,-0.315327000,-2.086141630,0.068292333,0.202867047,-0.057049159,-0.026097745,0.350000000,-0.224230371,5.255107285,4.375657513,0.307685319,-0.003762963,0.028196090,-0.282135910
1751352764.201128960,-1.797479904,-1.124460220,-1.748392467,1.573822519,-0.314626000,-2.086590731,0.068487453,0.203446667,-0.057212156,-0.026172310,0.351000000,-0.224871029,5.254067251,4.375258693,0.307711143,-0.003765037,0.028196091,-0.282025073
1751352764.203050137,-1.797342734,-1.124052747,-1.748507054,1.573770100,-0.313923000,-2.087041114,0.068682574,0.204026288,-0.057375154,-0.026246875,0.352000000,-0.225511687,5.253023221,4.374857614,0.307736989,-0.003767111,0.028196091,-0.281913728
1751352764.205029011,-1.797205174,-1.123644115,-1.748621967,1.573717532,-0.313218000,-2.087492778,0.068877695,0.204605908,-0.057538151,-0.026321440,0.353000000,-0.226152345,5.251975186,4.374454267,0.307762857,-0.003769187,0.028196091,-0.281801875
1751352764.207033157,-1.797067223,-1.123234323,-1.748737207,1.573664814,-0.312511000,-2.087945723,0.069072816,0.205185528,-0.057701149,-0.026396005,0.354000000,-0.226793004,5.250923138,4.374048642,0.307788746,-0.003771263,0.028196092,-0.281689513
1751352764.209056616,-1.796928882,-1.122823372,-1.748852772,1.573611948,-0.311802000,-2.088399950,0.069267937,0.205765148,-0.057864147,-0.026470570,0.355000000,-0.227433662,5.249867067,4.373640728,0.307814656,-0.003773341,0.028196092,-0.281576640
1751352764.211084604,-1.796790151,-1.122411263,-1.748968663,1.573558932,-0.311091000,-2.088855458,0.069463058,0.206344768,-0.058027144,-0.026545135,0.356000000,-0.228074320,5.248806966,4.373230518,0.307840586,-0.003775420,0.028196092,-0.281463254
1751352764.221366644,-1.796651030,-1.121997993,-1.749084881,1.573505767,-0.310378000,-2.089312247,0.069658179,0.206924388,-0.058190142,-0.026619700,0.357000000,-0.228714978,5.247742824,4.372818000,0.307866537,-0.003777500,0.028196093,-0.281349355
1751352764.221433640,-1.796511519,-1.121583565,-1.749201424,1.573452453,-0.309663000,-2.089770318,0.069853300,0.207504008,-0.058353139,-0.026694265,0.358000000,-0.229355636,5.246674633,4.372403166,0.307892507,-0.003779581,0.028196093,-0.281234940
1751352764.221847057,-1.796231325,-1.120751230,-1.749435488,1.573345378,-0.308227000,-2.090690303,0.070243542,0.208663249,-0.058679135,-0.026843395,0.360000000,-0.230636953,5.244526067,4.371566508,0.307944505,-0.003783746,0.028196094,-0.281004559
1751352764.223545551,-1.796090643,-1.120333324,-1.749553010,1.573291616,-0.307506000,-2.091152218,0.070438663,0.209242869,-0.058842132,-0.026917960,0.361000000,-0.231277611,5.243445674,4.371144665,0.307970531,-0.003785829,0.028196094,-0.280888591
1751352764.225275040,-1.795949570,-1.119914259,-1.749670857,1.573237706,-0.306783000,-2.091615413,0.070633784,0.209822489,-0.059005130,-0.026992525,0.362000000,-0.231918269,5.242361196,4.370720466,0.307996575,-0.003787914,0.028196094,-0.280772101
1751352764.227152586,-1.795808108,-1.119494034,-1.749789030,1.573183646,-0.306058000,-2.092079891,0.070828905,0.210402109,-0.059168127,-0.027067090,0.363000000,-0.232558927,5.241272624,4.370293902,0.308022636,-0.003789999,0.028196095,-0.280655089
1751352764.229223728,-1.795666255,-1.119072651,-1.749907529,1.573129438,-0.305331000,-2.092545649,0.071024026,0.210981729,-0.059331125,-0.027141655,0.364000000,-0.233199586,5.240179948,4.369864962,0.308048715,-0.003792085,0.028196095,-0.280537554
1751352764.231160164,-1.795524011,-1.118650107,-1.750026355,1.573075080,-0.304602000,-2.093012689,0.071219147,0.211561349,-0.059494123,-0.027216220,0.365000000,-0.233840244,5.239083159,4.369433638,0.308074809,-0.003794172,0.028196095,-0.280419494
1751352764.233226061,-1.795381378,-1.118226405,-1.750145506,1.573020573,-0.303871000,-2.093481010,0.071414268,0.212140969,-0.059657120,-0.027290785,0.366000000,-0.234480902,5.237982249,4.368999918,0.308100920,-0.003796259,0.028196096,-0.280300908
1751352764.237185001,-1.795238354,-1.117801544,-1.750264983,1.572965917,-0.303138000,-2.093950613,0.071609389,0.212720590,-0.059820118,-0.027365350,0.367000000,-0.235121560,5.236877207,4.368563793,0.308127046,-0.003798347,0.028196096,-0.280181793
1751352764.237255573,-1.795094940,-1.117375523,-1.750384786,1.572911111,-0.302403000,-2.094421496,0.071804510,0.213300210,-0.059983115,-0.027439915,0.368000000,-0.235762218,5.235768025,4.368125253,0.308153187,-0.003800435,0.028196096,-0.280062150
