mathias31415/motion_primitives_from_planned_trajectory/data/trajectory_20250701_092904_executed.csv
timestamp,shoulder_lift_joint_pos,elbow_joint_pos,wrist_1_joint_pos,wrist_2_joint_pos,wrist_3_joint_pos,shoulder_pan_joint_pos,shoulder_lift_joint_vel,elbow_joint_vel,wrist_1_joint_vel,wrist_2_joint_vel,wrist_3_joint_vel,shoulder_pan_joint_vel,shoulder_lift_joint_eff,elbow_joint_eff,wrist_1_joint_eff,wrist_2_joint_eff,wrist_3_joint_eff,shoulder_pan_joint_eff
1751354976.788923502,-1.651495000,-1.769945000,-1.318355000,1.592974000,-0.112136000,-1.681708000,0.000000000,0.000000000,0.000000000,0.000000000,0.000000000,0.000000000,3.945148732,4.135912158,0.300399814,0.001830045,0.000000000,0.000000000
1751354976.790812254,-1.651495000,-1.769945000,-1.318355000,1.592974000,-0.112136000,-1.681708000,0.000000000,0.000000000,0.000000000,0.000000000,0.000000000,0.000000000,3.945148732,4.135912158,0.300399814,0.001830045,0.000000000,0.000000000
1751354976.792653561,-1.651495000,-1.769945000,-1.318355000,1.592974000,-0.112136000,-1.681708000,0.000000000,0.000000000,0.000000000,0.000000000,0.000000000,0.000000000,3.945148732,4.135912158,0.300399814,0.001830045,0.000000000,0.000000000
1751354976.794784546,-1.651495000,-1.769945000,-1.318355000,1.592974000,-0.112136000,-1.681708000,0.000000000,0.000000000,0.000000000,0.000000000,0.000000000,0.000000000,3.945148732,4.135912158,0.300399814,0.001830045,0.000000000,0.000000000
1751354976.796684742,-1.651495000,-1.769945000,-1.318355000,1.592974000,-0.112136000,-1.681708000,0.000000000,0.000000000,0.000000000,0.000000000,0.000000000,0.000000000,3.945148732,4.135912158,0.300399814,0.001830045,0.000000000,0.000000000
1751354976.798701763,-1.651495000,-1.769945000,-1.318355000,1.592974000,-0.112136000,-1.681708000,0.000000000,0.000000000,0.000000000,0.000000000,0.000000000,0.000000000,3.945148732,4.135912158,0.300399814,0.001830045,0.000000000,0.000000000
1751354976.800832987,-1.651495000,-1.769945000,-1.318355000,1.592974000,-0.112136000,-1.681708000,0.000000000,0.000000000,0.000000000,0.000000000,0.000000000,0.000000000,3.945148732,4.135912158,0.300399814,0.001830045,0.000000000,0.000000000
1751354976.802814484,-1.651495000,-1.769945000,-1.318355000,1.592974000,-0.112136000,-1.681708000,0.000000000,0.000000000,0.000000000,0.000000000,0.000000000,0.000000000,3.945148732,4.135912158,0.300399814,0.001830045,0.000000000,0.000000000
1751354976.806838274,-1.651495000,-1.769945000,-1.318355000,1.592974000,-0.112136000,-1.681708000,0.000000000,0.000000000,0.000000000,0.000000000,0.000000000,0.000000000,3.945148732,4.135912158,0.300399814,0.001830045,0.000000000,0.000000000
1751354976.807036161,-1.651495000,-1.769945000,-1.318355000,1.592974000,-0.112136000,-1.681708000,0.000000000,0.000000000,0.000000000,0.000000000,0.000000000,0.000000000,3.945148732,4.135912158,0.300399814,0.001830045,0.000000000,0.000000000
1751354976.808712482,-1.651495000,-1.769945000,-1.318355000,1.592974000,-0.112136000,-1.681708000,0.000000000,0.000000000,0.000000000,0.000000000,0.000000000,0.000000000,3.945148732,4.135912158,0.300399814,0.001830045,0.000000000,0.000000000
1751354976.816323042,-1.651495000,-1.769945000,-1.318355000,1.592974000,-0.112136000,-1.681708000,0.000000000,0.000000000,0.000000000,0.000000000,0.000000000,0.000000000,3.945148732,4.135912158,0.300399814,0.001830045,0.000000000,0.000000000
1751354976.818763971,-1.651495000,-1.769945000,-1.318355000,1.592974000,-0.112136000,-1.681708000,0.000000000,0.000000000,0.000000000,0.000000000,0.000000000,0.000000000,3.945148732,4.135912158,0.300399814,0.001830045,0.000000000,0.000000000
1751354976.818828821,-1.651495000,-1.769945000,-1.318355000,1.592974000,-0.112136000,-1.681708000,0.000000000,0.000000000,0.000000000,0.000000000,0.000000000,0.000000000,3.945148732,4.135912158,0.300399814,0.001830045,0.000000000,0.000000000
1751354976.820276499,-1.651495000,-1.769945000,-1.318355000,1.592974000,-0.112136000,-1.681708000,0.000000000,0.000000000,0.000000000,0.000000000,0.000000000,0.000000000,3.945148732,4.135912158,0.300399814,0.001830045,0.000000000,0.000000000
1751354976.822159052,-1.651495000,-1.769945000,-1.318355000,1.592974000,-0.112136000,-1.681708000,0.000000000,0.000000000,0.000000000,0.000000000,0.000000000,0.000000000,3.945148732,4.135912158,0.300399814,0.001830045,0.000000000,0.000000000
1751354976.824664831,-1.651495000,-1.769945000,-1.318355000,1.592974000,-0.112136000,-1.681708000,0.000000000,0.000000000,0.000000000,0.000000000,0.000000000,0.000000000,3.945148732,4.135912158,0.300399814,0.001830045,0.000000000,0.000000000
1751354976.828552008,-1.651495000,-1.769945000,-1.318355000,1.592974000,-0.112136000,-1.681708000,0.000000000,0.000000000,0.000000000,0.000000000,0.000000000,0.000000000,3.945148732,4.135912158,0.300399814,0.001830045,0.000000000,0.000000000
1751354976.828679085,-1.651495000,-1.769945000,-1.318355000,1.592974000,-0.112136000,-1.681708000,0.000000000,0.000000000,0.000000000,0.000000000,0.000000000,0.000000000,3.945148732,4.135912158,0.300399814,0.001830045,0.000000000,0.000000000
1751354976.830774784,-1.651495000,-1.769945000,-1.318355000,1.592974000,-0.112136000,-1.681708000,0.000000000,0.000000000,0.000000000,0.000000000,0.000000000,0.000000000,3.945148732,4.135912158,0.300399814,0.001830045,0.000000000,0.000000000
1751354976.835144758,-1.651495000,-1.769945000,-1.318355000,1.592974000,-0.112136000,-1.681708000,0.000000000,0.000000000,0.000000000,0.000000000,0.000000000,0.000000000,3.945148732,4.135912158,0.300399814,0.001830045,0.000000000,0.000000000
1751354976.835727453,-1.651495000,-1.769945000,-1.318355000,1.592974000,-0.112136000,-1.681708000,0.000000000,0.000000000,0.000000000,0.000000000,0.000000000,0.000000000,3.945148732,4.135912158,0.300399814,0.001830045,0.000000000,0.000000000
1751354976.836756945,-1.651495000,-1.769945000,-1.318355000,1.592974000,-0.112136000,-1.681708000,0.000000000,0.000000000,0.000000000,0.000000000,0.000000000,0.000000000,3.945148732,4.135912158,0.300399814,0.001830045,0.000000000,0.000000000
1751354976.838844061,-1.651495000,-1.769945000,-1.318355000,1.592974000,-0.112136000,-1.681708000,0.000000000,0.000000000,0.000000000,0.000000000,0.000000000,0.000000000,3.945148732,4.135912158,0.300399814,0.001830045,0.000000000,0.000000000
1751354976.840882540,-1.651495000,-1.769945000,-1.318355000,1.592974000,-0.112136000,-1.681708000,0.000000000,0.000000000,0.000000000,0.000000000,0.000000000,0.000000000,3.945148732,4.135912158,0.300399814,0.001830045,0.000000000,0.000000000
1751354976.842954159,-1.651495000,-1.769945000,-1.318355000,1.592974000,-0.112136000,-1.681708000,0.000000000,0.000000000,0.000000000,0.000000000,0.000000000,0.000000000,3.945148732,4.135912158,0.300399814,0.001830045,0.000000000,0.000000000
1751354976.844944239,-1.651495000,-1.769945000,-1.318355000,1.592974000,-0.112136000,-1.681708000,0.000000000,0.000000000,0.000000000,0.000000000,0.000000000,0.000000000,3.945148732,4.135912158,0.300399814,0.001830045,0.000000000,0.000000000
1751354976.846915483,-1.651495000,-1.769945000,-1.318355000,1.592974000,-0.112136000,-1.681708000,0.000000000,0.000000000,0.000000000,0.000000000,0.000000000,0.000000000,3.945148732,4.135912158,0.300399814,0.001830045,0.000000000,0.000000000
1751354976.853895664,-1.651495000,-1.769945000,-1.318355000,1.592974000,-0.112136000,-1.681708000,0.000000000,0.000000000,0.000000000,0.000000000,0.000000000,0.000000000,3.945148732,4.135912158,0.300399814,0.001830045,0.000000000,0.000000000
1751354976.854709864,-1.651495000,-1.769945000,-1.318355000,1.592974000,-0.112136000,-1.681708000,0.000000000,0.000000000,0.000000000,0.000000000,0.000000000,0.000000000,3.945148732,4.135912158,0.300399814,0.001830045,0.000000000,0.000000000
1751354976.854828119,-1.651495000,-1.769945000,-1.318355000,1.592974000,-0.112136000,-1.681708000,0.000000000,0.000000000,0.000000000,0.000000000,0.000000000,0.000000000,3.945148732,4.135912158,0.300399814,0.001830045,0.000000000,0.000000000
1751354976.856930971,-1.651495000,-1.769945000,-1.318355000,1.592974000,-0.112136000,-1.681708000,0.000000000,0.000000000,0.000000000,0.000000000,0.000000000,0.000000000,3.945148732,4.135912158,0.300399814,0.001830045,0.000000000,0.000000000
1751354976.859217644,-1.651495000,-1.769945000,-1.318355000,1.592974000,-0.112136000,-1.681708000,0.000000000,0.000000000,0.000000000,0.000000000,0.000000000,0.000000000,3.945148732,4.135912158,0.300399814,0.001830045,0.000000000,0.000000000
1751354976.861013174,-1.651495000,-1.769945000,-1.318355000,1.592974000,-0.112136000,-1.681708000,0.000000000,0.000000000,0.000000000,0.000000000,0.000000000,0.000000000,3.945148732,4.135912158,0.300399814,0.001830045,0.000000000,0.000000000
1751354976.863084316,-1.651495000,-1.769945000,-1.318355000,1.592974000,-0.112136000,-1.681708000,0.000000000,0.000000000,0.000000000,0.000000000,0.000000000,0.000000000,3.945148732,4.135912158,0.300399814,0.001830045,0.000000000,0.000000000
1751354976.865126371,-1.651495000,-1.769945000,-1.318355000,1.592974000,-0.112136000,-1.681708000,0.000000000,0.000000000,0.000000000,0.000000000,0.000000000,0.000000000,3.945148732,4.135912158,0.300399814,0.001830045,0.000000000,0.000000000
1751354976.867781878,-1.651495000,-1.769945000,-1.318355000,1.592974000,-0.112136000,-1.681708000,0.000000000,0.000000000,0.000000000,0.000000000,0.000000000,0.000000000,3.945148732,4.135912158,0.300399814,0.001830045,0.000000000,0.000000000
1751354976.869930029,-1.651495000,-1.769945000,-1.318355000,1.592974000,-0.112136000,-1.681708000,0.000000000,0.000000000,0.000000000,0.000000000,0.000000000,0.000000000,3.945148732,4.135912158,0.300399814,0.001830045,0.000000000,0.000000000
1751354976.871228456,-1.651495000,-1.769945000,-1.318355000,1.592974000,-0.112136000,-1.681708000,0.000000000,0.000000000,0.000000000,0.000000000,0.000000000,0.000000000,3.945148732,4.135912158,0.300399814,0.001830045,0.000000000,0.000000000
1751354976.873218775,-1.651495000,-1.769945000,-1.318355000,1.592974000,-0.112136000,-1.681708000,0.000000000,0.000000000,0.000000000,0.000000000,0.000000000,0.000000000,3.945148732,4.135912158,0.300399814,0.001830045,0.000000000,0.000000000
1751354976.874996901,-1.651495000,-1.769945000,-1.318355000,1.592974000,-0.112136000,-1.681708000,0.000000000,0.000000000,0.000000000,0.000000000,0.000000000,0.000000000,3.945148732,4.135912158,0.300399814,0.001830045,0.000000000,0.000000000
1751354976.877062082,-1.651495000,-1.769945000,-1.318355000,1.592974000,-0.112136000,-1.681708000,0.000000000,0.000000000,0.000000000,0.000000000,0.000000000,0.000000000,3.945148732,4.135912158,0.300399814,0.001830045,0.000000000,0.000000000
1751354976.879257917,-1.651495000,-1.769945000,-1.318355000,1.592974000,-0.112136000,-1.681708000,0.000000000,0.000000000,0.000000000,0.000000000,0.000000000,0.000000000,3.945148732,4.135912158,0.300399814,0.001830045,0.000000000,0.000000000
1751354976.881141663,-1.651495000,-1.769945000,-1.318355000,1.592974000,-0.112136000,-1.681708000,0.000000000,0.000000000,0.000000000,0.000000000,0.000000000,0.000000000,3.945148732,4.135912158,0.300399814,0.001830045,0.000000000,0.000000000
1751354976.883270025,-1.651495000,-1.769945000,-1.318355000,1.592974000,-0.112136000,-1.681708000,0.000000000,0.000000000,0.000000000,0.000000000,0.000000000,0.000000000,3.945148732,4.135912158,0.300399814,0.001830045,0.000000000,0.000000000
1751354976.884922266,-1.651495000,-1.769945000,-1.318355000,1.592974000,-0.112136000,-1.681708000,0.000000000,0.000000000,0.000000000,0.000000000,0.000000000,0.000000000,3.945148732,4.135912158,0.300399814,0.001830045,0.000000000,0.000000000
1751354976.887021065,-1.651495000,-1.769945000,-1.318355000,1.592974000,-0.112136000,-1.681708000,0.000000000,0.000000000,0.000000000,0.000000000,0.000000000,0.000000000,3.945148732,4.135912158,0.300399814,0.001830045,0.000000000,0.000000000
1751354976.889091492,-1.651495000,-1.769945000,-1.318355000,1.592974000,-0.112136000,-1.681708000,0.000000000,0.000000000,0.000000000,0.000000000,0.000000000,0.000000000,3.945148732,4.135912158,0.300399814,0.001830045,0.000000000,0.000000000
1751354976.890895844,-1.651495000,-1.769945000,-1.318355000,1.592974000,-0.112136000,-1.681708000,0.000000000,0.000000000,0.000000000,0.000000000,0.000000000,0.000000000,3.945148732,4.135912158,0.300399814,0.001830045,0.000000000,0.000000000
1751354976.893090725,-1.651495000,-1.769945000,-1.318355000,1.592974000,-0.112136000,-1.681708000,0.000000000,0.000000000,0.000000000,0.000000000,0.000000000,0.000000000,3.945148732,4.135912158,0.300399814,0.001830045,0.000000000,0.000000000
1751354976.894942522,-1.651495000,-1.769945000,-1.318355000,1.592974000,-0.112136000,-1.681708000,0.000000000,0.000000000,0.000000000,0.000000000,0.000000000,0.000000000,3.945148732,4.135912158,0.300399814,0.001830045,0.000000000,0.000000000
1751354976.896831751,-1.651495000,-1.769945000,-1.318355000,1.592974000,-0.112136000,-1.681708000,0.000000000,0.000000000,0.000000000,0.000000000,0.000000000,0.000000000,3.945148732,4.135912158,0.300399814,0.001830045,0.000000000,0.000000000
1751354976.903262138,-1.651495000,-1.769945000,-1.318355000,1.592974000,-0.112136000,-1.681708000,0.000000000,0.000000000,0.000000000,0.000000000,0.000000000,0.000000000,3.945148732,4.135912158,0.300399814,0.001830045,0.000000000,0.000000000
1751354976.903315783,-1.651495000,-1.769945000,-1.318355000,1.592974000,-0.112136000,-1.681708000,0.000000000,0.000000000,0.000000000,0.000000000,0.000000000,0.000000000,3.945148732,4.135912158,0.300399814,0.001830045,0.000000000,0.000000000
1751354976.903331757,-1.651495000,-1.769945000,-1.318355000,1.592974000,-0.112136000,-1.681708000,0.000000000,0.000000000,0.000000000,0.000000000,0.000000000,0.000000000,3.945148732,4.135912158,0.300399814,0.001830045,0.000000000,0.000000000
1751354976.905134678,-1.651495000,-1.769945000,-1.318355000,1.592974000,-0.112136000,-1.681708000,0.000000000,0.000000000,0.000000000,0.000000000,0.000000000,0.000000000,3.945148732,4.135912158,0.300399814,0.001830045,0.000000000,0.000000000
1751354976.907173395,-1.651495000,-1.769945000,-1.318355000,1.592974000,-0.112136000,-1.681708000,0.000000000,0.000000000,0.000000000,0.000000000,0.000000000,0.000000000,3.945148732,4.135912158,0.300399814,0.001830045,0.000000000,0.000000000
1751354976.910481215,-1.651495000,-1.769945000,-1.318355000,1.592974000,-0.112136000,-1.681708000,0.000000000,0.000000000,0.000000000,0.000000000,0.000000000,0.000000000,3.945148732,4.135912158,0.300399814,0.001830045,0.000000000,0.000000000
1751354976.910909653,-1.651495000,-1.769945000,-1.318355000,1.592974000,-0.112136000,-1.681708000,0.000000000,0.000000000,0.000000000,0.000000000,0.000000000,0.000000000,3.945148732,4.135912158,0.300399814,0.001830045,0.000000000,0.000000000
1751354976.914680004,-1.651495000,-1.769945000,-1.318355000,1.592974000,-0.112136000,-1.681708000,0.000000000,0.000000000,0.000000000,0.000000000,0.000000000,0.000000000,3.945148732,4.135912158,0.300399814,0.001830045,0.000000000,0.000000000
1751354976.915330410,-1.651495000,-1.769945000,-1.318355000,1.592974000,-0.112136000,-1.681708000,0.000000000,0.000000000,0.000000000,0.000000000,0.000000000,0.000000000,3.945148732,4.135912158,0.300399814,0.001830045,0.000000000,0.000000000
1751354976.917016506,-1.651495000,-1.769945000,-1.318355000,1.592974000,-0.112136000,-1.681708000,0.000000000,0.000000000,0.000000000,0.000000000,0.000000000,0.000000000,3.945148732,4.135912158,0.300399814,0.001830045,0.000000000,0.000000000
1751354976.918993235,-1.651495000,-1.769945000,-1.318355000,1.592974000,-0.112136000,-1.681708000,0.000000000,0.000000000,0.000000000,0.000000000,0.000000000,0.000000000,3.945148732,4.135912158,0.300399814,0.001830045,0.000000000,0.000000000
1751354976.920864582,-1.651495000,-1.769945000,-1.318355000,1.592974000,-0.112136000,-1.681708000,0.000000000,0.000000000,0.000000000,0.000000000,0.000000000,0.000000000,3.945148732,4.135912158,0.300399814,0.001830045,0.000000000,0.000000000
1751354976.924950123,-1.651495000,-1.769945000,-1.318355000,1.592974000,-0.112136000,-1.681708000,0.000000000,0.000000000,0.000000000,0.000000000,0.000000000,0.000000000,3.945148732,4.135912158,0.300399814,0.001830045,0.000000000,0.000000000
1751354976.925341368,-1.651495000,-1.769945000,-1.318355000,1.592974000,-0.112136000,-1.681708000,0.000000000,0.000000000,0.000000000,0.000000000,0.000000000,0.000000000,3.945148732,4.135912158,0.300399814,0.001830045,0.000000000,0.000000000
1751354976.929316282,-1.651495000,-1.769945000,-1.318355000,1.592974000,-0.112136000,-1.681708000,0.000000000,0.000000000,0.000000000,0.000000000,0.000000000,0.000000000,3.945148732,4.135912158,0.300399814,0.001830045,0.000000000,0.000000000
1751354976.929533243,-1.651495000,-1.769945000,-1.318355000,1.592974000,-0.112136000,-1.681708000,0.000000000,0.000000000,0.000000000,0.000000000,0.000000000,0.000000000,3.945148732,4.135912158,0.300399814,0.001830045,0.000000000,0.000000000
1751354976.930889845,-1.651495000,-1.769945000,-1.318355000,1.592974000,-0.112136000,-1.681708000,0.000000000,0.000000000,0.000000000,0.000000000,0.000000000,0.000000000,3.945148732,4.135912158,0.300399814,0.001830045,0.000000000,0.000000000
1751354976.933287382,-1.651495000,-1.769945000,-1.318355000,1.592974000,-0.112136000,-1.681708000,0.000000000,0.000000000,0.000000000,0.000000000,0.000000000,0.000000000,3.945148732,4.135912158,0.300399814,0.001830045,0.000000000,0.000000000
1751354976.934886932,-1.651495000,-1.769945000,-1.318355000,1.592974000,-0.112136000,-1.681708000,0.000000000,0.000000000,0.000000000,0.000000000,0.000000000,0.000000000,3.945148732,4.135912158,0.300399814,0.001830045,0.000000000,0.000000000
1751354976.936861515,-1.651495000,-1.769945000,-1.318355000,1.592974000,-0.112136000,-1.681708000,0.000000000,0.000000000,0.000000000,0.000000000,0.000000000,0.000000000,3.945148732,4.135912158,0.300399814,0.001830045,0.000000000,0.000000000
1751354976.939695597,-1.651495000,-1.769945000,-1.318355000,1.592974000,-0.112136000,-1.681708000,0.000000000,0.000000000,0.000000000,0.000000000,0.000000000,0.000000000,3.945148732,4.135912158,0.300399814,0.001830045,0.000000000,0.000000000
1751354976.942097902,-1.651495000,-1.769945000,-1.318355000,1.592974000,-0.112136000,-1.681708000,0.000000000,0.000000000,0.000000000,0.000000000,0.000000000,0.000000000,3.945148732,4.135912158,0.300399814,0.001830045,0.000000000,0.000000000
1751354976.943845987,-1.651495000,-1.769945000,-1.318355000,1.592974000,-0.112136000,-1.681708000,0.000000000,0.000000000,0.000000000,0.000000000,0.000000000,0.000000000,3.945148732,4.135912158,0.300399814,0.001830045,0.000000000,0.000000000
1751354976.944849491,-1.651495000,-1.769945000,-1.318355000,1.592974000,-0.112136000,-1.681708000,0.000000000,0.000000000,0.000000000,0.000000000,0.000000000,0.000000000,3.945148732,4.135912158,0.300399814,0.001830045,0.000000000,0.000000000
1751354976.947240114,-1.651495000,-1.769945000,-1.318355000,1.592974000,-0.112136000,-1.681708000,0.000000000,0.000000000,0.000000000,0.000000000,0.000000000,0.000000000,3.945148732,4.135912158,0.300399814,0.001830045,0.000000000,0.000000000
1751354976.948991537,-1.651495000,-1.769945000,-1.318355000,1.592974000,-0.112136000,-1.681708000,0.000000000,0.000000000,0.000000000,0.000000000,0.000000000,0.000000000,3.945148732,4.135912158,0.300399814,0.001830045,0.000000000,0.000000000
1751354976.950850964,-1.651495000,-1.769945000,-1.318355000,1.592974000,-0.112136000,-1.681708000,0.000000000,0.000000000,0.000000000,0.000000000,0.000000000,0.000000000,3.945148732,4.135912158,0.300399814,0.001830045,0.000000000,0.000000000
1751354976.952950954,-1.651495000,-1.769945000,-1.318355000,1.592974000,-0.112136000,-1.681708000,0.000000000,0.000000000,0.000000000,0.000000000,0.000000000,0.000000000,3.945148732,4.135912158,0.300399814,0.001830045,0.000000000,0.000000000
1751354976.955335379,-1.651495000,-1.769945000,-1.318355000,1.592974000,-0.112136000,-1.681708000,0.000000000,0.000000000,0.000000000,0.000000000,0.000000000,0.000000000,3.945148732,4.135912158,0.300399814,0.001830045,0.000000000,0.000000000
1751354976.956826210,-1.651495000,-1.769945000,-1.318355000,1.592974000,-0.112136000,-1.681708000,0.000000000,0.000000000,0.000000000,0.000000000,0.000000000,0.000000000,3.945148732,4.135912158,0.300399814,0.001830045,0.000000000,0.000000000
1751354976.958992958,-1.651495000,-1.769945000,-1.318355000,1.592974000,-0.112136000,-1.681708000,0.000000000,0.000000000,0.000000000,0.000000000,0.000000000,0.000000000,3.945148732,4.135912158,0.300399814,0.001830045,0.000000000,0.000000000
1751354976.961255789,-1.651495000,-1.769945000,-1.318355000,1.592974000,-0.112136000,-1.681708000,0.000000000,0.000000000,0.000000000,0.000000000,0.000000000,0.000000000,3.945148732,4.135912158,0.300399814,0.001830045,0.000000000,0.000000000
1751354976.962903976,-1.651495000,-1.769945000,-1.318355000,1.592974000,-0.112136000,-1.681708000,0.000000000,0.000000000,0.000000000,0.000000000,0.000000000,0.000000000,3.945148732,4.135912158,0.300399814,0.001830045,0.000000000,0.000000000
1751354976.965019226,-1.651495000,-1.769945000,-1.318355000,1.592974000,-0.112136000,-1.681708000,0.000000000,0.000000000,0.000000000,0.000000000,0.000000000,0.000000000,3.945148732,4.135912158,0.300399814,0.001830045,0.000000000,0.000000000
1751354976.966991663,-1.651495000,-1.769945000,-1.318355000,1.592974000,-0.112136000,-1.681708000,0.000000000,0.000000000,0.000000000,0.000000000,0.000000000,0.000000000,3.945148732,4.135912158,0.300399814,0.001830045,0.000000000,0.000000000
1751354976.968901396,-1.651495000,-1.769945000,-1.318355000,1.592974000,-0.112136000,-1.681708000,0.000000000,0.000000000,0.000000000,0.000000000,0.000000000,0.000000000,3.945148732,4.135912158,0.300399814,0.001830045,0.000000000,0.000000000
1751354976.971059799,-1.651495000,-1.769945000,-1.318355000,1.592974000,-0.112136000,-1.681708000,0.000000000,0.000000000,0.000000000,0.000000000,0.000000000,0.000000000,3.945148732,4.135912158,0.300399814,0.001830045,0.000000000,0.000000000
1751354976.973313570,-1.651495000,-1.769945000,-1.318355000,1.592974000,-0.112136000,-1.681708000,0.000000000,0.000000000,0.000000000,0.000000000,0.000000000,0.000000000,3.945148732,4.135912158,0.300399814,0.001830045,0.000000000,0.000000000
1751354976.974840641,-1.651495000,-1.769945000,-1.318355000,1.592974000,-0.112136000,-1.681708000,0.000000000,0.000000000,0.000000000,0.000000000,0.000000000,0.000000000,3.945148732,4.135912158,0.300399814,0.001830045,0.000000000,0.000000000
1751354976.977429390,-1.651495000,-1.769945000,-1.318355000,1.592974000,-0.112136000,-1.681708000,0.000000000,0.000000000,0.000000000,0.000000000,0.000000000,0.000000000,3.945148732,4.135912158,0.300399814,0.001830045,0.000000000,0.000000000
1751354976.979001284,-1.651495000,-1.769945000,-1.318355000,1.592974000,-0.112136000,-1.681708000,0.000000000,0.000000000,0.000000000,0.000000000,0.000000000,0.000000000,3.945148732,4.135912158,0.300399814,0.001830045,0.000000000,0.000000000
1751354976.981153488,-1.651495000,-1.769945000,-1.318355000,1.592974000,-0.112136000,-1.681708000,0.000000000,0.000000000,0.000000000,0.000000000,0.000000000,0.000000000,3.945148732,4.135912158,0.300399814,0.001830045,0.000000000,0.000000000
1751354976.982877493,-1.651495000,-1.769945000,-1.318355000,1.592974000,-0.112136000,-1.681708000,0.000000000,0.000000000,0.000000000,0.000000000,0.000000000,0.000000000,3.945148732,4.135912158,0.300399814,0.001830045,0.000000000,0.000000000
1751354976.985060215,-1.651495000,-1.769945000,-1.318355000,1.592974000,-0.112136000,-1.681708000,0.000000000,0.000000000,0.000000000,0.000000000,0.000000000,0.000000000,3.945148732,4.135912158,0.300399814,0.001830045,0.000000000,0.000000000
1751354976.986930370,-1.651495000,-1.769945000,-1.318355000,1.592974000,-0.112136000,-1.681708000,0.000000000,0.000000000,0.000000000,0.000000000,0.000000000,0.000000000,3.945148732,4.135912158,0.300399814,0.001830045,0.000000000,0.000000000
1751354976.989411831,-1.651495000,-1.769945000,-1.318355000,1.592974000,-0.112136000,-1.681708000,0.000000000,0.000000000,0.000000000,0.000000000,0.000000000,0.000000000,3.945148732,4.135912158,0.300399814,0.001830045,0.000000000,0.000000000
1751354976.993210793,-1.651495000,-1.769945000,-1.318355000,1.592974000,-0.112136000,-1.681708000,0.000000000,0.000000000,0.000000000,0.000000000,0.000000000,0.000000000,3.945148732,4.135912158,0.300399814,0.001830045,0.000000000,0.000000000
1751354976.994101763,-1.651495000,-1.769945000,-1.318355000,1.592974000,-0.112136000,-1.681708000,0.000000000,0.000000000,0.000000000,0.000000000,0.000000000,0.000000000,3.945148732,4.135912158,0.300399814,0.001830045,0.000000000,0.000000000
1751354976.995650291,-1.651495000,-1.769945000,-1.318355000,1.592974000,-0.112136000,-1.681708000,0.000000000,0.000000000,0.000000000,0.000000000,0.000000000,0.000000000,3.945148732,4.135912158,0.300399814,0.001830045,0.000000000,0.000000000
1751354976.997185469,-1.651495000,-1.769945000,-1.318355000,1.592974000,-0.112136000,-1.681708000,0.000000000,0.000000000,0.000000000,0.000000000,0.000000000,0.000000000,3.945148732,4.135912158,0.300399814,0.001830045,0.000000000,0.000000000
1751354977.000110149,-1.651495000,-1.769945000,-1.318355000,1.592974000,-0.112136000,-1.681708000,0.000000000,0.000000000,0.000000000,0.000000000,0.000000000,0.000000000,3.945148732,4.135912158,0.300399814,0.001830045,0.000000000,0.000000000
1751354977.001478672,-1.651494658,-1.769944952,-1.318354906,1.592973656,-0.112135728,-1.681706621,0.000341877,0.000048256,0.000093846,-0.000344027,0.000271640,0.001379371,4.071105005,4.198232716,0.308021476,-0.003846411,0.007634687,0.530239541
1751354977.005269289,-1.651494658,-1.769944952,-1.318354906,1.592973656,-0.112135728,-1.681706621,0.000341877,0.000048256,0.000093846,-0.000344027,0.000271640,0.001379371,4.071105005,4.198232716,0.308021476,-0.003846411,0.007634687,0.530239541
1751354977.005322695,-1.651493633,-1.769944807,-1.318354625,1.592972624,-0.112134913,-1.681702483,0.000683740,0.000096527,0.000187686,-0.000688059,0.000543278,0.002758742,4.071094641,4.198235644,0.308021446,-0.003846633,0.007634664,0.530239471
1751354977.007578373,-1.651491923,-1.769944566,-1.318354155,1.592970904,-0.112133555,-1.681695586,0.001025576,0.000144829,0.000281516,-0.001032100,0.000814916,0.004138114,4.071075505,4.198241217,0.308021357,-0.003847049,0.007634619,0.530239580
1751354977.009265900,-1.651489530,-1.769944228,-1.318353499,1.592968495,-0.112131654,-1.681685930,0.001367372,0.000193178,0.000375329,-0.001376155,0.001086550,0.005517485,4.071047595,4.198249436,0.308021210,-0.003847657,0.007634551,0.530239866
1751354977.011216640,-1.651486454,-1.769943793,-1.318352654,1.592965399,-0.112129209,-1.681673516,0.001709113,0.000241590,0.000469119,-0.001720230,0.001358182,0.006896858,4.071010913,4.198260298,0.308021004,-0.003848459,0.007634461,0.530240331
1751354977.013515472,-1.651482694,-1.769943261,-1.318351622,1.592961615,-0.112126221,-1.681658343,0.002050787,0.000290079,0.000562882,-0.002064328,0.001629810,0.008276230,4.070965458,4.198273806,0.308020739,-0.003849454,0.007634348,0.530240973
1751354977.015652418,-1.651478251,-1.769942632,-1.318350403,1.592957142,-0.112122690,-1.681640411,0.002392379,0.000338662,0.000656612,-0.002408454,0.001901432,0.009655603,4.070911233,4.198289958,0.308020415,-0.003850642,0.007634212,0.530241793
1751354977.018129349,-1.651478251,-1.769942632,-1.318350403,1.592957142,-0.112122690,-1.681640411,0.002392379,0.000338662,0.000656612,-0.002408454,0.001901432,0.009655603,4.070911233,4.198289958,0.308020415,-0.003850642,0.007634212,0.530241793
1751354977.019837856,-1.651473124,-1.769941906,-1.318348996,1.592951981,-0.112118615,-1.681619720,0.002733876,0.000387355,0.000750303,-0.002752614,0.002173049,0.011034977,4.070848238,4.198308755,0.308020032,-0.003852024,0.007634054,0.530242790
1751354977.022176981,-1.651467315,-1.769941083,-1.318347401,1.592946131,-0.112113998,-1.681596271,0.003075266,0.000436171,0.000843950,-0.003096812,0.002444660,0.012414352,4.070776474,4.198330196,0.308019591,-0.003853598,0.007633872,0.530243963
1751354977.023812294,-1.651460823,-1.769940162,-1.318345620,1.592939593,-0.112108837,-1.681570063,0.003416533,0.000485128,0.000937548,-0.003441052,0.002716264,0.013793728,4.070695942,4.198354282,0.308019091,-0.003855366,0.007633668,0.530245313
1751354977.025801182,-1.651453649,-1.769939142,-1.318343651,1.592932367,-0.112103133,-1.681541096,0.003757664,0.000534241,0.001031090,-0.003785340,0.002987859,0.015173104,4.070606644,4.198381012,0.308018532,-0.003857327,0.007633441,0.530246838
1751354977.027280092,-1.651445793,-1.769938025,-1.318341496,1.592924452,-0.112096885,-1.681509370,0.004098647,0.000583526,0.001124571,-0.004129680,0.003259446,0.016552482,4.070508582,4.198410386,0.308017914,-0.003859480,0.007633190,0.530248537
1751354977.028954506,-1.651437255,-1.769936808,-1.318339153,1.592915848,-0.112090095,-1.681474886,0.004439467,0.000632997,0.001217986,-0.004474076,0.003531022,0.017931861,4.070401756,4.198442405,0.308017238,-0.003861828,0.007632917,0.530250411
1751354977.034729719,-1.651418134,-1.769934077,-1.318333908,1.592896574,-0.112074884,-1.681397641,0.005120565,0.000732564,0.001404594,-0.005163059,0.004074143,0.020690622,4.070161825,4.198514374,0.308015709,-0.003867101,0.007632300,0.530254677
1751354977.034889936,-1.651418134,-1.769934077,-1.318333908,1.592896574,-0.112074884,-1.681397641,0.005120565,0.000732564,0.001404594,-0.005163059,0.004074143,0.020690622,4.070161825,4.198514374,0.308015709,-0.003867101,0.007632300,0.530254677
1751354977.037050962,-1.651396291,-1.769930946,-1.318327917,1.592874543,-0.112057502,-1.681309361,0.005800850,0.000833065,0.001590872,-0.005852326,0.004617216,0.023449389,4.069886868,4.198596919,0.308013944,-0.003873147,0.007631588,0.530259629
1751354977.038929462,-1.651384350,-1.769929230,-1.318324642,1.592862494,-0.112047996,-1.681261083,0.006140654,0.000883706,0.001683872,-0.006197078,0.004888731,0.024828774,4.069736260,4.198642157,0.308012974,-0.003876460,0.007631197,0.530262359
1751354977.040814638,-1.651371729,-1.769927411,-1.318321181,1.592849755,-0.112037947,-1.681210046,0.006480213,0.000934627,0.001776773,-0.006541916,0.005160232,0.026208161,4.069576903,4.198690038,0.308011945,-0.003879966,0.007630782,0.530265257
1751354977.042851210,-1.651358429,-1.769925491,-1.318317535,1.592836326,-0.112027355,-1.681156250,0.006819516,0.000985844,0.001869570,-0.006886843,0.005431718,0.027587550,4.069408800,4.198740563,0.308010857,-0.003883665,0.007630342,0.530268322
1751354977.044842720,-1.651344451,-1.769923468,-1.318313703,1.592822208,-0.112016220,-1.681099696,0.007158547,0.001037373,0.001962255,-0.007231865,0.005703187,0.028966940,4.069231953,4.198793730,0.308009711,-0.003887557,0.007629878,0.530271553
1751354977.046993494,-1.651329795,-1.769921341,-1.318309686,1.592807399,-0.112004542,-1.681040382,0.007497293,0.001089229,0.002054825,-0.007576987,0.005974638,0.030346332,4.069046366,4.198849541,0.308008505,-0.003891643,0.007629390,0.530274949
1751354977.048839092,-1.651314462,-1.769919111,-1.318305484,1.592791900,-0.111992321,-1.680978310,0.007835742,0.001141428,0.002147273,-0.007922212,0.006246072,0.031725726,4.068852041,4.198907994,0.308007241,-0.003895921,0.007628877,0.530278507
1751354977.050721645,-1.651298452,-1.769916775,-1.318301097,1.592775710,-0.111979558,-1.680913480,0.008173878,0.001193986,0.002239595,-0.008267547,0.006517486,0.033105121,4.068648984,4.198969090,0.308005919,-0.003900392,0.007628339,0.530282226
1751354977.052919865,-1.651281767,-1.769914334,-1.318296526,1.592758829,-0.111966251,-1.680845890,0.008511689,0.001246917,0.002331784,-0.008612995,0.006788880,0.034484519,4.068437196,4.199032828,0.308004537,-0.003905057,0.007627776,0.530286105
1751354977.055012703,-1.651264406,-1.769911787,-1.318291770,1.592741258,-0.111952402,-1.680775542,0.008849162,0.001300239,0.002423834,-0.008958562,0.007060254,0.035863918,4.068216681,4.199099208,0.308003097,-0.003909914,0.007627187,0.530290142
1751354977.056949854,-1.651264406,-1.769911787,-1.318291770,1.592741258,-0.111952402,-1.680775542,0.008849162,0.001300239,0.002423834,-0.008958562,0.007060254,0.035863918,4.068216681,4.199099208,0.308003097,-0.003909914,0.007627187,0.530290142
1751354977.058905602,-1.651246370,-1.769909133,-1.318286830,1.592722995,-0.111938010,-1.680702434,0.009186281,0.001353965,0.002515742,-0.009304252,0.007331605,0.037243318,4.067987444,4.199168229,0.308001597,-0.003914965,0.007626573,0.530294336
1751354977.060693502,-1.651227661,-1.769906371,-1.318281707,1.592704041,-0.111923076,-1.680626568,0.009523035,0.001408112,0.002607500,-0.009650070,0.007602934,0.038622721,4.067749489,4.199239893,0.308000040,-0.003920209,0.007625933,0.530298684
1751354977.062695980,-1.651208278,-1.769903500,-1.318276400,1.592684395,-0.111907599,-1.680547943,0.009859409,0.001462695,0.002699104,-0.009996020,0.007874239,0.040002125,4.067502819,4.199314198,0.307998423,-0.003925646,0.007625267,0.530303185
1751354977.064708948,-1.651188223,-1.769900520,-1.318270911,1.592664057,-0.111891579,-1.680466560,0.010195390,0.001517731,0.002790547,-0.010342107,0.008145520,0.041381531,4.067247439,4.199391143,0.307996748,-0.003931275,0.007624574,0.530307836
1751354977.066836119,-1.651167497,-1.769897429,-1.318265238,1.592643026,-0.111875017,-1.680382417,0.010530964,0.001573234,0.002881825,-0.010688337,0.008416775,0.042760939,4.066983353,4.199470730,0.307995013,-0.003937098,0.007623855,0.530312637
1751354977.068683624,-1.651146100,-1.769894227,-1.318259384,1.592621303,-0.111857912,-1.680295516,0.010866117,0.001629219,0.002972932,-0.011034713,0.008688003,0.044140348,4.066710567,4.199552957,0.307993221,-0.003943114,0.007623109,0.530317584
1751354977.070840597,-1.651124033,-1.769890912,-1.318253347,1.592598887,-0.111840265,-1.680205856,0.011200836,0.001685704,0.003063863,-0.011381241,0.008959205,0.045519759,4.066429084,4.199637824,0.307991369,-0.003949323,0.007622335,0.530322676
1751354977.072659731,-1.651101297,-1.769887484,-1.318247128,1.592575778,-0.111822075,-1.680113437,0.011535108,0.001742703,0.003154612,-0.011727925,0.009230377,0.046899171,4.066138910,4.199725332,0.307989458,-0.003955725,0.007621535,0.530327911
1751354977.081196785,-1.651053821,-1.769880282,-1.318234148,1.592527479,-0.111784069,-1.679920323,0.012202254,0.001858305,0.003335541,-0.012421780,0.009772634,0.049658001,4.065532508,4.199908264,0.307985461,-0.003969107,0.007619849,0.530338798
1751354977.085107565,-1.650977615,-1.769868602,-1.318213324,1.592449823,-0.111722994,-1.679609960,0.013199276,0.002035954,0.003605432,-0.013463851,0.010585780,0.053796255,4.064557853,4.200202455,0.307979025,-0.003990628,0.007617107,0.530356137
1751354977.085157156,-1.650950885,-1.769864470,-1.318206023,1.592422547,-0.111701551,-1.679500988,0.013530577,0.002096365,0.003694973,-0.013811571,0.010856761,0.055175675,4.064215643,4.200305795,0.307976762,-0.003998187,0.007616134,0.530362176
1751354977.086802721,-1.650923493,-1.769860216,-1.318198544,1.592394576,-0.111679567,-1.679389257,0.013861334,0.002157399,0.003784294,-0.014159480,0.011127706,0.056555095,4.063864780,4.200411772,0.307974441,-0.004005940,0.007615131,0.530368340
1751354977.089060783,-1.650895440,-1.769855840,-1.318190886,1.592365909,-0.111657040,-1.679274768,0.014191535,0.002219071,0.003873389,-0.014507582,0.011398615,0.057934517,4.063505271,4.200520387,0.307972060,-0.004013885,0.007614099,0.530374627
1751354977.092667580,-1.650866727,-1.769851340,-1.318183051,1.592336546,-0.111633972,-1.679157519,0.014521165,0.002281398,0.003962253,-0.014855884,0.011669486,0.059313939,4.063137122,4.200631638,0.307969621,-0.004022023,0.007613035,0.530381033
1751354977.092727184,-1.650837355,-1.769846714,-1.318175038,1.592306486,-0.111610362,-1.679037512,0.014850212,0.002344395,0.004050879,-0.015204388,0.011940318,0.060693362,4.062760339,4.200745525,0.307967123,-0.004030354,0.007611941,0.530387555
1751354977.094611883,-1.650807326,-1.769841962,-1.318166847,1.592275728,-0.111586211,-1.678914746,0.015178662,0.002408077,0.004139264,-0.015553100,0.012211110,0.062072784,4.062374930,4.200862049,0.307964566,-0.004038878,0.007610815,0.530394191
1751354977.096820116,-1.650776641,-1.769837081,-1.318158481,1.592244273,-0.111561518,-1.678789221,0.015506500,0.002472460,0.004227401,-0.015902025,0.012481861,0.063452207,4.061980900,4.200981208,0.307961951,-0.004047594,0.007609657,0.530400938
1751354977.100065231,-1.650776641,-1.769837081,-1.318158481,1.592244273,-0.111561518,-1.678789221,0.015506500,0.002472460,0.004227401,-0.015902025,0.012481861,0.063452207,4.061980900,4.200981208,0.307961951,-0.004047594,0.007609657,0.530400938
1751354977.102722883,-1.650713307,-1.769826931,-1.318141220,1.592179268,-0.111510508,-1.678529894,0.016160289,0.002603390,0.004402909,-0.016600532,0.013023235,0.066211052,4.061167007,4.201227431,0.307956544,-0.004065606,0.007607245,0.530414750
1751354977.102780104,-1.650713307,-1.769826931,-1.318141220,1.592179268,-0.111510508,-1.678529894,0.016160289,0.002603390,0.004402909,-0.016600532,0.013023235,0.066211052,4.061167007,4.201227431,0.307956544,-0.004065606,0.007607245,0.530414750
1751354977.104785442,-1.650680660,-1.769821657,-1.318132326,1.592145718,-0.111484191,-1.678396093,0.016486212,0.002669969,0.004490269,-0.016950123,0.013293856,0.067590473,4.060747158,4.201354493,0.307953752,-0.004074901,0.007605989,0.530421809
1751354977.106809139,-1.650647362,-1.769816250,-1.318123259,1.592111468,-0.111457332,-1.678259532,0.016811470,0.002737311,0.004577360,-0.017299945,0.013564431,0.068969893,4.060318718,4.201484190,0.307950902,-0.004084388,0.007604699,0.530428966
1751354977.108610392,-1.650613415,-1.769810708,-1.318114017,1.592076518,-0.111429933,-1.678120213,0.017136048,0.002805432,0.004664176,-0.017650004,0.013834959,0.070349313,4.059881694,4.201616520,0.307947993,-0.004094068,0.007603376,0.530436217
1751354977.110677004,-1.650578819,-1.769805028,-1.318104602,1.592040867,-0.111401993,-1.677978135,0.017459933,0.002874347,0.004750712,-0.018000303,0.014105439,0.071728730,4.059436093,4.201751482,0.307945025,-0.004103941,0.007602018,0.530443559
1751354977.112645149,-1.650543575,-1.769799210,-1.318095015,1.592004516,-0.111373511,-1.677833298,0.017783112,0.002944072,0.004836961,-0.018350848,0.014375870,0.073108146,4.058981924,4.201889077,0.307941999,-0.004114007,0.007600625,0.530450989
1751354977.114648581,-1.650507687,-1.769793251,-1.318085255,1.591967464,-0.111344489,-1.677685702,0.018105570,0.003014622,0.004922919,-0.018701642,0.014646250,0.074487560,4.058519194,4.202029303,0.307938913,-0.004124265,0.007599197,0.530458502
1751354977.116698980,-1.650471154,-1.769787151,-1.318075323,1.591929710,-0.111314926,-1.677535348,0.018427294,0.003086012,0.005008581,-0.019052692,0.014916577,0.075866971,4.058047912,4.202172161,0.307935769,-0.004134716,0.007597733,0.530466094
1751354977.118595839,-1.650433978,-1.769780906,-1.318065220,1.591891253,-0.111284823,-1.677382235,0.018748271,0.003158260,0.005093940,-0.019404001,0.015186852,0.077246380,4.057568086,4.202317649,0.307932567,-0.004145359,0.007596232,0.530473764
1751354977.120609045,-1.650396161,-1.769774517,-1.318054947,1.591852093,-0.111254179,-1.677226362,0.019068486,0.003231379,0.005178991,-0.019755574,0.015457072,0.078625785,4.057079725,4.202465768,0.307929305,-0.004156195,0.007594694,0.530481505
1751354977.122650146,-1.650357705,-1.769767980,-1.318044505,1.591812230,-0.111222995,-1.677067731,0.019387925,0.003305385,0.005263729,-0.020107416,0.015727236,0.080005187,4.056582837,4.202616516,0.307925985,-0.004167224,0.007593119,0.530489315
1751354977.124737978,-1.650318610,-1.769761295,-1.318033893,1.591771664,-0.111191270,-1.676906342,0.019706577,0.003380294,0.005348149,-0.020459531,0.015997342,0.081384585,4.056077431,4.202769893,0.307922606,-0.004178445,0.007591506,0.530497190
1751354977.126663923,-1.650278879,-1.769754459,-1.318023112,1.591730392,-0.111159005,-1.676742193,0.020024425,0.003456122,0.005432245,-0.020811925,0.016267391,0.082763979,4.055563516,4.202925898,0.307919168,-0.004189858,0.007589854,0.530505125
1751354977.128681660,-1.650238513,-1.769747470,-1.318012164,1.591688416,-0.111126200,-1.676575286,0.020341458,0.003532884,0.005516011,-0.021164601,0.016537379,0.084143368,4.055041100,4.203084532,0.307915672,-0.004201464,0.007588163,0.530513116
1751354977.130625486,-1.650197514,-1.769740326,-1.318001049,1.591645734,-0.111092856,-1.676405620,0.020657660,0.003610595,0.005599442,-0.021517565,0.016807305,0.085522751,4.054510195,4.203245793,0.307912117,-0.004213263,0.007586432,0.530521160
1751354977.132990122,-1.650155883,-1.769733027,-1.317989766,1.591602345,-0.111058971,-1.676233195,0.020973019,0.003689271,0.005682534,-0.021870820,0.017077169,0.086902129,4.053970808,4.203409680,0.307908503,-0.004225253,0.007584661,0.530529251
1751354977.140226364,-1.650155883,-1.769733027,-1.317989766,1.591602345,-0.111058971,-1.676233195,0.020973019,0.003689271,0.005682534,-0.021870820,0.017077169,0.086902129,4.053970808,4.203409680,0.307908503,-0.004225253,0.007584661,0.530529251
1751354977.140285730,-1.650155883,-1.769733027,-1.317989766,1.591602345,-0.111058971,-1.676233195,0.020973019,0.003689271,0.005682534,-0.021870820,0.017077169,0.086902129,4.053970808,4.203409680,0.307908503,-0.004225253,0.007584661,0.530529251
1751354977.144356966,-1.650155883,-1.769733027,-1.317989766,1.591602345,-0.111058971,-1.676233195,0.020973019,0.003689271,0.005682534,-0.021870820,0.017077169,0.086902129,4.053970808,4.203409680,0.307908503,-0.004225253,0.007584661,0.530529251
1751354977.144434214,-1.650155883,-1.769733027,-1.317989766,1.591602345,-0.111058971,-1.676233195,0.020973019,0.003689271,0.005682534,-0.021870820,0.017077169,0.086902129,4.053970808,4.203409680,0.307908503,-0.004225253,0.007584661,0.530529251
1751354977.145429850,-1.649892932,-1.769685833,-1.317918616,1.591327151,-0.110844336,-1.675140712,0.022846686,0.004182463,0.006173635,-0.023996748,0.018694949,0.095178247,4.050556932,4.204448128,0.307885586,-0.004301236,0.007573157,0.530578560
1751354977.147751093,-1.649846930,-1.769677383,-1.317906189,1.591278802,-0.110806677,-1.674948976,0.023155754,0.004268328,0.006254194,-0.024352178,0.018964331,0.096557570,4.049958455,4.204630384,0.307881561,-0.004314572,0.007571087,0.530586862
1751354977.149607658,-1.649800310,-1.769668759,-1.317893600,1.591229742,-0.110768479,-1.674754482,0.023463869,0.004355283,0.006334369,-0.024707938,0.019233637,0.097936883,4.049351579,4.204815262,0.307877477,-0.004328101,0.007568973,0.530595175
1751354977.150683880,-1.649753075,-1.769659961,-1.317880851,1.591179970,-0.110729742,-1.674557229,0.023771017,0.004443342,0.006414156,-0.025064031,0.019502868,0.099316185,4.048736314,4.205002760,0.307873335,-0.004341822,0.007566812,0.530603495
1751354977.152670383,-1.649705226,-1.769650985,-1.317867944,1.591129486,-0.110690467,-1.674357217,0.024077183,0.004532522,0.006493548,-0.025420462,0.019772019,0.100695475,4.048112671,4.205192878,0.307869134,-0.004355734,0.007564605,0.530611816
1751354977.154681683,-1.649656767,-1.769641830,-1.317854877,1.591078288,-0.110650654,-1.674154447,0.024382354,0.004622837,0.006572541,-0.025777237,0.020041091,0.102074754,4.047480661,4.205385615,0.307864874,-0.004369839,0.007562351,0.530620134
1751354977.160062790,-1.649607698,-1.769632493,-1.317841654,1.591026377,-0.110610303,-1.673948918,0.024686517,0.004714303,0.006651129,-0.026134359,0.020310081,0.103454019,4.046840297,4.205580971,0.307860555,-0.004384135,0.007560049,0.530628442
1751354977.160121202,-1.649558021,-1.769622972,-1.317828273,1.590973750,-0.110569414,-1.673740631,0.024989657,0.004806935,0.006729308,-0.026491834,0.020578988,0.104833271,4.046191589,4.205778945,0.307856178,-0.004398624,0.007557698,0.530636737
1751354977.161155224,-1.649507740,-1.769613264,-1.317814737,1.590920409,-0.110527987,-1.673529585,0.025291760,0.004900750,0.006807070,-0.026849665,0.020847809,0.106212508,4.045534549,4.205979535,0.307851741,-0.004413304,0.007555299,0.530645013
1751354977.162994385,-1.649507740,-1.769613264,-1.317814737,1.590920409,-0.110527987,-1.673529585,0.025291760,0.004900750,0.006807070,-0.026849665,0.020847809,0.106212508,4.045534549,4.205979535,0.307851741,-0.004413304,0.007555299,0.530645013
1751354977.164886475,-1.649456855,-1.769603368,-1.317801045,1.590866352,-0.110486023,-1.673315781,0.025592814,0.004995762,0.006884412,-0.027207858,0.021116544,0.107591730,4.044869189,4.206182742,0.307847246,-0.004428176,0.007552849,0.530653264
1751354977.166787148,-1.649405369,-1.769593281,-1.317787199,1.590811577,-0.110443521,-1.673099218,0.025892803,0.005091987,0.006961327,-0.027566417,0.021385189,0.108970936,4.044195521,4.206388564,0.307842693,-0.004443240,0.007550348,0.530661485
1751354977.168886423,-1.649353284,-1.769582999,-1.317773200,1.590756086,-0.110400482,-1.672879897,0.026191715,0.005189440,0.007037811,-0.027925346,0.021653744,0.110350125,4.043513558,4.206597000,0.307838080,-0.004458496,0.007547797,0.530669671
1751354977.170785904,-1.649300603,-1.769572522,-1.317759048,1.590699876,-0.110356906,-1.672657818,0.026489535,0.005288138,0.007113858,-0.028284651,0.021922207,0.111729296,4.042823312,4.206808051,0.307833409,-0.004473943,0.007545193,0.530677816
1751354977.172883511,-1.649247327,-1.769561846,-1.317744745,1.590642947,-0.110312793,-1.672432980,0.026786249,0.005388094,0.007189463,-0.028644335,0.022190575,0.113108449,4.042124795,4.207021714,0.307828679,-0.004489582,0.007542536,0.530685914
1751354977.174668789,-1.649193459,-1.769550969,-1.317730291,1.590585298,-0.110268144,-1.672205384,0.027081844,0.005489326,0.007264620,-0.029004404,0.022458848,0.114487582,4.041418020,4.207237989,0.307823891,-0.004505413,0.007539825,0.530693960
1751354977.176699877,-1.649139000,-1.769539888,-1.317715687,1.590526929,-0.110222958,-1.671975030,0.027376306,0.005591848,0.007339325,-0.029364862,0.022727022,0.115866694,4.040703000,4.207456876,0.307819043,-0.004521435,0.007537061,0.530701948
1751354977.178669453,-1.649083954,-1.769528600,-1.317700934,1.590467838,-0.110177236,-1.671741917,0.027669621,0.005695676,0.007413571,-0.029725713,0.022995095,0.117245786,4.039979748,4.207678373,0.307814137,-0.004537648,0.007534241,0.530709872
1751354977.180652142,-1.649028323,-1.769517104,-1.317686033,1.590408026,-0.110130978,-1.671506046,0.027961775,0.005800825,0.007487354,-0.030086963,0.023263067,0.118624855,4.039248278,4.207902479,0.307809172,-0.004554053,0.007531364,0.530717726
1751354977.182593584,-1.648972108,-1.769505396,-1.317670985,1.590347490,-0.110084184,-1.671267418,0.028252754,0.005907310,0.007560668,-0.030448615,0.023530935,0.120003900,4.038508602,4.208129194,0.307804148,-0.004570649,0.007528432,0.530725504
1751354977.184709311,-1.648915312,-1.769493474,-1.317655791,1.590286231,-0.110036854,-1.671026031,0.028542545,0.006015148,0.007633507,-0.030810674,0.023798696,0.121382921,4.037760734,4.208358517,0.307799066,-0.004587437,0.007525441,0.530733200
1751354977.186645269,-1.648857939,-1.769481335,-1.317640451,1.590224247,-0.109988989,-1.670781886,0.028831133,0.006124353,0.007705868,-0.031173145,0.024066350,0.122761917,4.037004689,4.208590446,0.307793925,-0.004604415,0.007522393,0.530740808
1751354977.188652039,-1.648799989,-1.769468976,-1.317624967,1.590161538,-0.109940589,-1.670534983,0.029118504,0.006234942,0.007777744,-0.031536033,0.024333893,0.124140886,4.036240480,4.208824981,0.307788725,-0.004621585,0.007519285,0.530748322
1751354977.196887255,-1.648682371,-1.769443587,-1.317593571,1.590033941,-0.109842184,-1.670032904,0.029689542,0.006460329,0.007920020,-0.032263074,0.024868639,0.126898739,4.034687626,4.209301865,0.307778148,-0.004656498,0.007512888,0.530763041
1751354977.198799610,-1.648501687,-1.769403785,-1.317545420,1.589837083,-0.109690567,-1.669259102,0.030536629,0.006809168,0.008129668,-0.033356872,0.025669877,0.131035291,4.032297474,4.210036711,0.307761843,-0.004710300,0.007502827,0.530784253
1751354977.200928211,-1.648501687,-1.769403785,-1.317545420,1.589837083,-0.109690567,-1.669259102,0.030536629,0.006809168,0.008129668,-0.033356872,0.025669877,0.131035291,4.032297474,4.210036711,0.307761843,-0.004710300,0.007502827,0.530784253
1751354977.204559803,-1.648378422,-1.769376071,-1.317512626,1.589702193,-0.109586821,-1.668729445,0.031094877,0.007049080,0.008266860,-0.034088280,0.026203421,0.133792826,4.030663631,4.210539609,0.307750678,-0.004747122,0.007495800,0.530797740
1751354977.204695225,-1.648378422,-1.769376071,-1.317512626,1.589702193,-0.109586821,-1.668729445,0.031094877,0.007049080,0.008266860,-0.034088280,0.026203421,0.133792826,4.030663631,4.210539609,0.307750678,-0.004747122,0.007495800,0.530797740
1751354977.206785440,-1.648315955,-1.769361850,-1.317496024,1.589633650,-0.109534147,-1.668460481,0.031372016,0.007171288,0.008334669,-0.034454661,0.026470002,0.135171540,4.029834632,4.210794956,0.307745008,-0.004765818,0.007492188,0.530804266
1751354977.208560467,-1.648252935,-1.769347384,-1.317479288,1.589564374,-0.109480941,-1.668188759,0.031647813,0.007295018,0.008401945,-0.034821499,0.026736453,0.136550216,4.028997603,4.211052899,0.307739279,-0.004784706,0.007488509,0.530810639
1751354977.210814714,-1.648189364,-1.769332669,-1.317462417,1.589494364,-0.109427201,-1.667914280,0.031922255,0.007420285,0.008468685,-0.035188798,0.027002770,0.137928853,4.028152558,4.211313439,0.307733491,-0.004803784,0.007484761,0.530816852
1751354977.212626457,-1.648125247,-1.769317702,-1.317445413,1.589423618,-0.109372930,-1.667637044,0.032195327,0.007547104,0.008534882,-0.035556563,0.027268952,0.139307449,4.027299514,4.211576572,0.307727644,-0.004823052,0.007480945,0.530822897
1751354977.216219664,-1.648060584,-1.769302480,-1.317428278,1.589352137,-0.109318126,-1.667357050,0.032467015,0.007675492,0.008600531,-0.035924798,0.027534996,0.140686004,4.026438487,4.211842300,0.307721738,-0.004842510,0.007477059,0.530828767
1751354977.216983795,-1.648060584,-1.769302480,-1.317428278,1.589352137,-0.109318126,-1.667357050,0.032467015,0.007675492,0.008600531,-0.035924798,0.027534996,0.140686004,4.026438487,4.211842300,0.307721738,-0.004842510,0.007477059,0.530828767
1751354977.218806028,-1.647929636,-1.769271257,-1.317393616,1.589206963,-0.109206922,-1.666788792,0.033006184,0.007937032,0.008730165,-0.036662698,0.028066660,0.143442982,4.024692547,4.212381531,0.307709751,-0.004881998,0.007469074,0.530839954
1751354977.220659494,-1.647863356,-1.769255250,-1.317376091,1.589133268,-0.109150523,-1.666500528,0.033273637,0.008070216,0.008794140,-0.037032371,0.028332275,0.144821402,4.023807668,4.212655032,0.307703668,-0.004902027,0.007464973,0.530845256
1751354977.222752094,-1.647796542,-1.769238975,-1.317358440,1.589058833,-0.109093593,-1.666209507,0.033539651,0.008205030,0.008857546,-0.037402533,0.028597742,0.146199774,4.022914872,4.212931123,0.307697527,-0.004922246,0.007460799,0.530850355
1751354977.224589586,-1.647729198,-1.769222429,-1.317340662,1.588983657,-0.109036132,-1.665915729,0.033804211,0.008341488,0.008920378,-0.037773188,0.028863058,0.147578096,4.022014175,4.213209801,0.307691327,-0.004942655,0.007456550,0.530855242
1751354977.226707458,-1.647661326,-1.769205608,-1.317322758,1.588907740,-0.108978141,-1.665619195,0.034067303,0.008479607,0.008982632,-0.038144339,0.029128220,0.148956368,4.021105595,4.213491067,0.307685069,-0.004963254,0.007452225,0.530859910
1751354977.228581667,-1.647592930,-1.769188509,-1.317304731,1.588831080,-0.108919620,-1.665319904,0.034328913,0.008619401,0.009044301,-0.038515992,0.029393227,0.150334586,4.020189149,4.213774917,0.307678751,-0.004984042,0.007447823,0.530864352
1751354977.230591297,-1.647524012,-1.769171129,-1.317286582,1.588753676,-0.108860568,-1.665017856,0.034589027,0.008760887,0.009105381,-0.038888152,0.029658074,0.151712750,4.019264855,4.214061352,0.307672374,-0.005005020,0.007443344,0.530868559
1751354977.232553720,-1.647454575,-1.769153465,-1.317268310,1.588675527,-0.108800987,-1.664713053,0.034847632,0.008904079,0.009165867,-0.039260821,0.029922759,0.153090858,4.018332729,4.214350370,0.307665939,-0.005026188,0.007438787,0.530872525
1751354977.234597921,-1.647384622,-1.769135512,-1.317249919,1.588596632,-0.108740877,-1.664405493,0.035104713,0.009048992,0.009225753,-0.039634006,0.030187280,0.154468908,4.017392791,4.214641970,0.307659444,-0.005047545,0.007434149,0.530876240
1751354977.236569166,-1.647314157,-1.769117267,-1.317231408,1.588516990,-0.108680238,-1.664095177,0.035360255,0.009195643,0.009285034,-0.040007710,0.030451633,0.155846898,4.016445057,4.214936151,0.307652891,-0.005069091,0.007429432,0.530879697
1751354977.238562107,-1.647243182,-1.769098728,-1.317212779,1.588436601,-0.108619071,-1.663782105,0.035614246,0.009344046,0.009343705,-0.040381937,0.030715816,0.157224827,4.015489547,4.215232911,0.307646279,-0.005090827,0.007424632,0.530882889
1751354977.240540266,-1.647171701,-1.769079890,-1.317194033,1.588355462,-0.108557375,-1.663466278,0.035866670,0.009494217,0.009401761,-0.040756693,0.030979826,0.158602692,4.014526278,4.215532249,0.307639608,-0.005112751,0.007419749,0.530885807
1751354977.242534876,-1.647099717,-1.769060750,-1.317175172,1.588273574,-0.108495152,-1.663147695,0.036117515,0.009646172,0.009459198,-0.041131981,0.031243659,0.159980492,4.013555269,4.215834164,0.307632877,-0.005134865,0.007414783,0.530888442
1751354977.244540215,-1.647027232,-1.769041304,-1.317156197,1.588190934,-0.108432401,-1.662826356,0.036366765,0.009799924,0.009516008,-0.041507806,0.031507313,0.161358224,4.012576540,4.216138654,0.307626088,-0.005157168,0.007409732,0.530890787
1751354977.250633717,-1.646954251,-1.769021549,-1.317137109,1.588107542,-0.108369123,-1.662502262,0.036614406,0.009955491,0.009572188,-0.041884172,0.031770785,0.162735887,4.011590108,4.216445718,0.307619240,-0.005179659,0.007404595,0.530892833
1751354977.250688314,-1.646880775,-1.769001481,-1.317117909,1.588023397,-0.108305318,-1.662175412,0.036860426,0.010112886,0.009627733,-0.042261083,0.032034071,0.164113479,4.010595993,4.216755355,0.307612333,-0.005202339,0.007399371,0.530894572
1751354977.254140854,-1.646880775,-1.769001481,-1.317117909,1.588023397,-0.108305318,-1.662175412,0.036860426,0.010112886,0.009627733,-0.042261083,0.032034071,0.164113479,4.010595993,4.216755355,0.307612333,-0.005202339,0.007399371,0.530894572
1751354977.254914284,-1.646880775,-1.769001481,-1.317117909,1.588023397,-0.108305318,-1.662175412,0.036860426,0.010112886,0.009627733,-0.042261083,0.032034071,0.164113479,4.010595993,4.216755355,0.307612333,-0.005202339,0.007399371,0.530894572
1751354977.254934788,-1.646880775,-1.769001481,-1.317117909,1.588023397,-0.108305318,-1.662175412,0.036860426,0.010112886,0.009627733,-0.042261083,0.032034071,0.164113479,4.010595993,4.216755355,0.307612333,-0.005202339,0.007399371,0.530894572
1751354977.257011175,-1.646732357,-1.768960391,-1.317079178,1.587852842,-0.108176129,-1.661513448,0.037347540,0.010433226,0.009736895,-0.043016561,0.032560074,0.166868440,4.008584792,4.217382342,0.307598342,-0.005248265,0.007388657,0.530897096
1751354977.260258198,-1.646582004,-1.768918005,-1.317040017,1.587679261,-0.108044838,-1.660840465,0.037827994,0.010761066,0.009843454,-0.043774272,0.033085298,0.169623092,4.006543094,4.218019603,0.307584114,-0.005294944,0.007377581,0.530898288
1751354977.260814667,-1.646582004,-1.768918005,-1.317040017,1.587679261,-0.108044838,-1.660840465,0.037827994,0.010761066,0.009843454,-0.043774272,0.033085298,0.169623092,4.006543094,4.218019603,0.307584114,-0.005294944,0.007377581,0.530898288
1751354977.263431072,-1.646506110,-1.768896317,-1.317020278,1.587591333,-0.107978405,-1.660499842,0.038065689,0.010927836,0.009895744,-0.044153977,0.033347609,0.171000296,4.005510858,4.218342084,0.307576912,-0.005318565,0.007371905,0.530898363
1751354977.264660835,-1.646429742,-1.768874293,-1.317000434,1.587502645,-0.107911448,-1.660156464,0.038301676,0.011096528,0.009947368,-0.044534253,0.033609715,0.172377416,4.004471059,4.218667128,0.307569651,-0.005342375,0.007366135,0.530898079
1751354977.266666174,-1.646352905,-1.768851929,-1.316980489,1.587413196,-0.107843967,-1.659810332,0.038535942,0.011267156,0.009998321,-0.044915105,0.033871614,0.173754450,4.003423715,4.218994736,0.307562330,-0.005366373,0.007360270,0.530897427
1751354977.268641710,-1.646275600,-1.768829223,-1.316960441,1.587322984,-0.107775962,-1.659461446,0.038768472,0.011439736,0.010048598,-0.045296537,0.034133300,0.175131395,4.002368849,4.219324904,0.307554951,-0.005390558,0.007354309,0.530896399
1751354977.274338722,-1.646197832,-1.768806169,-1.316940295,1.587232009,-0.107707434,-1.659109807,0.038999252,0.011614282,0.010098193,-0.045678554,0.034394772,0.176508249,4.001306480,4.219657633,0.307547512,-0.005414931,0.007348251,0.530894984
1751354977.274427652,-1.646197832,-1.768806169,-1.316940295,1.587232009,-0.107707434,-1.659109807,0.038999252,0.011614282,0.010098193,-0.045678554,0.034394772,0.176508249,4.001306480,4.219657633,0.307547512,-0.005414931,0.007348251,0.530894984
1751354977.274745941,-1.646119604,-1.768782764,-1.316920049,1.587140270,-0.107638383,-1.658755413,0.039228268,0.011790810,0.010147102,-0.046061160,0.034656024,0.177885010,4.000236631,4.219992921,0.307540014,-0.005439491,0.007342094,0.530893174
1751354977.277163267,-1.646040920,-1.768759004,-1.316899707,1.587047764,-0.107568810,-1.658398267,0.039455506,0.011969336,0.010195320,-0.046444358,0.034917055,0.179261675,3.999159322,4.220330765,0.307532457,-0.005464238,0.007335837,0.530890960
1751354977.278871298,-1.645961783,-1.768734886,-1.316879268,1.586954492,-0.107498715,-1.658038367,0.039680952,0.012149874,0.010242841,-0.046828154,0.035177860,0.180638241,3.998074574,4.220671165,0.307524841,-0.005489173,0.007329480,0.530888331
1751354977.280714512,-1.645882197,-1.768710404,-1.316858736,1.586860451,-0.107428098,-1.657675714,0.039904590,0.012332440,0.010289660,-0.047212551,0.035438436,0.182014707,3.996982410,4.221014118,0.307517166,-0.005514294,0.007323021,0.530885280
1751354977.282692194,-1.645802166,-1.768685554,-1.316838110,1.586765641,-0.107356961,-1.657310308,0.040126408,0.012517049,0.010335774,-0.047597554,0.035698779,0.183391070,3.995882852,4.221359624,0.307509431,-0.005539603,0.007316458,0.530881796
1751354977.284701109,-1.645721693,-1.768660334,-1.316817393,1.586670061,-0.107285303,-1.656942150,0.040346391,0.012703717,0.010381175,-0.047983168,0.035958885,0.184767327,3.994775920,4.221707680,0.307501638,-0.005565098,0.007309791,0.530877871
1751354977.286727428,-1.645640782,-1.768634738,-1.316796586,1.586573708,-0.107213126,-1.656571239,0.040564525,0.012892458,0.010425860,-0.048369395,0.036218751,0.186143475,3.993661638,4.222058286,0.307493785,-0.005590780,0.007303018,0.530873493
1751354977.288743019,-1.645559436,-1.768608763,-1.316775690,1.586476583,-0.107140428,-1.656197576,0.040780794,0.013083288,0.010469824,-0.048756241,0.036478373,0.187519513,3.992540028,4.222411439,0.307485873,-0.005616648,0.007296139,0.530868654
1751354977.290747166,-1.645477660,-1.768582404,-1.316754707,1.586378683,-0.107067212,-1.655821161,0.040995187,0.013276222,0.010513061,-0.049143710,0.036737746,0.188895436,3.991411113,4.222767138,0.307477901,-0.005642702,0.007289151,0.530863344
1751354977.292746544,-1.645395457,-1.768555656,-1.316733638,1.586280007,-0.106993478,-1.655441994,0.041207686,0.013471275,0.010555566,-0.049531805,0.036996868,0.190271243,3.990274915,4.223125381,0.307469870,-0.005668943,0.007282053,0.530857553
1751354977.294727325,-1.645312830,-1.768528517,-1.316712485,1.586180555,-0.106919225,-1.655060076,0.041418280,0.013668462,0.010597335,-0.049920532,0.037255734,0.191646931,3.989131458,4.223486166,0.307461780,-0.005695369,0.007274845,0.530851271
1751354977.296733618,-1.645229785,-1.768500981,-1.316691250,1.586080325,-0.106844455,-1.654675406,0.041626953,0.013867800,0.010638363,-0.050309893,0.037514339,0.193022496,3.987980765,4.223849492,0.307453631,-0.005721981,0.007267525,0.530844488
1751354977.298651695,-1.645146324,-1.768473044,-1.316669932,1.585979315,-0.106769168,-1.654287986,0.041833691,0.014069302,0.010678644,-0.050699895,0.037772681,0.194397936,3.986822859,4.224215358,0.307445422,-0.005748779,0.007260092,0.530837194
1751354977.300706148,-1.645062451,-1.768444703,-1.316648535,1.585877525,-0.106693364,-1.653897815,0.042038480,0.014272984,0.010718174,-0.051090539,0.038030755,0.195773249,3.985657763,4.224583760,0.307437154,-0.005775762,0.007252544,0.530829379
1751354977.302749395,-1.644978171,-1.768415951,-1.316627060,1.585774953,-0.106617045,-1.653504893,0.042241305,0.014478862,0.010756948,-0.051481832,0.038288557,0.197148430,3.984485503,4.224954699,0.307428826,-0.005802931,0.007244880,0.530821033
1751354977.304882526,-1.644893487,-1.768386786,-1.316605508,1.585671597,-0.106540210,-1.653109221,0.042442153,0.014686950,0.010794960,-0.051873776,0.038546083,0.198523477,3.983306102,4.225328171,0.307420439,-0.005830284,0.007237099,0.530812145
1751354977.318862915,-1.644808404,-1.768357202,-1.316583881,1.585567457,-0.106462861,-1.652710799,0.042641008,0.014897263,0.010832206,-0.052266377,0.038803328,0.199898388,3.982119584,4.225704175,0.307411992,-0.005857822,0.007229199,0.530802705
1751354977.318937540,-1.644637054,-1.768296761,-1.316540407,1.585356818,-0.106306620,-1.651905707,0.043032686,0.015324628,0.010904380,-0.053053562,0.039316961,0.202647786,3.979725295,4.226463773,0.307394921,-0.005913453,0.007213039,0.530782128
1751354977.318956614,-1.644550795,-1.768265895,-1.316518563,1.585250317,-0.106227730,-1.651499037,0.043225479,0.015541710,0.010939298,-0.053448154,0.039573339,0.204022267,3.978517574,4.226847363,0.307386296,-0.005941545,0.007204775,0.530770969
1751354977.319317341,-1.644464153,-1.768234593,-1.316496650,1.585143025,-0.106148327,-1.651089618,0.043416223,0.015761078,0.010973430,-0.053843420,0.039829419,0.205396598,3.977302836,4.227233477,0.307377611,-0.005969821,0.007196388,0.530759216
1751354977.321542501,-1.644377132,-1.768202849,-1.316474670,1.585034942,-0.106068412,-1.650677450,0.043604903,0.015982747,0.011006772,-0.054239361,0.040085198,0.206770776,3.976081106,4.227622114,0.307368867,-0.005998281,0.007187876,0.530746858
1751354977.323421955,-1.644289735,-1.768170660,-1.316452623,1.584926067,-0.105987986,-1.650262535,0.043791505,0.016206733,0.011039317,-0.054635984,0.040340670,0.208144798,3.974852408,4.228013273,0.307360063,-0.006026925,0.007179237,0.530733884
1751354977.324754238,-1.644201967,-1.768138021,-1.316430513,1.584816398,-0.105907050,-1.649844871,0.043976014,0.016433051,0.011071063,-0.055033290,0.040595830,0.209518661,3.973616770,4.228406950,0.307351200,-0.006055752,0.007170470,0.530720283
1751354977.326740265,-1.644113832,-1.768104926,-1.316408340,1.584705934,-0.105825603,-1.649424460,0.044158417,0.016661715,0.011102003,-0.055431286,0.040850675,0.210892361,3.972374217,4.228803145,0.307342276,-0.006084763,0.007161574,0.530706044
1751354977.328703165,-1.644025335,-1.768071372,-1.316386105,1.584594672,-0.105743647,-1.649001302,0.044338698,0.016892742,0.011132132,-0.055829974,0.041105199,0.212265894,3.971124776,4.229201855,0.307333294,-0.006113956,0.007152547,0.530691157
1751354977.330636501,-1.643936479,-1.768037354,-1.316363812,1.584482613,-0.105661182,-1.648575397,0.044516844,0.017126145,0.011161447,-0.056229358,0.041359398,0.213639258,3.969868472,4.229603078,0.307324251,-0.006143333,0.007143387,0.530675610
1751354977.334647655,-1.643936479,-1.768037354,-1.316363812,1.584482613,-0.105661182,-1.648575397,0.044516844,0.017126145,0.011161447,-0.056229358,0.041359398,0.213639258,3.969868472,4.229603078,0.307324251,-0.006143333,0.007143387,0.530675610
1751354977.334739447,-1.643757709,-1.767967904,-1.316319053,1.584256095,-0.105494730,-1.647715347,0.044866671,0.017600144,0.011217612,-0.057030233,0.041866802,0.216385461,3.967335383,4.230413056,0.307305986,-0.006202634,0.007124666,0.530642491
1751354977.337065458,-1.643667804,-1.767932464,-1.316296590,1.584141633,-0.105410743,-1.647281203,0.045038323,0.017840769,0.011244452,-0.057431731,0.042119997,0.217758293,3.966058653,4.230821808,0.307296764,-0.006232558,0.007115102,0.530624896
1751354977.338866949,-1.643577557,-1.767896540,-1.316274075,1.584026368,-0.105326250,-1.646844314,0.045207783,0.018083832,0.011270458,-0.057833942,0.042372848,0.219130941,3.964775168,4.231233064,0.307287482,-0.006262664,0.007105400,0.530606597
1751354977.340759993,-1.643486974,-1.767860127,-1.316251509,1.583910297,-0.105241252,-1.646404680,0.045375034,0.018329347,0.011295625,-0.058236869,0.042625349,0.220503401,3.963484956,4.231646823,0.307278141,-0.006292952,0.007095558,0.530587580
1751354977.342697620,-1.643396059,-1.767823221,-1.316228893,1.583793420,-0.105155749,-1.645962301,0.045540064,0.018577330,0.011319947,-0.058640517,0.042877496,0.221875669,3.962188045,4.232063084,0.307268739,-0.006323421,0.007085576,0.530567835
1751354977.344727755,-1.643304815,-1.767785816,-1.316206230,1.583675734,-0.105069742,-1.645517177,0.045702857,0.018827796,0.011343421,-0.059044889,0.043129283,0.223247742,3.960884462,4.232481843,0.307259277,-0.006354072,0.007075451,0.530547350
1751354977.346748590,-1.643213249,-1.767747908,-1.316183520,1.583557240,-0.104983232,-1.645069310,0.045863400,0.019080759,0.011366041,-0.059449989,0.043380706,0.224619614,3.959574236,4.232903100,0.307249755,-0.006384904,0.007065183,0.530526114
1751354977.348712921,-1.643121363,-1.767709491,-1.316160766,1.583437934,-0.104896219,-1.644618699,0.046021677,0.019336236,0.011387803,-0.059855822,0.043631759,0.225991284,3.958257395,4.233326851,0.307240174,-0.006415917,0.007054769,0.530504113
1751354977.350682974,-1.643029163,-1.767670561,-1.316137970,1.583317816,-0.104808705,-1.644165345,0.046177674,0.019594240,0.011408702,-0.060262390,0.043882438,0.227362745,3.956933968,4.233753094,0.307230532,-0.006447110,0.007044209,0.530481338
1751354977.352766752,-1.642936654,-1.767631113,-1.316115132,1.583196884,-0.104720690,-1.643709248,0.046331377,0.019854787,0.011428732,-0.060669698,0.044132736,0.228733995,3.955603983,4.234181828,0.307220830,-0.006478484,0.007033500,0.530457775
1751354977.354773283,-1.642843839,-1.767591140,-1.316092255,1.583075136,-0.104632174,-1.643250409,0.046482771,0.020117892,0.011447890,-0.061077750,0.044382649,0.230105030,3.954267470,4.234613050,0.307211068,-0.006510037,0.007022642,0.530433412
1751354977.356793165,-1.642750724,-1.767550639,-1.316069341,1.582952572,-0.104543159,-1.642788828,0.046631842,0.020383569,0.011466170,-0.061486550,0.044632171,0.231475844,3.952924458,4.235046758,0.307201245,-0.006541771,0.007011633,0.530408238
1751354977.358623505,-1.642657314,-1.767509604,-1.316046391,1.582829190,-0.104453646,-1.642324506,0.046778576,0.020651835,0.011483569,-0.061896101,0.044881297,0.232846435,3.951574977,4.235482950,0.307191363,-0.006573684,0.007000471,0.530382240
1751354977.360607147,-1.642563612,-1.767468030,-1.316023407,1.582704987,-0.104363635,-1.641857442,0.046922957,0.020922704,0.011500080,-0.062306407,0.045130021,0.234216798,3.950219055,4.235921623,0.307181420,-0.006605776,0.006989154,0.530355406
1751354977.362627983,-1.642469623,-1.767425912,-1.316000391,1.582579964,-0.104273126,-1.641387639,0.047064972,0.021196190,0.011515699,-0.062717472,0.045378338,0.235586928,3.948856724,4.236362776,0.307171417,-0.006638047,0.006977682,0.530327723
1751354977.364637136,-1.642375353,-1.767383244,-1.315977345,1.582454117,-0.104182121,-1.640915095,0.047204606,0.021472310,0.011530423,-0.063129300,0.045626242,0.236956821,3.947488013,4.236806405,0.307161353,-0.006670498,0.006966053,0.530299180
1751354977.366619349,-1.642280807,-1.767340021,-1.315954270,1.582327446,-0.104090621,-1.640439812,0.047341844,0.021751077,0.011544245,-0.063541894,0.045873727,0.238326473,3.946112952,4.237252509,0.307151229,-0.006703126,0.006954265,0.530269763
1751354977.374114752,-1.642090902,-1.767251889,-1.315908042,1.582071624,-0.103906139,-1.639481028,0.047609076,0.022316616,0.011569167,-0.064369398,0.046367420,0.241065036,3.943343907,4.238152130,0.307130800,-0.006768918,0.006930205,0.530208260
1751354977.374521494,-1.642090902,-1.767251889,-1.315908042,1.582071624,-0.103906139,-1.639481028,0.047609076,0.022316616,0.011569167,-0.064369398,0.046367420,0.241065036,3.943343907,4.238152130,0.307130800,-0.006768918,0.006930205,0.530208260
1751354977.375110865,-1.641995553,-1.767206969,-1.315884893,1.581942471,-0.103813157,-1.638997529,0.047739040,0.022603417,0.011580257,-0.064784314,0.046613616,0.242433937,3.941949983,4.238605644,0.307120494,-0.006802080,0.006917931,0.530176148
1751354977.377231359,-1.641899947,-1.767161473,-1.315861722,1.581812487,-0.103719684,-1.638511293,0.047866551,0.022892926,0.011590428,-0.065200012,0.046859370,0.243802579,3.940549835,4.239061622,0.307110128,-0.006835419,0.006905492,0.530143111
1751354977.379557610,-1.641707982,-1.767068731,-1.315815324,1.581550020,-0.103531266,-1.637530609,0.048114154,0.023480127,0.011607991,-0.066033767,0.047349530,0.246539067,3.937730989,4.239980963,0.307089214,-0.006902629,0.006880111,0.530074215
1751354977.383871555,-1.641611634,-1.767021474,-1.315792100,1.581417535,-0.103436322,-1.637036163,0.048234217,0.023777848,0.011615375,-0.066451832,0.047593923,0.247906903,3.936312355,4.240444322,0.307078666,-0.006936499,0.006867167,0.530038329
1751354977.383961201,-1.641515047,-1.766973618,-1.315768863,1.581284212,-0.103340891,-1.636538982,0.048351769,0.024078338,0.011621819,-0.066870692,0.047837852,0.249274461,3.934887624,4.240910135,0.307068057,-0.006970545,0.006854051,0.530001467
1751354977.384632111,-1.641515047,-1.766973618,-1.315768863,1.581284212,-0.103340891,-1.636538982,0.048351769,0.024078338,0.011621819,-0.066870692,0.047837852,0.249274461,3.934887624,4.240910135,0.307068057,-0.006970545,0.006854051,0.530001467
1751354977.386591673,-1.641418228,-1.766925158,-1.315745614,1.581150051,-0.103244971,-1.636039065,0.048466794,0.024381609,0.011627321,-0.067290353,0.048081308,0.250641736,3.933456827,4.241378402,0.307057387,-0.007004766,0.006840761,0.529963616
1751354977.388689756,-1.641321182,-1.766876089,-1.315722354,1.581015050,-0.103148566,-1.635536415,0.048579278,0.024687678,0.011631875,-0.067710816,0.048324286,0.252008722,3.932019999,4.241849118,0.307046656,-0.007039163,0.006827298,0.529924763
1751354977.390690804,-1.641223913,-1.766826406,-1.315699087,1.580879208,-0.103051675,-1.635031031,0.048689207,0.024996559,0.011635477,-0.068132087,0.048566780,0.253375416,3.930577172,4.242322282,0.307035865,-0.007073735,0.006813657,0.529884894
1751354977.395298004,-1.641223913,-1.766826406,-1.315699087,1.580879208,-0.103051675,-1.635031031,0.048689207,0.024996559,0.011635477,-0.068132087,0.048566780,0.253375416,3.930577172,4.242322282,0.307035865,-0.007073735,0.006813657,0.529884894
1751354977.395369053,-1.641028728,-1.766725171,-1.315652535,1.580604990,-0.102856440,-1.634012064,0.048901341,0.025622818,0.011639805,-0.068977063,0.049050291,0.256107904,3.927673653,4.243275942,0.307014098,-0.007143403,0.006785841,0.529802056
1751354977.396831036,-1.640930823,-1.766673608,-1.315629254,1.580466613,-0.102758098,-1.633498482,0.049003517,0.025940225,0.011640522,-0.069400775,0.049291294,0.257473688,3.926213029,4.243756433,0.307003123,-0.007178499,0.006771661,0.529759060
1751354977.398708582,-1.640832716,-1.766621408,-1.315605973,1.580327387,-0.102659275,-1.632982169,0.049103079,0.026260504,0.011640268,-0.069825309,0.049531788,0.258839158,3.924746540,4.244239361,0.306992087,-0.007213768,0.006757299,0.529714994
1751354977.400600433,-1.640734412,-1.766568564,-1.315582694,1.580187311,-0.102559971,-1.632463125,0.049200014,0.026583669,0.011639039,-0.070250667,0.049771765,0.260204310,3.923274221,4.244724723,0.306980990,-0.007249211,0.006742751,0.529669845
1751354977.402572870,-1.640635918,-1.766515071,-1.315559418,1.580046383,-0.102460188,-1.631941352,0.049294305,0.026909736,0.011636830,-0.070676854,0.050011219,0.261569137,3.921796106,4.245212517,0.306969831,-0.007284826,0.006728018,0.529623599
1751354977.404754400,-1.640537237,-1.766460923,-1.315536147,1.579904603,-0.102359927,-1.631416849,0.049385939,0.027238718,0.011633637,-0.071103872,0.050250143,0.262933635,3.920312230,4.245702740,0.306958611,-0.007320615,0.006713096,0.529576243
1751354977.406842470,-1.640438376,-1.766406115,-1.315512884,1.579761967,-0.102259188,-1.630889618,0.049474902,0.027570632,0.011629455,-0.071531725,0.050488531,0.264297799,3.918822627,4.246195389,0.306947330,-0.007356575,0.006697984,0.529527761
1751354977.408825397,-1.640339339,-1.766350639,-1.315489630,1.579618475,-0.102157973,-1.630359658,0.049561178,0.027905492,0.011624279,-0.071960416,0.050726376,0.265661621,3.917327334,4.246690462,0.306935987,-0.007392708,0.006682682,0.529478142
1751354977.410719633,-1.640240133,-1.766294491,-1.315466388,1.579474125,-0.102056283,-1.629826971,0.049644753,0.028243312,0.011618105,-0.072389949,0.050963671,0.267025098,3.915826386,4.247187955,0.306924583,-0.007429012,0.006667185,0.529427369
1751354977.412726879,-1.640140762,-1.766237664,-1.315443158,1.579328915,-0.101954119,-1.629291558,0.049725613,0.028584108,0.011610929,-0.072820328,0.051200408,0.268388223,3.914319817,4.247687866,0.306913117,-0.007465488,0.006651495,0.529375430
1751354977.414691925,-1.640041232,-1.766180152,-1.315419945,1.579182843,-0.101851482,-1.628753419,0.049803743,0.028927894,0.011602746,-0.073251555,0.051436582,0.269750991,3.912807665,4.248190192,0.306901589,-0.007502134,0.006635607,0.529322310
1751354977.416699171,-1.639941549,-1.766121950,-1.315396748,1.579035908,-0.101748373,-1.628212554,0.049879128,0.029274685,0.011593551,-0.073683634,0.051672185,0.271113396,3.911289966,4.248694931,0.306890000,-0.007538951,0.006619521,0.529267995
1751354977.418686867,-1.639841717,-1.766063051,-1.315373571,1.578888108,-0.101644793,-1.627668965,0.049951753,0.029624496,0.011583340,-0.074116568,0.051907209,0.272475432,3.909766756,4.249202078,0.306878348,-0.007575938,0.006603235,0.529212471
1751354977.420768261,-1.639741744,-1.766003450,-1.315350415,1.578739441,-0.101540744,-1.627122653,0.050021605,0.029977341,0.011572108,-0.074550361,0.052141648,0.273837094,3.908238071,4.249711632,0.306866635,-0.007613094,0.006586748,0.529155723
1751354977.422786713,-1.639641633,-1.765943140,-1.315327283,1.578589906,-0.101436227,-1.626573617,0.050088668,0.030333236,0.011559852,-0.074985016,0.052375495,0.275198375,3.906703949,4.250223590,0.306854860,-0.007650420,0.006570057,0.529097736
1751354977.426208019,-1.639541391,-1.765882115,-1.315304177,1.578439501,-0.101331243,-1.626021860,0.050152928,0.030692194,0.011546566,-0.075420536,0.052608742,0.276559270,3.905164427,4.250737947,0.306843023,-0.007687915,0.006553160,0.529038498
1751354977.427075863,-1.639541391,-1.765882115,-1.315304177,1.578439501,-0.101331243,-1.626021860,0.050152928,0.030692194,0.011546566,-0.075420536,0.052608742,0.276559270,3.905164427,4.250737947,0.306843023,-0.007687915,0.006553160,0.529038498
1751354977.429322958,-1.639441023,-1.765820369,-1.315281098,1.578288223,-0.101225792,-1.625467380,0.050214371,0.031054231,0.011532246,-0.075856925,0.052841382,0.277919772,3.903619543,4.251254703,0.306831124,-0.007725578,0.006536057,0.528977992
1751354977.431354284,-1.639340535,-1.765757896,-1.315258048,1.578136072,-0.101119878,-1.624910181,0.050272981,0.031419362,0.011516888,-0.076294185,0.053073407,0.279279876,3.902069334,4.251773853,0.306819163,-0.007763409,0.006518744,0.528916204
1751354977.433655024,-1.639239933,-1.765694690,-1.315235031,1.577983046,-0.101013499,-1.624350261,0.050328745,0.031787601,0.011500486,-0.076732320,0.053304810,0.280639575,3.900513839,4.252295394,0.306807139,-0.007801408,0.006501222,0.528853119
1751354977.435295820,-1.639139222,-1.765630744,-1.315212047,1.577829143,-0.100906659,-1.623787623,0.050381647,0.032158963,0.011483038,-0.077171333,0.053535584,0.281998863,3.898953095,4.252819324,0.306795054,-0.007839574,0.006483486,0.528788723
1751354977.438692808,-1.639038408,-1.765566052,-1.315189099,1.577674360,-0.100799357,-1.623222266,0.050431673,0.032533462,0.011464538,-0.077611228,0.053765720,0.283357734,3.897387141,4.253345639,0.306782905,-0.007877906,0.006465537,0.528723001
1751354977.440601349,-1.638836495,-1.765434405,-1.315143320,1.577362152,-0.100583377,-1.622083402,0.050523038,0.033291932,0.011424365,-0.078493673,0.054224051,0.286074198,3.894239760,4.254405413,0.306758421,-0.007955070,0.006428989,0.528587519
1751354977.440789700,-1.638836495,-1.765434405,-1.315143320,1.577362152,-0.100583377,-1.622083402,0.050523038,0.033291932,0.011424365,-0.078493673,0.054224051,0.286074198,3.894239760,4.254405413,0.306758421,-0.007955070,0.006428989,0.528587519
1751354977.442748308,-1.638735407,-1.765367438,-1.315120493,1.577204722,-0.100474701,-1.621509896,0.050564348,0.033675932,0.011402683,-0.078936230,0.054452229,0.287431780,3.892658412,4.254938866,0.306746086,-0.007993900,0.006410387,0.528517729
1751354977.444678307,-1.638634240,-1.765299699,-1.315097710,1.577046406,-0.100365568,-1.620933675,0.050602724,0.034063129,0.011379932,-0.079379680,0.054679740,0.288788918,3.891072010,4.255474691,0.306733687,-0.008032896,0.006391563,0.528446553
1751354977.446717739,-1.638532998,-1.765231183,-1.315074974,1.576887203,-0.100255982,-1.620354740,0.050638151,0.034453536,0.011356108,-0.079824027,0.054906574,0.290145607,3.889480595,4.256012886,0.306721226,-0.008072055,0.006372516,0.528373976
1751354977.451664686,-1.638431689,-1.765161883,-1.315052287,1.576727109,-0.100145943,-1.619773093,0.050670614,0.034847168,0.011331205,-0.080269275,0.055132724,0.291501840,3.887884208,4.256553448,0.306708702,-0.008111379,0.006353244,0.528299982
1751354977.452766895,-1.638228890,-1.765020905,-1.315007066,1.576404247,-0.099924510,-1.618601663,0.050726591,0.035644168,0.011278148,-0.081162480,0.055582940,0.294212911,3.884676676,4.257641657,0.306683464,-0.008190517,0.006314019,0.528147682
1751354977.454779625,-1.638127413,-1.764949213,-1.314984538,1.576241474,-0.099813120,-1.618011882,0.050750076,0.036047565,0.011249985,-0.081610445,0.055806989,0.295567736,3.883065613,4.258189298,0.306670751,-0.008230330,0.006294061,0.528069347
1751354977.456646681,-1.638025892,-1.764876712,-1.314962067,1.576077805,-0.099701283,-1.617419392,0.050770539,0.036454245,0.011220726,-0.082059321,0.056030322,0.296922077,3.881449741,4.258739292,0.306657975,-0.008270305,0.006273871,0.527989533
1751354977.458657265,-1.637924333,-1.764803394,-1.314939656,1.575913236,-0.099588999,-1.616824194,0.050787965,0.036864224,0.011190368,-0.082509112,0.056252930,0.298275928,3.879829101,4.259291637,0.306645135,-0.008310442,0.006253448,0.527908226
1751354977.460608721,-1.637822742,-1.764729253,-1.314917306,1.575747768,-0.099476272,-1.616226289,0.050802340,0.037277516,0.011158905,-0.082959821,0.056474804,0.299629282,3.878203735,4.259846328,0.306632232,-0.008350739,0.006232788,0.527825409
1751354977.462709427,-1.637721126,-1.764654282,-1.314895021,1.575581396,-0.099363101,-1.615625677,0.050813649,0.037694136,0.011126335,-0.083411450,0.056695936,0.300982132,3.876573684,4.260403362,0.306619265,-0.008391198,0.006211890,0.527741067
1751354977.464703560,-1.637619490,-1.764578474,-1.314872802,1.575414121,-0.099249488,-1.615022360,0.050821878,0.038114098,0.011092651,-0.083864002,0.056916318,0.302334471,3.874938992,4.260962736,0.306606235,-0.008431817,0.006190753,0.527655185
1751354977.466558695,-1.637517840,-1.764501823,-1.314850651,1.575245940,-0.099135436,-1.614416339,0.050827011,0.038537416,0.011057850,-0.084317480,0.057135941,0.303686291,3.873299700,4.261524446,0.306593141,-0.008472595,0.006169374,0.527567747
1751354977.468551636,-1.637416184,-1.764424322,-1.314828571,1.575076851,-0.099020945,-1.613807616,0.050829036,0.038964105,0.011021929,-0.084771887,0.057354797,0.305037585,3.871655852,4.262088489,0.306579984,-0.008513532,0.006147752,0.527478736
1751354977.470618725,-1.637314526,-1.764345965,-1.314806564,1.574906852,-0.098906017,-1.613196190,0.050827936,0.039394180,0.010984881,-0.085227226,0.057572876,0.306388346,3.870007490,4.262654861,0.306566762,-0.008554628,0.006125884,0.527388137
1751354977.472551346,-1.637212874,-1.764266743,-1.314784632,1.574735941,-0.098790654,-1.612582063,0.050823697,0.039827656,0.010946704,-0.085683500,0.057790170,0.307738566,3.868354659,4.263223560,0.306553477,-0.008595882,0.006103769,0.527295934
1751354977.474619150,-1.637111234,-1.764186652,-1.314762778,1.574564117,-0.098674857,-1.611965236,0.050816306,0.040264546,0.010907392,-0.086140710,0.058006670,0.309088239,3.866697402,4.263794580,0.306540127,-0.008637293,0.006081406,0.527202110
1751354977.476522684,-1.637009611,-1.764105683,-1.314741004,1.574391378,-0.098558628,-1.611345710,0.050805746,0.040704865,0.010866943,-0.086598861,0.058222368,0.310437356,3.865035762,4.264367919,0.306526714,-0.008678861,0.006058791,0.527106651
1751354977.478544474,-1.636908013,-1.764023830,-1.314719311,1.574217721,-0.098441968,-1.610723487,0.050792004,0.041148628,0.010825350,-0.087057954,0.058437254,0.311785910,3.863369785,4.264943573,0.306513236,-0.008720586,0.006035924,0.527009539
1751354977.480538368,-1.636806445,-1.763941086,-1.314697703,1.574043145,-0.098324880,-1.610098567,0.050775066,0.041595848,0.010782611,-0.087517992,0.058651319,0.313133893,3.861699515,4.265521539,0.306499694,-0.008762466,0.006012801,0.526910759
1751354977.482511520,-1.636704915,-1.763857444,-1.314676181,1.573867648,-0.098207364,-1.609470951,0.050754915,0.042046542,0.010738721,-0.087978978,0.058864554,0.314481297,3.860024996,4.266101813,0.306486087,-0.008804502,0.005989423,0.526810294
1751354977.486145020,-1.636704915,-1.763857444,-1.314676181,1.573867648,-0.098207364,-1.609470951,0.050754915,0.042046542,0.010738721,-0.087978978,0.058864554,0.314481297,3.860024996,4.266101813,0.306486087,-0.008804502,0.005989423,0.526810294
1751354977.486945391,-1.636704915,-1.763857444,-1.314676181,1.573867648,-0.098207364,-1.609470951,0.050754915,0.042046542,0.010738721,-0.087978978,0.058864554,0.314481297,3.860024996,4.266101813,0.306486087,-0.008804502,0.005989423,0.526810294
1751354977.490304470,-1.636603428,-1.763772898,-1.314654749,1.573691229,-0.098089422,-1.608840642,0.050731539,0.042500722,0.010693675,-0.088440914,0.059076950,0.315828116,3.858346273,4.266684391,0.306472416,-0.008846693,0.005965785,0.526708128
1751354977.492332458,-1.636400610,-1.763601062,-1.314612160,1.573335613,-0.097852268,-1.607571945,0.050675050,0.043419601,0.010600102,-0.089367649,0.059499188,0.318519962,3.854976401,4.267856444,0.306444879,-0.008931535,0.005917727,0.526498627
1751354977.493812084,-1.636299293,-1.763513758,-1.314591008,1.573156413,-0.097733060,-1.606933560,0.050641908,0.043884328,0.010551565,-0.089832452,0.059709010,0.319864974,3.853285343,4.268445911,0.306431014,-0.008974186,0.005893303,0.526391260
1751354977.495660543,-1.636198045,-1.763425522,-1.314569954,1.572976282,-0.097613433,-1.606292485,0.050605482,0.044352600,0.010501857,-0.090298216,0.059917957,0.321209368,3.851590264,4.269037668,0.306417083,-0.009016990,0.005868612,0.526282125
1751354977.498681068,-1.636096873,-1.763336346,-1.314549001,1.572795219,-0.097493389,-1.605648723,0.050565758,0.044824431,0.010450972,-0.090764942,0.060126017,0.322553136,3.849891212,4.269631711,0.306403088,-0.009059945,0.005843653,0.526171207
1751354977.499292612,-1.636096873,-1.763336346,-1.314549001,1.572795219,-0.097493389,-1.605648723,0.050565758,0.044824431,0.010450972,-0.090764942,0.060126017,0.322553136,3.849891212,4.269631711,0.306403088,-0.009059945,0.005843653,0.526171207
1751354977.501206875,-1.635995784,-1.763246222,-1.314528151,1.572613222,-0.097372930,-1.605002273,0.050522720,0.045299835,0.010398907,-0.091232634,0.060333182,0.323896269,3.848188234,4.270228035,0.306389027,-0.009103051,0.005818424,0.526058490
1751354977.502856731,-1.635894784,-1.763155144,-1.314507406,1.572430288,-0.097252057,-1.604353138,0.050476354,0.045778827,0.010345657,-0.091701294,0.060539442,0.325238760,3.846481377,4.270826636,0.306374901,-0.009146308,0.005792923,0.525943955
1751354977.504579067,-1.635793881,-1.763063104,-1.314486769,1.572246416,-0.097130772,-1.603701319,0.050426647,0.046261420,0.010291219,-0.092170924,0.060744787,0.326580600,3.844770687,4.271427512,0.306360709,-0.009189715,0.005767149,0.525827587
1751354977.506666183,-1.635693080,-1.762970096,-1.314466242,1.572061604,-0.097009078,-1.603046816,0.050373582,0.046747630,0.010235588,-0.092641527,0.060949207,0.327921780,3.843056214,4.272030657,0.306346452,-0.009233271,0.005741098,0.525709369
1751354977.508839846,-1.635592389,-1.762876111,-1.314445828,1.571875849,-0.096886976,-1.602389632,0.050317146,0.047237471,0.010178760,-0.093113105,0.061152692,0.329262293,3.841338004,4.272636068,0.306332129,-0.009276976,0.005714769,0.525589285
1751354977.514911652,-1.635391362,-1.762685185,-1.314405346,1.571501506,-0.096641556,-1.601067224,0.050194104,0.048228101,0.010061496,-0.094059194,0.061556819,0.331941281,3.837890570,4.273853673,0.306303285,-0.009364829,0.005661271,0.525343447
1751354977.514990807,-1.635291039,-1.762588229,-1.314385283,1.571312913,-0.096518241,-1.600402003,0.050127467,0.048728918,0.010001053,-0.094533710,0.061757441,0.333279739,3.836161443,4.274465858,0.306288764,-0.009408976,0.005634098,0.525217659
1751354977.515049458,-1.635291039,-1.762588229,-1.314385283,1.571312913,-0.096518241,-1.600402003,0.050127467,0.048728918,0.010001053,-0.094533710,0.061757441,0.333279739,3.836161443,4.274465858,0.306288764,-0.009408976,0.005634098,0.525217659
1751354977.516775846,-1.635190854,-1.762490267,-1.314365342,1.571123371,-0.096394527,-1.599734105,0.050057402,0.049233424,0.009939396,-0.095009210,0.061957087,0.334617494,3.834428775,4.275080293,0.306274177,-0.009453269,0.005606638,0.525089938
1751354977.518704414,-1.635090812,-1.762391292,-1.314345526,1.570932876,-0.096270414,-1.599063533,0.049983893,0.049741632,0.009876522,-0.095485696,0.062155749,0.335954538,3.832692615,4.275696974,0.306259524,-0.009497707,0.005578891,0.524960264
1751354977.520616531,-1.634990921,-1.762291298,-1.314325837,1.570741427,-0.096145904,-1.598390288,0.049906927,0.050253555,0.009812426,-0.095963170,0.062353416,0.337290863,3.830953014,4.276315896,0.306244805,-0.009542291,0.005550855,0.524828622
1751354977.522686005,-1.634891187,-1.762190276,-1.314306277,1.570549023,-0.096021001,-1.597714370,0.049826487,0.050769209,0.009747104,-0.096441635,0.062550077,0.338626458,3.829210020,4.276937056,0.306230018,-0.009587018,0.005522527,0.524694993
1751354977.524634361,-1.634791617,-1.762088219,-1.314286849,1.570355660,-0.095895705,-1.597035782,0.049742562,0.051288608,0.009680553,-0.096921092,0.062745722,0.339961316,3.827463686,4.277560450,0.306215165,-0.009631889,0.005493905,0.524559363
1751354977.526641846,-1.634692219,-1.761985119,-1.314267556,1.570161337,-0.095770019,-1.596354526,0.049655134,0.051811766,0.009612768,-0.097401544,0.062940340,0.341295426,3.825714061,4.278186073,0.306200245,-0.009676902,0.005464989,0.524421711
1751354977.528604984,-1.634592999,-1.761880969,-1.314248399,1.569966053,-0.095643944,-1.595670601,0.049564192,0.052338696,0.009543746,-0.097882992,0.063133922,0.342628781,3.823961197,4.278813921,0.306185259,-0.009722057,0.005435774,0.524282021
1751354977.530691147,-1.634493964,-1.761775761,-1.314229382,1.569769805,-0.095517484,-1.594984011,0.049469719,0.052869414,0.009473482,-0.098365438,0.063326455,0.343961370,3.822205144,4.279443990,0.306170205,-0.009767354,0.005406260,0.524140277
1751354977.532609463,-1.634395122,-1.761669489,-1.314210506,1.569572591,-0.095390639,-1.594294756,0.049371702,0.053403933,0.009401971,-0.098848885,0.063517931,0.345293184,3.820445955,4.280076275,0.306155084,-0.009812792,0.005376445,0.523996461
1751354977.534581184,-1.634296480,-1.761562143,-1.314191775,1.569374409,-0.095263413,-1.593602839,0.049270126,0.053942267,0.009329211,-0.099333335,0.063708337,0.346624215,3.818683682,4.280710772,0.306139895,-0.009858369,0.005346327,0.523850555
1751354977.536566973,-1.634198044,-1.761453717,-1.314173190,1.569175257,-0.095135806,-1.592908260,0.049164977,0.054484431,0.009255198,-0.099818788,0.063897663,0.347954452,3.816918375,4.281347478,0.306124639,-0.009904085,0.005315903,0.523702542
1751354977.538603783,-1.634099823,-1.761344203,-1.314154755,1.568975133,-0.095007823,-1.592211021,0.049056241,0.055030439,0.009179926,-0.100305248,0.064085898,0.349283886,3.815150089,4.281986387,0.306109315,-0.009949940,0.005285172,0.523552404
1751354977.540615320,-1.634001822,-1.761233593,-1.314136471,1.568774035,-0.094879464,-1.591511125,0.048943903,0.055580305,0.009103392,-0.100792716,0.064273032,0.350612508,3.813378876,4.282627496,0.306093924,-0.009995933,0.005254131,0.523400125
1751354977.542602301,-1.633904049,-1.761121879,-1.314118342,1.568571961,-0.094750731,-1.590808572,0.048827948,0.056134042,0.009025593,-0.101281194,0.064459052,0.351940308,3.811604789,4.283270799,0.306078465,-0.010042062,0.005222779,0.523245686
1751354977.544561625,-1.633806512,-1.761009054,-1.314100370,1.568368910,-0.094621628,-1.590103364,0.048708364,0.056691666,0.008946524,-0.101770683,0.064643948,0.353267276,3.809827882,4.283916292,0.306062937,-0.010088328,0.005191114,0.523089070
1751354977.546727180,-1.633709218,-1.760895110,-1.314082557,1.568164878,-0.094492156,-1.589395503,0.048585135,0.057253189,0.008866181,-0.102261185,0.064827709,0.354593402,3.808048208,4.284563972,0.306047341,-0.010134730,0.005159134,0.522930259
1751354977.559199810,-1.633612174,-1.760780039,-1.314064906,1.567959864,-0.094362318,-1.588684991,0.048458247,0.057818627,0.008784560,-0.102752702,0.065010324,0.355918677,3.806265821,4.285213833,0.306031677,-0.010181266,0.005126836,0.522769236
1751354977.559267998,-1.633418866,-1.760546484,-1.314030100,1.567546883,-0.094101552,-1.587256019,0.048193437,0.058961301,0.008617470,-0.103738789,0.065372068,0.358566634,3.802693129,4.286520082,0.306000143,-0.010274739,0.005061281,0.522440483
1751354977.559284925,-1.633322616,-1.760427985,-1.314012950,1.567338911,-0.093970628,-1.586537563,0.048055486,0.059538565,0.008531992,-0.104233361,0.065551175,0.359889295,3.800902932,4.287176460,0.305984273,-0.010321674,0.005028020,0.522272717
1751354977.561047792,-1.633226647,-1.760308327,-1.313995973,1.567129948,-0.093839348,-1.585816463,0.047913820,0.060119799,0.008445221,-0.104728954,0.065729090,0.361211065,3.799110242,4.287835002,0.305968333,-0.010368741,0.004994433,0.522102669
1751354977.562881470,-1.633130964,-1.760187503,-1.313979170,1.566919994,-0.093707713,-1.585092720,0.047768424,0.060705018,0.008357153,-0.105225571,0.065905800,0.362531934,3.797315115,4.288495702,0.305952325,-0.010415939,0.004960520,0.521930319
1751354977.567431450,-1.632940489,-1.759942323,-1.313946100,1.566497101,-0.093443388,-1.583637313,0.047466384,0.061887463,0.008177108,-0.106221878,0.066255563,0.365170924,3.793717773,4.289823560,0.305920100,-0.010510724,0.004891702,0.521578647
1751354977.567493200,-1.632940489,-1.759942323,-1.313946100,1.566497101,-0.093443388,-1.583637313,0.047466384,0.061887463,0.008177108,-0.106221878,0.066255563,0.365170924,3.793717773,4.289823560,0.305920100,-0.010510724,0.004891702,0.521578647
1751354977.568612576,-1.632845712,-1.759817952,-1.313929838,1.566284157,-0.093310704,-1.582905653,0.047309713,0.062484718,0.008085124,-0.106721572,0.066428591,0.366489026,3.791915671,4.290490709,0.305903883,-0.010558310,0.004856795,0.521399288
1751354977.570694447,-1.632751253,-1.759692382,-1.313913760,1.566070214,-0.093177675,-1.582171357,0.047149255,0.063086013,0.007991827,-0.107222295,0.066600369,0.367806185,3.790111357,4.291159997,0.305887596,-0.010606023,0.004821552,0.521217558
1751354977.572618484,-1.632657118,-1.759565605,-1.313897871,1.565855267,-0.093044303,-1.581434429,0.046984996,0.063691361,0.007897213,-0.107724048,0.066770883,0.369122390,3.788304888,4.291831421,0.305871239,-0.010653863,0.004785972,0.521033437
1751354977.574630737,-1.632563315,-1.759437614,-1.313882172,1.565639317,-0.092910592,-1.580694868,0.046816922,0.064300778,0.007801278,-0.108226832,0.066940123,0.370437631,3.786496323,4.292504975,0.305854812,-0.010701828,0.004750053,0.520846909
1751354977.576827288,-1.632469853,-1.759308399,-1.313866667,1.565422359,-0.092776544,-1.579952679,0.046645019,0.064914276,0.007704018,-0.108730649,0.067108075,0.371751897,3.784685718,4.293180654,0.305838315,-0.010749919,0.004713793,0.520657954
1751354977.581574917,-1.632469853,-1.759308399,-1.313866667,1.565422359,-0.092776544,-1.579952679,0.046645019,0.064914276,0.007704018,-0.108730649,0.067108075,0.371751897,3.784685718,4.293180654,0.305838315,-0.010749919,0.004713793,0.520657954
1751354977.582844734,-1.632283978,-1.759046269,-1.313836246,1.564985417,-0.092507446,-1.578460419,0.046289670,0.066153572,0.007505510,-0.109741385,0.067440069,0.374377462,3.781058626,4.294538371,0.305805109,-0.010846472,0.004640241,0.520272696
1751354977.584836960,-1.632191582,-1.758913337,-1.313821336,1.564765427,-0.092372401,-1.577710352,0.046106196,0.066779399,0.007404254,-0.110248307,0.067604086,0.375688738,3.779242255,4.295220399,0.305788399,-0.010894933,0.004602945,0.520076357
1751354977.586732864,-1.632099556,-1.758779149,-1.313806630,1.564544423,-0.092237030,-1.576957664,0.045918836,0.067409362,0.007301657,-0.110756267,0.067766767,0.376998997,3.777424080,4.295904532,0.305771619,-0.010943515,0.004565300,0.519877520
1751354977.588786602,-1.632007909,-1.758643697,-1.313792130,1.564322401,-0.092101335,-1.576202357,0.045727578,0.068043476,0.007197717,-0.111265265,0.067928099,0.378308226,3.775604159,4.296590767,0.305754768,-0.010992219,0.004527304,0.519676167
1751354977.590773582,-1.631916648,-1.758506972,-1.313777840,1.564099361,-0.091965319,-1.575444432,0.045532406,0.068681755,0.007092428,-0.111775302,0.068088070,0.379616414,3.773782554,4.297279097,0.305737845,-0.011041042,0.004488955,0.519472281
1751354977.592849255,-1.631825782,-1.758368967,-1.313763762,1.563875299,-0.091828984,-1.574683892,0.045333308,0.069324212,0.006985789,-0.112286380,0.068246667,0.380923551,3.771959324,4.297969520,0.305720850,-0.011089983,0.004450251,0.519265842
1751354977.594823599,-1.631735318,-1.758229672,-1.313749898,1.563650215,-0.091692333,-1.573920739,0.045130268,0.069970862,0.006877794,-0.112798499,0.068403877,0.382229625,3.770134529,4.298662028,0.305703784,-0.011139043,0.004411190,0.519056834
1751354977.596732855,-1.631645263,-1.758089081,-1.313736251,1.563424105,-0.091555369,-1.573154974,0.044923274,0.070621718,0.006768440,-0.113311661,0.068559688,0.383534625,3.768308231,4.299356617,0.305686646,-0.011188221,0.004371769,0.518845239
1751354977.598875761,-1.631555627,-1.757947183,-1.313722825,1.563196967,-0.091418095,-1.572386601,0.044712311,0.071276793,0.006657723,-0.113825866,0.068714087,0.384838539,3.766480490,4.300053283,0.305669436,-0.011237514,0.004331988,0.518631037
1751354977.600637674,-1.631466417,-1.757803971,-1.313709621,1.562968801,-0.091280514,-1.571615621,0.044497366,0.071936102,0.006545640,-0.114341115,0.068867060,0.386141356,3.764651368,4.300752019,0.305652153,-0.011286923,0.004291843,0.518414212
1751354977.602613688,-1.631377640,-1.757659435,-1.313696643,1.562739602,-0.091142628,-1.570842036,0.044278424,0.072599658,0.006432186,-0.114857410,0.069018596,0.387443065,3.762820927,4.301452821,0.305634798,-0.011336446,0.004251333,0.518194744
1751354977.604675531,-1.631289306,-1.757513569,-1.313683893,1.562509370,-0.091004440,-1.570065849,0.044055472,0.073267475,0.006317357,-0.115374750,0.069168681,0.388743653,3.760989228,4.302155684,0.305617370,-0.011386082,0.004210457,0.517972617
1751354977.606788874,-1.631201421,-1.757366363,-1.313671375,1.562278103,-0.090865954,-1.569287062,0.043828496,0.073939566,0.006201151,-0.115893136,0.069317301,0.390043110,3.759156334,4.302860603,0.305599869,-0.011435831,0.004169211,0.517747811
1751354977.608747959,-1.631113995,-1.757217808,-1.313659090,1.562045797,-0.090727172,-1.568505678,0.043597482,0.074615946,0.006083563,-0.116412570,0.069464444,0.391341423,3.757322309,4.303567572,0.305582296,-0.011485692,0.004127595,0.517520309
1751354977.610748768,-1.631027034,-1.757067896,-1.313647041,1.561812452,-0.090588097,-1.567721697,0.043362416,0.075296627,0.005964590,-0.116933052,0.069610096,0.392638580,3.755487214,4.304276585,0.305564648,-0.011535663,0.004085605,0.517290093
1751354977.622064590,-1.631027034,-1.757067896,-1.313647041,1.561812452,-0.090588097,-1.567721697,0.043362416,0.075296627,0.005964590,-0.116933052,0.069610096,0.392638580,3.755487214,4.304276585,0.305564648,-0.011535663,0.004085605,0.517290093
1751354977.622124434,-1.630854544,-1.756763967,-1.313623665,1.561342633,-0.090309081,-1.566145960,0.042880077,0.076670950,0.005722472,-0.117977161,0.069896877,0.395229381,3.751814070,4.305700727,0.305529134,-0.011635934,0.004000500,0.516821446
1751354977.622141600,-1.630854544,-1.756763967,-1.313623665,1.561342633,-0.090309081,-1.566145960,0.042880077,0.076670950,0.005722472,-0.117977161,0.069896877,0.395229381,3.751814070,4.305700727,0.305529134,-0.011635934,0.004000500,0.516821446
1751354977.622157812,-1.630854544,-1.756763967,-1.313623665,1.561342633,-0.090309081,-1.566145960,0.042880077,0.076670950,0.005722472,-0.117977161,0.069896877,0.395229381,3.751814070,4.305700727,0.305529134,-0.011635934,0.004000500,0.516821446
1751354977.622816563,-1.630684015,-1.756454505,-1.313601269,1.560868629,-0.090028930,-1.564559869,0.042381367,0.078062645,0.005474767,-0.119025469,0.070177534,0.397815417,3.748137415,4.307132986,0.305493323,-0.011736635,0.003913879,0.516341725
1751354977.625157118,-1.630599507,-1.756297678,-1.313590445,1.560630052,-0.089888437,-1.563762946,0.042125839,0.078765040,0.005348810,-0.119551199,0.070315532,0.399106617,3.746297932,4.307852145,0.305475306,-0.011787145,0.003869995,0.516097666
1751354977.629070997,-1.630432045,-1.755979788,-1.313569560,1.560149740,-0.089606630,-1.562161361,0.041602370,0.080182994,0.005092670,-0.120605811,0.070586802,0.401685323,3.742616980,4.309296499,0.305439049,-0.011888478,0.003781072,0.515601063
1751354977.629227638,-1.630349108,-1.755818707,-1.313559505,1.559907999,-0.089465323,-1.561356703,0.041334402,0.080898581,0.004962478,-0.121134695,0.070720045,0.402972803,3.740775642,4.310021681,0.305420808,-0.011939299,0.003736029,0.515348483
1751354977.630740643,-1.630349108,-1.755818707,-1.313559505,1.559907999,-0.089465323,-1.561356703,0.041334402,0.080898581,0.004962478,-0.121134695,0.070720045,0.402972803,3.740775642,4.310021681,0.305420808,-0.011939299,0.003736029,0.515348483
1751354977.632715464,-1.630266711,-1.755656191,-1.313549711,1.559665200,-0.089323751,-1.560549471,0.041062260,0.081618591,0.004830868,-0.121664630,0.070851675,0.404259018,3.738933817,4.310748861,0.305402492,-0.011990222,0.003690595,0.515093026
1751354977.634753704,-1.630184862,-1.755492230,-1.313540182,1.559421340,-0.089181918,-1.559739667,0.040785930,0.082343039,0.004697836,-0.122195618,0.070981679,0.405543955,3.737091572,4.311478032,0.305384101,-0.012041246,0.003644769,0.514834674
1751354977.640183926,-1.630103570,-1.755326816,-1.313530921,1.559176417,-0.089039826,-1.558927296,0.040505400,0.083071938,0.004563377,-0.122727658,0.071110041,0.406827603,3.735248973,4.312209188,0.305365634,-0.012092369,0.003598549,0.514573410
1751354977.640255928,-1.630022843,-1.755159939,-1.313521930,1.558930429,-0.088897479,-1.558112358,0.040220655,0.083805302,0.004427488,-0.123260750,0.071236749,0.408109948,3.733406088,4.312942325,0.305347091,-0.012143591,0.003551932,0.514309214
1751354977.641563177,-1.629942690,-1.754991592,-1.313513212,1.558683373,-0.088754880,-1.557294857,0.039931683,0.084543143,0.004290165,-0.123794895,0.071361788,0.409390977,3.731562983,4.313677436,0.305328472,-0.012194910,0.003504917,0.514042071
1751354977.642834902,-1.629863119,-1.754821764,-1.313504770,1.558435248,-0.088612033,-1.556474795,0.039638470,0.085285476,0.004151406,-0.124330093,0.071485144,0.410670678,3.729719727,4.314414517,0.305309777,-0.012246326,0.003457502,0.513771961
1751354977.644876719,-1.629784139,-1.754650447,-1.313496607,1.558186052,-0.088468940,-1.555652175,0.039341002,0.086032314,0.004011205,-0.124866343,0.071606802,0.411949038,3.727876388,4.315153561,0.305291005,-0.012297838,0.003409685,0.513498866
1751354977.646826744,-1.629705758,-1.754477631,-1.313488726,1.557935782,-0.088325606,-1.554827000,0.039039268,0.086783670,0.003869560,-0.125403647,0.071726749,0.413226044,3.726033034,4.315894562,0.305272157,-0.012349444,0.003361464,0.513222769
