mathias31415/motion_primitives_from_planned_trajectory/data/trajectory_20250702_093133_planned.csv
time_from_start,shoulder_pan_joint_pos,shoulder_lift_joint_pos,elbow_joint_pos,wrist_1_joint_pos,wrist_2_joint_pos,wrist_3_joint_pos,shoulder_pan_joint_vel,shoulder_lift_joint_vel,elbow_joint_vel,wrist_1_joint_vel,wrist_2_joint_vel,wrist_3_joint_vel,shoulder_pan_joint_acc,shoulder_lift_joint_acc,elbow_joint_acc,wrist_1_joint_acc,wrist_2_joint_acc,wrist_3_joint_acc,pose_x,pose_y,pose_z,pose_qx,pose_qy,pose_qz,pose_qw
0.000000,-1.729392,-1.503343,-2.101085,-1.136402,1.591568,-0.159888,-0.000233,0.000077,0.000201,0.000496,0.000082,0.000500,-0.232902,0.077045,0.200877,0.495722,0.082264,0.500000,-0.262218,-0.552124,0.416931,-0.000498,0.999845,0.012393,0.012508
0.100000,-1.730557,-1.502958,-2.100081,-1.133923,1.591979,-0.157388,-0.023290,0.007704,0.020088,0.049572,0.008226,0.050000,-0.232902,0.077045,0.200877,0.495722,0.082264,0.500000,-0.262906,-0.552401,0.418079,0.001316,0.999868,0.010459,0.012398
0.200000,-1.734050,-1.501802,-2.097067,-1.126488,1.593213,-0.149888,-0.046580,0.015409,0.040175,0.099144,0.016453,0.100000,-0.232902,0.077045,0.200877,0.495722,0.082264,0.500000,-0.264973,-0.553207,0.421534,0.006755,0.999893,0.004657,0.012082
0.300000,-1.739873,-1.499876,-2.092046,-1.114095,1.595270,-0.137388,-0.069871,0.023113,0.060263,0.148717,0.024679,0.150000,-0.232902,0.077045,0.200877,0.495722,0.082264,0.500000,-0.268429,-0.554480,0.427337,0.015803,0.999795,-0.005017,0.011607
0.400000,-1.748024,-1.497179,-2.085015,-1.096744,1.598149,-0.119888,-0.093161,0.030818,0.080351,0.198289,0.032906,0.200000,-0.232902,0.077045,0.200877,0.495722,0.082264,0.500000,-0.273286,-0.556109,0.435551,0.028431,0.999362,-0.018563,0.011048
0.500000,-1.758505,-1.493712,-2.075975,-1.074437,1.601851,-0.097388,-0.116451,0.038522,0.100438,0.247861,0.041132,0.250000,-0.232902,0.077045,0.200877,0.495722,0.082264,0.500000,-0.279558,-0.557940,0.446261,0.044584,0.998302,-0.035980,0.010513
0.600000,-1.771314,-1.489475,-2.064927,-1.047172,1.606375,-0.069888,-0.139741,0.046227,0.120526,0.297433,0.049358,0.300000,-0.232902,0.077045,0.200877,0.495722,0.082264,0.500000,-0.287252,-0.559765,0.459570,0.064175,0.996243,-0.057259,0.010136
0.700000,-1.785855,-1.484665,-2.052386,-1.016224,1.611511,-0.038673,-0.146337,0.048409,0.126215,0.311471,0.051688,0.314159,0.000000,-0.000000,-0.000000,-0.000000,-0.000000,-0.000000,-0.296004,-0.561279,0.474957,0.086170,0.992900,-0.081385,0.010075
0.800000,-1.800488,-1.479824,-2.039765,-0.985077,1.616680,-0.007257,-0.146337,0.048409,0.126215,0.311471,0.051688,0.314159,0.000000,-0.000000,-0.000000,-0.000000,-0.000000,-0.000000,-0.304808,-0.562192,0.490723,0.107998,0.988470,-0.105618,0.010405
0.900000,-1.815122,-1.474983,-2.027143,-0.953930,1.621849,0.024159,-0.146337,0.048409,0.126215,0.311471,0.051688,0.314159,-0.000000,0.000000,0.000000,0.000000,0.000000,0.000000,-0.313582,-0.562484,0.506753,0.129466,0.982991,-0.129782,0.011124
1.000000,-1.829756,-1.470142,-2.014522,-0.922782,1.627018,0.055575,-0.146337,0.048409,0.126215,0.311471,0.051688,0.314159,0.000000,-0.000000,-0.000000,-0.000000,-0.000000,-0.000000,-0.322299,-0.562146,0.523026,0.150525,0.976484,-0.153857,0.012225
1.100000,-1.844389,-1.465302,-2.001900,-0.891635,1.632186,0.086991,-0.146337,0.048409,0.126215,0.311471,0.051688,0.314159,0.000000,-0.000000,-0.000000,-0.000000,-0.000000,-0.000000,-0.330933,-0.561173,0.539523,0.171130,0.968971,-0.177824,0.013704
1.200000,-1.859023,-1.460461,-1.989279,-0.860488,1.637355,0.118407,-0.146337,0.048409,0.126215,0.311471,0.051688,0.314159,0.000000,-0.000000,-0.000000,-0.000000,-0.000000,-0.000000,-0.339457,-0.559559,0.556223,0.191232,0.960479,-0.201663,0.015556
1.300000,-1.873657,-1.455620,-1.976658,-0.829341,1.642524,0.149823,-0.146337,0.048409,0.126215,0.311471,0.051688,0.314159,0.000000,-0.000000,-0.000000,-0.000000,-0.000000,-0.000000,-0.347845,-0.557302,0.573105,0.210789,0.951035,-0.225356,0.017774
1.400000,-1.888290,-1.450779,-1.964036,-0.798194,1.647693,0.181239,-0.146337,0.048409,0.126215,0.311471,0.051688,0.314159,-0.000000,0.000000,0.000000,0.000000,0.000000,0.000000,-0.356070,-0.554402,0.590147,0.229756,0.940667,-0.248884,0.020351
1.500000,-1.902924,-1.445938,-1.951415,-0.767047,1.652862,0.212655,-0.146337,0.048409,0.126215,0.311471,0.051688,0.314159,-0.000000,0.000000,0.000000,0.000000,0.000000,0.000000,-0.364104,-0.550858,0.607328,0.248091,0.929409,-0.272227,0.023280
1.600000,-1.917558,-1.441097,-1.938793,-0.735900,1.658030,0.244071,-0.146337,0.048409,0.126215,0.311471,0.051688,0.314159,-0.000000,0.000000,0.000000,0.000000,0.000000,0.000000,-0.371922,-0.546673,0.624626,0.265756,0.917293,-0.295368,0.026553
1.700000,-1.932191,-1.436257,-1.926172,-0.704753,1.663199,0.275487,-0.146337,0.048409,0.126215,0.311471,0.051688,0.314159,-0.000000,0.000000,0.000000,0.000000,0.000000,0.000000,-0.379497,-0.541852,0.642018,0.282712,0.904354,-0.318288,0.030163
1.800000,-1.946825,-1.431416,-1.913550,-0.673605,1.668368,0.306903,-0.146337,0.048409,0.126215,0.311471,0.051688,0.314159,-0.000000,0.000000,0.000000,0.000000,0.000000,0.000000,-0.386804,-0.536399,0.659482,0.298922,0.890630,-0.340970,0.034099
1.900000,-1.961459,-1.426575,-1.900929,-0.642458,1.673537,0.338319,-0.146337,0.048409,0.126215,0.311471,0.051688,0.314159,-0.000000,0.000000,0.000000,0.000000,0.000000,0.000000,-0.393816,-0.530324,0.676996,0.314352,0.876159,-0.363396,0.038354
2.000000,-1.976092,-1.421734,-1.888307,-0.611311,1.678705,0.369734,-0.146337,0.048409,0.126215,0.311471,0.051688,0.314159,-0.000000,0.000000,0.000000,0.000000,0.000000,0.000000,-0.400509,-0.523635,0.694536,0.328970,0.860981,-0.385550,0.042917
2.100000,-1.990726,-1.416893,-1.875686,-0.580164,1.683874,0.401150,-0.146337,0.048409,0.126215,0.311471,0.051688,0.314159,-0.000000,0.000000,0.000000,0.000000,0.000000,0.000000,-0.406859,-0.516343,0.712080,0.342745,0.845137,-0.407414,0.047778
2.200000,-2.005360,-1.412052,-1.863064,-0.549017,1.689043,0.432566,-0.146337,0.048409,0.126215,0.311471,0.051688,0.314159,-0.000000,0.000000,0.000000,0.000000,0.000000,0.000000,-0.412842,-0.508461,0.729605,0.355650,0.828670,-0.428973,0.052928
2.300000,-2.019994,-1.407211,-1.850443,-0.517870,1.694212,0.463982,-0.146337,0.048409,0.126215,0.311471,0.051688,0.314159,-0.000000,0.000000,0.000000,0.000000,0.000000,0.000000,-0.418435,-0.500003,0.747088,0.367657,0.811625,-0.450210,0.058355
2.400000,-2.034627,-1.402371,-1.837821,-0.486723,1.699381,0.495398,-0.146337,0.048409,0.126215,0.311471,0.051688,0.314159,0.000000,-0.000000,-0.000000,-0.000000,-0.000000,-0.000000,-0.423617,-0.490984,0.764508,0.378743,0.794045,-0.471110,0.064049
2.500000,-2.049261,-1.397530,-1.825200,-0.455576,1.704549,0.526814,-0.146337,0.048409,0.126215,0.311471,0.051688,0.314159,0.000000,-0.000000,-0.000000,-0.000000,-0.000000,-0.000000,-0.428367,-0.481423,0.781840,0.388886,0.775977,-0.491658,0.069996
2.600000,-2.063895,-1.392689,-1.812579,-0.424429,1.709718,0.558230,-0.146337,0.048409,0.126215,0.311471,0.051688,0.314159,0.000000,-0.000000,-0.000000,-0.000000,-0.000000,-0.000000,-0.432665,-0.471338,0.799064,0.398067,0.757469,-0.511839,0.076187
2.700000,-2.078528,-1.387848,-1.799957,-0.393281,1.714887,0.589646,-0.146337,0.048409,0.126215,0.311471,0.051688,0.314159,0.000000,-0.000000,-0.000000,-0.000000,-0.000000,-0.000000,-0.436493,-0.460749,0.816156,0.406270,0.738567,-0.531639,0.082608
2.800000,-2.093162,-1.383007,-1.787336,-0.362134,1.720056,0.621062,-0.146337,0.048409,0.126215,0.311471,0.051688,0.314159,0.000000,-0.000000,-0.000000,-0.000000,-0.000000,-0.000000,-0.439832,-0.449677,0.833096,0.413479,0.719319,-0.551044,0.089248
2.900000,-2.107796,-1.378166,-1.774714,-0.330987,1.725225,0.652478,-0.146337,0.048409,0.126215,0.311471,0.051688,0.314159,0.000000,-0.000000,-0.000000,-0.000000,-0.000000,-0.000000,-0.442667,-0.438145,0.849862,0.419682,0.699775,-0.570042,0.096092
3.000000,-2.122429,-1.373325,-1.762093,-0.299840,1.730393,0.683894,-0.146337,0.048409,0.126215,0.311471,0.051688,0.314159,0.000000,-0.000000,-0.000000,-0.000000,-0.000000,-0.000000,-0.444983,-0.426177,0.866433,0.424869,0.679984,-0.588619,0.103129
3.100000,-2.137063,-1.368485,-1.749471,-0.268693,1.735562,0.715310,-0.146337,0.048409,0.126215,0.311471,0.051688,0.314159,0.000000,-0.000000,-0.000000,-0.000000,-0.000000,-0.000000,-0.446766,-0.413798,0.882788,0.429033,0.659995,-0.606763,0.110345
3.200000,-2.151697,-1.363644,-1.736850,-0.237546,1.740731,0.746726,-0.146337,0.048409,0.126215,0.311471,0.051688,0.314159,0.000000,-0.000000,-0.000000,-0.000000,-0.000000,-0.000000,-0.448004,-0.401033,0.898908,0.432169,0.639857,-0.624463,0.117725
3.300000,-2.166330,-1.358803,-1.724228,-0.206399,1.745900,0.778141,-0.146337,0.048409,0.126215,0.311471,0.051688,0.314159,0.000000,-0.000000,-0.000000,-0.000000,-0.000000,-0.000000,-0.448686,-0.387910,0.914773,-0.434274,-0.619621,0.641706,-0.125257
3.400000,-2.180964,-1.353962,-1.711607,-0.175252,1.751068,0.809557,-0.146337,0.048409,0.126215,0.311471,0.051688,0.314159,0.000000,-0.000000,-0.000000,-0.000000,-0.000000,-0.000000,-0.448804,-0.374457,0.930364,-0.435347,-0.599335,0.658484,-0.132927
3.500000,-2.195598,-1.349121,-1.698985,-0.144104,1.756237,0.840973,-0.146337,0.048409,0.126215,0.311471,0.051688,0.314159,0.000000,-0.000000,-0.000000,-0.000000,-0.000000,-0.000000,-0.448350,-0.360700,0.945662,-0.435392,-0.579050,0.674784,-0.140719
3.600000,-2.210231,-1.344280,-1.686364,-0.112957,1.761406,0.872389,-0.146337,0.048409,0.126215,0.311471,0.051688,0.314159,0.000000,-0.000000,-0.000000,-0.000000,-0.000000,-0.000000,-0.447317,-0.346671,0.960651,-0.434412,-0.558813,0.690598,-0.148620
3.700000,-2.224865,-1.339439,-1.673742,-0.081810,1.766575,0.903805,-0.146337,0.048409,0.126215,0.311471,0.051688,0.314159,0.000000,-0.000000,-0.000000,-0.000000,-0.000000,-0.000000,-0.445701,-0.332398,0.975312,-0.432415,-0.538675,0.705917,-0.156616
3.800000,-2.239499,-1.334599,-1.661121,-0.050663,1.771744,0.935221,-0.146337,0.048409,0.126215,0.311471,0.051688,0.314159,0.000000,-0.000000,-0.000000,-0.000000,-0.000000,-0.000000,-0.443500,-0.317911,0.989631,-0.429409,-0.518682,0.720731,-0.164691
3.900000,-2.254132,-1.329758,-1.648500,-0.019516,1.776912,0.966637,-0.146337,0.048409,0.126215,0.311471,0.051688,0.314159,0.000000,-0.000000,-0.000000,-0.000000,-0.000000,-0.000000,-0.440711,-0.303241,1.003590,-0.425406,-0.498883,0.735034,-0.172831
4.000000,-2.268766,-1.324917,-1.635878,0.011631,1.782081,0.998053,-0.146337,0.048409,0.126215,0.311471,0.051688,0.314159,-0.000000,0.000000,0.000000,0.000000,0.000000,0.000000,-0.437336,-0.288419,1.017177,-0.420420,-0.479324,0.748817,-0.181020
4.100000,-2.283400,-1.320076,-1.623257,0.042778,1.787250,1.029469,-0.146337,0.048409,0.126215,0.311471,0.051688,0.314159,0.000000,-0.000000,-0.000000,-0.000000,-0.000000,-0.000000,-0.433375,-0.273475,1.030376,-0.414466,-0.460051,0.762074,-0.189245
4.200000,-2.298033,-1.315235,-1.610635,0.073925,1.792419,1.060885,-0.146337,0.048409,0.126215,0.311471,0.051688,0.314159,0.000000,-0.000000,-0.000000,-0.000000,-0.000000,-0.000000,-0.428834,-0.258441,1.043174,-0.407563,-0.441110,0.774798,-0.197489
4.300000,-2.312667,-1.310394,-1.598014,0.105073,1.797588,1.092301,-0.146337,0.048409,0.126215,0.311471,0.051688,0.314159,0.000000,-0.000000,-0.000000,-0.000000,-0.000000,-0.000000,-0.423716,-0.243348,1.055560,-0.399731,-0.422543,0.786984,-0.205739
4.400000,-2.327301,-1.305554,-1.585392,0.136220,1.802756,1.123717,-0.146337,0.048409,0.126215,0.311471,0.051688,0.314159,0.000000,-0.000000,-0.000000,-0.000000,-0.000000,-0.000000,-0.418029,-0.228225,1.067523,-0.390992,-0.404393,0.798627,-0.213978
4.500000,-2.341934,-1.300713,-1.572771,0.167367,1.807925,1.155133,-0.146337,0.048409,0.126215,0.311471,0.051688,0.314159,0.000000,-0.000000,-0.000000,-0.000000,-0.000000,-0.000000,-0.411780,-0.213105,1.079051,-0.381369,-0.386702,0.809722,-0.222192
4.600000,-2.356568,-1.295872,-1.560149,0.198514,1.813094,1.186549,-0.146337,0.048409,0.126215,0.311471,0.051688,0.314159,0.000000,-0.000000,-0.000000,-0.000000,-0.000000,-0.000000,-0.404980,-0.198017,1.090137,-0.370890,-0.369511,0.820265,-0.230366
4.700000,-2.371202,-1.291031,-1.547528,0.229661,1.818263,1.217964,-0.146337,0.048409,0.126215,0.311471,0.051688,0.314159,0.000000,-0.000000,-0.000000,-0.000000,-0.000000,-0.000000,-0.397639,-0.182990,1.100770,-0.359582,-0.352857,0.830252,-0.238484
4.800000,-2.385836,-1.286190,-1.534906,0.260808,1.823431,1.249380,-0.146337,0.048409,0.126215,0.311471,0.051688,0.314159,0.000000,-0.000000,-0.000000,-0.000000,-0.000000,-0.000000,-0.389771,-0.168055,1.110944,-0.347474,-0.336779,0.839681,-0.246532
4.900000,-2.400469,-1.281349,-1.522285,0.291955,1.828600,1.280796,-0.146337,0.048409,0.126215,0.311471,0.051688,0.314159,0.000000,-0.000000,-0.000000,-0.000000,-0.000000,-0.000000,-0.381388,-0.153241,1.120653,-0.334598,-0.321311,0.848549,-0.254495
5.000000,-2.415103,-1.276508,-1.509663,0.323102,1.833769,1.312212,-0.146337,0.048409,0.126215,0.311471,0.051688,0.314159,0.000000,-0.000000,-0.000000,-0.000000,-0.000000,-0.000000,-0.372508,-0.138574,1.129890,-0.320986,-0.306488,0.856856,-0.262358
5.100000,-2.429737,-1.271668,-1.497042,0.354249,1.838938,1.343628,-0.146337,0.048409,0.126215,0.311471,0.051688,0.314159,0.000000,-0.000000,-0.000000,-0.000000,-0.000000,-0.000000,-0.363145,-0.124083,1.138653,-0.306673,-0.292341,0.864598,-0.270107
5.200000,-2.444370,-1.266827,-1.484421,0.385397,1.844107,1.375044,-0.146337,0.048409,0.126215,0.311471,0.051688,0.314159,0.000000,-0.000000,-0.000000,-0.000000,-0.000000,-0.000000,-0.353318,-0.109794,1.146936,-0.291695,-0.278902,0.871777,-0.277726
5.300000,-2.459004,-1.261986,-1.471799,0.416544,1.849275,1.406460,-0.146337,0.048409,0.126215,0.311471,0.051688,0.314159,0.000000,-0.000000,-0.000000,-0.000000,-0.000000,-0.000000,-0.343046,-0.095733,1.154738,-0.276089,-0.266199,0.878392,-0.285203
5.400000,-2.473638,-1.257145,-1.459178,0.447691,1.854444,1.437876,-0.146337,0.048409,0.126215,0.311471,0.051688,0.314159,0.000000,-0.000000,-0.000000,-0.000000,-0.000000,-0.000000,-0.332349,-0.081925,1.162058,-0.259893,-0.254258,0.884443,-0.292521
5.500000,-2.488271,-1.252304,-1.446556,0.478838,1.859613,1.469292,-0.146337,0.048409,0.126215,0.311471,0.051688,0.314159,0.000000,-0.000000,-0.000000,-0.000000,-0.000000,-0.000000,-0.321247,-0.068392,1.168895,-0.243147,-0.243104,0.889932,-0.299668
5.600000,-2.502905,-1.247463,-1.433935,0.509985,1.864782,1.500708,-0.146337,0.048409,0.126215,0.311471,0.051688,0.314159,0.000000,-0.000000,-0.000000,-0.000000,-0.000000,-0.000000,-0.309763,-0.055159,1.175250,-0.225890,-0.232761,0.894860,-0.306630
5.700000,-2.517539,-1.242622,-1.421313,0.541132,1.869951,1.532124,-0.146337,0.048409,0.126215,0.311471,0.051688,0.314159,0.000000,-0.000000,-0.000000,-0.000000,-0.000000,-0.000000,-0.297920,-0.042245,1.181124,-0.208164,-0.223247,0.899229,-0.313392
5.800000,-2.532172,-1.237782,-1.408692,0.572279,1.875119,1.563540,-0.146337,0.048409,0.126215,0.311471,0.051688,0.314159,0.000000,-0.000000,-0.000000,-0.000000,-0.000000,-0.000000,-0.285740,-0.029671,1.186520,-0.190012,-0.214583,0.903043,-0.319942
5.900000,-2.546806,-1.232941,-1.396070,0.603426,1.880288,1.594956,-0.146337,0.048409,0.126215,0.311471,0.051688,0.314159,0.000000,-0.000000,-0.000000,-0.000000,-0.000000,-0.000000,-0.273248,-0.017456,1.191442,-0.171477,-0.206784,0.906303,-0.326267
6.000000,-2.561440,-1.228100,-1.383449,0.634574,1.885457,1.626371,-0.146337,0.048409,0.126215,0.311471,0.051688,0.314159,0.000000,-0.000000,-0.000000,-0.000000,-0.000000,-0.000000,-0.260469,-0.005617,1.195895,-0.152601,-0.199866,0.909015,-0.332353
6.100000,-2.576073,-1.223259,-1.370827,0.665721,1.890626,1.657787,-0.146337,0.048409,0.126215,0.311471,0.051688,0.314159,0.000000,-0.000000,-0.000000,-0.000000,-0.000000,-0.000000,-0.247428,0.005828,1.199884,-0.133428,-0.193839,0.911182,-0.338189
6.200000,-2.590707,-1.218418,-1.358206,0.696868,1.895794,1.689203,-0.146337,0.048409,0.126215,0.311471,0.051688,0.314159,0.000000,-0.000000,-0.000000,-0.000000,-0.000000,-0.000000,-0.234150,0.016866,1.203416,-0.114004,-0.188714,0.912808,-0.343761
6.300000,-2.605341,-1.213577,-1.345584,0.728015,1.900963,1.720619,-0.146337,0.048409,0.126215,0.311471,0.051688,0.314159,0.000000,-0.000000,-0.000000,-0.000000,-0.000000,-0.000000,-0.220661,0.027483,1.206497,-0.094373,-0.184498,0.913900,-0.349058
6.400000,-2.619974,-1.208736,-1.332963,0.759162,1.906132,1.752035,-0.146337,0.048409,0.126215,0.311471,0.051688,0.314159,0.000000,-0.000000,-0.000000,-0.000000,-0.000000,-0.000000,-0.206987,0.037666,1.209137,-0.074579,-0.181198,0.914462,-0.354069
6.500000,-2.634608,-1.203896,-1.320342,0.790309,1.911301,1.783451,-0.146337,0.048409,0.126215,0.311471,0.051688,0.314159,0.000000,-0.000000,-0.000000,-0.000000,-0.000000,-0.000000,-0.193155,0.047404,1.211345,-0.054668,-0.178817,0.914501,-0.358781
6.600000,-2.648917,-1.199162,-1.308000,0.820766,1.916355,1.814171,-0.133937,0.044307,0.115520,0.285079,0.047308,0.287539,0.232902,-0.077045,-0.200877,-0.495722,-0.082264,-0.500000,-0.179501,0.056489,1.213095,-0.035127,-0.177377,0.914039,-0.363091
6.700000,-2.661157,-1.195113,-1.297443,0.846818,1.920678,1.840448,-0.110647,0.036602,0.095432,0.235507,0.039082,0.237539,0.232902,-0.077045,-0.200877,-0.495722,-0.082264,-0.500000,-0.167740,0.063910,1.214279,-0.018389,-0.176844,0.913258,-0.366536
6.800000,-2.671068,-1.191834,-1.288895,0.867913,1.924179,1.861725,-0.087357,0.028898,0.075345,0.185934,0.030855,0.187539,0.232902,-0.077045,-0.200877,-0.495722,-0.082264,-0.500000,-0.158172,0.069679,1.215031,-0.004838,-0.176881,0.912367,-0.369157
6.900000,-2.678650,-1.189326,-1.282355,0.884051,1.926857,1.878002,-0.064066,0.021193,0.055257,0.136362,0.022629,0.137539,0.232902,-0.077045,-0.200877,-0.495722,-0.082264,-0.500000,-0.150831,0.073947,1.215484,0.005517,-0.177193,0.911530,-0.371059
7.000000,-2.683903,-1.187589,-1.277825,0.895232,1.928713,1.889279,-0.040776,0.013489,0.035169,0.086790,0.014403,0.087539,0.232902,-0.077045,-0.200877,-0.495722,-0.082264,-0.500000,-0.145737,0.076830,1.215737,0.012682,-0.177552,0.910873,-0.372324
7.100000,-2.685575,-1.186388,-1.274448,0.902958,1.930041,1.899205,0.008500,0.010262,0.031707,0.066021,0.011886,0.109633,0.499980,-0.039906,-0.056521,-0.256837,-0.033694,0.154083,-0.142261,0.078553,1.215961,0.017733,-0.177885,0.909621,-0.375010
7.200000,-2.682249,-1.185587,-1.271639,0.908112,1.931031,1.910664,0.058490,0.005434,0.023555,0.034952,0.007563,0.116845,0.499816,-0.056954,-0.107446,-0.366516,-0.053111,-0.012846,-0.140059,0.079177,1.216270,0.021341,-0.178178,0.907014,-0.380950
7.300000,-2.673933,-1.185360,-1.269920,0.909569,1.931485,1.921937,0.106272,-0.001355,0.009267,-0.008740,0.000954,0.102461,0.204763,-0.073856,-0.194881,-0.475201,-0.079294,-0.499450,-0.139625,0.078504,1.216644,0.022761,-0.178331,0.903307,-0.389509
7.400000,-2.662690,-1.185814,-1.269869,0.906643,1.931232,1.929733,0.115241,-0.007462,-0.007845,-0.048031,-0.005789,0.052493,-0.007949,-0.050216,-0.150942,-0.323074,-0.057373,-0.499843,-0.141184,0.076605,1.216988,0.021427,-0.178269,0.899474,-0.398381
7.500000,-2.651478,-1.186777,-1.271337,0.900451,1.930399,1.932530,0.106171,-0.011564,-0.021228,-0.074416,-0.010673,0.002500,-0.168146,-0.032398,-0.117807,-0.208408,-0.040847,-0.499994,-0.144147,0.073992,1.217217,0.017919,-0.178048,0.896443,-0.405424
7.600000,-2.641913,-1.188066,-1.273988,0.892155,1.929156,1.930337,0.088737,-0.014486,-0.032137,-0.093211,-0.014410,-0.045064,0.475999,-0.077703,-0.172385,-0.500000,-0.077299,-0.241730,-0.147964,0.071064,1.217290,0.012918,-0.177754,0.894606,-0.409776
7.700000,-2.630694,-1.189897,-1.278051,0.880372,1.927335,1.924640,0.136337,-0.022256,-0.049375,-0.143211,-0.022140,-0.069237,0.475999,-0.077703,-0.172385,-0.500000,-0.077299,-0.241730,-0.153296,0.067080,1.217259,0.005679,-0.177421,0.892930,-0.413721
7.800000,-2.614716,-1.192505,-1.283837,0.863588,1.924740,1.916526,0.183937,-0.030026,-0.066614,-0.193211,-0.029870,-0.093410,0.475999,-0.077703,-0.172385,-0.500000,-0.077299,-0.241730,-0.160804,0.061195,1.217129,-0.004645,-0.177157,0.890408,-0.419247
7.900000,-2.594475,-1.195809,-1.291168,0.842325,1.921453,1.906247,0.209440,-0.034189,-0.075850,-0.220000,-0.034012,-0.106361,-0.000000,0.000000,0.000000,0.000000,0.000000,0.000000,-0.170157,0.053386,1.216818,-0.017736,-0.177177,0.886984,-0.426089
8.000000,-2.573531,-1.199228,-1.298753,0.820325,1.918051,1.895610,0.209440,-0.034189,-0.075850,-0.220000,-0.034012,-0.106361,-0.000000,0.000000,0.000000,0.000000,0.000000,0.000000,-0.179633,0.044894,1.216320,-0.031283,-0.177617,0.883178,-0.432979
8.100000,-2.552587,-1.202647,-1.306338,0.798325,1.914650,1.884974,0.209440,-0.034189,-0.075850,-0.220000,-0.034012,-0.106361,-0.000000,0.000000,0.000000,0.000000,0.000000,0.000000,-0.188885,0.035992,1.215639,-0.044818,-0.178485,0.879105,-0.439670
8.200000,-2.531643,-1.206066,-1.313923,0.776325,1.911249,1.874338,0.209440,-0.034189,-0.075850,-0.220000,-0.034012,-0.106361,-0.000000,0.000000,0.000000,0.000000,0.000000,0.000000,-0.197895,0.026685,1.214771,-0.058326,-0.179780,0.874769,-0.446158
8.300000,-2.510699,-1.209485,-1.321508,0.754325,1.907848,1.863702,0.209440,-0.034189,-0.075850,-0.220000,-0.034012,-0.106361,-0.000000,0.000000,0.000000,0.000000,0.000000,0.000000,-0.206645,0.016982,1.213713,-0.071794,-0.181502,0.870173,-0.452439
8.400000,-2.489755,-1.212904,-1.329093,0.732325,1.904447,1.853066,0.209440,-0.034189,-0.075850,-0.220000,-0.034012,-0.106361,-0.000000,0.000000,0.000000,0.000000,0.000000,0.000000,-0.215118,0.006893,1.212462,-0.085207,-0.183651,0.865321,-0.458510
8.500000,-2.468811,-1.216323,-1.336678,0.710325,1.901046,1.842430,0.209440,-0.034189,-0.075850,-0.220000,-0.034012,-0.106361,-0.000000,0.000000,0.000000,0.000000,0.000000,0.000000,-0.223296,-0.003574,1.211014,-0.098551,-0.186227,0.860216,-0.464366
8.600000,-2.447867,-1.219742,-1.344263,0.688325,1.897644,1.831794,0.209440,-0.034189,-0.075850,-0.220000,-0.034012,-0.106361,-0.000000,0.000000,0.000000,0.000000,0.000000,0.000000,-0.231163,-0.014406,1.209367,-0.111812,-0.189227,0.854862,-0.470003
8.700000,-2.426923,-1.223161,-1.351848,0.666326,1.894243,1.821158,0.209440,-0.034189,-0.075850,-0.220000,-0.034012,-0.106361,-0.000000,0.000000,0.000000,0.000000,0.000000,0.000000,-0.238701,-0.025593,1.207518,-0.124976,-0.192649,0.849262,-0.475417
8.800000,-2.405979,-1.226580,-1.359433,0.644326,1.890842,1.810521,0.209440,-0.034189,-0.075850,-0.220000,-0.034012,-0.106361,-0.000000,0.000000,0.000000,0.000000,0.000000,0.000000,-0.245894,-0.037122,1.205464,-0.138028,-0.196491,0.843420,-0.480605
8.900000,-2.385035,-1.229999,-1.367018,0.622326,1.887441,1.799885,0.209440,-0.034189,-0.075850,-0.220000,-0.034012,-0.106361,-0.000000,0.000000,0.000000,0.000000,0.000000,0.000000,-0.252728,-0.048981,1.203203,-0.150955,-0.200751,0.837341,-0.485564
9.000000,-2.364091,-1.233418,-1.374603,0.600326,1.884040,1.789249,0.209440,-0.034189,-0.075850,-0.220000,-0.034012,-0.106361,-0.000000,0.000000,0.000000,0.000000,0.000000,0.000000,-0.259185,-0.061155,1.200733,-0.163742,-0.205425,0.831027,-0.490289
9.100000,-2.343147,-1.236836,-1.382187,0.578326,1.880639,1.778613,0.209440,-0.034189,-0.075850,-0.220000,-0.034012,-0.106361,-0.000000,0.000000,0.000000,0.000000,0.000000,0.000000,-0.265252,-0.073629,1.198051,-0.176376,-0.210508,0.824484,-0.494777
9.200000,-2.322203,-1.240255,-1.389772,0.556326,1.877237,1.767977,0.209440,-0.034189,-0.075850,-0.220000,-0.034012,-0.106361,-0.000000,0.000000,0.000000,0.000000,0.000000,0.000000,-0.270915,-0.086389,1.195157,-0.188843,-0.215997,0.817714,-0.499026
9.300000,-2.301259,-1.243674,-1.397357,0.534326,1.873836,1.757341,0.209440,-0.034189,-0.075850,-0.220000,-0.034012,-0.106361,-0.000000,0.000000,0.000000,0.000000,0.000000,0.000000,-0.276159,-0.099417,1.192048,0.201128,0.221888,-0.810723,0.503031
9.400000,-2.280315,-1.247093,-1.404942,0.512326,1.870435,1.746705,0.209440,-0.034189,-0.075850,-0.220000,-0.034012,-0.106361,-0.000000,0.000000,0.000000,0.000000,0.000000,0.000000,-0.280973,-0.112699,1.188724,0.213220,0.228174,-0.803515,0.506791
9.500000,-2.259371,-1.250512,-1.412527,0.490326,1.867034,1.736069,0.209440,-0.034189,-0.075850,-0.220000,-0.034012,-0.106361,-0.000000,0.000000,0.000000,0.000000,0.000000,0.000000,-0.285343,-0.126216,1.185182,0.225103,0.234850,-0.796094,0.510302
9.600000,-2.238427,-1.253931,-1.420112,0.468326,1.863633,1.725433,0.209440,-0.034189,-0.075850,-0.220000,-0.034012,-0.106361,-0.000000,0.000000,0.000000,0.000000,0.000000,0.000000,-0.289259,-0.139949,1.181422,0.236765,0.241910,-0.788465,0.513561
9.700000,-2.217483,-1.257350,-1.427697,0.446326,1.860232,1.714796,0.209440,-0.034189,-0.075850,-0.220000,-0.034012,-0.106361,-0.000000,0.000000,0.000000,0.000000,0.000000,0.000000,-0.292709,-0.153882,1.177443,0.248194,0.249347,-0.780631,0.516566
9.800000,-2.196539,-1.260769,-1.435282,0.424326,1.856830,1.704160,0.209440,-0.034189,-0.075850,-0.220000,-0.034012,-0.106361,-0.000000,0.000000,0.000000,0.000000,0.000000,0.000000,-0.295684,-0.167995,1.173245,0.259375,0.257155,-0.772599,0.519314
9.900000,-2.175596,-1.264188,-1.442867,0.402326,1.853429,1.693524,0.209440,-0.034189,-0.075850,-0.220000,-0.034012,-0.106361,-0.000000,0.000000,0.000000,0.000000,0.000000,0.000000,-0.298174,-0.182267,1.168828,0.270296,0.265325,-0.764371,0.521804
10.000000,-2.154652,-1.267607,-1.450452,0.380326,1.850028,1.682888,0.209440,-0.034189,-0.075850,-0.220000,-0.034012,-0.106361,-0.000000,0.000000,0.000000,0.000000,0.000000,0.000000,-0.300171,-0.196680,1.164190,0.280946,0.273851,-0.755954,0.524031
10.100000,-2.133708,-1.271026,-1.458037,0.358326,1.846627,1.672252,0.209440,-0.034189,-0.075850,-0.220000,-0.034012,-0.106361,-0.000000,0.000000,0.000000,0.000000,0.000000,0.000000,-0.301668,-0.211213,1.159333,0.291311,0.282723,-0.747352,0.525996
10.200000,-2.112764,-1.274444,-1.465622,0.336326,1.843226,1.661616,0.209440,-0.034189,-0.075850,-0.220000,-0.034012,-0.106361,-0.000000,0.000000,0.000000,0.000000,0.000000,0.000000,-0.302657,-0.225844,1.154257,0.301380,0.291933,-0.738569,0.527695
10.300000,-2.091820,-1.277863,-1.473207,0.314326,1.839825,1.650980,0.209440,-0.034189,-0.075850,-0.220000,-0.034012,-0.106361,-0.000000,0.000000,0.000000,0.000000,0.000000,0.000000,-0.303134,-0.240553,1.148962,0.311141,0.301472,-0.729611,0.529126
10.400000,-2.070876,-1.281282,-1.480792,0.292326,1.836423,1.640344,0.209440,-0.034189,-0.075850,-0.220000,-0.034012,-0.106361,-0.000000,0.000000,0.000000,0.000000,0.000000,0.000000,-0.303094,-0.255319,1.143449,0.320583,0.311330,-0.720482,0.530288
10.500000,-2.049932,-1.284701,-1.488377,0.270326,1.833022,1.629708,0.209440,-0.034189,-0.075850,-0.220000,-0.034012,-0.106361,-0.000000,0.000000,0.000000,0.000000,0.000000,0.000000,-0.302532,-0.270119,1.137718,0.329695,0.321498,-0.711188,0.531180
10.600000,-2.028988,-1.288120,-1.495962,0.248326,1.829621,1.619071,0.209440,-0.034189,-0.075850,-0.220000,-0.034012,-0.106361,-0.000000,0.000000,0.000000,0.000000,0.000000,0.000000,-0.301446,-0.284932,1.131772,0.338465,0.331964,-0.701734,0.531799
10.700000,-2.008044,-1.291539,-1.503547,0.226326,1.826220,1.608435,0.209440,-0.034189,-0.075850,-0.220000,-0.034012,-0.106361,-0.000000,0.000000,0.000000,0.000000,0.000000,0.000000,-0.299834,-0.299736,1.125611,0.346884,0.342719,-0.692124,0.532145
10.800000,-1.987100,-1.294958,-1.511132,0.204326,1.822819,1.597799,0.209440,-0.034189,-0.075850,-0.220000,-0.034012,-0.106361,-0.000000,0.000000,0.000000,0.000000,0.000000,0.000000,-0.297694,-0.314508,1.119238,0.354942,0.353751,-0.682365,0.532216
10.900000,-1.966156,-1.298377,-1.518717,0.182326,1.819417,1.587163,0.209440,-0.034189,-0.075850,-0.220000,-0.034012,-0.106361,-0.000000,0.000000,0.000000,0.000000,0.000000,0.000000,-0.295028,-0.329226,1.112653,0.362629,0.365050,-0.672460,0.532012
11.000000,-1.945212,-1.301796,-1.526302,0.160326,1.816016,1.576527,0.209440,-0.034189,-0.075850,-0.220000,-0.034012,-0.106361,-0.000000,0.000000,0.000000,0.000000,0.000000,0.000000,-0.291836,-0.343868,1.105859,0.369934,0.376602,-0.662416,0.531530
11.100000,-1.924268,-1.305215,-1.533887,0.138326,1.812615,1.565891,0.209440,-0.034189,-0.075850,-0.220000,-0.034012,-0.106361,-0.000000,0.000000,0.000000,0.000000,0.000000,0.000000,-0.288119,-0.358412,1.098858,0.376850,0.388397,-0.652238,0.530771
11.200000,-1.903324,-1.308634,-1.541471,0.116326,1.809214,1.555255,0.209440,-0.034189,-0.075850,-0.220000,-0.034012,-0.106361,-0.000000,0.000000,0.000000,0.000000,0.000000,0.000000,-0.283882,-0.372835,1.091653,0.383368,0.400421,-0.641930,0.529734
11.300000,-1.882380,-1.312053,-1.549056,0.094326,1.805813,1.544619,0.209440,-0.034189,-0.075850,-0.220000,-0.034012,-0.106361,-0.000000,0.000000,0.000000,0.000000,0.000000,0.000000,-0.279127,-0.387115,1.084246,0.389479,0.412663,-0.631499,0.528417
11.400000,-1.861436,-1.315471,-1.556641,0.072326,1.802412,1.533983,0.209440,-0.034189,-0.075850,-0.220000,-0.034012,-0.106361,-0.000000,0.000000,0.000000,0.000000,0.000000,0.000000,-0.273860,-0.401231,1.076641,0.395176,0.425108,-0.620949,0.526822
11.500000,-1.840492,-1.318890,-1.564226,0.050326,1.799010,1.523346,0.209440,-0.034189,-0.075850,-0.220000,-0.034012,-0.106361,-0.000000,0.000000,0.000000,0.000000,0.000000,0.000000,-0.268087,-0.415160,1.068839,0.400451,0.437745,-0.610286,0.524947
11.600000,-1.819548,-1.322309,-1.571811,0.028326,1.795609,1.512710,0.209440,-0.034189,-0.075850,-0.220000,-0.034012,-0.106361,-0.000000,0.000000,0.000000,0.000000,0.000000,0.000000,-0.261815,-0.428881,1.060845,0.405297,0.450559,-0.599516,0.522792
11.700000,-1.798604,-1.325728,-1.579396,0.006326,1.792208,1.502074,0.209440,-0.034189,-0.075850,-0.220000,-0.034012,-0.106361,-0.000000,0.000000,0.000000,0.000000,0.000000,0.000000,-0.255051,-0.442374,1.052662,0.409708,0.463537,-0.588643,0.520358
11.800000,-1.777660,-1.329147,-1.586981,-0.015674,1.788807,1.491438,0.209440,-0.034189,-0.075850,-0.220000,-0.034012,-0.106361,-0.000000,0.000000,0.000000,0.000000,0.000000,0.000000,-0.247805,-0.455616,1.044293,0.413677,0.476664,-0.577674,0.517644
11.900000,-1.756716,-1.332566,-1.594566,-0.037674,1.785406,1.480802,0.209440,-0.034189,-0.075850,-0.220000,-0.034012,-0.106361,-0.000000,0.000000,0.000000,0.000000,0.000000,0.000000,-0.240085,-0.468589,1.035742,0.417200,0.489927,-0.566614,0.514651
12.000000,-1.735773,-1.335985,-1.602151,-0.059674,1.782005,1.470166,0.209440,-0.034189,-0.075850,-0.220000,-0.034012,-0.106361,-0.000000,0.000000,0.000000,0.000000,0.000000,0.000000,-0.231904,-0.481271,1.027014,0.420270,0.503311,-0.555467,0.511379
12.100000,-1.714829,-1.339404,-1.609736,-0.081674,1.778603,1.459530,0.209440,-0.034189,-0.075850,-0.220000,-0.034012,-0.106361,-0.000000,0.000000,0.000000,0.000000,0.000000,0.000000,-0.223271,-0.493644,1.018112,0.422883,0.516801,-0.544240,0.507828
12.200000,-1.693885,-1.342823,-1.617321,-0.103674,1.775202,1.448894,0.209440,-0.034189,-0.075850,-0.220000,-0.034012,-0.106361,-0.000000,0.000000,0.000000,0.000000,0.000000,0.000000,-0.214200,-0.505688,1.009041,0.425035,0.530383,-0.532938,0.504000
12.300000,-1.672941,-1.346242,-1.624906,-0.125674,1.771801,1.438258,0.209440,-0.034189,-0.075850,-0.220000,-0.034012,-0.106361,-0.000000,0.000000,0.000000,0.000000,0.000000,0.000000,-0.204703,-0.517385,0.999805,0.426722,0.544042,-0.521567,0.499895
12.400000,-1.651997,-1.349661,-1.632491,-0.147674,1.768400,1.427621,0.209440,-0.034189,-0.075850,-0.220000,-0.034012,-0.106361,-0.000000,0.000000,0.000000,0.000000,0.000000,0.000000,-0.194796,-0.528718,0.990410,0.427940,0.557762,-0.510132,0.495514
12.500000,-1.631053,-1.353079,-1.640076,-0.169674,1.764999,1.416985,0.209440,-0.034189,-0.075850,-0.220000,-0.034012,-0.106361,-0.000000,0.000000,0.000000,0.000000,0.000000,0.000000,-0.184491,-0.539669,0.980859,0.428688,0.571528,-0.498638,0.490859
12.600000,-1.610109,-1.356498,-1.647661,-0.191674,1.761598,1.406349,0.209440,-0.034189,-0.075850,-0.220000,-0.034012,-0.106361,-0.000000,0.000000,0.000000,0.000000,0.000000,0.000000,-0.173806,-0.550221,0.971158,0.428962,0.585326,-0.487091,0.485929
12.700000,-1.589165,-1.359917,-1.655246,-0.213674,1.758196,1.395713,0.209440,-0.034189,-0.075850,-0.220000,-0.034012,-0.106361,-0.000000,0.000000,0.000000,0.000000,0.000000,0.000000,-0.162756,-0.560360,0.961312,0.428762,0.599139,-0.475496,0.480728
12.800000,-1.568221,-1.363336,-1.662831,-0.235674,1.754795,1.385077,0.209440,-0.034189,-0.075850,-0.220000,-0.034012,-0.106361,-0.000000,0.000000,0.000000,0.000000,0.000000,0.000000,-0.151358,-0.570070,0.951327,0.428084,0.612953,-0.463860,0.475255
12.900000,-1.547277,-1.366755,-1.670416,-0.257674,1.751394,1.374441,0.209440,-0.034189,-0.075850,-0.220000,-0.034012,-0.106361,-0.000000,0.000000,0.000000,0.000000,0.000000,0.000000,-0.139630,-0.579337,0.941207,0.426930,0.626750,-0.452186,0.469513
13.000000,-1.526333,-1.370174,-1.678001,-0.279674,1.747993,1.363805,0.209440,-0.034189,-0.075850,-0.220000,-0.034012,-0.106361,-0.000000,0.000000,0.000000,0.000000,0.000000,0.000000,-0.127589,-0.588147,0.930959,0.425298,0.640517,-0.440481,0.463504
13.100000,-1.505389,-1.373593,-1.685586,-0.301674,1.744592,1.353169,0.209440,-0.034189,-0.075850,-0.220000,-0.034012,-0.106361,-0.000000,0.000000,0.000000,0.000000,0.000000,0.000000,-0.115256,-0.596488,0.920587,0.423189,0.654237,-0.428750,0.457229
13.200000,-1.484445,-1.377012,-1.693171,-0.323674,1.741191,1.342533,0.209440,-0.034189,-0.075850,-0.220000,-0.034012,-0.106361,-0.000000,0.000000,0.000000,0.000000,0.000000,0.000000,-0.102648,-0.604349,0.910099,0.420604,0.667895,-0.416998,0.450690
13.300000,-1.463501,-1.380431,-1.700755,-0.345674,1.737789,1.331896,0.209440,-0.034189,-0.075850,-0.220000,-0.034012,-0.106361,-0.000000,0.000000,0.000000,0.000000,0.000000,0.000000,-0.089785,-0.611718,0.899500,0.417544,0.681474,-0.405231,0.443889
13.400000,-1.442557,-1.383850,-1.708340,-0.367674,1.734388,1.321260,0.209440,-0.034189,-0.075850,-0.220000,-0.034012,-0.106361,-0.000000,0.000000,0.000000,0.000000,0.000000,0.000000,-0.076688,-0.618586,0.888795,0.414010,0.694960,-0.393454,0.436829
13.500000,-1.421613,-1.387269,-1.715925,-0.389674,1.730987,1.310624,0.209440,-0.034189,-0.075850,-0.220000,-0.034012,-0.106361,-0.000000,0.000000,0.000000,0.000000,0.000000,0.000000,-0.063378,-0.624944,0.877992,0.410006,0.708336,-0.381673,0.429512
13.600000,-1.400669,-1.390687,-1.723510,-0.411674,1.727586,1.299988,0.209440,-0.034189,-0.075850,-0.220000,-0.034012,-0.106361,-0.000000,0.000000,0.000000,0.000000,0.000000,0.000000,-0.049874,-0.630784,0.867096,0.405534,0.721588,-0.369891,0.421941
13.700000,-1.379725,-1.394106,-1.731095,-0.433674,1.724185,1.289352,0.209440,-0.034189,-0.075850,-0.220000,-0.034012,-0.106361,-0.000000,0.000000,0.000000,0.000000,0.000000,0.000000,-0.036199,-0.636099,0.856114,0.400597,0.734699,-0.358115,0.414117
13.800000,-1.358781,-1.397525,-1.738680,-0.455674,1.720783,1.278716,0.209440,-0.034189,-0.075850,-0.220000,-0.034012,-0.106361,-0.000000,0.000000,0.000000,0.000000,0.000000,0.000000,-0.022374,-0.640883,0.845052,0.395199,0.747654,-0.346351,0.406045
13.900000,-1.337837,-1.400944,-1.746265,-0.477674,1.717382,1.268080,0.209440,-0.034189,-0.075850,-0.220000,-0.034012,-0.106361,-0.000000,0.000000,0.000000,0.000000,0.000000,0.000000,-0.008421,-0.645131,0.833917,0.389345,0.760439,-0.334602,0.397726
14.000000,-1.316894,-1.404363,-1.753850,-0.499674,1.713981,1.257444,0.209440,-0.034189,-0.075850,-0.220000,-0.034012,-0.106361,-0.000000,0.000000,0.000000,0.000000,0.000000,0.000000,0.005640,-0.648839,0.822715,0.383039,0.773037,-0.322874,0.389163
14.100000,-1.295950,-1.407782,-1.761435,-0.521674,1.710580,1.246808,0.209440,-0.034189,-0.075850,-0.220000,-0.034012,-0.106361,-0.000000,0.000000,0.000000,0.000000,0.000000,0.000000,0.019785,-0.652004,0.811453,0.376287,0.785434,-0.311172,0.380360
14.200000,-1.275006,-1.411201,-1.769020,-0.543674,1.707179,1.236171,0.209440,-0.034189,-0.075850,-0.220000,-0.034012,-0.106361,-0.000000,0.000000,0.000000,0.000000,0.000000,0.000000,0.033993,-0.654624,0.800138,0.369095,0.797615,-0.299501,0.371320
14.300000,-1.254062,-1.414620,-1.776605,-0.565674,1.703778,1.225535,0.209440,-0.034189,-0.075850,-0.220000,-0.034012,-0.106361,-0.000000,0.000000,0.000000,0.000000,0.000000,0.000000,0.048242,-0.656698,0.788777,0.361469,0.809565,-0.287866,0.362046
14.400000,-1.233118,-1.418039,-1.784190,-0.587674,1.700376,1.214899,0.209440,-0.034189,-0.075850,-0.220000,-0.034012,-0.106361,-0.000000,0.000000,0.000000,0.000000,0.000000,0.000000,0.062509,-0.658226,0.777375,0.353417,0.821271,-0.276271,0.352541
14.500000,-1.212174,-1.421458,-1.791775,-0.609674,1.696975,1.204263,0.209440,-0.034189,-0.075850,-0.220000,-0.034012,-0.106361,-0.000000,0.000000,0.000000,0.000000,0.000000,0.000000,0.076774,-0.659209,0.765941,0.344945,0.832717,-0.264723,0.342809
14.600000,-1.191230,-1.424877,-1.799360,-0.631674,1.693574,1.193627,0.209440,-0.034189,-0.075850,-0.220000,-0.034012,-0.106361,-0.000000,0.000000,0.000000,0.000000,0.000000,0.000000,0.091013,-0.659649,0.754481,0.336061,0.843889,-0.253224,0.332854
14.700000,-1.170286,-1.428296,-1.806945,-0.653674,1.690173,1.182991,0.209440,-0.034189,-0.075850,-0.220000,-0.034012,-0.106361,-0.000000,0.000000,0.000000,0.000000,0.000000,0.000000,0.105207,-0.659549,0.743002,0.326774,0.854774,-0.241781,0.322680
14.800000,-1.149342,-1.431714,-1.814530,-0.675674,1.686772,1.172355,0.209440,-0.034189,-0.075850,-0.220000,-0.034012,-0.106361,-0.000000,0.000000,0.000000,0.000000,0.000000,0.000000,0.119332,-0.658913,0.731511,0.317093,0.865358,-0.230397,0.312289
14.900000,-1.128398,-1.435133,-1.822115,-0.697674,1.683371,1.161719,0.209440,-0.034189,-0.075850,-0.220000,-0.034012,-0.106361,-0.000000,0.000000,0.000000,0.000000,0.000000,0.000000,0.133369,-0.657745,0.720015,0.307027,0.875628,-0.219078,0.301687
15.000000,-1.107454,-1.438552,-1.829700,-0.719674,1.679969,1.151083,0.209440,-0.034189,-0.075850,-0.220000,-0.034012,-0.106361,-0.000000,0.000000,0.000000,0.000000,0.000000,0.000000,0.147296,-0.656053,0.708521,0.296585,0.885571,-0.207827,0.290877
15.100000,-1.086510,-1.441971,-1.837285,-0.741674,1.676568,1.140446,0.209440,-0.034189,-0.075850,-0.220000,-0.034012,-0.106361,-0.000000,0.000000,0.000000,0.000000,0.000000,0.000000,0.161093,-0.653842,0.697035,0.285777,0.895174,-0.196650,0.279863
15.200000,-1.065566,-1.445390,-1.844870,-0.763674,1.673167,1.129810,0.209440,-0.034189,-0.075850,-0.220000,-0.034012,-0.106361,-0.000000,0.000000,0.000000,0.000000,0.000000,0.000000,0.174740,-0.651121,0.685565,0.274615,0.904425,-0.185550,0.268649
15.300000,-1.044622,-1.448809,-1.852455,-0.785674,1.669766,1.119174,0.209440,-0.034189,-0.075850,-0.220000,-0.034012,-0.106361,-0.000000,0.000000,0.000000,0.000000,0.000000,0.000000,0.188218,-0.647897,0.674117,0.263110,0.913312,-0.174532,0.257241
15.400000,-1.023678,-1.452228,-1.860039,-0.807674,1.666365,1.108538,0.209440,-0.034189,-0.075850,-0.220000,-0.034012,-0.106361,-0.000000,0.000000,0.000000,0.000000,0.000000,0.000000,0.201507,-0.644180,0.662699,0.251272,0.921823,-0.163599,0.245641
15.500000,-1.002734,-1.455647,-1.867624,-0.829674,1.662964,1.097902,0.209440,-0.034189,-0.075850,-0.220000,-0.034012,-0.106361,-0.000000,0.000000,0.000000,0.000000,0.000000,0.000000,0.214589,-0.639982,0.651318,0.239113,0.929947,-0.152758,0.233856
15.600000,-0.981790,-1.459066,-1.875209,-0.851674,1.659562,1.087266,0.209440,-0.034189,-0.075850,-0.220000,-0.034012,-0.106361,-0.000000,0.000000,0.000000,0.000000,0.000000,0.000000,0.227446,-0.635312,0.639979,0.226646,0.937673,-0.142010,0.221888
15.700000,-0.960846,-1.462485,-1.882794,-0.873674,1.656161,1.076630,0.209440,-0.034189,-0.075850,-0.220000,-0.034012,-0.106361,-0.000000,0.000000,0.000000,0.000000,0.000000,0.000000,0.240061,-0.630182,0.628690,0.213884,0.944990,-0.131360,0.209744
15.800000,-0.939902,-1.465904,-1.890379,-0.895674,1.652760,1.065994,0.209440,-0.034189,-0.075850,-0.220000,-0.034012,-0.106361,-0.000000,0.000000,0.000000,0.000000,0.000000,0.000000,0.252416,-0.624605,0.617458,0.200838,0.951888,-0.120813,0.197428
15.900000,-0.918958,-1.469322,-1.897964,-0.917674,1.649359,1.055358,0.209440,-0.034189,-0.075850,-0.220000,-0.034012,-0.106361,-0.000000,0.000000,0.000000,0.000000,0.000000,0.000000,0.264496,-0.618595,0.606289,0.187524,0.958357,-0.110371,0.184944
16.000000,-0.898014,-1.472741,-1.905549,-0.939674,1.645958,1.044721,0.209440,-0.034189,-0.075850,-0.220000,-0.034012,-0.106361,0.000000,-0.000000,-0.000000,-0.000000,-0.000000,-0.000000,0.276286,-0.612165,0.595190,0.173953,0.964389,-0.100039,0.172297
16.100000,-0.877071,-1.476160,-1.913134,-0.961674,1.642557,1.034085,0.209440,-0.034189,-0.075850,-0.220000,-0.034012,-0.106361,-0.000000,0.000000,0.000000,0.000000,0.000000,0.000000,0.287771,-0.605330,0.584167,0.160140,0.969974,-0.089821,0.159493
16.200000,-0.856127,-1.479579,-1.920719,-0.983674,1.639155,1.023449,0.209440,-0.034189,-0.075850,-0.220000,-0.034012,-0.106361,-0.000000,0.000000,0.000000,0.000000,0.000000,0.000000,0.298937,-0.598105,0.573227,0.146100,0.975103,-0.079719,0.146537
16.300000,-0.835183,-1.482998,-1.928304,-1.005674,1.635754,1.012813,0.209440,-0.034189,-0.075850,-0.220000,-0.034012,-0.106361,-0.000000,0.000000,0.000000,0.000000,0.000000,0.000000,0.309770,-0.590506,0.562376,0.131847,0.979770,-0.069737,0.133433
16.400000,-0.814239,-1.486417,-1.935889,-1.027674,1.632353,1.002177,0.209440,-0.034189,-0.075850,-0.220000,-0.034012,-0.106361,-0.000000,0.000000,0.000000,0.000000,0.000000,0.000000,0.320260,-0.582548,0.551620,0.117395,0.983965,-0.059879,0.120188
16.500000,-0.793295,-1.489836,-1.943474,-1.049674,1.628952,0.991541,0.209440,-0.034189,-0.075850,-0.220000,-0.034012,-0.106361,-0.000000,0.000000,0.000000,0.000000,0.000000,0.000000,0.330394,-0.574250,0.540966,0.102760,0.987683,-0.050148,0.106805
16.600000,-0.772351,-1.493255,-1.951059,-1.071674,1.625551,0.980905,0.209440,-0.034189,-0.075850,-0.220000,-0.034012,-0.106361,-0.000000,0.000000,0.000000,0.000000,0.000000,0.000000,0.340161,-0.565627,0.530419,0.087958,0.990917,-0.040548,0.093291
16.700000,-0.751407,-1.496674,-1.958644,-1.093674,1.622150,0.970269,0.209440,-0.034189,-0.075850,-0.220000,-0.034012,-0.106361,-0.000000,0.000000,0.000000,0.000000,0.000000,0.000000,0.349552,-0.556698,0.519985,0.073003,0.993660,-0.031080,0.079651
16.800000,-0.730463,-1.500093,-1.966229,-1.115674,1.618748,0.959633,0.209440,-0.034189,-0.075850,-0.220000,-0.034012,-0.106361,-0.000000,0.000000,0.000000,0.000000,0.000000,0.000000,0.358559,-0.547480,0.509671,0.057911,0.995908,-0.021748,0.065890
16.900000,-0.709519,-1.503512,-1.973814,-1.137674,1.615347,0.948996,0.209440,-0.034189,-0.075850,-0.220000,-0.034012,-0.106361,-0.000000,0.000000,0.000000,0.000000,0.000000,0.000000,0.367172,-0.537991,0.499481,0.042700,0.997654,-0.012556,0.052014
17.000000,-0.688955,-1.506868,-1.981261,-1.159275,1.612008,0.938554,0.190400,-0.031081,-0.068954,-0.200000,-0.030920,-0.096692,-0.475999,0.077703,0.172385,0.500000,0.077299,0.241730,0.375241,-0.528430,0.489604,0.027662,0.998877,-0.003668,0.038283
17.100000,-0.672295,-1.509588,-1.987295,-1.176775,1.609302,0.930093,0.142800,-0.023311,-0.051716,-0.150000,-0.023190,-0.072519,-0.475999,0.077703,0.172385,0.500000,0.077299,0.241730,0.381491,-0.520516,0.481696,0.015416,0.999508,0.003430,0.027084
17.200000,-0.660394,-1.511531,-1.991605,-1.189276,1.607370,0.924049,0.095200,-0.015541,-0.034477,-0.100000,-0.015460,-0.048346,-0.475999,0.077703,0.172385,0.500000,0.077299,0.241730,0.385797,-0.514778,0.476102,0.006639,0.999761,0.008444,0.019046
17.300000,-0.653253,-1.512697,-1.994191,-1.196777,1.606210,0.920423,0.047600,-0.007770,-0.017239,-0.050000,-0.007730,-0.024173,-0.475999,0.077703,0.172385,0.500000,0.077299,0.241730,0.388316,-0.511303,0.472768,0.001362,0.999833,0.011430,0.014208
17.400000,-0.650872,-1.513085,-1.995053,-1.199278,1.605823,0.919213,0.000000,-0.000000,-0.000000,-0.000000,-0.000000,-0.000000,-0.475999,0.077703,0.172385,0.500000,0.077299,0.241730,0.389145,-0.510139,0.471660,-0.000399,0.999843,0.012422,0.012593
17.400018,-0.650872,-1.513085,-1.995053,-1.199278,1.605823,0.919213,0.000000,-0.000000,-0.000000,-0.000000,-0.000000,-0.000000,-0.475999,0.077703,0.172385,0.500000,0.077299,0.241730,0.389145,-0.510139,0.471660,-0.000399,0.999843,0.012422,0.012593
