mathias31415/motion_primitives_from_planned_trajectory/data/trajectory_20250626_095358_executed.csv
timestamp,shoulder_lift_joint_pos,elbow_joint_pos,wrist_1_joint_pos,wrist_2_joint_pos,wrist_3_joint_pos,shoulder_pan_joint_pos,shoulder_lift_joint_vel,elbow_joint_vel,wrist_1_joint_vel,wrist_2_joint_vel,wrist_3_joint_vel,shoulder_pan_joint_vel,shoulder_lift_joint_eff,elbow_joint_eff,wrist_1_joint_eff,wrist_2_joint_eff,wrist_3_joint_eff,shoulder_pan_joint_eff
1750924462.215204954,-1.547685000,-1.787364000,-1.412483000,1.570481000,-0.795068000,-2.365110000,0.000000000,0.000000000,0.000000000,0.000000000,0.000000000,0.000000000,3.306170572,4.215343335,0.299687592,-0.000026016,0.000000000,-0.000000000
1750924462.217110157,-1.547685000,-1.787364000,-1.412483000,1.570481000,-0.795068000,-2.365110000,0.000000000,0.000000000,0.000000000,0.000000000,0.000000000,0.000000000,3.306170572,4.215343335,0.299687592,-0.000026016,0.000000000,-0.000000000
1750924462.219380140,-1.547685000,-1.787364000,-1.412483000,1.570481000,-0.795068000,-2.365110000,0.000000000,0.000000000,0.000000000,0.000000000,0.000000000,0.000000000,3.306170572,4.215343335,0.299687592,-0.000026016,0.000000000,-0.000000000
1750924462.221975803,-1.547685000,-1.787364000,-1.412483000,1.570481000,-0.795068000,-2.365110000,0.000000000,0.000000000,0.000000000,0.000000000,0.000000000,0.000000000,3.306170572,4.215343335,0.299687592,-0.000026016,0.000000000,-0.000000000
1750924462.223186970,-1.547685000,-1.787364000,-1.412483000,1.570481000,-0.795068000,-2.365110000,0.000000000,0.000000000,0.000000000,0.000000000,0.000000000,0.000000000,3.306170572,4.215343335,0.299687592,-0.000026016,0.000000000,-0.000000000
1750924462.225158453,-1.547685000,-1.787364000,-1.412483000,1.570481000,-0.795068000,-2.365110000,0.000000000,0.000000000,0.000000000,0.000000000,0.000000000,0.000000000,3.306170572,4.215343335,0.299687592,-0.000026016,0.000000000,-0.000000000
1750924462.227547407,-1.547685000,-1.787364000,-1.412483000,1.570481000,-0.795068000,-2.365110000,0.000000000,0.000000000,0.000000000,0.000000000,0.000000000,0.000000000,3.306170572,4.215343335,0.299687592,-0.000026016,0.000000000,-0.000000000
1750924462.229325771,-1.547685000,-1.787364000,-1.412483000,1.570481000,-0.795068000,-2.365110000,0.000000000,0.000000000,0.000000000,0.000000000,0.000000000,0.000000000,3.306170572,4.215343335,0.299687592,-0.000026016,0.000000000,-0.000000000
1750924462.231287956,-1.547685000,-1.787364000,-1.412483000,1.570481000,-0.795068000,-2.365110000,0.000000000,0.000000000,0.000000000,0.000000000,0.000000000,0.000000000,3.306170572,4.215343335,0.299687592,-0.000026016,0.000000000,-0.000000000
1750924462.233452559,-1.547685000,-1.787364000,-1.412483000,1.570481000,-0.795068000,-2.365110000,0.000000000,0.000000000,0.000000000,0.000000000,0.000000000,0.000000000,3.306170572,4.215343335,0.299687592,-0.000026016,0.000000000,-0.000000000
1750924462.235225916,-1.547685000,-1.787364000,-1.412483000,1.570481000,-0.795068000,-2.365110000,0.000000000,0.000000000,0.000000000,0.000000000,0.000000000,0.000000000,3.306170572,4.215343335,0.299687592,-0.000026016,0.000000000,-0.000000000
1750924462.246277094,-1.547685000,-1.787364000,-1.412483000,1.570481000,-0.795068000,-2.365110000,0.000000000,0.000000000,0.000000000,0.000000000,0.000000000,0.000000000,3.306170572,4.215343335,0.299687592,-0.000026016,0.000000000,-0.000000000
1750924462.246560812,-1.547685000,-1.787364000,-1.412483000,1.570481000,-0.795068000,-2.365110000,0.000000000,0.000000000,0.000000000,0.000000000,0.000000000,0.000000000,3.306170572,4.215343335,0.299687592,-0.000026016,0.000000000,-0.000000000
1750924462.247691154,-1.547685000,-1.787364000,-1.412483000,1.570481000,-0.795068000,-2.365110000,0.000000000,0.000000000,0.000000000,0.000000000,0.000000000,0.000000000,3.306170572,4.215343335,0.299687592,-0.000026016,0.000000000,-0.000000000
1750924462.249481440,-1.547685000,-1.787364000,-1.412483000,1.570481000,-0.795068000,-2.365110000,0.000000000,0.000000000,0.000000000,0.000000000,0.000000000,0.000000000,3.306170572,4.215343335,0.299687592,-0.000026016,0.000000000,-0.000000000
1750924462.252477884,-1.547685000,-1.787364000,-1.412483000,1.570481000,-0.795068000,-2.365110000,0.000000000,0.000000000,0.000000000,0.000000000,0.000000000,0.000000000,3.306170572,4.215343335,0.299687592,-0.000026016,0.000000000,-0.000000000
1750924462.253143549,-1.547685000,-1.787364000,-1.412483000,1.570481000,-0.795068000,-2.365110000,0.000000000,0.000000000,0.000000000,0.000000000,0.000000000,0.000000000,3.306170572,4.215343335,0.299687592,-0.000026016,0.000000000,-0.000000000
1750924462.255162716,-1.547685000,-1.787364000,-1.412483000,1.570481000,-0.795068000,-2.365110000,0.000000000,0.000000000,0.000000000,0.000000000,0.000000000,0.000000000,3.306170572,4.215343335,0.299687592,-0.000026016,0.000000000,-0.000000000
1750924462.257230997,-1.547685000,-1.787364000,-1.412483000,1.570481000,-0.795068000,-2.365110000,0.000000000,0.000000000,0.000000000,0.000000000,0.000000000,0.000000000,3.306170572,4.215343335,0.299687592,-0.000026016,0.000000000,-0.000000000
1750924462.259237051,-1.547685000,-1.787364000,-1.412483000,1.570481000,-0.795068000,-2.365110000,0.000000000,0.000000000,0.000000000,0.000000000,0.000000000,0.000000000,3.306170572,4.215343335,0.299687592,-0.000026016,0.000000000,-0.000000000
1750924462.261312485,-1.547685000,-1.787364000,-1.412483000,1.570481000,-0.795068000,-2.365110000,0.000000000,0.000000000,0.000000000,0.000000000,0.000000000,0.000000000,3.306170572,4.215343335,0.299687592,-0.000026016,0.000000000,-0.000000000
1750924462.263079405,-1.547685000,-1.787364000,-1.412483000,1.570481000,-0.795068000,-2.365110000,0.000000000,0.000000000,0.000000000,0.000000000,0.000000000,0.000000000,3.306170572,4.215343335,0.299687592,-0.000026016,0.000000000,-0.000000000
1750924462.265184164,-1.547685000,-1.787364000,-1.412483000,1.570481000,-0.795068000,-2.365110000,0.000000000,0.000000000,0.000000000,0.000000000,0.000000000,0.000000000,3.306170572,4.215343335,0.299687592,-0.000026016,0.000000000,-0.000000000
1750924462.267318249,-1.547685000,-1.787364000,-1.412483000,1.570481000,-0.795068000,-2.365110000,0.000000000,0.000000000,0.000000000,0.000000000,0.000000000,0.000000000,3.306170572,4.215343335,0.299687592,-0.000026016,0.000000000,-0.000000000
1750924462.271841764,-1.547685000,-1.787364000,-1.412483000,1.570481000,-0.795068000,-2.365110000,0.000000000,0.000000000,0.000000000,0.000000000,0.000000000,0.000000000,3.306170572,4.215343335,0.299687592,-0.000026016,0.000000000,-0.000000000
1750924462.272090197,-1.547685000,-1.787364000,-1.412483000,1.570481000,-0.795068000,-2.365110000,0.000000000,0.000000000,0.000000000,0.000000000,0.000000000,0.000000000,3.306170572,4.215343335,0.299687592,-0.000026016,0.000000000,-0.000000000
1750924462.273231506,-1.547685000,-1.787364000,-1.412483000,1.570481000,-0.795068000,-2.365110000,0.000000000,0.000000000,0.000000000,0.000000000,0.000000000,0.000000000,3.306170572,4.215343335,0.299687592,-0.000026016,0.000000000,-0.000000000
1750924462.275447369,-1.547685000,-1.787364000,-1.412483000,1.570481000,-0.795068000,-2.365110000,0.000000000,0.000000000,0.000000000,0.000000000,0.000000000,0.000000000,3.306170572,4.215343335,0.299687592,-0.000026016,0.000000000,-0.000000000
1750924462.277465105,-1.547685000,-1.787364000,-1.412483000,1.570481000,-0.795068000,-2.365110000,0.000000000,0.000000000,0.000000000,0.000000000,0.000000000,0.000000000,3.306170572,4.215343335,0.299687592,-0.000026016,0.000000000,-0.000000000
1750924462.279259443,-1.547685000,-1.787364000,-1.412483000,1.570481000,-0.795068000,-2.365110000,0.000000000,0.000000000,0.000000000,0.000000000,0.000000000,0.000000000,3.306170572,4.215343335,0.299687592,-0.000026016,0.000000000,-0.000000000
1750924462.281314611,-1.547685000,-1.787364000,-1.412483000,1.570481000,-0.795068000,-2.365110000,0.000000000,0.000000000,0.000000000,0.000000000,0.000000000,0.000000000,3.306170572,4.215343335,0.299687592,-0.000026016,0.000000000,-0.000000000
1750924462.283412695,-1.547685000,-1.787364000,-1.412483000,1.570481000,-0.795068000,-2.365110000,0.000000000,0.000000000,0.000000000,0.000000000,0.000000000,0.000000000,3.306170572,4.215343335,0.299687592,-0.000026016,0.000000000,-0.000000000
1750924462.285191059,-1.547685000,-1.787364000,-1.412483000,1.570481000,-0.795068000,-2.365110000,0.000000000,0.000000000,0.000000000,0.000000000,0.000000000,0.000000000,3.306170572,4.215343335,0.299687592,-0.000026016,0.000000000,-0.000000000
1750924462.287204981,-1.547685000,-1.787364000,-1.412483000,1.570481000,-0.795068000,-2.365110000,0.000000000,0.000000000,0.000000000,0.000000000,0.000000000,0.000000000,3.306170572,4.215343335,0.299687592,-0.000026016,0.000000000,-0.000000000
1750924462.289143801,-1.547685000,-1.787364000,-1.412483000,1.570481000,-0.795068000,-2.365110000,0.000000000,0.000000000,0.000000000,0.000000000,0.000000000,0.000000000,3.306170572,4.215343335,0.299687592,-0.000026016,0.000000000,-0.000000000
1750924462.291099072,-1.547685000,-1.787364000,-1.412483000,1.570481000,-0.795068000,-2.365110000,0.000000000,0.000000000,0.000000000,0.000000000,0.000000000,0.000000000,3.306170572,4.215343335,0.299687592,-0.000026016,0.000000000,-0.000000000
1750924462.293236017,-1.547685000,-1.787364000,-1.412483000,1.570481000,-0.795068000,-2.365110000,0.000000000,0.000000000,0.000000000,0.000000000,0.000000000,0.000000000,3.306170572,4.215343335,0.299687592,-0.000026016,0.000000000,-0.000000000
1750924462.295188427,-1.547685000,-1.787364000,-1.412483000,1.570481000,-0.795068000,-2.365110000,0.000000000,0.000000000,0.000000000,0.000000000,0.000000000,0.000000000,3.306170572,4.215343335,0.299687592,-0.000026016,0.000000000,-0.000000000
1750924462.297535181,-1.547685000,-1.787364000,-1.412483000,1.570481000,-0.795068000,-2.365110000,0.000000000,0.000000000,0.000000000,0.000000000,0.000000000,0.000000000,3.306170572,4.215343335,0.299687592,-0.000026016,0.000000000,-0.000000000
1750924462.299145699,-1.547685000,-1.787364000,-1.412483000,1.570481000,-0.795068000,-2.365110000,0.000000000,0.000000000,0.000000000,0.000000000,0.000000000,0.000000000,3.306170572,4.215343335,0.299687592,-0.000026016,0.000000000,-0.000000000
1750924462.301161051,-1.547685000,-1.787364000,-1.412483000,1.570481000,-0.795068000,-2.365110000,0.000000000,0.000000000,0.000000000,0.000000000,0.000000000,0.000000000,3.306170572,4.215343335,0.299687592,-0.000026016,0.000000000,-0.000000000
1750924462.303195715,-1.547685000,-1.787364000,-1.412483000,1.570481000,-0.795068000,-2.365110000,0.000000000,0.000000000,0.000000000,0.000000000,0.000000000,0.000000000,3.306170572,4.215343335,0.299687592,-0.000026016,0.000000000,-0.000000000
1750924462.305101871,-1.547685000,-1.787364000,-1.412483000,1.570481000,-0.795068000,-2.365110000,0.000000000,0.000000000,0.000000000,0.000000000,0.000000000,0.000000000,3.306170572,4.215343335,0.299687592,-0.000026016,0.000000000,-0.000000000
1750924462.307099581,-1.547685000,-1.787364000,-1.412483000,1.570481000,-0.795068000,-2.365110000,0.000000000,0.000000000,0.000000000,0.000000000,0.000000000,0.000000000,3.306170572,4.215343335,0.299687592,-0.000026016,0.000000000,-0.000000000
1750924462.309202671,-1.547685000,-1.787364000,-1.412483000,1.570481000,-0.795068000,-2.365110000,0.000000000,0.000000000,0.000000000,0.000000000,0.000000000,0.000000000,3.306170572,4.215343335,0.299687592,-0.000026016,0.000000000,-0.000000000
1750924462.317146540,-1.547685000,-1.787364000,-1.412483000,1.570481000,-0.795068000,-2.365110000,0.000000000,0.000000000,0.000000000,0.000000000,0.000000000,0.000000000,3.306170572,4.215343335,0.299687592,-0.000026016,0.000000000,-0.000000000
1750924462.317201138,-1.547685000,-1.787364000,-1.412483000,1.570481000,-0.795068000,-2.365110000,0.000000000,0.000000000,0.000000000,0.000000000,0.000000000,0.000000000,3.306170572,4.215343335,0.299687592,-0.000026016,0.000000000,-0.000000000
1750924462.317219496,-1.547685000,-1.787364000,-1.412483000,1.570481000,-0.795068000,-2.365110000,0.000000000,0.000000000,0.000000000,0.000000000,0.000000000,0.000000000,3.306170572,4.215343335,0.299687592,-0.000026016,0.000000000,-0.000000000
1750924462.319176912,-1.547685000,-1.787364000,-1.412483000,1.570481000,-0.795068000,-2.365110000,0.000000000,0.000000000,0.000000000,0.000000000,0.000000000,0.000000000,3.306170572,4.215343335,0.299687592,-0.000026016,0.000000000,-0.000000000
1750924462.321106911,-1.547685000,-1.787364000,-1.412483000,1.570481000,-0.795068000,-2.365110000,0.000000000,0.000000000,0.000000000,0.000000000,0.000000000,0.000000000,3.306170572,4.215343335,0.299687592,-0.000026016,0.000000000,-0.000000000
1750924462.323043346,-1.547684603,-1.787363835,-1.412483526,1.570480977,-0.795069294,-2.365111294,0.000397412,0.000164630,-0.000526212,-0.000023463,-0.001293903,-0.001293949,3.572902841,4.281443470,0.287733482,-0.004274930,-0.036449674,-0.501894289
1750924462.325084448,-1.547683410,-1.787363341,-1.412485105,1.570480906,-0.795073176,-2.365115176,0.000794809,0.000329275,-0.001052424,-0.000046925,-0.002587813,-0.002587905,3.572891010,4.281446314,0.287733479,-0.004274924,-0.036449868,-0.501895529
1750924462.327037334,-1.547681423,-1.787362518,-1.412487736,1.570480789,-0.795079645,-2.365121646,0.001192177,0.000493950,-0.001578637,-0.000070386,-0.003881736,-0.003881875,3.572869360,4.281451673,0.287733487,-0.004274918,-0.036450254,-0.501898224
1750924462.328986406,-1.547678642,-1.787361366,-1.412491419,1.570480625,-0.795088703,-2.365130703,0.001589501,0.000658669,-0.002104850,-0.000093847,-0.005175680,-0.005175866,3.572837889,4.281459547,0.287733506,-0.004274910,-0.036450834,-0.501902373
1750924462.331038475,-1.547675065,-1.787359884,-1.412496155,1.570480413,-0.795100348,-2.365142349,0.001986767,0.000823448,-0.002631065,-0.000117307,-0.006469652,-0.006469883,3.572796598,4.281469936,0.287733534,-0.004274903,-0.036451608,-0.501907977
1750924462.333184004,-1.547670695,-1.787358072,-1.412501944,1.570480155,-0.795114581,-2.365156583,0.002383960,0.000988300,-0.003157281,-0.000140764,-0.007763657,-0.007763936,3.572745488,4.281482840,0.287733573,-0.004274894,-0.036452574,-0.501915036
1750924462.335632801,-1.547670695,-1.787358072,-1.412501944,1.570480155,-0.795114581,-2.365156583,0.002383960,0.000988300,-0.003157281,-0.000140764,-0.007763657,-0.007763936,3.572745488,4.281482840,0.287733573,-0.004274894,-0.036452574,-0.501915036
1750924462.337321520,-1.547659570,-1.787353459,-1.412516678,1.570479498,-0.795150812,-2.365192815,0.003178071,0.001318288,-0.004209719,-0.000187674,-0.010351800,-0.010352170,3.572613815,4.281516193,0.287733680,-0.004274875,-0.036455088,-0.501933515
1750924462.339045286,-1.547652817,-1.787350657,-1.412525623,1.570479100,-0.795172810,-2.365214814,0.003574959,0.001483452,-0.004735940,-0.000211125,-0.011645949,-0.011646366,3.572533253,4.281536642,0.287733750,-0.004274864,-0.036456634,-0.501944935
1750924462.341064692,-1.547645271,-1.787347525,-1.412535621,1.570478654,-0.795197396,-2.365239401,0.003971716,0.001648750,-0.005262165,-0.000234574,-0.012940161,-0.012940623,3.572442876,4.281559605,0.287733829,-0.004274853,-0.036458374,-0.501957808
1750924462.343141079,-1.547636931,-1.787344062,-1.412546672,1.570478161,-0.795224570,-2.365266576,0.004368328,0.001814196,-0.005788392,-0.000258019,-0.014234441,-0.014234950,3.572342684,4.281585082,0.287733919,-0.004274841,-0.036460307,-0.501972134
1750924462.344927788,-1.547627798,-1.787340268,-1.412558775,1.570477622,-0.795254334,-2.365296340,0.004764779,0.001979805,-0.006314622,-0.000281461,-0.015528797,-0.015529351,3.572232680,4.281613074,0.287734020,-0.004274829,-0.036462432,-0.501987912
1750924462.347833157,-1.547617872,-1.787336143,-1.412571930,1.570477036,-0.795286686,-2.365328694,0.005161057,0.002145592,-0.006840856,-0.000304899,-0.016823235,-0.016823835,3.572112864,4.281643579,0.287734131,-0.004274816,-0.036464751,-0.502005141
1750924462.349209309,-1.547607153,-1.787331685,-1.412586138,1.570476402,-0.795321627,-2.365363636,0.005557145,0.002311572,-0.007367092,-0.000328334,-0.018117763,-0.018118407,3.571983239,4.281676598,0.287734252,-0.004274802,-0.036467263,-0.502023822
1750924462.351171017,-1.547607153,-1.787331685,-1.412586138,1.570476402,-0.795321627,-2.365363636,0.005557145,0.002311572,-0.007367092,-0.000328334,-0.018117763,-0.018118407,3.571983239,4.281676598,0.287734252,-0.004274802,-0.036467263,-0.502023822
1750924462.353149176,-1.547595643,-1.787326896,-1.412601399,1.570475722,-0.795359157,-2.365401167,0.005953029,0.002477760,-0.007893333,-0.000351763,-0.019412386,-0.019413076,3.571843806,4.281712130,0.287734384,-0.004274787,-0.036469967,-0.502043952
1750924462.354990959,-1.547583341,-1.787321774,-1.412617712,1.570474995,-0.795399276,-2.365441288,0.006348695,0.002644170,-0.008419578,-0.000375188,-0.020707112,-0.020707847,3.571694566,4.281750176,0.287734527,-0.004274772,-0.036472865,-0.502065533
1750924462.356921434,-1.547570249,-1.787316319,-1.412635077,1.570474221,-0.795441985,-2.365483999,0.006744129,0.002810817,-0.008945827,-0.000398608,-0.022001948,-0.022002728,3.571535523,4.281790734,0.287734680,-0.004274756,-0.036475955,-0.502088562
1750924462.359072685,-1.547556365,-1.787310531,-1.412653495,1.570473401,-0.795487284,-2.365529299,0.007139315,0.002977717,-0.009472081,-0.000422023,-0.023296900,-0.023297725,3.571366677,4.281833804,0.287734844,-0.004274740,-0.036479237,-0.502113038
1750924462.360931635,-1.547541691,-1.787304408,-1.412672965,1.570472533,-0.795535173,-2.365577190,0.007534239,0.003144883,-0.009998340,-0.000445432,-0.024591976,-0.024592845,3.571188032,4.281879387,0.287735020,-0.004274722,-0.036482712,-0.502138962
1750924462.362997293,-1.547526228,-1.787297951,-1.412693488,1.570471619,-0.795585652,-2.365627671,0.007928886,0.003312332,-0.010524603,-0.000468835,-0.025887181,-0.025888096,3.570999589,4.281927481,0.287735206,-0.004274704,-0.036486380,-0.502166333
1750924462.365011215,-1.547509976,-1.787291159,-1.412715064,1.570470658,-0.795638722,-2.365680742,0.008323243,0.003480077,-0.011050872,-0.000492232,-0.027182524,-0.027183483,3.570801351,4.281978087,0.287735403,-0.004274686,-0.036490239,-0.502195148
1750924462.367039204,-1.547492936,-1.787284031,-1.412737692,1.570469650,-0.795694382,-2.365736405,0.008717294,0.003648133,-0.011577147,-0.000515623,-0.028478011,-0.028479013,3.570593321,4.282031203,0.287735611,-0.004274666,-0.036494291,-0.502225407
1750924462.372756004,-1.547475107,-1.787276566,-1.412761372,1.570468596,-0.795752634,-2.365794658,0.009111025,0.003816516,-0.012103427,-0.000539006,-0.029773648,-0.029774694,3.570375501,4.282086830,0.287735831,-0.004274646,-0.036498535,-0.502257109
1750924462.372808218,-1.547475107,-1.787276566,-1.412761372,1.570468596,-0.795752634,-2.365794658,0.009111025,0.003816516,-0.012103427,-0.000539006,-0.029773648,-0.029774694,3.570375501,4.282086830,0.287735831,-0.004274646,-0.036498535,-0.502257109
1750924462.373334169,-1.547475107,-1.787276566,-1.412761372,1.570468596,-0.795752634,-2.365794658,0.009111025,0.003816516,-0.012103427,-0.000539006,-0.029773648,-0.029774694,3.570375501,4.282086830,0.287735831,-0.004274646,-0.036498535,-0.502257109
1750924462.375813961,-1.547456492,-1.787268764,-1.412786106,1.570467494,-0.795813477,-2.365855504,0.009504421,0.003985240,-0.012629714,-0.000562382,-0.031069443,-0.031070533,3.570147895,4.282144967,0.287736062,-0.004274625,-0.036502971,-0.502290253
1750924462.377796412,-1.547437090,-1.787260625,-1.412811891,1.570466346,-0.795876912,-2.365918941,0.009897468,0.004154319,-0.013156006,-0.000585751,-0.032365402,-0.032366535,3.569910504,4.282205613,0.287736305,-0.004274603,-0.036507598,-0.502324838
1750924462.379262686,-1.547416902,-1.787252147,-1.412838730,1.570465151,-0.795942939,-2.365984970,0.010290151,0.004323770,-0.013682305,-0.000609112,-0.033661532,-0.033662708,3.569663333,4.282268768,0.287736559,-0.004274581,-0.036512418,-0.502360862
1750924462.381056786,-1.547395929,-1.787243329,-1.412866621,1.570463910,-0.796011558,-2.366053591,0.010682455,0.004493606,-0.014208611,-0.000632465,-0.034957840,-0.034959059,3.569406385,4.282334432,0.287736826,-0.004274557,-0.036517428,-0.502398324
1750924462.383111000,-1.547374172,-1.787234172,-1.412895564,1.570462621,-0.796082770,-2.366124806,0.011074366,0.004663842,-0.014734924,-0.000655809,-0.036254333,-0.036255594,3.569139663,4.282402604,0.287737104,-0.004274533,-0.036522630,-0.502437223
1750924462.385010242,-1.547351632,-1.787224674,-1.412925560,1.570461286,-0.796156576,-2.366198614,0.011465870,0.004834494,-0.015261244,-0.000679144,-0.037551017,-0.037552320,3.568863170,4.282473283,0.287737394,-0.004274508,-0.036528023,-0.502477557
1750924462.387075663,-1.547328309,-1.787214834,-1.412956609,1.570459905,-0.796232974,-2.366275016,0.011856951,0.005005576,-0.015787571,-0.000702471,-0.038847900,-0.038849244,3.568576910,4.282546469,0.287737696,-0.004274483,-0.036533608,-0.502519325
1750924462.389002085,-1.547304205,-1.787204651,-1.412988711,1.570458476,-0.796311967,-2.366354011,0.012247595,0.005177102,-0.016313906,-0.000725788,-0.040144987,-0.040146373,3.568280887,4.282622161,0.287738011,-0.004274456,-0.036539383,-0.502562525
1750924462.391910315,-1.547279319,-1.787194125,-1.413021865,1.570457002,-0.796393555,-2.366435601,0.012637788,0.005349088,-0.016840249,-0.000749095,-0.041442286,-0.041443714,3.567975105,4.282700359,0.287738338,-0.004274429,-0.036545349,-0.502607156
1750924462.393196583,-1.547253654,-1.787183255,-1.413056072,1.570455480,-0.796477737,-2.366519786,0.013027514,0.005521549,-0.017366599,-0.000772392,-0.042739804,-0.042741272,3.567659568,4.282781061,0.287738677,-0.004274401,-0.036551505,-0.502653216
1750924462.395149469,-1.547227209,-1.787172039,-1.413091331,1.570453912,-0.796564514,-2.366606566,0.013416760,0.005694499,-0.017892958,-0.000795679,-0.044037547,-0.044039056,3.567334279,4.282864268,0.287739030,-0.004274371,-0.036557851,-0.502700703
1750924462.397901535,-1.547199987,-1.787160476,-1.413127643,1.570452297,-0.796653887,-2.366695942,0.013805510,0.005867953,-0.018419325,-0.000818955,-0.045335522,-0.045337071,3.566999244,4.282949979,0.287739395,-0.004274341,-0.036564388,-0.502749616
1750924462.399154425,-1.547171988,-1.787148566,-1.413165008,1.570450636,-0.796745856,-2.366787915,0.014193751,0.006041926,-0.018945700,-0.000842220,-0.046633736,-0.046635324,3.566654466,4.283038192,0.287739774,-0.004274311,-0.036571115,-0.502799952
1750924462.401102304,-1.547143212,-1.787136308,-1.413203426,1.570448929,-0.796840422,-2.366882484,0.014581467,0.006216432,-0.019472084,-0.000865474,-0.047932195,-0.047933823,3.566299950,4.283128907,0.287740166,-0.004274279,-0.036578031,-0.502851711
1750924462.403111696,-1.547113662,-1.787123700,-1.413242897,1.570447174,-0.796937585,-2.366979650,0.014968643,0.006391487,-0.019998477,-0.000888716,-0.049230907,-0.049232574,3.565935701,4.283222124,0.287740571,-0.004274246,-0.036585137,-0.502904889
1750924462.405093908,-1.547083338,-1.787110742,-1.413283420,1.570445374,-0.797037346,-2.367079414,0.015355266,0.006567106,-0.020524879,-0.000911946,-0.050529877,-0.050531583,3.565561724,4.283317841,0.287740990,-0.004274212,-0.036592432,-0.502959486
1750924462.407104254,-1.547052242,-1.787097432,-1.413324996,1.570443527,-0.797139705,-2.367181777,0.015741320,0.006743302,-0.021051290,-0.000935164,-0.051829113,-0.051830857,3.565178023,4.283416059,0.287741423,-0.004274178,-0.036599916,-0.503015498
1750924462.409036875,-1.547020373,-1.787083768,-1.413367625,1.570441633,-0.797244663,-2.367286738,0.016126791,0.006920092,-0.021577710,-0.000958369,-0.053128622,-0.053130404,3.564784603,4.283516775,0.287741870,-0.004274142,-0.036607589,-0.503072924
1750924462.411157131,-1.546987735,-1.787069751,-1.413411307,1.570439693,-0.797352219,-2.367394299,0.016511664,0.007097489,-0.022104140,-0.000981561,-0.054428410,-0.054430229,3.564381470,4.283619989,0.287742331,-0.004274105,-0.036615451,-0.503131762
1750924462.413031340,-1.546954327,-1.787055378,-1.413456042,1.570437707,-0.797462376,-2.367504459,0.016895924,0.007275509,-0.022630579,-0.001004740,-0.055728483,-0.055730339,3.563968629,4.283725701,0.287742807,-0.004274068,-0.036623501,-0.503192010
1750924462.415170908,-1.546920152,-1.787040648,-1.413501829,1.570435674,-0.797575134,-2.367617220,0.017279557,0.007454166,-0.023157028,-0.001027905,-0.057028849,-0.057030741,3.563546085,4.283833909,0.287743297,-0.004274029,-0.036631739,-0.503253665
1750924462.417094469,-1.546885209,-1.787025561,-1.413548670,1.570433595,-0.797690492,-2.367732582,0.017662549,0.007633476,-0.023683486,-0.001051057,-0.058329514,-0.058331442,3.563113844,4.283944612,0.287743802,-0.004273989,-0.036640165,-0.503316725
1750924462.419157743,-1.546849502,-1.787010114,-1.413596563,1.570431470,-0.797808452,-2.367850546,0.018044883,0.007813452,-0.024209954,-0.001074194,-0.059630485,-0.059632448,3.562671912,4.284057810,0.287744322,-0.004273948,-0.036648779,-0.503381188
1750924462.421069622,-1.546813030,-1.786994307,-1.413645510,1.570429298,-0.797929014,-2.367971112,0.018426547,0.007994110,-0.024736433,-0.001097317,-0.060931768,-0.060933767,3.562220294,4.284173502,0.287744858,-0.004273907,-0.036657580,-0.503447050
1750924462.428882360,-1.546813030,-1.786994307,-1.413645510,1.570429298,-0.797929014,-2.367971112,0.018426547,0.007994110,-0.024736433,-0.001097317,-0.060931768,-0.060933767,3.562220294,4.284173502,0.287744858,-0.004273907,-0.036657580,-0.503447050
1750924462.429738522,-1.546813030,-1.786994307,-1.413645510,1.570429298,-0.797929014,-2.367971112,0.018426547,0.007994110,-0.024736433,-0.001097317,-0.060931768,-0.060933767,3.562220294,4.284173502,0.287744858,-0.004273907,-0.036657580,-0.503447050
1750924462.429802418,-1.546775796,-1.786978137,-1.413695509,1.570427081,-0.798052179,-2.368094281,0.018807524,0.008175464,-0.025262921,-0.001120424,-0.062233370,-0.062235403,3.561758997,4.284291687,0.287745409,-0.004273863,-0.036666568,-0.503514311
1750924462.431843281,-1.546699045,-1.786944706,-1.413798667,1.570422507,-0.798306321,-2.368348431,0.019567363,0.008540322,-0.026315928,-0.001166594,-0.064837558,-0.064839659,3.560807388,4.284535530,0.287746559,-0.004273774,-0.036685103,-0.503653015
1750924462.433120728,-1.546659532,-1.786927442,-1.413851825,1.570420150,-0.798437298,-2.368479413,0.019946194,0.008723855,-0.026842447,-0.001189655,-0.066140157,-0.066142291,3.560317089,4.284661186,0.287747158,-0.004273727,-0.036694651,-0.503724453
1750924462.434983492,-1.546619261,-1.786909811,-1.413906037,1.570417748,-0.798570881,-2.368613000,0.020324281,0.008908144,-0.027368976,-0.001212700,-0.067443102,-0.067445268,3.559817135,4.284789331,0.287747773,-0.004273680,-0.036704384,-0.503797278
1750924462.437068462,-1.546578235,-1.786891809,-1.413961301,1.570415300,-0.798707071,-2.368749194,0.020701608,0.009093203,-0.027895516,-0.001235728,-0.068746399,-0.068748597,3.559307534,4.284919964,0.287748405,-0.004273631,-0.036714303,-0.503871488
1750924462.439058542,-1.546536455,-1.786873437,-1.414017619,1.570412805,-0.798845867,-2.368887995,0.021078161,0.009279047,-0.028422066,-0.001258740,-0.070050054,-0.070052284,3.558788292,4.285053083,0.287749054,-0.004273581,-0.036724408,-0.503947079
1750924462.441063881,-1.546493923,-1.786854693,-1.414074989,1.570410265,-0.798987271,-2.369029404,0.021453924,0.009465691,-0.028948627,-0.001281734,-0.071354075,-0.071356335,3.558259415,4.285188687,0.287749721,-0.004273529,-0.036734697,-0.504024050
1750924462.443056345,-1.546450640,-1.786835574,-1.414133413,1.570407678,-0.799131284,-2.369173421,0.021828884,0.009653150,-0.029475198,-0.001304711,-0.072658468,-0.072660758,3.557720911,4.285326776,0.287750405,-0.004273476,-0.036745171,-0.504102395
1750924462.445302963,-1.546450640,-1.786835574,-1.414133413,1.570407678,-0.799131284,-2.369173421,0.021828884,0.009653150,-0.029475198,-0.001304711,-0.072658468,-0.072660758,3.557720911,4.285326776,0.287750405,-0.004273476,-0.036745171,-0.504102395
1750924462.447324514,-1.546361828,-1.786796208,-1.414253420,1.570402368,-0.799427137,-2.369469283,0.022576334,0.010030572,-0.030528371,-0.001350611,-0.075268394,-0.075270743,3.556615051,4.285610401,0.287751826,-0.004273367,-0.036766671,-0.504263202
1750924462.449206829,-1.546316303,-1.786775957,-1.414315004,1.570399643,-0.799578979,-2.369621130,0.022948794,0.010220564,-0.031054973,-0.001373533,-0.076573941,-0.076576318,3.556047710,4.285755935,0.287752564,-0.004273310,-0.036777697,-0.504345657
1750924462.451179266,-1.546270034,-1.786755325,-1.414377640,1.570396873,-0.799733433,-2.369775589,0.023320391,0.010411430,-0.031581586,-0.001396437,-0.077879886,-0.077882291,3.555470771,4.285903949,0.287753320,-0.004273252,-0.036788906,-0.504429475
1750924462.453206539,-1.546223022,-1.786734310,-1.414441330,1.570394058,-0.799890499,-2.369932660,0.023691111,0.010603185,-0.032108210,-0.001419321,-0.079186236,-0.079188668,3.554884241,4.286054441,0.287754096,-0.004273192,-0.036800298,-0.504514653
1750924462.455236435,-1.546175270,-1.786712911,-1.414506073,1.570391196,-0.800050178,-2.370092344,0.024060938,0.010795843,-0.032634843,-0.001442186,-0.080492996,-0.080495454,3.554288130,4.286207410,0.287754890,-0.004273131,-0.036811873,-0.504601188
1750924462.457119942,-1.546126779,-1.786691126,-1.414571869,1.570388289,-0.800212471,-2.370254642,0.024429858,0.010989419,-0.033161487,-0.001465031,-0.081800174,-0.081802658,3.553682444,4.286362854,0.287755704,-0.004273069,-0.036823630,-0.504689077
1750924462.459090948,-1.546077551,-1.786668953,-1.414638719,1.570385336,-0.800377379,-2.370419555,0.024797856,0.011183928,-0.033688142,-0.001487855,-0.083107775,-0.083110285,3.553067193,4.286520773,0.287756538,-0.004273005,-0.036835569,-0.504778315
1750924462.461046696,-1.546027588,-1.786646390,-1.414706622,1.570382338,-0.800544903,-2.370587083,0.025164917,0.011379385,-0.034214806,-0.001510660,-0.084415807,-0.084418341,3.552442383,4.286681164,0.287757392,-0.004272939,-0.036847689,-0.504868900
1750924462.463059187,-1.545976892,-1.786623435,-1.414775578,1.570379293,-0.800715043,-2.370757228,0.025531026,0.011575805,-0.034741481,-0.001533443,-0.085724276,-0.085726833,3.551808024,4.286844027,0.287758266,-0.004272872,-0.036859990,-0.504960828
1750924462.465043306,-1.545925465,-1.786600086,-1.414845588,1.570376204,-0.800887800,-2.370929991,0.025896169,0.011773201,-0.035268166,-0.001556205,-0.087033187,-0.087035767,3.551164125,4.287009361,0.287759161,-0.004272803,-0.036872472,-0.505054095
1750924462.467051983,-1.545873308,-1.786576341,-1.414916651,1.570373069,-0.801063176,-2.371105372,0.026260330,0.011971590,-0.035794860,-0.001578946,-0.088342548,-0.088345151,3.550510693,4.287177163,0.287760076,-0.004272733,-0.036885134,-0.505148698
1750924462.469060421,-1.545820424,-1.786552199,-1.414988767,1.570369888,-0.801241171,-2.371283372,0.026623495,0.012170985,-0.036321565,-0.001601665,-0.089652365,-0.089654989,3.549847737,4.287347433,0.287761013,-0.004272661,-0.036897976,-0.505244633
1750924462.471175671,-1.545766815,-1.786527657,-1.415061937,1.570366662,-0.801421786,-2.371463992,0.026985649,0.012371402,-0.036848279,-0.001624361,-0.090962644,-0.090965289,3.549175267,4.287520169,0.287761972,-0.004272587,-0.036910998,-0.505341895
1750924462.472986221,-1.545712482,-1.786502713,-1.415136160,1.570363391,-0.801605022,-2.371647233,0.027346777,0.012572855,-0.037375003,-0.001647035,-0.092273392,-0.092276057,3.548493292,4.287695369,0.287762952,-0.004272512,-0.036924198,-0.505440482
1750924462.474984169,-1.545712482,-1.786502713,-1.415136160,1.570363391,-0.801605022,-2.371647233,0.027346777,0.012572855,-0.037375003,-0.001647035,-0.092273392,-0.092276057,3.548493292,4.287695369,0.287762952,-0.004272512,-0.036924198,-0.505440482
1750924462.476960659,-1.545657428,-1.786477365,-1.415211437,1.570360074,-0.801790879,-2.371833096,0.027706864,0.012775359,-0.037901737,-0.001669686,-0.093584614,-0.093587299,3.547801821,4.287873033,0.287763955,-0.004272435,-0.036937577,-0.505540389
1750924462.485896349,-1.545601655,-1.786451611,-1.415287767,1.570356712,-0.801979360,-2.372021583,0.028065896,0.012978928,-0.038428479,-0.001692314,-0.094896318,-0.094899022,3.547100863,4.288053158,0.287764980,-0.004272356,-0.036951135,-0.505641613
1750924462.485947371,-1.545545166,-1.786425448,-1.415365151,1.570353305,-0.802170465,-2.372212693,0.028423856,0.013183578,-0.038955231,-0.001714918,-0.096208510,-0.096211231,3.546390427,4.288235743,0.287766029,-0.004272275,-0.036964870,-0.505744148
1750924462.485964775,-1.545545166,-1.786425448,-1.415365151,1.570353305,-0.802170465,-2.372212693,0.028423856,0.013183578,-0.038955231,-0.001714918,-0.096208510,-0.096211231,3.546390427,4.288235743,0.287766029,-0.004272275,-0.036964870,-0.505744148
1750924462.485981703,-1.545545166,-1.786425448,-1.415365151,1.570353305,-0.802170465,-2.372212693,0.028423856,0.013183578,-0.038955231,-0.001714918,-0.096208510,-0.096211231,3.546390427,4.288235743,0.287766029,-0.004272275,-0.036964870,-0.505744148
1750924462.487772942,-1.545430043,-1.786371890,-1.415523079,1.570346355,-0.802560550,-2.372602789,0.029136505,0.013596178,-0.040008761,-0.001760054,-0.098834380,-0.098837135,3.544941164,4.288608286,0.287768195,-0.004272108,-0.036992871,-0.505953140
1750924462.489193439,-1.545371415,-1.786344490,-1.415603623,1.570342812,-0.802759533,-2.372801777,0.029491164,0.013804158,-0.040535539,-0.001782585,-0.100148072,-0.100150843,3.544202355,4.288798242,0.287769314,-0.004272022,-0.037007136,-0.506059587
1750924462.491062880,-1.545312079,-1.786316673,-1.415685221,1.570339224,-0.802961143,-2.373003393,0.029844693,0.014013277,-0.041062326,-0.001805092,-0.101462277,-0.101465062,3.543454109,4.288990651,0.287770458,-0.004271934,-0.037021577,-0.506167329
1750924462.493125916,-1.545252037,-1.786288436,-1.415767873,1.570335592,-0.803165382,-2.373207637,0.030197076,0.014223550,-0.041589120,-0.001827573,-0.102777000,-0.102779799,3.542696435,4.289185512,0.287771626,-0.004271843,-0.037036194,-0.506276363
1750924462.495002985,-1.545191292,-1.786259778,-1.415851578,1.570331914,-0.803372251,-2.373414512,0.030548299,0.014434991,-0.042115923,-0.001850028,-0.104092249,-0.104095061,3.541929344,4.289382824,0.287772819,-0.004271751,-0.037050985,-0.506386683
1750924462.497136354,-1.545129845,-1.786230695,-1.415936336,1.570328192,-0.803581751,-2.373624018,0.030898347,0.014647616,-0.042642733,-0.001872457,-0.105408028,-0.105410852,3.541152847,4.289582584,0.287774038,-0.004271657,-0.037065951,-0.506498284
1750924462.499130726,-1.545067699,-1.786201187,-1.416022149,1.570324424,-0.803793884,-2.373836156,0.031247204,0.014861440,-0.043169550,-0.001894860,-0.106724345,-0.106727181,3.540366953,4.289784791,0.287775282,-0.004271561,-0.037081091,-0.506611163
1750924462.501999378,-1.545004857,-1.786171249,-1.416109015,1.570320612,-0.804008649,-2.374050927,0.031594856,0.015076476,-0.043696375,-0.001917236,-0.108041206,-0.108044052,3.539571675,4.289989444,0.287776552,-0.004271462,-0.037096404,-0.506725315
1750924462.503255844,-1.544941321,-1.786140880,-1.416196934,1.570316755,-0.804226049,-2.374268333,0.031941288,0.015292739,-0.044223206,-0.001939585,-0.109358617,-0.109361472,3.538767022,4.290196539,0.287777849,-0.004271361,-0.037111890,-0.506840735
1750924462.505161524,-1.544877093,-1.786110077,-1.416285907,1.570312854,-0.804446084,-2.374488373,0.032286484,0.015510246,-0.044750044,-0.001961907,-0.110676583,-0.110679447,3.537953006,4.290406077,0.287779173,-0.004271259,-0.037127549,-0.506957417
1750924462.507091999,-1.544812176,-1.786078838,-1.416375934,1.570308908,-0.804668756,-2.374711051,0.032630430,0.015729009,-0.045276887,-0.001984201,-0.111995111,-0.111997983,3.537129639,4.290618054,0.287780524,-0.004271154,-0.037143379,-0.507075358
1750924462.509052277,-1.544746572,-1.786047160,-1.416467015,1.570304917,-0.804894065,-2.374936366,0.032973111,0.015949043,-0.045803737,-0.002006466,-0.113314207,-0.113317086,3.536296931,4.290832470,0.287781902,-0.004271046,-0.037159380,-0.507194553
1750924462.511138678,-1.544680284,-1.786015041,-1.416559149,1.570300882,-0.805122013,-2.375164319,0.033314511,0.016170364,-0.046330592,-0.002028703,-0.114633878,-0.114636763,3.535454894,4.291049321,0.287783309,-0.004270937,-0.037175553,-0.507314996
1750924462.513118982,-1.544613315,-1.785982478,-1.416652337,1.570296802,-0.805352601,-2.375394913,0.033654616,0.016392986,-0.046857453,-0.002050912,-0.115954128,-0.115957018,3.534603540,4.291268607,0.287784744,-0.004270825,-0.037191895,-0.507436682
1750924462.515117407,-1.544545666,-1.785949468,-1.416746579,1.570292678,-0.805585830,-2.375628148,0.033993411,0.016616924,-0.047384318,-0.002073091,-0.117274965,-0.117277859,3.533742881,4.291490326,0.287786208,-0.004270710,-0.037208407,-0.507559606
1750924462.517125368,-1.544477342,-1.785916009,-1.416841875,1.570288510,-0.805821701,-2.375864025,0.034330879,0.016842193,-0.047911187,-0.002095240,-0.118596394,-0.118599291,3.532872929,4.291714475,0.287787701,-0.004270594,-0.037225088,-0.507683763
1750924462.519757271,-1.544408344,-1.785882099,-1.416938224,1.570284297,-0.806060216,-2.376102545,0.034667007,0.017068806,-0.048438061,-0.002117359,-0.119918421,-0.119921320,3.531993695,4.291941053,0.287789223,-0.004270474,-0.037241938,-0.507809148
1750924462.521302462,-1.544338675,-1.785847733,-1.417035627,1.570280040,-0.806301375,-2.376343711,0.035001780,0.017296779,-0.048964937,-0.002139448,-0.121241052,-0.121243952,3.531105193,4.292170057,0.287790776,-0.004270353,-0.037258955,-0.507935755
1750924462.523232937,-1.544268338,-1.785812911,-1.417134084,1.570275739,-0.806545180,-2.376587522,0.035335181,0.017526127,-0.049491817,-0.002161507,-0.122564293,-0.122567193,3.530207435,4.292401486,0.287792359,-0.004270228,-0.037276140,-0.508063579
1750924462.525154352,-1.544197335,-1.785777628,-1.417233594,1.570271394,-0.806791633,-2.376833980,0.035667196,0.017756864,-0.050018700,-0.002183534,-0.123888150,-0.123891050,3.529300433,4.292635337,0.287793973,-0.004270102,-0.037293491,-0.508192614
1750924462.527064562,-1.544125670,-1.785741882,-1.417334158,1.570267005,-0.807040733,-2.377083086,0.035997811,0.017989004,-0.050545585,-0.002205530,-0.125212628,-0.125215527,3.528384200,4.292871610,0.287795618,-0.004269972,-0.037311009,-0.508322855
1750924462.529088259,-1.544053345,-1.785705671,-1.417435777,1.570262572,-0.807292484,-2.377334842,0.036327008,0.018222563,-0.051072472,-0.002227494,-0.126537735,-0.126540630,3.527458749,4.293110300,0.287797295,-0.004269840,-0.037328692,-0.508454296
1750924462.531042576,-1.543980363,-1.785668991,-1.417538448,1.570258095,-0.807546885,-2.377589249,0.036654775,0.018457555,-0.051599360,-0.002249426,-0.127863475,-0.127866367,3.526524093,4.293351408,0.287799004,-0.004269705,-0.037346540,-0.508586932
1750924462.541925192,-1.543980363,-1.785668991,-1.417538448,1.570258095,-0.807546885,-2.377589249,0.036654775,0.018457555,-0.051599360,-0.002249426,-0.127863475,-0.127866367,3.526524093,4.293351408,0.287799004,-0.004269705,-0.037346540,-0.508586932
1750924462.541994333,-1.543832439,-1.785594214,-1.417746953,1.570249010,-0.808063644,-2.378106021,0.037305952,0.018931897,-0.052653137,-0.002293191,-0.130516879,-0.130519760,3.524627221,4.293840863,0.287802519,-0.004269427,-0.037382728,-0.508855763
1750924462.542012930,-1.543832439,-1.785594214,-1.417746953,1.570249010,-0.808063644,-2.378106021,0.037305952,0.018931897,-0.052653137,-0.002293191,-0.130516879,-0.130519760,3.524627221,4.293840863,0.287802519,-0.004269427,-0.037382728,-0.508855763
1750924462.542030573,-1.543757504,-1.785556111,-1.417852787,1.570244402,-0.808326006,-2.378368388,0.037629333,0.019171276,-0.053180026,-0.002315024,-0.131844555,-0.131847429,3.523665031,4.294089207,0.287804327,-0.004269284,-0.037401066,-0.508991947
1750924462.542048454,-1.543681923,-1.785517528,-1.417959673,1.570239750,-0.808591023,-2.378633411,0.037951222,0.019412147,-0.053706914,-0.002336824,-0.133172888,-0.133175753,3.522693690,4.294339960,0.287806168,-0.004269138,-0.037419567,-0.509129302
1750924462.543161154,-1.543605700,-1.785478461,-1.418067614,1.570235055,-0.808858698,-2.378901091,0.038271603,0.019654524,-0.054233800,-0.002358589,-0.134501883,-0.134504739,3.521713212,4.294593117,0.287808044,-0.004268989,-0.037438230,-0.509267822
1750924462.545120239,-1.543528838,-1.785438909,-1.418176609,1.570230316,-0.809129031,-2.379171430,0.038590461,0.019898423,-0.054760685,-0.002380320,-0.135831546,-0.135834392,3.520723611,4.294848679,0.287809954,-0.004268837,-0.037457053,-0.509407500
1750924462.547122002,-1.543451339,-1.785398867,-1.418286657,1.570225533,-0.809402024,-2.379444429,0.038907782,0.020143856,-0.055287567,-0.002402016,-0.137161883,-0.137164718,3.519724901,4.295106641,0.287811900,-0.004268681,-0.037476037,-0.509548330
1750924462.549537420,-1.543373207,-1.785358332,-1.418397759,1.570220708,-0.809677679,-2.379720089,0.039223549,0.020390840,-0.055814445,-0.002423677,-0.138492900,-0.138495722,3.518717097,4.295367003,0.287813881,-0.004268523,-0.037495181,-0.509690307
1750924462.551055670,-1.543294446,-1.785317302,-1.418509915,1.570215839,-0.809955996,-2.379998412,0.039537748,0.020639389,-0.056341320,-0.002445303,-0.139824601,-0.139827410,3.517700213,4.295629762,0.287815898,-0.004268362,-0.037514483,-0.509833423
1750924462.553051710,-1.543215057,-1.785275774,-1.418623124,1.570210926,-0.810236978,-2.380279400,0.039850363,0.020889517,-0.056868191,-0.002466892,-0.141156994,-0.141159788,3.516674264,4.295894915,0.287817951,-0.004268198,-0.037533943,-0.509977672
1750924462.554982662,-1.543135045,-1.785233743,-1.418737387,1.570205971,-0.810520625,-2.380563052,0.040161379,0.021141240,-0.057395056,-0.002488445,-0.142490083,-0.142492861,3.515639264,4.296162460,0.287820041,-0.004268030,-0.037553561,-0.510123048
1750924462.557664871,-1.543135045,-1.785233743,-1.418737387,1.570205971,-0.810520625,-2.380563052,0.040161379,0.021141240,-0.057395056,-0.002488445,-0.142490083,-0.142492861,3.515639264,4.296162460,0.287820041,-0.004268030,-0.037553561,-0.510123048
1750924462.559142351,-1.542973163,-1.785148164,-1.418969075,1.570195931,-0.811095921,-2.381138359,0.040778553,0.021649525,-0.058448769,-0.002531441,-0.145158373,-0.145161116,3.513542175,4.296704717,0.287824334,-0.004267685,-0.037593266,-0.510417153
1750924462.561228275,-1.542891300,-1.785104608,-1.419086499,1.570190847,-0.811387573,-2.381430016,0.041084680,0.021906117,-0.058975615,-0.002552883,-0.146493584,-0.146496308,3.512480115,4.296979425,0.287826537,-0.004267507,-0.037613352,-0.510565869
1750924462.563066483,-1.542808826,-1.785060538,-1.419204978,1.570185720,-0.811681896,-2.381724345,0.041389147,0.022164362,-0.059502453,-0.002574287,-0.147829514,-0.147832217,3.511409066,4.297256514,0.287828779,-0.004267326,-0.037633593,-0.510715684
1750924462.565098286,-1.542725744,-1.785015950,-1.419324509,1.570180550,-0.811978891,-2.382021346,0.041691938,0.022424273,-0.060029283,-0.002595652,-0.149166168,-0.149168849,3.510329043,4.297535984,0.287831061,-0.004267142,-0.037653987,-0.510866592
1750924462.567158937,-1.542642059,-1.784970840,-1.419445095,1.570175337,-0.812278561,-2.382321021,0.041993038,0.022685867,-0.060556103,-0.002616979,-0.150503551,-0.150506210,3.509240063,4.297817832,0.287833382,-0.004266954,-0.037674534,-0.511018586
1750924462.569109201,-1.542557773,-1.784925205,-1.419566734,1.570170082,-0.812580906,-2.382623371,0.042292432,0.022949156,-0.061082914,-0.002638267,-0.151841670,-0.151844304,3.508142141,4.298102055,0.287835743,-0.004266762,-0.037695234,-0.511171658
1750924462.571139812,-1.542472891,-1.784879042,-1.419689426,1.570164784,-0.812885928,-2.382928398,0.042590104,0.023214156,-0.061609713,-0.002659516,-0.153180528,-0.153183137,3.507035293,4.298388650,0.287838144,-0.004266567,-0.037716085,-0.511325801
1750924462.573157549,-1.542387414,-1.784832348,-1.419813173,1.570159444,-0.813193629,-2.383236104,0.042886039,0.023480882,-0.062136500,-0.002680725,-0.154520132,-0.154522714,3.505919536,4.298677616,0.287840587,-0.004266368,-0.037737086,-0.511481009
1750924462.575117588,-1.542301348,-1.784785118,-1.419937972,1.570154061,-0.813504009,-2.383546490,0.043180221,0.023749348,-0.062663276,-0.002701893,-0.155860487,-0.155863041,3.504794887,4.298968949,0.287843071,-0.004266165,-0.037758238,-0.511637273
1750924462.577082157,-1.542214694,-1.784737349,-1.420063826,1.570148636,-0.813817071,-2.383859557,0.043472635,0.024019568,-0.063190037,-0.002723021,-0.157201597,-0.157204122,3.503661362,4.299262647,0.287845597,-0.004265959,-0.037779538,-0.511794587
1750924462.579072714,-1.542127458,-1.784689038,-1.420190732,1.570143169,-0.814132816,-2.384175307,0.043763266,0.024291557,-0.063716785,-0.002744108,-0.158543470,-0.158545964,3.502518977,4.299558707,0.287848165,-0.004265749,-0.037800987,-0.511952942
1750924462.581056356,-1.542039643,-1.784640182,-1.420318693,1.570137660,-0.814451245,-2.384493741,0.044052098,0.024565330,-0.064243518,-0.002765153,-0.159886109,-0.159888571,3.501367751,4.299857127,0.287850776,-0.004265535,-0.037822583,-0.512112331
1750924462.583060741,-1.541951251,-1.784590776,-1.420447707,1.570132109,-0.814772361,-2.384814862,0.044339115,0.024840901,-0.064770234,-0.002786157,-0.161229519,-0.161231949,3.500207699,4.300157904,0.287853431,-0.004265317,-0.037844325,-0.512272747
1750924462.585054636,-1.541862287,-1.784540817,-1.420577774,1.570126515,-0.815096164,-2.385138669,0.044624302,0.025118285,-0.065296934,-0.002807118,-0.162573707,-0.162576102,3.499038841,4.300461035,0.287856130,-0.004265095,-0.037866214,-0.512434182
1750924462.587159395,-1.541772755,-1.784490301,-1.420708894,1.570120880,-0.815422656,-2.385465166,0.044907645,0.025397496,-0.065823616,-0.002828037,-0.163918677,-0.163921036,3.497861192,4.300766518,0.287858872,-0.004264869,-0.037888247,-0.512596627
1750924462.593939543,-1.541772755,-1.784490301,-1.420708894,1.570120880,-0.815422656,-2.385465166,0.044907645,0.025397496,-0.065823616,-0.002828037,-0.163918677,-0.163921036,3.497861192,4.300766518,0.287858872,-0.004264869,-0.037888247,-0.512596627
1750924462.597800970,-1.541500784,-1.784335378,-1.421108576,1.570103724,-0.816418284,-2.386460808,0.045746443,0.026246238,-0.067403547,-0.002890532,-0.167958330,-0.167960575,3.494275686,4.301697048,0.287867372,-0.004264166,-0.037955207,-0.513089948
1750924462.597882509,-1.541409015,-1.784282600,-1.421243910,1.570097923,-0.816755548,-2.386798077,0.046022249,0.026532903,-0.067930148,-0.002911276,-0.169306479,-0.169308683,3.493063058,4.302011909,0.287870297,-0.004263923,-0.037977811,-0.513256356
1750924462.599135637,-1.541316697,-1.784229246,-1.421380296,1.570092079,-0.817095510,-2.387138043,0.046296131,0.026821469,-0.068456727,-0.002931975,-0.170655436,-0.170657597,3.491841730,4.302329108,0.287873269,-0.004263676,-0.038000555,-0.513423735
1750924462.601148605,-1.541223832,-1.784175312,-1.421517736,1.570086195,-0.817438171,-2.387480708,0.046568075,0.027111948,-0.068983283,-0.002952629,-0.172005205,-0.172007322,3.490611722,4.302648642,0.287876288,-0.004263424,-0.038023439,-0.513592075
1750924462.602973461,-1.541130426,-1.784120796,-1.421656230,1.570080269,-0.817783532,-2.387826073,0.046838064,0.027404357,-0.069509814,-0.002973238,-0.173355791,-0.173357863,3.489373052,4.302970508,0.287879354,-0.004263168,-0.038046461,-0.513761369
1750924462.604966402,-1.541036481,-1.784065694,-1.421795776,1.570074302,-0.818131594,-2.388174140,0.047106084,0.027698709,-0.070036319,-0.002993800,-0.174707199,-0.174709225,3.488125739,4.303294703,0.287882469,-0.004262908,-0.038069621,-0.513931607
1750924462.607208014,-1.540942003,-1.784010000,-1.421936375,1.570068294,-0.818482361,-2.388524910,0.047372118,0.027995019,-0.070562798,-0.003014317,-0.176059435,-0.176061412,3.486869803,4.303621223,0.287885633,-0.004262643,-0.038092918,-0.514102781
1750924462.609046698,-1.540846994,-1.783953712,-1.422078027,1.570062244,-0.818835833,-2.388878386,0.047636152,0.028293301,-0.071089249,-0.003034786,-0.177412502,-0.177414430,3.485605263,4.303950067,0.287888846,-0.004262373,-0.038116351,-0.514274883
1750924462.612099409,-1.540846994,-1.783953712,-1.422078027,1.570062244,-0.818835833,-2.388878386,0.047636152,0.028293301,-0.071089249,-0.003034786,-0.177412502,-0.177414430,3.485605263,4.303950067,0.287888846,-0.004262373,-0.038116351,-0.514274883
1750924462.612944841,-1.540751459,-1.783896826,-1.422220732,1.570056154,-0.819192011,-2.389234569,0.047898169,0.028593571,-0.071615671,-0.003055208,-0.178766405,-0.178768282,3.484332138,4.304281231,0.287892108,-0.004262099,-0.038139918,-0.514447903
1750924462.614912271,-1.540655403,-1.783839337,-1.422364489,1.570050024,-0.819550899,-2.389593460,0.048158153,0.028895841,-0.072142063,-0.003075583,-0.180121151,-0.180122975,3.483050448,4.304614713,0.287895421,-0.004261820,-0.038163619,-0.514621833
1750924462.616916180,-1.540558828,-1.783781241,-1.422509300,1.570043852,-0.819912497,-2.389955061,0.048416089,0.029200128,-0.072668423,-0.003095909,-0.181476742,-0.181478513,3.481760213,4.304950508,0.287898784,-0.004261536,-0.038187454,-0.514796663
1750924462.618931532,-1.540461740,-1.783722535,-1.422655163,1.570037640,-0.820276806,-2.390319374,0.048671962,0.029506445,-0.073194752,-0.003116187,-0.182833184,-0.182834899,3.480461454,4.305288614,0.287902199,-0.004261247,-0.038211420,-0.514972384
1750924462.621114016,-1.540364142,-1.783663214,-1.422802079,1.570031387,-0.820643830,-2.390686401,0.048925756,0.029814806,-0.073721047,-0.003136416,-0.184190481,-0.184192140,3.479154190,4.305629028,0.287905665,-0.004260954,-0.038235516,-0.515148988
1750924462.623049021,-1.540266038,-1.783603274,-1.422950047,1.570025094,-0.821013569,-2.391056143,0.049177454,0.030125227,-0.074247307,-0.003156595,-0.185548638,-0.185550239,3.477838442,4.305971747,0.287909184,-0.004260655,-0.038259743,-0.515326465
1750924462.625035286,-1.540167433,-1.783542712,-1.423099068,1.570018761,-0.821386025,-2.391428603,0.049427042,0.030437722,-0.074773532,-0.003176725,-0.186907660,-0.186909201,3.476514231,4.306316768,0.287912755,-0.004260351,-0.038284099,-0.515504805
1750924462.626913786,-1.540068331,-1.783481522,-1.423249141,1.570012388,-0.821761200,-2.391803781,0.049674503,0.030752304,-0.075299719,-0.003196805,-0.188267551,-0.188269031,3.475181578,4.306664087,0.287916379,-0.004260043,-0.038308582,-0.515683999
1750924462.628986835,-1.539968737,-1.783419701,-1.423400267,1.570005974,-0.822139096,-2.392181679,0.049919822,0.031068990,-0.075825868,-0.003216833,-0.189628316,-0.189629733,3.473840504,4.307013702,0.287920057,-0.004259729,-0.038333192,-0.515864038
1750924462.630901337,-1.539868654,-1.783357245,-1.423552445,1.569999520,-0.822519714,-2.392562300,0.050162983,0.031387792,-0.076351977,-0.003236811,-0.190989959,-0.190991311,3.472491030,4.307365609,0.287923789,-0.004259409,-0.038357928,-0.516044911
1750924462.633065462,-1.539768086,-1.783294148,-1.423705675,1.569993027,-0.822903056,-2.392945645,0.050403971,0.031708726,-0.076878046,-0.003256737,-0.192352484,-0.192353770,3.471133177,4.307719804,0.287927576,-0.004259085,-0.038382788,-0.516226609
1750924462.635050297,-1.539667039,-1.783230408,-1.423859957,1.569986493,-0.823289124,-2.393331716,0.050642769,0.032031805,-0.077404072,-0.003276612,-0.193715896,-0.193717115,3.469766968,4.308076286,0.287931417,-0.004258755,-0.038407772,-0.516409122
1750924462.636931419,-1.539565517,-1.783166020,-1.424015291,1.569979920,-0.823677920,-2.393720514,0.050879361,0.032357045,-0.077930056,-0.003296433,-0.195080199,-0.195081349,3.468392424,4.308435050,0.287935315,-0.004258420,-0.038432878,-0.516592440
1750924462.639304638,-1.539463523,-1.783100979,-1.424171677,1.569973308,-0.824069446,-2.394112042,0.051113733,0.032684460,-0.078455994,-0.003316202,-0.196445398,-0.196446478,3.467009568,4.308796093,0.287939269,-0.004258079,-0.038458106,-0.516776553
1750924462.647968769,-1.539463523,-1.783100979,-1.424171677,1.569973308,-0.824069446,-2.394112042,0.051113733,0.032684460,-0.078455994,-0.003316202,-0.196445398,-0.196446478,3.467009568,4.308796093,0.287939269,-0.004258079,-0.038458106,-0.516776553
1750924462.649522543,-1.539154762,-1.782901896,-1.424647146,1.569953233,-0.825260417,-2.395303019,0.051803363,0.033679896,-0.080033526,-0.003375187,-0.200546411,-0.200547269,3.462811346,4.309892862,0.287951471,-0.004257022,-0.038534507,-0.517333559
1750924462.651170015,-1.539050929,-1.782834200,-1.424807739,1.569946463,-0.825662879,-2.395705482,0.052028692,0.034016154,-0.080559272,-0.003394740,-0.201915234,-0.201916015,3.461395463,4.310262988,0.287955654,-0.004256659,-0.038560209,-0.517520749
1750924462.653100967,-1.538946648,-1.782765829,-1.424969383,1.569939654,-0.826068079,-2.396110684,0.052251720,0.034354658,-0.081084966,-0.003414237,-0.203284974,-0.203285677,3.459971381,4.310635376,0.287959896,-0.004256289,-0.038586027,-0.517708682
1750924462.655150652,-1.538841924,-1.782696780,-1.425132079,1.569932806,-0.826476019,-2.396518626,0.052472433,0.034695423,-0.081610607,-0.003433679,-0.204655634,-0.204656257,3.458539124,4.311010023,0.287964197,-0.004255914,-0.038611959,-0.517897348
1750924462.657058239,-1.538736760,-1.782627046,-1.425295825,1.569925920,-0.826886702,-2.396929309,0.052690813,0.035038464,-0.082136193,-0.003453065,-0.206027219,-0.206027760,3.457098713,4.311386925,0.287968557,-0.004255533,-0.038638005,-0.518086734
1750924462.659077168,-1.538631162,-1.782556624,-1.425460623,1.569918994,-0.827300129,-2.397342737,0.052906846,0.035383795,-0.082661723,-0.003472395,-0.207399733,-0.207400190,3.455650175,4.311766079,0.287972978,-0.004255146,-0.038664163,-0.518276832
1750924462.660961390,-1.538525134,-1.782485510,-1.425626472,1.569912030,-0.827716301,-2.397758911,0.053120515,0.035731430,-0.083187196,-0.003491667,-0.208773179,-0.208773551,3.454193531,4.312147481,0.287977459,-0.004254752,-0.038690432,-0.518467629
1750924462.664019346,-1.538525134,-1.782485510,-1.425626472,1.569912030,-0.827716301,-2.397758911,0.053120515,0.035731430,-0.083187196,-0.003491667,-0.208773179,-0.208773551,3.454193531,4.312147481,0.287977459,-0.004254752,-0.038690432,-0.518467629
1750924462.664950132,-1.538311809,-1.782341182,-1.425961323,1.569897987,-0.828556892,-2.398599503,0.053540696,0.036433669,-0.084237964,-0.003530039,-0.211522884,-0.211523080,3.451256026,4.312917015,0.287986604,-0.004253947,-0.038743299,-0.518851277
1750924462.666962385,-1.538204521,-1.782267961,-1.426130324,1.569890907,-0.828981314,-2.399023925,0.053747178,0.036788303,-0.084763255,-0.003549138,-0.212899151,-0.212899257,3.449775213,4.313305140,0.287991270,-0.004253534,-0.038769894,-0.519044106
1750924462.668925524,-1.538096822,-1.782194028,-1.426300376,1.569883790,-0.829408490,-2.399451101,0.053951232,0.037145298,-0.085288483,-0.003568178,-0.214276366,-0.214276379,3.448286394,4.313695499,0.287995998,-0.004253116,-0.038796594,-0.519237590
1750924462.671119213,-1.537988717,-1.782119378,-1.426471478,1.569876635,-0.829838420,-2.399881031,0.054152842,0.037504669,-0.085813646,-0.003587159,-0.215654532,-0.215654452,3.446789592,4.314088089,0.288000790,-0.004252691,-0.038823400,-0.519431716
1750924462.673177719,-1.537880212,-1.782044007,-1.426643630,1.569869442,-0.830271108,-2.400313719,0.054351992,0.037866430,-0.086338742,-0.003606080,-0.217033654,-0.217033478,3.445284834,4.314482904,0.288005644,-0.004252259,-0.038850310,-0.519626474
1750924462.675116777,-1.537880212,-1.782044007,-1.426643630,1.569869442,-0.830271108,-2.400313719,0.054351992,0.037866430,-0.086338742,-0.003606080,-0.217033654,-0.217033478,3.445284834,4.314482904,0.288005644,-0.004252259,-0.038850310,-0.519626474
1750924462.676949501,-1.537771311,-1.781967911,-1.426816833,1.569862210,-0.830706556,-2.400749166,0.054548667,0.038230595,-0.086863769,-0.003624940,-0.218413734,-0.218413461,3.443772144,4.314879943,0.288010563,-0.004251821,-0.038877322,-0.519821852
1750924462.679031610,-1.537662019,-1.781891083,-1.426991085,1.569854942,-0.831144764,-2.401187373,0.054742850,0.038597180,-0.087388727,-0.003643740,-0.219794777,-0.219794405,3.442251549,4.315279201,0.288015546,-0.004251376,-0.038904434,-0.520017837
1750924462.681011915,-1.537552341,-1.781813520,-1.427166388,1.569847636,-0.831585735,-2.401628344,0.054934526,0.038966198,-0.087913614,-0.003662478,-0.221176786,-0.221176313,3.440723073,4.315680674,0.288020594,-0.004250924,-0.038931647,-0.520214418
1750924462.682952404,-1.537442283,-1.781735217,-1.427342740,1.569840292,-0.832029472,-2.402072079,0.055123678,0.039337663,-0.088438427,-0.003681155,-0.222559764,-0.222559188,3.439186744,4.316084359,0.288025708,-0.004250466,-0.038958958,-0.520411583
1750924462.684966803,-1.537331848,-1.781656168,-1.427520141,1.569832911,-0.832475975,-2.402518581,0.055310290,0.039711590,-0.088963165,-0.003699770,-0.223943715,-0.223943035,3.437642587,4.316490251,0.288030887,-0.004250000,-0.038986366,-0.520609320
1750924462.687055349,-1.537221043,-1.781576369,-1.427698592,1.569825493,-0.832925247,-2.402967852,0.055494346,0.040087993,-0.089487827,-0.003718322,-0.225328643,-0.225327857,3.436090629,4.316898347,0.288036133,-0.004249528,-0.039013870,-0.520807616
1750924462.689097643,-1.537109873,-1.781495814,-1.427878093,1.569818038,-0.833377290,-2.403419893,0.055675831,0.040466886,-0.090012410,-0.003736811,-0.226714550,-0.226713656,3.434530897,4.317308644,0.288041446,-0.004249048,-0.039041468,-0.521006459
1750924462.691125393,-1.536998342,-1.781414500,-1.428058642,1.569810546,-0.833832106,-2.403874707,0.055854727,0.040848284,-0.090536914,-0.003755236,-0.228101440,-0.228100436,3.432963418,4.317721136,0.288046825,-0.004248562,-0.039069160,-0.521205836
1750924462.700193882,-1.536886455,-1.781332420,-1.428240240,1.569803017,-0.834289697,-2.404332296,0.056031020,0.041232201,-0.091061336,-0.003773597,-0.229489317,-0.229488201,3.431388218,4.318135821,0.288052273,-0.004248068,-0.039096943,-0.521405735
1750924462.700339317,-1.536661638,-1.781165943,-1.428606583,1.569787849,-0.835213210,-2.405255804,0.056375728,0.042007648,-0.092109928,-0.003810125,-0.232268041,-0.232266697,3.428214768,4.318971752,0.288063374,-0.004247058,-0.039152779,-0.521807047
1750924462.700356960,-1.536661638,-1.781165943,-1.428606583,1.569787849,-0.835213210,-2.405255804,0.056375728,0.042007648,-0.092109928,-0.003810125,-0.232268041,-0.232266697,3.428214768,4.318971752,0.288063374,-0.004247058,-0.039152779,-0.521807047
1750924462.700373173,-1.536548718,-1.781081537,-1.428791327,1.569780211,-0.835679137,-2.405721728,0.056544112,0.042399207,-0.092634094,-0.003828291,-0.233658896,-0.233657434,3.426616573,4.319392990,0.288069027,-0.004246543,-0.039180828,-0.522008434
1750924462.701164961,-1.536548718,-1.781081537,-1.428791327,1.569780211,-0.835679137,-2.405721728,0.056544112,0.042399207,-0.092634094,-0.003828291,-0.233658896,-0.233657434,3.426616573,4.319392990,0.288069027,-0.004246543,-0.039180828,-0.522008434
1750924462.703367472,-1.536548718,-1.781081537,-1.428791327,1.569780211,-0.835679137,-2.405721728,0.056544112,0.042399207,-0.092634094,-0.003828291,-0.233658896,-0.233657434,3.426616573,4.319392990,0.288069027,-0.004246543,-0.039180828,-0.522008434
1750924462.705110550,-1.536207974,-1.780823583,-1.429351848,1.569757079,-0.837093621,-2.407136203,0.057033187,0.043589395,-0.094206054,-0.003882389,-0.237837463,-0.237835639,3.421776448,4.320669746,0.288086408,-0.004244949,-0.039265489,-0.522615363
1750924462.706998110,-1.536093750,-1.780736003,-1.429540784,1.569749296,-0.837570691,-2.407613269,0.057190800,0.043991343,-0.094729854,-0.003900287,-0.239232331,-0.239230381,3.420147988,4.321099665,0.288092343,-0.004244403,-0.039293874,-0.522818551
1750924462.709038496,-1.535979213,-1.780647616,-1.429730767,1.569741477,-0.838050551,-2.408093125,0.057345680,0.044395923,-0.095253559,-0.003918117,-0.240628208,-0.240626132,3.418512033,4.321531744,0.288098349,-0.004243849,-0.039322340,-0.523022156
1750924462.711046934,-1.535864369,-1.780558417,-1.429921798,1.569733623,-0.838533205,-2.408575774,0.057497810,0.044803151,-0.095777165,-0.003935879,-0.242025100,-0.242022895,3.416868613,4.321965980,0.288104427,-0.004243287,-0.039350884,-0.523226163
1750924462.713139772,-1.535749223,-1.780468401,-1.430113876,1.569725734,-0.839018652,-2.409061217,0.057647175,0.045213039,-0.096300672,-0.003953571,-0.243423007,-0.243420671,3.415217757,4.322402367,0.288110578,-0.004242716,-0.039379506,-0.523430560
1750924462.716353178,-1.535633782,-1.780377563,-1.430307000,1.569717809,-0.839506897,-2.409549457,0.057793758,0.045625603,-0.096824077,-0.003971194,-0.244821932,-0.244819465,3.413559496,4.322840901,0.288116801,-0.004242138,-0.039408204,-0.523635331
1750924462.717243910,-1.535633782,-1.780377563,-1.430307000,1.569717809,-0.839506897,-2.409549457,0.057793758,0.045625603,-0.096824077,-0.003971194,-0.244821932,-0.244819465,3.413559496,4.322840901,0.288116801,-0.004242138,-0.039408204,-0.523635331
1750924462.719145060,-1.535518050,-1.780285897,-1.430501172,1.569709849,-0.839997941,-2.410040496,0.057937543,0.046040856,-0.097347378,-0.003988746,-0.246221880,-0.246219277,3.411893859,4.323281580,0.288123097,-0.004241552,-0.039436976,-0.523840464
1750924462.721207857,-1.535402034,-1.780193398,-1.430696390,1.569701854,-0.840491785,-2.410534335,0.058078514,0.046458814,-0.097870574,-0.004006228,-0.247622851,-0.247620112,3.410220876,4.323724397,0.288129467,-0.004240957,-0.039465820,-0.524045944
1750924462.723134518,-1.535285738,-1.780100060,-1.430892654,1.569693824,-0.840988433,-2.411030977,0.058216654,0.046879489,-0.098393662,-0.004023638,-0.249024848,-0.249021971,3.408540578,4.324169349,0.288135911,-0.004240354,-0.039494736,-0.524251756
1750924462.725103855,-1.535169169,-1.780005878,-1.431089964,1.569685760,-0.841487886,-2.411530424,0.058351948,0.047302896,-0.098916641,-0.004040977,-0.250427875,-0.250424857,3.406852996,4.324616432,0.288142429,-0.004239743,-0.039523721,-0.524457887
1750924462.727063894,-1.535052332,-1.779910847,-1.431288321,1.569677661,-0.841990145,-2.412032677,0.058484379,0.047729049,-0.099439508,-0.004058243,-0.251831932,-0.251828772,3.405158160,4.325065641,0.288149022,-0.004239123,-0.039552775,-0.524664322
1750924462.729112864,-1.534935233,-1.779814960,-1.431487722,1.569669527,-0.842495214,-2.412537740,0.058613931,0.048157963,-0.099962262,-0.004075437,-0.253237024,-0.253233719,3.403456101,4.325516972,0.288155691,-0.004238495,-0.039581894,-0.524871046
1750924462.731106520,-1.534817878,-1.779718213,-1.431688170,1.569661359,-0.843003094,-2.413045613,0.058740587,0.048589651,-0.100484900,-0.004092558,-0.254643152,-0.254639700,3.401746852,4.325970421,0.288162435,-0.004237858,-0.039611079,-0.525078044
1750924462.733101606,-1.534700273,-1.779620600,-1.431889662,1.569653157,-0.843513787,-2.413556299,0.058864331,0.049024127,-0.101007421,-0.004109604,-0.256050317,-0.256046718,3.400030444,4.326425983,0.288169255,-0.004237212,-0.039640327,-0.525285302
1750924462.735047579,-1.534582423,-1.779522115,-1.432092199,1.569644920,-0.844027296,-2.414069800,0.058985148,0.049461407,-0.101529823,-0.004126576,-0.257458524,-0.257454773,3.398306909,4.326883654,0.288176151,-0.004236558,-0.039669636,-0.525492805
1750924462.737184048,-1.534464334,-1.779422752,-1.432295781,1.569636650,-0.844543622,-2.414586119,0.059103020,0.049901503,-0.102052103,-0.004143473,-0.258867772,-0.258863869,3.396576278,4.327343430,0.288183125,-0.004235894,-0.039699006,-0.525700536
1750924462.739120483,-1.534346013,-1.779322507,-1.432500407,1.569628347,-0.845062768,-2.415105257,0.059217931,0.050344431,-0.102574259,-0.004160295,-0.260278066,-0.260274008,3.394838586,4.327805305,0.288190175,-0.004235222,-0.039728434,-0.525908482
1750924462.741069078,-1.534227464,-1.779221372,-1.432706078,1.569620009,-0.845584735,-2.415627216,0.059329866,0.050790203,-0.103096290,-0.004177041,-0.261689406,-0.261685191,3.393093863,4.328269276,0.288197304,-0.004234540,-0.039757918,-0.526116627
1750924462.743390560,-1.534108695,-1.779119344,-1.432912793,1.569611639,-0.846109526,-2.416151998,0.059438807,0.051238835,-0.103618193,-0.004193710,-0.263101794,-0.263097421,3.391342144,4.328735337,0.288204510,-0.004233850,-0.039787457,-0.526324955
1750924462.748036146,-1.533989711,-1.779016415,-1.433120551,1.569603234,-0.846637143,-2.416679606,0.059544739,0.051690340,-0.104139966,-0.004210303,-0.264515234,-0.264510699,3.389583461,4.329203486,0.288211795,-0.004233150,-0.039817049,-0.526533451
1750924462.748083830,-1.533989711,-1.779016415,-1.433120551,1.569603234,-0.846637143,-2.416679606,0.059544739,0.051690340,-0.104139966,-0.004210303,-0.264515234,-0.264510699,3.389583461,4.329203486,0.288211795,-0.004233150,-0.039817049,-0.526533451
1750924462.749283075,-1.533989711,-1.779016415,-1.433120551,1.569603234,-0.846637143,-2.416679606,0.059544739,0.051690340,-0.104139966,-0.004210303,-0.264515234,-0.264510699,3.389583461,4.329203486,0.288211795,-0.004233150,-0.039817049,-0.526533451
1750924462.751909733,-1.533751123,-1.778807834,-1.433539197,1.569586327,-0.847700862,-2.417743307,0.059747508,0.052602026,-0.105183114,-0.004243254,-0.267345271,-0.267340408,3.386045339,4.330146023,0.288226601,-0.004231722,-0.039876387,-0.526950881
1750924462.753503323,-1.533751123,-1.778807834,-1.433539197,1.569586327,-0.847700862,-2.417743307,0.059747508,0.052602026,-0.105183114,-0.004243254,-0.267345271,-0.267340408,3.386045339,4.330146023,0.288226601,-0.004231722,-0.039876387,-0.526950881
1750924462.755091906,-1.533631530,-1.778702171,-1.433750085,1.569577824,-0.848236969,-2.418279404,0.059844313,0.053062236,-0.105704485,-0.004259611,-0.268761872,-0.268756842,3.384265967,4.330620403,0.288234123,-0.004230994,-0.039906129,-0.527159785
1750924462.757036448,-1.533511748,-1.778595583,-1.433962015,1.569569289,-0.848775911,-2.418818335,0.059938043,0.053525375,-0.106225718,-0.004275890,-0.270179531,-0.270174331,3.382479767,4.331096851,0.288241725,-0.004230257,-0.039935917,-0.527368792
1750924462.759043694,-1.533391780,-1.778488067,-1.434174987,1.569560721,-0.849317688,-2.419360102,0.060028681,0.053991457,-0.106746810,-0.004292088,-0.271598248,-0.271592878,3.380686774,4.331575362,0.288249407,-0.004229509,-0.039965750,-0.527577886
1750924462.761107922,-1.533271635,-1.778379616,-1.434389002,1.569552121,-0.849862304,-2.419904707,0.060116212,0.054460497,-0.107267759,-0.004308207,-0.273018027,-0.273012482,3.378887022,4.332055932,0.288257169,-0.004228752,-0.039995625,-0.527787052
1750924462.763977289,-1.533151318,-1.778270223,-1.434604058,1.569543488,-0.850409761,-2.420452153,0.060200619,0.054932510,-0.107788563,-0.004324244,-0.274438867,-0.274433146,3.377080546,4.332538556,0.288265013,-0.004227986,-0.040025542,-0.527996272
1750924462.765162468,-1.533030834,-1.778159884,-1.434820156,1.569534824,-0.850960061,-2.421002440,0.060281885,0.055407507,-0.108309221,-0.004340200,-0.275860771,-0.275854872,3.375267382,4.333023229,0.288272938,-0.004227209,-0.040055497,-0.528205529
1750924462.767193556,-1.532910192,-1.778048591,-1.435037295,1.569526127,-0.851513205,-2.421555573,0.060359995,0.055885505,-0.108829729,-0.004356074,-0.277283739,-0.277277660,3.373447566,4.333509947,0.288280944,-0.004226422,-0.040085490,-0.528414808
1750924462.769014597,-1.532789397,-1.777936340,-1.435255475,1.569517399,-0.852069196,-2.422111552,0.060434931,0.056366517,-0.109350086,-0.004371865,-0.278707773,-0.278701512,3.371621132,4.333998705,0.288289032,-0.004225625,-0.040115518,-0.528624091
1750924462.771124125,-1.532668454,-1.777823123,-1.435474695,1.569508640,-0.852628037,-2.422670379,0.060506677,0.056850556,-0.109870289,-0.004387573,-0.280132875,-0.280126428,3.369788118,4.334489497,0.288297203,-0.004224818,-0.040145580,-0.528833361
1750924462.773063183,-1.532547372,-1.777708935,-1.435694956,1.569499849,-0.853189728,-2.423232058,0.060575218,0.057337637,-0.110390336,-0.004403197,-0.281559044,-0.281552411,3.367948560,4.334982319,0.288305455,-0.004224001,-0.040175674,-0.529042601
1750924462.775077343,-1.532426156,-1.777593770,-1.435916257,1.569491027,-0.853754274,-2.423796590,0.060640536,0.057827774,-0.110910225,-0.004418737,-0.282986283,-0.282979461,3.366102494,4.335477167,0.288313791,-0.004223173,-0.040205797,-0.529251793
1750924462.777122021,-1.532304812,-1.777477622,-1.436138597,1.569482174,-0.854321674,-2.424363977,0.060702615,0.058320981,-0.111429953,-0.004434192,-0.284414593,-0.284407579,3.364249957,4.335974035,0.288322210,-0.004222335,-0.040235949,-0.529460920
1750924462.779085159,-1.532183347,-1.777360484,-1.436361976,1.569473291,-0.854891933,-2.424934221,0.060761438,0.058817271,-0.111949519,-0.004449562,-0.285843973,-0.285836766,3.362390987,4.336472919,0.288330712,-0.004221487,-0.040266126,-0.529669965
1750924462.781053782,-1.532061768,-1.777242351,-1.436586395,1.569464376,-0.855465051,-2.425507324,0.060816990,0.059316660,-0.112468920,-0.004464845,-0.287274426,-0.287267023,3.360525621,4.336973813,0.288339297,-0.004220627,-0.040296328,-0.529878909
1750924462.783064604,-1.531940082,-1.777123216,-1.436811852,1.569455431,-0.856041031,-2.426083290,0.060869254,0.059819160,-0.112988153,-0.004480042,-0.288705952,-0.288698350,3.358653897,4.337476712,0.288347967,-0.004219757,-0.040326552,-0.530087735
1750924462.785040855,-1.531818294,-1.777003072,-1.437038347,1.569446456,-0.856619875,-2.426662119,0.060918214,0.060324786,-0.113507217,-0.004495152,-0.290138551,-0.290130749,3.356775853,4.337981613,0.288356721,-0.004218876,-0.040356796,-0.530296425
1750924462.787044525,-1.531696411,-1.776881915,-1.437265881,1.569437451,-0.857201586,-2.427243813,0.060963852,0.060833551,-0.114026109,-0.004510174,-0.291572224,-0.291564220,3.354891528,4.338488508,0.288365559,-0.004217985,-0.040387058,-0.530504960
1750924462.789046764,-1.531574440,-1.776759736,-1.437494452,1.569428415,-0.857786165,-2.427828376,0.061006153,0.061345470,-0.114544827,-0.004525107,-0.293006973,-0.292998763,3.353000959,4.338997395,0.288374482,-0.004217082,-0.040417336,-0.530713322
1750924462.791050911,-1.531452389,-1.776636531,-1.437724060,1.569419350,-0.858373615,-2.428415809,0.061045100,0.061860557,-0.115063368,-0.004539952,-0.294442796,-0.294434379,3.351104187,4.339508267,0.288383490,-0.004216168,-0.040447629,-0.530921494
1750924462.800863266,-1.531452389,-1.776636531,-1.437724060,1.569419350,-0.858373615,-2.428415809,0.061045100,0.061860557,-0.115063368,-0.004539952,-0.294442796,-0.294434379,3.351104187,4.339508267,0.288383490,-0.004216168,-0.040447629,-0.530921494
1750924462.801362038,-1.531085813,-1.776260688,-1.438419105,1.569391978,-0.860153208,-2.430195350,0.061141652,0.063424961,-0.116617909,-0.004583945,-0.298756724,-0.298747670,3.345377040,4.341052745,0.288411026,-0.004213359,-0.040538573,-0.531544674
1750924462.803143024,-1.530963504,-1.776133311,-1.438652858,1.569382796,-0.860752162,-2.430794286,0.061167019,0.063952857,-0.117135721,-0.004598428,-0.300196852,-0.300187582,3.343455847,4.341571508,0.288420376,-0.004212400,-0.040568903,-0.531751894
1750924462.805062294,-1.530841147,-1.776004875,-1.438887647,1.569373585,-0.861353996,-2.431396102,0.061188950,0.064483990,-0.117653344,-0.004612819,-0.301638058,-0.301628569,3.341528649,4.342092232,0.288429812,-0.004211430,-0.040599236,-0.531958828
1750924462.807065487,-1.530718750,-1.775875373,-1.439123471,1.569364345,-0.861958715,-2.432000801,0.061207428,0.065018374,-0.118170777,-0.004627117,-0.303080340,-0.303070630,3.339595486,4.342614910,0.288439334,-0.004210447,-0.040629572,-0.532165457
1750924462.809022665,-1.530596320,-1.775744799,-1.439360330,1.569355076,-0.862566319,-2.432608385,0.061222437,0.065556023,-0.118688017,-0.004641322,-0.304523699,-0.304513765,3.337656400,4.343139537,0.288448943,-0.004209453,-0.040659907,-0.532371763
1750924462.810938358,-1.530473863,-1.775613147,-1.439598223,1.569345779,-0.863176810,-2.433218856,0.061233961,0.066096950,-0.119205062,-0.004655433,-0.305968135,-0.305957975,3.335711433,4.343666109,0.288458638,-0.004208448,-0.040690240,-0.532577724
1750924462.812997818,-1.530351386,-1.775480409,-1.439837150,1.569336454,-0.863790192,-2.433832217,0.061241982,0.066641170,-0.119721909,-0.004669450,-0.307413648,-0.307403259,3.333760625,4.344194620,0.288468421,-0.004207430,-0.040720568,-0.532783323
1750924462.815289021,-1.530228897,-1.775346580,-1.440077111,1.569327102,-0.864406465,-2.434448470,0.061246485,0.067188697,-0.120238555,-0.004683372,-0.308860237,-0.308849617,3.331804018,4.344725065,0.288478290,-0.004206400,-0.040750890,-0.532988538
1750924462.817146778,-1.530106403,-1.775211652,-1.440318104,1.569317721,-0.865025633,-2.435067617,0.061247453,0.067739544,-0.120754999,-0.004697198,-0.310307902,-0.310297048,3.329841655,4.345257438,0.288488246,-0.004205358,-0.040781203,-0.533193350
1750924462.819098949,-1.529983910,-1.775075619,-1.440560131,1.569308313,-0.865647698,-2.435689659,0.061244870,0.068293725,-0.121271239,-0.004710928,-0.311756642,-0.311745553,3.327873578,4.345791735,0.288498290,-0.004204304,-0.040811505,-0.533397739
1750924462.821121693,-1.529861426,-1.774938475,-1.440803189,1.569298877,-0.866272661,-2.436314599,0.061238720,0.068851254,-0.121787270,-0.004724561,-0.313206458,-0.313195130,3.325899830,4.346327949,0.288508421,-0.004203238,-0.040841794,-0.533601684
1750924462.823205948,-1.529738957,-1.774800212,-1.441047280,1.569289415,-0.866900524,-2.436942440,0.061228984,0.069412145,-0.122303093,-0.004738097,-0.314657349,-0.314645780,3.323920453,4.346866076,0.288518640,-0.004202159,-0.040872068,-0.533805165
1750924462.825227261,-1.529738957,-1.774800212,-1.441047280,1.569289415,-0.866900524,-2.436942440,0.061228984,0.069412145,-0.122303093,-0.004738097,-0.314657349,-0.314645780,3.323920453,4.346866076,0.288518640,-0.004202159,-0.040872068,-0.533805165
1750924462.827024698,-1.529616512,-1.774660824,-1.441292401,1.569279925,-0.867531291,-2.437573183,0.061215649,0.069976411,-0.122818703,-0.004751535,-0.316109313,-0.316097502,3.321935493,4.347406110,0.288528946,-0.004201068,-0.040902324,-0.534008162
1750924462.829089165,-1.529494097,-1.774520304,-1.441538554,1.569270409,-0.868164962,-2.438206831,0.061198696,0.070544067,-0.123334098,-0.004764874,-0.317562351,-0.317550294,3.319944991,4.347948046,0.288539340,-0.004199964,-0.040932560,-0.534210653
1750924462.831015587,-1.529371720,-1.774378646,-1.441785738,1.569260866,-0.868801541,-2.438843385,0.061178109,0.071115126,-0.123849276,-0.004778114,-0.319016462,-0.319004156,3.317948992,4.348491878,0.288549822,-0.004198847,-0.040962774,-0.534412619
1750924462.833101988,-1.529249387,-1.774235841,-1.442033951,1.569251296,-0.869441029,-2.439482848,0.061153872,0.071689603,-0.124364235,-0.004791253,-0.320471644,-0.320459088,3.315947541,4.349037600,0.288560392,-0.004197718,-0.040992963,-0.534614037
1750924462.834958792,-1.529127107,-1.774091885,-1.442283195,1.569241701,-0.870083428,-2.440125222,0.061125969,0.072267510,-0.124878972,-0.004804292,-0.321927897,-0.321915087,3.313940681,4.349585208,0.288571049,-0.004196576,-0.041023126,-0.534814888
1750924462.837028503,-1.529004886,-1.773946769,-1.442533467,1.569232079,-0.870728741,-2.440770509,0.061094383,0.072848861,-0.125393485,-0.004817230,-0.323385219,-0.323372154,3.311928459,4.350134696,0.288581795,-0.004195421,-0.041053260,-0.535015149
1750924462.839076042,-1.528882732,-1.773800487,-1.442784768,1.569222432,-0.871376970,-2.441418712,0.061059098,0.073433671,-0.125907771,-0.004830066,-0.324843611,-0.324830287,3.309910919,4.350686058,0.288592630,-0.004194252,-0.041083362,-0.535214799
1750924462.841133595,-1.528760652,-1.773653032,-1.443037098,1.569212759,-0.872028116,-2.442069831,0.061020096,0.074021954,-0.126421828,-0.004842800,-0.326303069,-0.326289485,3.307888106,4.351239289,0.288603552,-0.004193071,-0.041113431,-0.535413817
1750924462.851881742,-1.528638654,-1.773504397,-1.443290455,1.569203061,-0.872682183,-2.442723870,0.060977363,0.074613722,-0.126935654,-0.004855430,-0.327763594,-0.327749746,3.305860068,4.351794383,0.288614562,-0.004191877,-0.041143463,-0.535612180
1750924462.851944208,-1.528516745,-1.773354575,-1.443544840,1.569193337,-0.873339171,-2.443380831,0.060930881,0.075208990,-0.127449245,-0.004867957,-0.329225183,-0.329211070,3.303826849,4.352351335,0.288625661,-0.004190669,-0.041173457,-0.535809868
1750924462.851962090,-1.528516745,-1.773354575,-1.443544840,1.569193337,-0.873339171,-2.443380831,0.060930881,0.075208990,-0.127449245,-0.004867957,-0.329225183,-0.329211070,3.303826849,4.352351335,0.288625661,-0.004190669,-0.041173457,-0.535809868
1750924462.851979256,-1.528394933,-1.773203559,-1.443800252,1.569183589,-0.873999084,-2.444040715,0.060880633,0.075807771,-0.127962600,-0.004880379,-0.330687836,-0.330673454,3.301788497,4.352910139,0.288636848,-0.004189447,-0.041203411,-0.536006857
1750924462.855245590,-1.528273225,-1.773051342,-1.444056691,1.569173816,-0.874661923,-2.444703525,0.060826604,0.076410079,-0.128475716,-0.004892696,-0.332151550,-0.332136898,3.299745058,4.353470789,0.288648124,-0.004188212,-0.041233321,-0.536203127
1750924462.857094288,-1.528030152,-1.772743275,-1.444572645,1.569154196,-0.875996389,-2.446037932,0.060707137,0.077625332,-0.129501222,-0.004917012,-0.335082158,-0.335066956,3.295643109,4.354597606,0.288670940,-0.004185701,-0.041293001,-0.536593416
1750924462.859219313,-1.527908803,-1.772587412,-1.444832160,1.569144350,-0.876668021,-2.446709532,0.060641665,0.078238304,-0.130013607,-0.004929010,-0.336549047,-0.336533567,3.293584694,4.355163761,0.288682480,-0.004184425,-0.041322766,-0.536787390
1750924462.861086130,-1.527787588,-1.772430320,-1.445092699,1.569134480,-0.877342586,-2.447384067,0.060572346,0.078854859,-0.130525743,-0.004940901,-0.338016992,-0.338001230,3.291521384,4.355731740,0.288694108,-0.004183135,-0.041352479,-0.536980554
1750924462.863030195,-1.527666516,-1.772271991,-1.445354263,1.569124587,-0.878020089,-2.448061538,0.060499163,0.079475008,-0.131037628,-0.004952683,-0.339485989,-0.339469943,3.289453226,4.356301537,0.288705825,-0.004181831,-0.041382136,-0.537172885
1750924462.865051508,-1.527545594,-1.772112417,-1.445616849,1.569114670,-0.878700531,-2.448741947,0.060422101,0.080098768,-0.131549260,-0.004964356,-0.340956037,-0.340939705,3.287380269,4.356873147,0.288717629,-0.004180513,-0.041411734,-0.537364360
1750924462.868799686,-1.527545594,-1.772112417,-1.445616849,1.569114670,-0.878700531,-2.448741947,0.060422101,0.080098768,-0.131549260,-0.004964356,-0.340956037,-0.340939705,3.287380269,4.356873147,0.288717629,-0.004180513,-0.041411734,-0.537364360
1750924462.869196892,-1.527424830,-1.771951593,-1.445880459,1.569104729,-0.879383914,-2.449425297,0.060341142,0.080726150,-0.132060636,-0.004975919,-0.342427133,-0.342410512,3.285302563,4.357446562,0.288729522,-0.004179180,-0.041441273,-0.537554956
1750924462.871417999,-1.527304232,-1.771789510,-1.446145092,1.569094766,-0.880070240,-2.450111590,0.060256271,0.081357169,-0.132571754,-0.004987372,-0.343899276,-0.343882363,3.283220157,4.358021778,0.288741503,-0.004177833,-0.041470748,-0.537744649
1750924462.873227119,-1.527183808,-1.771626162,-1.446410746,1.569084780,-0.880759512,-2.450800827,0.060167470,0.081991839,-0.133082611,-0.004998714,-0.345372462,-0.345355255,3.281133100,4.358598790,0.288753571,-0.004176472,-0.041500157,-0.537933415
1750924462.875096560,-1.527063565,-1.771461541,-1.446677422,1.569074771,-0.881451731,-2.451493012,0.060074725,0.082630172,-0.133593205,-0.005009944,-0.346846691,-0.346829187,3.279041444,4.359177590,0.288765727,-0.004175097,-0.041529498,-0.538121232
1750924462.877124548,-1.526943512,-1.771295639,-1.446945119,1.569064740,-0.882146899,-2.452188145,0.059978017,0.083272183,-0.134103533,-0.005021062,-0.348321958,-0.348304154,3.276945238,4.359758173,0.288777971,-0.004173706,-0.041558768,-0.538308075
1750924462.879079819,-1.526823656,-1.771128449,-1.447213836,1.569054687,-0.882845019,-2.452886229,0.059877332,0.083917886,-0.134613594,-0.005032067,-0.349798262,-0.349780156,3.274844534,4.360340534,0.288790302,-0.004172301,-0.041587965,-0.538493921
1750924462.881092787,-1.526704005,-1.770959965,-1.447483573,1.569044612,-0.883546093,-2.453587266,0.059772652,0.084567294,-0.135123384,-0.005042958,-0.351275599,-0.351257188,3.272739382,4.360924666,0.288802720,-0.004170881,-0.041617085,-0.538678744
1750924462.883141994,-1.526704005,-1.770959965,-1.447483573,1.569044612,-0.883546093,-2.453587266,0.059772652,0.084567294,-0.135123384,-0.005042958,-0.351275599,-0.351257188,3.272739382,4.360924666,0.288802720,-0.004170881,-0.041617085,-0.538678744
1750924462.885121822,-1.526584568,-1.770790178,-1.447754329,1.569034515,-0.884250122,-2.454291258,0.059663962,0.085220420,-0.135632902,-0.005053735,-0.352753968,-0.352735249,3.270629834,4.361510563,0.288815226,-0.004169447,-0.041646127,-0.538862522
1750924462.887199640,-1.526465352,-1.770619081,-1.448026104,1.569024397,-0.884957110,-2.454998208,0.059551244,0.085877279,-0.136142144,-0.005064396,-0.354233364,-0.354214335,3.268515942,4.362098220,0.288827818,-0.004167997,-0.041675087,-0.539045230
1750924462.889158487,-1.526346365,-1.770446666,-1.448298898,1.569014258,-0.885667057,-2.455708116,0.059434484,0.086537883,-0.136651109,-0.005074942,-0.355713785,-0.355694443,3.266397758,4.362687631,0.288840498,-0.004166532,-0.041703964,-0.539226843
1750924462.891203880,-1.526227617,-1.770272927,-1.448572709,1.569004098,-0.886379965,-2.456420986,0.059313664,0.087202247,-0.137159794,-0.005085372,-0.357195229,-0.357175571,3.264275334,4.363278789,0.288853264,-0.004165052,-0.041732753,-0.539407336
1750924462.893021107,-1.526109113,-1.770097855,-1.448847537,1.568993916,-0.887095838,-2.457136819,0.059188768,0.087870384,-0.137668197,-0.005095685,-0.358677691,-0.358657715,3.262148724,4.363871690,0.288866116,-0.004163556,-0.041761453,-0.539586685
1750924462.895049810,-1.525990864,-1.769921443,-1.449123381,1.568983715,-0.887814677,-2.457855618,0.059059780,0.088542308,-0.138176316,-0.005105879,-0.360161169,-0.360140871,3.260017981,4.364466326,0.288879054,-0.004162046,-0.041790061,-0.539764865
1750924462.896993399,-1.525872877,-1.769743683,-1.449400242,1.568973493,-0.888536483,-2.458577383,0.058926683,0.089218032,-0.138684148,-0.005115955,-0.361645659,-0.361625037,3.257883159,4.365062691,0.288892078,-0.004160519,-0.041818574,-0.539941850
1750924462.902466774,-1.525755160,-1.769564568,-1.449678118,1.568963251,-0.889261260,-2.459302119,0.058789463,0.089897570,-0.139191690,-0.005125912,-0.363131158,-0.363110209,3.255744310,4.365660781,0.288905188,-0.004158977,-0.041846989,-0.540117615
1750924462.902529001,-1.525637722,-1.769384090,-1.449957008,1.568952989,-0.889989009,-2.460029825,0.058648101,0.090580935,-0.139698941,-0.005135750,-0.364617661,-0.364596384,3.253601491,4.366260588,0.288918383,-0.004157420,-0.041875303,-0.540292136
1750924462.904266357,-1.525520571,-1.769202242,-1.450236913,1.568942708,-0.890719731,-2.460760505,0.058502583,0.091268142,-0.140205898,-0.005145466,-0.366105166,-0.366083557,3.251454755,4.366862106,0.288931663,-0.004155847,-0.041903515,-0.540465385
1750924462.905208826,-1.525403714,-1.769019015,-1.450517832,1.568932408,-0.891453430,-2.461494160,0.058352891,0.091959202,-0.140712560,-0.005155062,-0.367593669,-0.367571725,3.249304157,4.367465331,0.288945028,-0.004154257,-0.041931620,-0.540637338
1750924462.908293724,-1.525287162,-1.768834402,-1.450799763,1.568922088,-0.892190107,-2.462230792,0.058199010,0.092654131,-0.141218922,-0.005164535,-0.369083166,-0.369060884,3.247149753,4.368070254,0.288958477,-0.004152652,-0.041959616,-0.540807969
1750924462.909218311,-1.525170921,-1.768648396,-1.451082707,1.568911750,-0.892929763,-2.462970404,0.058040924,0.093352942,-0.141724984,-0.005173886,-0.370573653,-0.370551030,3.244991598,4.368676871,0.288972010,-0.004151031,-0.041987501,-0.540977251
1750924462.911108255,-1.525055001,-1.768460988,-1.451366663,1.568901393,-0.893672402,-2.463712997,0.057878617,0.094055648,-0.142230743,-0.005183113,-0.372065125,-0.372042159,3.242829749,4.369285175,0.288985627,-0.004149393,-0.042015271,-0.541145159
1750924462.912981272,-1.524939410,-1.768272171,-1.451651630,1.568891017,-0.894418025,-2.464458573,0.057712071,0.094762262,-0.142736197,-0.005192216,-0.373557579,-0.373534266,3.240664261,4.369895160,0.288999328,-0.004147740,-0.042042923,-0.541311666
1750924462.915024757,-1.524824156,-1.768081936,-1.451937608,1.568880624,-0.895166633,-2.465207135,0.057541272,0.095472799,-0.143241343,-0.005201194,-0.375051010,-0.375027349,3.238495193,4.370506820,0.289013111,-0.004146069,-0.042070455,-0.541476745
1750924462.917027235,-1.524709247,-1.767890277,-1.452224595,1.568870213,-0.895918229,-2.465958683,0.057366203,0.096187272,-0.143746180,-0.005210047,-0.376545415,-0.376521401,3.236322600,4.371120149,0.289026977,-0.004144383,-0.042097864,-0.541640371
1750924462.919098616,-1.524594694,-1.767697184,-1.452512592,1.568859784,-0.896672815,-2.466713221,0.057186848,0.096905694,-0.144250705,-0.005218774,-0.378040787,-0.378016420,3.234146541,4.371735140,0.289040925,-0.004142680,-0.042125146,-0.541802516
1750924462.921058655,-1.524480503,-1.767502651,-1.452801598,1.568849338,-0.897430393,-2.467470750,0.057003190,0.097628078,-0.144754916,-0.005227374,-0.379537124,-0.379512399,3.231967074,4.372351788,0.289054955,-0.004140960,-0.042152300,-0.541963153
1750924462.924336195,-1.524480503,-1.767502651,-1.452801598,1.568849338,-0.897430393,-2.467470750,0.057003190,0.097628078,-0.144754916,-0.005227374,-0.379537124,-0.379512399,3.231967074,4.372351788,0.289054955,-0.004140960,-0.042152300,-0.541963153
1750924462.925080061,-1.524366684,-1.767306669,-1.453091612,1.568838874,-0.898190964,-2.468231271,0.056815215,0.098354439,-0.145258810,-0.005235846,-0.381034420,-0.381009335,3.229784256,4.372970085,0.289069066,-0.004139223,-0.042179321,-0.542122255
1750924462.927243948,-1.524253245,-1.767109231,-1.453382633,1.568828394,-0.898954531,-2.468994788,0.056622906,0.099084790,-0.145762387,-0.005244189,-0.382532670,-0.382507222,3.227598146,4.373590027,0.289083259,-0.004137470,-0.042206207,-0.542279795
1750924462.929192543,-1.524140195,-1.766910328,-1.453674661,1.568817898,-0.899721096,-2.469761301,0.056426247,0.099819144,-0.146265642,-0.005252404,-0.384031870,-0.384006056,3.225408804,4.374211606,0.289097531,-0.004135699,-0.042232955,-0.542435746
1750924462.931112289,-1.524027543,-1.766709952,-1.453967695,1.568807385,-0.900490660,-2.470530813,0.056225222,0.100557514,-0.146768575,-0.005260489,-0.385532014,-0.385505831,3.223216288,4.374834816,0.289111884,-0.004133912,-0.042259562,-0.542590081
1750924462.933163881,-1.523915297,-1.766508095,-1.454261735,1.568796856,-0.901263224,-2.471303325,0.056019814,0.101299915,-0.147271183,-0.005268443,-0.387033098,-0.387006543,3.221020659,4.375459652,0.289126315,-0.004132107,-0.042286024,-0.542742770
1750924462.935107231,-1.523803466,-1.766304749,-1.454556780,1.568786311,-0.902038793,-2.472078839,0.055810009,0.102046360,-0.147773464,-0.005276266,-0.388535116,-0.388508186,3.218821977,4.376086106,0.289140826,-0.004130285,-0.042312340,-0.542893788
1750924462.937119961,-1.523692060,-1.766099907,-1.454852829,1.568775751,-0.902817366,-2.472857358,0.055595790,0.102796861,-0.148275417,-0.005283957,-0.390038062,-0.390010756,3.216620301,4.376714173,0.289155415,-0.004128446,-0.042338505,-0.543043105
1750924462.939121723,-1.523581086,-1.765893559,-1.455149881,1.568765175,-0.903598945,-2.473638883,0.055377142,0.103551433,-0.148777038,-0.005291515,-0.391541933,-0.391514245,3.214415693,4.377343846,0.289170082,-0.004126589,-0.042364517,-0.543190694
1750924462.941228390,-1.523470554,-1.765685698,-1.455447937,1.568754585,-0.904383534,-2.474423416,0.055154047,0.104310090,-0.149278326,-0.005298940,-0.393046720,-0.393018650,3.212208215,4.377975119,0.289184826,-0.004124715,-0.042390373,-0.543336527
1750924462.943075657,-1.523360473,-1.765476316,-1.455746994,1.568743980,-0.905171133,-2.475210958,0.054926492,0.105072844,-0.149779280,-0.005306231,-0.394552420,-0.394523964,3.209997927,4.378607986,0.289199647,-0.004122823,-0.042416069,-0.543480574
1750924462.945003748,-1.523250851,-1.765265404,-1.456047054,1.568733360,-0.905961744,-2.476001512,0.054694459,0.105839708,-0.150279896,-0.005313386,-0.396059027,-0.396030181,3.207784892,4.379242439,0.289214543,-0.004120914,-0.042441602,-0.543622808
1750924462.947014809,-1.523141698,-1.765052954,-1.456348114,1.568722726,-0.906755370,-2.476795080,0.054457933,0.106610697,-0.150780173,-0.005320406,-0.397566534,-0.397537296,3.205569173,4.379878474,0.289229516,-0.004118986,-0.042466970,-0.543763200
1750924462.949080229,-1.523033023,-1.764838959,-1.456650174,1.568712078,-0.907552011,-2.477591662,0.054216898,0.107385824,-0.151280109,-0.005327290,-0.399074935,-0.399045303,3.203350831,4.380516082,0.289244562,-0.004117041,-0.042492168,-0.543901721
1750924462.951441526,-1.522924834,-1.764623408,-1.456953234,1.568701417,-0.908351670,-2.478391261,0.053971339,0.108165102,-0.151779703,-0.005334036,-0.400584225,-0.400554195,3.201129931,4.381155259,0.289259683,-0.004115077,-0.042517195,-0.544038342
1750924462.953071356,-1.522817140,-1.764406295,-1.457257293,1.568690742,-0.909154348,-2.479193879,0.053721240,0.108948545,-0.152278951,-0.005340644,-0.402094397,-0.402063967,3.198906535,4.381795998,0.289274877,-0.004113096,-0.042542046,-0.544173034
1750924462.957785845,-1.522709952,-1.764187611,-1.457562349,1.568680055,-0.909960048,-2.479999518,0.053466584,0.109736166,-0.152777853,-0.005347114,-0.403605445,-0.403574611,3.196680707,4.382438291,0.289290144,-0.004111096,-0.042566719,-0.544305768
1750924462.959023476,-1.522709952,-1.764187611,-1.457562349,1.568680055,-0.909960048,-2.479999518,0.053466584,0.109736166,-0.152777853,-0.005347114,-0.403605445,-0.403574611,3.196680707,4.382438291,0.289290144,-0.004111096,-0.042566719,-0.544305768
1750924462.959074020,-1.522603277,-1.763967348,-1.457868404,1.568669354,-0.910768771,-2.480808178,0.053207357,0.110527978,-0.153276407,-0.005353445,-0.405117362,-0.405086121,3.194452512,4.383082134,0.289305483,-0.004109078,-0.042591210,-0.544436514
1750924462.961372852,-1.522497125,-1.763745497,-1.458175455,1.568658641,-0.911580518,-2.481619863,0.052943543,0.111323995,-0.153774610,-0.005359635,-0.406630142,-0.406598492,3.192222015,4.383727519,0.289320894,-0.004107042,-0.042615516,-0.544565243
1750924462.963125706,-1.522391506,-1.763522049,-1.458483502,1.568647916,-0.912395292,-2.482434573,0.052675125,0.112124230,-0.154272461,-0.005365684,-0.408143779,-0.408111716,3.189989281,4.384374440,0.289336374,-0.004104987,-0.042639634,-0.544691925
1750924462.965698957,-1.522286428,-1.763296997,-1.458792544,1.568637178,-0.913213094,-2.483252310,0.052402090,0.112928697,-0.154769959,-0.005371592,-0.409658264,-0.409625786,3.187754374,4.385022890,0.289351925,-0.004102914,-0.042663560,-0.544816531
1750924462.967069864,-1.522181901,-1.763070332,-1.459102582,1.568626429,-0.914033926,-2.484073077,0.052124420,0.113737409,-0.155267101,-0.005377358,-0.411173592,-0.411140695,3.185517362,4.385672864,0.289367544,-0.004100822,-0.042687292,-0.544939030
1750924462.969019175,-1.522077933,-1.762842044,-1.459413613,1.568615669,-0.914857789,-2.484896874,0.051842101,0.114550379,-0.155763885,-0.005382980,-0.412689756,-0.412656437,3.183278309,4.386324354,0.289383232,-0.004098711,-0.042710825,-0.545059393
1750924462.971129179,-1.521974535,-1.762612127,-1.459725637,1.568604897,-0.915684685,-2.485723703,0.051555117,0.115367621,-0.156260311,-0.005388458,-0.414206747,-0.414173005,3.181037284,4.386977354,0.289398986,-0.004096581,-0.042734157,-0.545177588
1750924462.973120451,-1.521871716,-1.762380571,-1.460038654,1.568594115,-0.916514616,-2.486553566,0.051263452,0.116189148,-0.156756375,-0.005393792,-0.415724560,-0.415690390,3.178794352,4.387631858,0.289414808,-0.004094432,-0.042757284,-0.545293587
1750924462.975054502,-1.521769485,-1.762147368,-1.460352662,1.568583322,-0.917347584,-2.487386465,0.050967091,0.117014973,-0.157252078,-0.005398980,-0.417243186,-0.417208586,3.176549581,4.388287858,0.289430694,-0.004092265,-0.042780203,-0.545407358
1750924462.977101803,-1.521667851,-1.761912508,-1.460667662,1.568572519,-0.918183590,-2.488222401,0.050666020,0.117845111,-0.157747417,-0.005404022,-0.418762618,-0.418727584,3.174303040,4.388945350,0.289446646,-0.004090078,-0.042802911,-0.545518870
1750924462.978975058,-1.521566824,-1.761675984,-1.460983652,1.568561706,-0.919022635,-2.489061376,0.050360221,0.118679573,-0.158242391,-0.005408917,-0.420282849,-0.420247379,3.172054795,4.389604326,0.289462661,-0.004087872,-0.042825403,-0.545628094
1750924462.981869459,-1.521466413,-1.761437787,-1.461300631,1.568550884,-0.919864721,-2.489903391,0.050049680,0.119518375,-0.158736997,-0.005413664,-0.421803871,-0.421767961,3.169804917,4.390264779,0.289478739,-0.004085646,-0.042847678,-0.545734997
1750924462.983276844,-1.521366628,-1.761197908,-1.461618599,1.568540052,-0.920709851,-2.490748448,0.049734382,0.120361528,-0.159231235,-0.005418263,-0.423325675,-0.423289323,3.167553473,4.390926703,0.289494879,-0.004083402,-0.042869731,-0.545839550
1750924462.985073328,-1.521267479,-1.760956338,-1.461937556,1.568529211,-0.921558025,-2.491596549,0.049414312,0.121209046,-0.159725104,-0.005422713,-0.424848254,-0.424811456,3.165300533,4.391590092,0.289511080,-0.004081137,-0.042891558,-0.545941720
1750924462.987056971,-1.521168974,-1.760713069,-1.462257499,1.568518361,-0.922409244,-2.492447695,0.049089453,0.122060943,-0.160218601,-0.005427013,-0.426371600,-0.426334354,3.163046168,4.392254940,0.289527341,-0.004078853,-0.042913157,-0.546041477
1750924462.989094734,-1.521071124,-1.760468091,-1.462578430,1.568507503,-0.923263512,-2.493301887,0.048759792,0.122917232,-0.160711726,-0.005431161,-0.427895704,-0.427858007,3.160790447,4.392921238,0.289543661,-0.004076550,-0.042934525,-0.546138790
1750924462.991215944,-1.520973938,-1.760221397,-1.462900346,1.568496637,-0.924120828,-2.494159127,0.048425312,0.123777926,-0.161204476,-0.005435159,-0.429420559,-0.429382406,3.158533440,4.393588982,0.289560039,-0.004074227,-0.042955656,-0.546233626
1750924462.993101835,-1.520877403,-1.759972898,-1.463223375,1.568485714,-0.924981423,-2.495019647,0.048111063,0.124727845,-0.161834947,-0.005490950,-0.431193011,-0.431155700,3.186557300,4.413879316,0.286329350,-0.006230100,-0.049930562,-0.639523865
1750924462.995115280,-1.520781498,-1.759722482,-1.463547686,1.568474672,-0.925845602,-2.495883752,0.047793036,0.125689723,-0.162475769,-0.005550777,-0.432985930,-0.432949558,3.186357816,4.416188725,0.286095184,-0.006400821,-0.050507091,-0.647015886
1750924462.997038364,-1.520686234,-1.759470136,-1.463873278,1.568463511,-0.926713367,-2.496751446,0.047469194,0.126656916,-0.163116028,-0.005610540,-0.434779820,-0.434744385,3.183752099,4.416953636,0.286117725,-0.006401193,-0.050534455,-0.647146779
1750924462.999151468,-1.520591625,-1.759215850,-1.464200150,1.568452230,-0.927584722,-2.497622730,0.047139517,0.127629440,-0.163755719,-0.005670238,-0.436574672,-0.436540171,3.181142613,4.417720653,0.286140388,-0.006401566,-0.050561550,-0.647274763
1750924463.001115084,-1.520497680,-1.758959615,-1.464528301,1.568440830,-0.928459667,-2.498497607,0.046803983,0.128607316,-0.164394839,-0.005729871,-0.438370476,-0.438336907,3.178529442,4.418489766,0.286163170,-0.006401941,-0.050588372,-0.647399791
1750924463.003116369,-1.520403997,-1.758702222,-1.464857344,1.568429352,-0.929336913,-2.499374786,0.046965329,0.128618977,-0.164568258,-0.005740191,-0.438607566,-0.438574152,3.281863116,4.261301289,0.294658344,-0.000750374,-0.006678886,-0.092619833
1750924463.005138636,-1.520309801,-1.758445173,-1.465186557,1.568417871,-0.930214041,-2.500251848,0.047230485,0.128429212,-0.164644823,-0.005740313,-0.438521084,-0.438487667,3.303184757,4.228717080,0.296424603,0.000421943,0.002436207,0.022554822
1750924463.007147551,-1.520215075,-1.758188505,-1.465515923,1.568406390,-0.931090997,-2.501128737,0.047495583,0.128239231,-0.164721116,-0.005740469,-0.438434730,-0.438401310,3.302662012,4.228874732,0.296431578,0.000420961,0.002432629,0.022559301
1750924463.009094954,-1.520119819,-1.757932217,-1.465845441,1.568394909,-0.931967780,-2.502005453,0.047760624,0.128049035,-0.164797137,-0.005740658,-0.438348503,-0.438315080,3.302135300,4.229032004,0.296438543,0.000419978,0.002429053,0.022563772
1750924463.017074347,-1.520024033,-1.757676309,-1.466175111,1.568383428,-0.932844391,-2.502881997,0.048025609,0.127858624,-0.164872886,-0.005740880,-0.438262403,-0.438228978,3.301604621,4.229188893,0.296445499,0.000418995,0.002425478,0.022568234
1750924463.019228935,-1.519733495,-1.756910874,-1.467165027,1.568348980,-0.935473193,-2.505510598,0.048820222,0.127286103,-0.165098509,-0.005741750,-0.438004863,-0.437971438,3.299988785,4.229657264,0.296466309,0.000416041,0.002414764,0.022581568
1750924463.019421339,-1.519733495,-1.756910874,-1.467165027,1.568348980,-0.935473193,-2.505510598,0.048820222,0.127286103,-0.165098509,-0.005741750,-0.438004863,-0.437971438,3.299988785,4.229657264,0.296466309,0.000416041,0.002414764,0.022581568
1750924463.019452810,-1.519733495,-1.756910874,-1.467165027,1.568348980,-0.935473193,-2.505510598,0.048820222,0.127286103,-0.165098509,-0.005741750,-0.438004863,-0.437971438,3.299988785,4.229657264,0.296466309,0.000416041,0.002414764,0.022581568
1750924463.021087885,-1.519635590,-1.756656493,-1.467495298,1.568337496,-0.936349117,-2.506386455,0.049084979,0.127094835,-0.165173176,-0.005742107,-0.437919270,-0.437885847,3.299442240,4.229812618,0.296473227,0.000415055,0.002411195,0.022585995
1750924463.023101091,-1.519537155,-1.756402495,-1.467825719,1.568326012,-0.937224870,-2.507262142,0.049349680,0.126903353,-0.165247572,-0.005742498,-0.437833803,-0.437800383,3.298891728,4.229967587,0.296480135,0.000414068,0.002407629,0.022590412
1750924463.025120497,-1.519438191,-1.756148880,-1.468156289,1.568314526,-0.938100452,-2.508137657,0.049614325,0.126711658,-0.165321700,-0.005742922,-0.437748463,-0.437715046,3.298337250,4.230122168,0.296487034,0.000413080,0.002404064,0.022594820
1750924463.026961565,-1.519338698,-1.755895648,-1.468487006,1.568303040,-0.938975864,-2.509013002,0.049878913,0.126519751,-0.165395557,-0.005743380,-0.437663250,-0.437629837,3.297778805,4.230276361,0.296493923,0.000412092,0.002400500,0.022599217
1750924463.029054880,-1.519238675,-1.755642801,-1.468817871,1.568291553,-0.939851105,-2.509888176,0.050143444,0.126327631,-0.165469146,-0.005743872,-0.437578163,-0.437544754,3.297216394,4.230430166,0.296500803,0.000411104,0.002396938,0.022603606
1750924463.031274796,-1.519138124,-1.755390338,-1.469148882,1.568280064,-0.940726176,-2.510763181,0.050407920,0.126135299,-0.165542466,-0.005744398,-0.437493202,-0.437459800,3.296650017,4.230583582,0.296507674,0.000410114,0.002393378,0.022607984
1750924463.033300400,-1.519037044,-1.755138260,-1.469480040,1.568268575,-0.941601078,-2.511638016,0.050672338,0.125942755,-0.165615518,-0.005744957,-0.437408368,-0.437374972,3.296079673,4.230736607,0.296514535,0.000409124,0.002389820,0.022612351
1750924463.035339594,-1.519037044,-1.755138260,-1.469480040,1.568268575,-0.941601078,-2.511638016,0.050672338,0.125942755,-0.165615518,-0.005744957,-0.437408368,-0.437374972,3.296079673,4.230736607,0.296514535,0.000409124,0.002389820,0.022612351
1750924463.037084341,-1.518935435,-1.754886567,-1.469811344,1.568257085,-0.942475810,-2.512512681,0.050936701,0.125750000,-0.165688302,-0.005745550,-0.437323660,-0.437290271,3.295505363,4.230889240,0.296521387,0.000408133,0.002386263,0.022616709
1750924463.039269686,-1.518833297,-1.754635260,-1.470142793,1.568245593,-0.943350373,-2.513387177,0.051201007,0.125557034,-0.165760818,-0.005746177,-0.437239078,-0.437205698,3.294927087,4.231041482,0.296528229,0.000407142,0.002382707,0.022621056
1750924463.041246176,-1.518730631,-1.754384339,-1.470474387,1.568234100,-0.944224766,-2.514261504,0.051465258,0.125363857,-0.165833067,-0.005746838,-0.437154622,-0.437121251,3.294344845,4.231193330,0.296535062,0.000406149,0.002379153,0.022625392
1750924463.043112993,-1.518627436,-1.754133804,-1.470806125,1.568222605,-0.945098991,-2.515135662,0.051729452,0.125170470,-0.165905048,-0.005747532,-0.437070292,-0.437036931,3.293758637,4.231344785,0.296541885,0.000405156,0.002375601,0.022629717
1750924463.045094252,-1.518523713,-1.753883657,-1.471138007,1.568211110,-0.945973048,-2.516009652,0.051993589,0.124976873,-0.165976763,-0.005748261,-0.436986089,-0.436952739,3.293168463,4.231495845,0.296548699,0.000404163,0.002372050,0.022634032
1750924463.047019482,-1.518419462,-1.753633897,-1.471470032,1.568199612,-0.946846936,-2.516883473,0.052257671,0.124783066,-0.166048211,-0.005749023,-0.436902011,-0.436868673,3.292574322,4.231646509,0.296555504,0.000403168,0.002368501,0.022638335
