mathias31415/motion_primitives_from_planned_trajectory/data/trajectory_20250626_121048_executed.csv
timestamp,shoulder_lift_joint_pos,elbow_joint_pos,wrist_1_joint_pos,wrist_2_joint_pos,wrist_3_joint_pos,shoulder_pan_joint_pos,shoulder_lift_joint_vel,elbow_joint_vel,wrist_1_joint_vel,wrist_2_joint_vel,wrist_3_joint_vel,shoulder_pan_joint_vel,shoulder_lift_joint_eff,elbow_joint_eff,wrist_1_joint_eff,wrist_2_joint_eff,wrist_3_joint_eff,shoulder_pan_joint_eff,pose_x,pose_y,pose_z,pose_qx,pose_qy,pose_qz,pose_qw
1750932670.9178832,-1.692079,-1.801576,-1.217846,1.588042,0.980191,-0.589523,0.0,0.0,0.0,0.0,0.0,0.0,4.148470649,4.049720527,0.30284836,0.001423649,0.0,0.0,0.51155401544964,-0.5492574135216063,0.47538297647415395,-0.0005449717093161959,0.9999625765186955,0.0069176352024725345,0.005166709894461183
1750932670.9198792,-1.692079,-1.801576,-1.217846,1.588042,0.980191,-0.589523,0.0,0.0,0.0,0.0,0.0,0.0,4.148470649,4.049720527,0.30284836,0.001423649,0.0,0.0,0.51155401544964,-0.5492574135216063,0.47538297647415395,-0.0005449717093161959,0.9999625765186955,0.0069176352024725345,0.005166709894461183
1750932670.921945,-1.692079,-1.801576,-1.217846,1.588042,0.980191,-0.589523,0.0,0.0,0.0,0.0,0.0,0.0,4.148470649,4.049720527,0.30284836,0.001423649,0.0,0.0,0.51155401544964,-0.5492574135216063,0.47538297647415395,-0.0005449717093161959,0.9999625765186955,0.0069176352024725345,0.005166709894461183
1750932670.9239123,-1.692079,-1.801576,-1.217846,1.588042,0.980191,-0.589523,0.0,0.0,0.0,0.0,0.0,0.0,4.148470649,4.049720527,0.30284836,0.001423649,0.0,0.0,0.51155401544964,-0.5492574135216063,0.47538297647415395,-0.0005449717093161959,0.9999625765186955,0.0069176352024725345,0.005166709894461183
1750932670.9257743,-1.692079,-1.801576,-1.217846,1.588042,0.980191,-0.589523,0.0,0.0,0.0,0.0,0.0,0.0,4.148470649,4.049720527,0.30284836,0.001423649,0.0,0.0,0.51155401544964,-0.5492574135216063,0.47538297647415395,-0.0005449717093161959,0.9999625765186955,0.0069176352024725345,0.005166709894461183
1750932670.9281754,-1.692079,-1.801576,-1.217846,1.588042,0.980191,-0.589523,0.0,0.0,0.0,0.0,0.0,0.0,4.148470649,4.049720527,0.30284836,0.001423649,0.0,0.0,0.51155401544964,-0.5492574135216063,0.47538297647415395,-0.0005449717093161959,0.9999625765186955,0.0069176352024725345,0.005166709894461183
1750932670.9299152,-1.692079,-1.801576,-1.217846,1.588042,0.980191,-0.589523,0.0,0.0,0.0,0.0,0.0,0.0,4.148470649,4.049720527,0.30284836,0.001423649,0.0,0.0,0.51155401544964,-0.5492574135216063,0.47538297647415395,-0.0005449717093161959,0.9999625765186955,0.0069176352024725345,0.005166709894461183
1750932670.9323564,-1.692079,-1.801576,-1.217846,1.588042,0.980191,-0.589523,0.0,0.0,0.0,0.0,0.0,0.0,4.148470649,4.049720527,0.30284836,0.001423649,0.0,0.0,0.51155401544964,-0.5492574135216063,0.47538297647415395,-0.0005449717093161959,0.9999625765186955,0.0069176352024725345,0.005166709894461183
1750932670.9337518,-1.692079,-1.801576,-1.217846,1.588042,0.980191,-0.589523,0.0,0.0,0.0,0.0,0.0,0.0,4.148470649,4.049720527,0.30284836,0.001423649,0.0,0.0,0.51155401544964,-0.5492574135216063,0.47538297647415395,-0.0005449717093161959,0.9999625765186955,0.0069176352024725345,0.005166709894461183
1750932670.9357388,-1.692079,-1.801576,-1.217846,1.588042,0.980191,-0.589523,0.0,0.0,0.0,0.0,0.0,0.0,4.148470649,4.049720527,0.30284836,0.001423649,0.0,0.0,0.51155401544964,-0.5492574135216063,0.47538297647415395,-0.0005449717093161959,0.9999625765186955,0.0069176352024725345,0.005166709894461183
1750932670.937634,-1.692079,-1.801576,-1.217846,1.588042,0.980191,-0.589523,0.0,0.0,0.0,0.0,0.0,0.0,4.148470649,4.049720527,0.30284836,0.001423649,0.0,0.0,0.51155401544964,-0.5492574135216063,0.47538297647415395,-0.0005449717093161959,0.9999625765186955,0.0069176352024725345,0.005166709894461183
1750932670.9396577,-1.692079,-1.801576,-1.217846,1.588042,0.980191,-0.589523,0.0,0.0,0.0,0.0,0.0,0.0,4.148470649,4.049720527,0.30284836,0.001423649,0.0,0.0,0.51155401544964,-0.5492574135216063,0.47538297647415395,-0.0005449717093161959,0.9999625765186955,0.0069176352024725345,0.005166709894461183
1750932670.9418583,-1.692079,-1.801576,-1.217846,1.588042,0.980191,-0.589523,0.0,0.0,0.0,0.0,0.0,0.0,4.148470649,4.049720527,0.30284836,0.001423649,0.0,0.0,0.51155401544964,-0.5492574135216063,0.47538297647415395,-0.0005449717093161959,0.9999625765186955,0.0069176352024725345,0.005166709894461183
1750932670.943948,-1.692079,-1.801576,-1.217846,1.588042,0.980191,-0.589523,0.0,0.0,0.0,0.0,0.0,0.0,4.148470649,4.049720527,0.30284836,0.001423649,0.0,0.0,0.51155401544964,-0.5492574135216063,0.47538297647415395,-0.0005449717093161959,0.9999625765186955,0.0069176352024725345,0.005166709894461183
1750932670.9457817,-1.692079,-1.801576,-1.217846,1.588042,0.980191,-0.589523,0.0,0.0,0.0,0.0,0.0,0.0,4.148470649,4.049720527,0.30284836,0.001423649,0.0,0.0,0.51155401544964,-0.5492574135216063,0.47538297647415395,-0.0005449717093161959,0.9999625765186955,0.0069176352024725345,0.005166709894461183
1750932670.9527843,-1.692079,-1.801576,-1.217846,1.588042,0.980191,-0.589523,0.0,0.0,0.0,0.0,0.0,0.0,4.148470649,4.049720527,0.30284836,0.001423649,0.0,0.0,0.51155401544964,-0.5492574135216063,0.47538297647415395,-0.0005449717093161959,0.9999625765186955,0.0069176352024725345,0.005166709894461183
1750932670.9539971,-1.692079,-1.801576,-1.217846,1.588042,0.980191,-0.589523,0.0,0.0,0.0,0.0,0.0,0.0,4.148470649,4.049720527,0.30284836,0.001423649,0.0,0.0,0.51155401544964,-0.5492574135216063,0.47538297647415395,-0.0005449717093161959,0.9999625765186955,0.0069176352024725345,0.005166709894461183
1750932670.9562004,-1.692079,-1.801576,-1.217846,1.588042,0.980191,-0.589523,0.0,0.0,0.0,0.0,0.0,0.0,4.148470649,4.049720527,0.30284836,0.001423649,0.0,0.0,0.51155401544964,-0.5492574135216063,0.47538297647415395,-0.0005449717093161959,0.9999625765186955,0.0069176352024725345,0.005166709894461183
1750932670.9581015,-1.692079,-1.801576,-1.217846,1.588042,0.980191,-0.589523,0.0,0.0,0.0,0.0,0.0,0.0,4.148470649,4.049720527,0.30284836,0.001423649,0.0,0.0,0.51155401544964,-0.5492574135216063,0.47538297647415395,-0.0005449717093161959,0.9999625765186955,0.0069176352024725345,0.005166709894461183
1750932670.9598129,-1.692079,-1.801576,-1.217846,1.588042,0.980191,-0.589523,0.0,0.0,0.0,0.0,0.0,0.0,4.148470649,4.049720527,0.30284836,0.001423649,0.0,0.0,0.51155401544964,-0.5492574135216063,0.47538297647415395,-0.0005449717093161959,0.9999625765186955,0.0069176352024725345,0.005166709894461183
1750932670.9616888,-1.692079,-1.801576,-1.217846,1.588042,0.980191,-0.589523,0.0,0.0,0.0,0.0,0.0,0.0,4.148470649,4.049720527,0.30284836,0.001423649,0.0,0.0,0.51155401544964,-0.5492574135216063,0.47538297647415395,-0.0005449717093161959,0.9999625765186955,0.0069176352024725345,0.005166709894461183
1750932670.963931,-1.692079,-1.801576,-1.217846,1.588042,0.980191,-0.589523,0.0,0.0,0.0,0.0,0.0,0.0,4.148470649,4.049720527,0.30284836,0.001423649,0.0,0.0,0.51155401544964,-0.5492574135216063,0.47538297647415395,-0.0005449717093161959,0.9999625765186955,0.0069176352024725345,0.005166709894461183
1750932670.9658074,-1.692079,-1.801576,-1.217846,1.588042,0.980191,-0.589523,0.0,0.0,0.0,0.0,0.0,0.0,4.148470649,4.049720527,0.30284836,0.001423649,0.0,0.0,0.51155401544964,-0.5492574135216063,0.47538297647415395,-0.0005449717093161959,0.9999625765186955,0.0069176352024725345,0.005166709894461183
1750932670.9687896,-1.692079,-1.801576,-1.217846,1.588042,0.980191,-0.589523,0.0,0.0,0.0,0.0,0.0,0.0,4.148470649,4.049720527,0.30284836,0.001423649,0.0,0.0,0.51155401544964,-0.5492574135216063,0.47538297647415395,-0.0005449717093161959,0.9999625765186955,0.0069176352024725345,0.005166709894461183
1750932670.9696136,-1.692079,-1.801576,-1.217846,1.588042,0.980191,-0.589523,0.0,0.0,0.0,0.0,0.0,0.0,4.148470649,4.049720527,0.30284836,0.001423649,0.0,0.0,0.51155401544964,-0.5492574135216063,0.47538297647415395,-0.0005449717093161959,0.9999625765186955,0.0069176352024725345,0.005166709894461183
1750932670.9715707,-1.692079,-1.801576,-1.217846,1.588042,0.980191,-0.589523,0.0,0.0,0.0,0.0,0.0,0.0,4.148470649,4.049720527,0.30284836,0.001423649,0.0,0.0,0.51155401544964,-0.5492574135216063,0.47538297647415395,-0.0005449717093161959,0.9999625765186955,0.0069176352024725345,0.005166709894461183
1750932670.9745083,-1.692079,-1.801576,-1.217846,1.588042,0.980191,-0.589523,0.0,0.0,0.0,0.0,0.0,0.0,4.148470649,4.049720527,0.30284836,0.001423649,0.0,0.0,0.51155401544964,-0.5492574135216063,0.47538297647415395,-0.0005449717093161959,0.9999625765186955,0.0069176352024725345,0.005166709894461183
1750932670.9757357,-1.692079,-1.801576,-1.217846,1.588042,0.980191,-0.589523,0.0,0.0,0.0,0.0,0.0,0.0,4.148470649,4.049720527,0.30284836,0.001423649,0.0,0.0,0.51155401544964,-0.5492574135216063,0.47538297647415395,-0.0005449717093161959,0.9999625765186955,0.0069176352024725345,0.005166709894461183
1750932670.9775827,-1.692079,-1.801576,-1.217846,1.588042,0.980191,-0.589523,0.0,0.0,0.0,0.0,0.0,0.0,4.148470649,4.049720527,0.30284836,0.001423649,0.0,0.0,0.51155401544964,-0.5492574135216063,0.47538297647415395,-0.0005449717093161959,0.9999625765186955,0.0069176352024725345,0.005166709894461183
1750932670.9797049,-1.692079,-1.801576,-1.217846,1.588042,0.980191,-0.589523,0.0,0.0,0.0,0.0,0.0,0.0,4.148470649,4.049720527,0.30284836,0.001423649,0.0,0.0,0.51155401544964,-0.5492574135216063,0.47538297647415395,-0.0005449717093161959,0.9999625765186955,0.0069176352024725345,0.005166709894461183
1750932670.9816625,-1.692078415,-1.801575553,-1.217845,1.588042043,0.9801915,-0.589522741,0.000585118,0.0004472,0.001,4.3259e-05,0.000500336,0.000259155,4.484321561,4.231842841,0.344079884,0.003510205,0.014097863,0.086176616,0.5115542304622935,-0.5492573236638718,0.4753838173319139,-0.0005448599837395409,0.9999625759426303,0.006917089728269746,0.005167563397644439
1750932670.9838986,-1.69207666,-1.801574211,-1.217842,1.588042173,0.980193001,-0.589521963,0.001170237,0.0008944,0.002,8.6518e-05,0.001000673,0.000518309,4.484314587,4.231847403,0.344080388,0.003510217,0.014097863,0.086176156,0.5115548763693706,-0.5492570536524605,0.4753863405665477,-0.0005445248118021224,0.9999625742036257,0.006915453451923695,0.005170124596363913
1750932670.9859085,-1.692073734,-1.801571975,-1.217837,1.588042389,0.980195503,-0.589520668,0.001755355,0.0013416,0.003,0.000129777,0.001501009,0.000777464,4.484302965,4.231855005,0.344081227,0.003510237,0.014097863,0.086175388,0.5115559514854564,-0.5492566042569269,0.4753905462588651,-0.0005439651941038872,0.9999625712877178,0.006912725964390924,0.005174393226709533
1750932670.9878733,-1.692069638,-1.801568845,-1.21783,1.588042692,0.980199005,-0.589518854,0.002340473,0.001788799,0.004,0.000173036,0.002001345,0.001036619,4.484286695,4.231865648,0.344082401,0.003510264,0.014097862,0.086174313,0.5115574571911773,-0.5492559745006681,0.47539643369478635,-0.0005431826278065748,0.9999625671586432,0.006908907981163156,0.0051803691602598555
1750932670.989786,-1.692064372,-1.80156482,-1.217821,1.588043081,0.980203508,-0.589516521,0.002925592,0.002235999,0.005,0.000216296,0.002501682,0.001295774,4.484265774,4.231879332,0.344083911,0.0035103,0.014097862,0.08617293,0.5115593936436663,-0.5492551646261892,0.47540400354903356,-0.0005421766188428735,0.9999625617768475,0.00690399883817987,0.005188052547997511
1750932670.9918673,-1.692057936,-1.801559901,-1.21781,1.588043557,0.980209012,-0.58951367,0.00351071,0.002683199,0.006,0.000259555,0.003002018,0.001554928,4.484240205,4.231896056,0.344085757,0.003510344,0.014097862,0.086171241,0.5115617600481526,-0.5492541748370514,0.4754132551932356,-0.0005409466655012462,0.9999625550820727,0.00689799926118284,0.005197443278235876
1750932670.994042,-1.692050329,-1.801554087,-1.217797,1.58804412,0.980215516,-0.589510301,0.004095829,0.003130399,0.007,0.000302814,0.003502354,0.001814083,4.484209986,4.231915819,0.344087937,0.003510395,0.014097862,0.086169244,0.5115645563594697,-0.5492530050986657,0.4754241900462983,-0.0005394932792701133,0.9999625470045613,0.006890908733588572,0.005208542212311228
1750932670.9958804,-1.692050329,-1.801554087,-1.217797,1.58804412,0.980215516,-0.589510301,0.004095829,0.003130399,0.007,0.000302814,0.003502354,0.001814083,4.484209986,4.231915819,0.344087937,0.003510395,0.014097862,0.086169244,0.5115645563594697,-0.5492530050986657,0.4754241900462983,-0.0005394932792701133,0.9999625470045613,0.006890908733588572,0.005208542212311228
1750932671.0013373,-1.692041552,-1.801547379,-1.217782,1.588044769,0.980223022,-0.589506414,0.004680947,0.003577599,0.008,0.000346073,0.004002691,0.002073238,4.484175116,4.231938622,0.344090453,0.003510455,0.014097862,0.08616694,0.5115677824254034,-0.5492516554442473,0.47543680675682864,-0.0005378154547210649,0.9999625374681024,0.006882727451658485,0.00522134826618403
1750932671.0034966,-1.692031605,-1.801539777,-1.217765,1.588045504,0.980231527,-0.589502008,0.005266065,0.004024799,0.009,0.000389332,0.004503027,0.002332393,4.484135596,4.231964464,0.344093304,0.003510523,0.014097862,0.086164329,0.5115714387123497,-0.5492501253008412,0.4754511053682657,-0.0005359151956890255,0.9999625263775425,0.006873455467996137,0.005235861483573008
1750932671.0036342,-1.692020488,-1.80153128,-1.217746,1.588046326,0.980241034,-0.589497085,0.005851184,0.004471998,0.01,0.000432591,0.005003363,0.002591547,4.484091425,4.231993345,0.34409649,0.003510598,0.014097862,0.08616141,0.5115755243532218,-0.5492484156994083,0.4754670865883348,-0.0005337900112813888,0.9999625136230171,0.006863092987999689,0.005252082596396117
1750932671.00576,-1.692008201,-1.801521889,-1.217725,1.588047234,0.980251541,-0.589491642,0.006436302,0.004919198,0.011,0.00047585,0.0055037,0.002850702,4.484042603,4.232025263,0.344100011,0.003510681,0.014097862,0.086158184,0.5115800405654671,-0.5492465249500643,0.4754847498135644,-0.0005314424017947816,0.9999624990885945,0.006851639950288399,0.005270010954245259
1750932671.0076907,-1.691994743,-1.801511603,-1.217702,1.588048229,0.980263048,-0.589485682,0.00702142,0.005366398,0.012,0.000519109,0.006004036,0.003109857,4.483989128,4.232060218,0.344103867,0.003510773,0.014097862,0.086154651,0.5115849856655732,-0.549244454415075,0.4755040964938558,-0.00052887088168029,0.9999624826384642,0.00683909628701123,0.0052896477280200815
1750932671.0107093,-1.691980115,-1.801500423,-1.217677,1.588049311,0.980275557,-0.589479203,0.007606539,0.005813598,0.013,0.000562368,0.006504372,0.003369011,4.483931001,4.23209821,0.344108057,0.003510872,0.014097862,0.08615081,0.5115903606094413,-0.5492422029667738,0.4755251253087154,-0.000526075448349587,0.9999624641289212,0.006825462653769971,0.005310992129579972
1750932671.0173347,-1.691964317,-1.801488349,-1.21765,1.588050479,0.980289066,-0.589472206,0.008191657,0.006260798,0.014,0.000605628,0.007004709,0.003628166,4.48386822,4.232139237,0.344112582,0.003510979,0.014097861,0.086146662,0.5115961646449169,-0.5492397711113037,0.4755478363284902,-0.0005230566080295317,0.9999624434072203,0.006810738723561819,0.005334043952360959
1750932671.017445,-1.691964317,-1.801488349,-1.21765,1.588050479,0.980289066,-0.589472206,0.008191657,0.006260798,0.014,0.000605628,0.007004709,0.003628166,4.48386822,4.232139237,0.344112582,0.003510979,0.014097861,0.086146662,0.5115961646449169,-0.5492397711113037,0.4755478363284902,-0.0005230566080295317,0.9999624434072203,0.006810738723561819,0.005334043952360959
1750932671.0174599,-1.691964317,-1.801488349,-1.21765,1.588050479,0.980289066,-0.589472206,0.008191657,0.006260798,0.014,0.000605628,0.007004709,0.003628166,4.48386822,4.232139237,0.344112582,0.003510979,0.014097861,0.086146662,0.5115961646449169,-0.5492397711113037,0.4755478363284902,-0.0005230566080295317,0.9999624434072203,0.006810738723561819,0.005334043952360959
1750932671.0178719,-1.691909901,-1.801446759,-1.217557,1.588054502,0.980335597,-0.589448104,0.009947012,0.007602397,0.017,0.000735405,0.008505718,0.00440563,4.483651949,4.232280521,0.34412816,0.003511349,0.014097861,0.086132371,0.5116161521472659,-0.5492313904994025,0.4756260675210333,-0.0005126592452538775,0.9999623661982175,0.006760025826756057,0.00541344793838633
1750932671.0198288,-1.691909901,-1.801446759,-1.217557,1.588054502,0.980335597,-0.589448104,0.009947012,0.007602397,0.017,0.000735405,0.008505718,0.00440563,4.483651949,4.232280521,0.34412816,0.003511349,0.014097861,0.086132371,0.5116161521472659,-0.5492313904994025,0.4756260675210333,-0.0005126592452538775,0.9999623661982175,0.006760025826756057,0.00541344793838633
1750932671.0217223,-1.691889422,-1.801431107,-1.217522,1.588056016,0.980353109,-0.589439034,0.010532131,0.008049597,0.018,0.000778664,0.009006054,0.004664785,4.483570546,4.232333681,0.34413402,0.003511487,0.014097861,0.086126992,0.5116236719009963,-0.549228235307431,0.4756555102473973,-0.0005087458665188064,0.9999623347997432,0.006740941833965623,0.0054433319465730465
1750932671.0253756,-1.691867772,-1.801414561,-1.217485,1.588057617,0.980371621,-0.589429445,0.011117249,0.008496797,0.019,0.000821923,0.00950639,0.00492394,4.483484485,4.232389871,0.344140213,0.003511634,0.01409786,0.086121306,0.5116316202584357,-0.5492248983014492,0.4756866363597424,-0.0005046096260652982,0.9999623002119292,0.00672076828190644,0.005474924446386974
1750932671.0257032,-1.691844953,-1.80139712,-1.217446,1.588059304,0.980391135,-0.589419338,0.011702367,0.008943997,0.02,0.000865182,0.010006727,0.005183094,4.483393766,4.23244909,0.344146739,0.003511789,0.01409786,0.086115311,0.5116399971517985,-0.5492213804405857,0.47571944515845116,-0.0005002490289528806,0.9999622622081665,0.00669950517871598,0.005508224831580136
1750932671.0277908,-1.691820963,-1.801378785,-1.217405,1.588061077,0.980411648,-0.589408713,0.012287486,0.009391197,0.021,0.000908441,0.010507063,0.005442249,4.483298386,4.232511337,0.344153598,0.003511952,0.01409786,0.086109008,0.5116488016146437,-0.5492176810631451,0.4757539375608842,-0.0004956655896516533,0.9999622205426576,0.006677152388424612,0.005543233623284189
1750932671.029846,-1.691820963,-1.801378785,-1.217405,1.588061077,0.980411648,-0.589408713,0.012287486,0.009391197,0.021,0.000908441,0.010507063,0.005442249,4.483298386,4.232511337,0.344153598,0.003511952,0.01409786,0.086109008,0.5116488016146437,-0.5492176810631451,0.4757539375608842,-0.0004956655896516533,0.9999622205426576,0.006677152388424612,0.005543233623284189
1750932671.0328577,-1.691820963,-1.801378785,-1.217405,1.588061077,0.980411648,-0.589408713,0.012287486,0.009391197,0.021,0.000908441,0.010507063,0.005442249,4.483298386,4.232511337,0.344153598,0.003511952,0.01409786,0.086109008,0.5116488016146437,-0.5492176810631451,0.4757539375608842,-0.0004956655896516533,0.9999622205426576,0.006677152388424612,0.005543233623284189
1750932671.0337436,-1.691795803,-1.801359555,-1.217362,1.588062937,0.980433163,-0.589397569,0.012872604,0.009838396,0.022,0.000951701,0.011007399,0.005701404,4.483198345,4.23257661,0.344160789,0.003512122,0.01409786,0.086102398,0.511658034539791,-0.5492137997308684,0.47579011361359996,-0.0004908583194055405,0.9999621749543843,0.006653710495742899,0.005579951186736081
1750932671.0358608,-1.691769472,-1.801339431,-1.217317,1.588064884,0.980455678,-0.589385907,0.013457723,0.010285596,0.023,0.00099496,0.011507736,0.005960559,4.483093642,4.232644909,0.344168312,0.003512301,0.01409786,0.086095479,0.5116676946345738,-0.5492097364412994,0.4758279735148388,-0.00048582772953368247,0.9999621251733488,0.006629179658268536,0.005618377637305823
1750932671.0379317,-1.691741972,-1.801318413,-1.21727,1.588066917,0.980479194,-0.589373727,0.014042841,0.010732796,0.024,0.001038219,0.012008072,0.006219713,4.482984275,4.232716232,0.344176167,0.003512487,0.014097859,0.086088252,0.5116777820760122,-0.5492054914352587,0.4758675159313446,-0.00048057332278164975,0.999962070922848,0.006603560193136526,0.005658511972791392
1750932671.0398808,-1.691713301,-1.8012965,-1.217221,1.588069037,0.98050371,-0.589361028,0.014627959,0.011179996,0.025,0.001081478,0.012508408,0.006478868,4.482870244,4.232790576,0.344184354,0.003512681,0.014097859,0.086080717,0.5116882969876511,-0.5492010637577465,0.47590874311882336,-0.00047509612493623014,0.9999620119017645,0.006576851862864777,0.005700355832881501
1750932671.0418236,-1.69168346,-1.801273693,-1.21717,1.588071243,0.980529227,-0.589347811,0.015213078,0.011627196,0.026,0.001124737,0.013008745,0.006738023,4.482751546,4.232867941,0.344192871,0.003512883,0.014097859,0.086072873,0.5116992384695465,-0.5491964538068271,0.47595165382943583,-0.0004693951397827325,0.9999619478085696,0.006549054997267482,0.005743908228463237
1750932671.0439067,-1.691652449,-1.801249991,-1.217117,1.588073536,0.980555745,-0.589334076,0.015798196,0.012074396,0.027,0.001167996,0.013509081,0.006997178,4.48262818,4.232948325,0.344201719,0.003513093,0.014097858,0.08606472,0.5117106065644884,-0.5491916614508859,0.4759962488691639,-0.00046347038563339876,0.9999618783184907,0.006520169930587369,0.005789169977966408
1750932671.046514,-1.691620267,-1.801225395,-1.217062,1.588075915,0.980583264,-0.589319823,0.016383314,0.012521595,0.028,0.001211255,0.014009417,0.007256332,4.482500145,4.233031726,0.344210898,0.003513311,0.014097858,0.08605626,0.5117224004087485,-0.5491866862318135,0.47604252846284534,-0.00045732187589263886,0.9999618031033622,0.006490196451894993,0.005836140933015403
1750932671.0477278,-1.691586915,-1.801199905,-1.217005,1.588078381,0.980611783,-0.589305051,0.016968433,0.012968795,0.029,0.001254514,0.014509754,0.007515487,4.482367439,4.233118143,0.344220406,0.003513537,0.014097858,0.08604749,0.5117346205573815,-0.5491815274800729,0.47609049204051745,-0.00045095062132646303,0.9999617218140326,0.006459135467106041,0.005884821090724005
1750932671.0498571,-1.691586915,-1.801199905,-1.217005,1.588078381,0.980611783,-0.589305051,0.016968433,0.012968795,0.029,0.001254514,0.014509754,0.007515487,4.482367439,4.233118143,0.344220406,0.003513537,0.014097858,0.08604749,0.5117346205573815,-0.5491815274800729,0.47609049204051745,-0.00045095062132646303,0.9999617218140326,0.006459135467106041,0.005884821090724005
1750932671.0520594,-1.691516701,-1.801146241,-1.216885,1.588083572,0.980671823,-0.589273952,0.01813867,0.013863195,0.031,0.001341033,0.015510426,0.008033796,4.482088008,4.233300014,0.34424041,0.003514012,0.014097857,0.086029024,0.5117603377869486,-0.5491706600023251,0.476191473120739,-0.0004375379459722037,0.9999615395784417,0.0063937504800219615,0.005987309851489892
1750932671.0546467,-1.691516701,-1.801146241,-1.216885,1.588083572,0.980671823,-0.589273952,0.01813867,0.013863195,0.031,0.001341033,0.015510426,0.008033796,4.482088008,4.233300014,0.34424041,0.003514012,0.014097857,0.086029024,0.5117603377869486,-0.5491706600023251,0.476191473120739,-0.0004375379459722037,0.9999615395784417,0.0063937504800219615,0.005987309851489892
1750932671.055715,-1.691479839,-1.801118067,-1.216822,1.588086297,0.980703344,-0.589257626,0.018723788,0.014310395,0.032,0.001384292,0.016010763,0.008292951,4.48194128,4.233395465,0.344250905,0.003514262,0.014097857,0.086019327,0.5117738336543195,-0.5491649512969883,0.4762444909692683,-0.00043049605691420284,0.9999614378796812,0.0063594269380716694,0.006041118751095179
1750932671.0587788,-1.691441806,-1.801088999,-1.216757,1.588089109,0.980735866,-0.589240781,0.019308906,0.014757595,0.033,0.001427551,0.016511099,0.008552106,4.481789874,4.233493924,0.344261729,0.003514519,0.014097856,0.086009322,0.5117877542516386,-0.5491590579125974,0.47629919422429723,-0.0004232309909169523,0.9999613286008642,0.006324016541711904,0.006096637852373777
1750932671.0607903,-1.691402603,-1.801059037,-1.21669,1.588092008,0.980769389,-0.589223417,0.019894025,0.015204794,0.034,0.00147081,0.017011435,0.008811261,4.481633789,4.233595388,0.34427288,0.003514784,0.014097856,0.085999006,0.5118020994646025,-0.5491529797474067,0.47635558234235725,-0.0004157427609381205,0.999961211335051,0.006287519820136412,0.006153866898589239
1750932671.061735,-1.69136223,-1.80102818,-1.216621,1.588094992,0.980803912,-0.589205535,0.020479143,0.015651994,0.035,0.001514069,0.017511771,0.009070415,4.481473023,4.233699855,0.344284358,0.003515057,0.014097856,0.085988382,0.5118168685033059,-0.5491467174065395,0.4764136561692742,-0.00040803138744508827,0.9999610856698535,0.0062499359168907715,0.006212805919187177
1750932671.063727,-1.69136223,-1.80102818,-1.216621,1.588094992,0.980803912,-0.589205535,0.020479143,0.015651994,0.035,0.001514069,0.017511771,0.009070415,4.481473023,4.233699855,0.344284358,0.003515057,0.014097856,0.085988382,0.5118168685033059,-0.5491467174065395,0.4764136561692742,-0.00040803138744508827,0.9999610856698535,0.0062499359168907715,0.006212805919187177
1750932671.0658064,-1.691320687,-1.800996429,-1.21655,1.588098064,0.980839436,-0.589187135,0.021064261,0.016099194,0.036,0.001557328,0.018012108,0.00932957,4.481307573,4.233807323,0.344296163,0.003515337,0.014097855,0.085977447,0.5118320609198675,-0.5491402701433113,0.47647341525272624,-0.0004000963869333093,0.9999609511605411,0.006211266626320686,0.006273455497878349
1750932671.0677762,-1.691320687,-1.800996429,-1.21655,1.588098064,0.980839436,-0.589187135,0.021064261,0.016099194,0.036,0.001557328,0.018012108,0.00932957,4.481307573,4.233807323,0.344296163,0.003515337,0.014097855,0.085977447,0.5118320609198675,-0.5491402701433113,0.47647341525272624,-0.0004000963869333093,0.9999609511605411,0.006211266626320686,0.006273455497878349
1750932671.0697308,-1.691277973,-1.800963783,-1.216477,1.588101222,0.98087596,-0.589168217,0.02164938,0.016546394,0.037,0.001600587,0.018512444,0.009588725,4.481137438,4.233917789,0.344308294,0.003515626,0.014097855,0.085966203,0.511847676205215,-0.5491336378702616,0.47653486118064703,-0.0003919382852399067,0.9999608073684427,0.006171510832481309,0.006335816086132125
1750932671.071776,-1.691234089,-1.800930243,-1.216402,1.588104466,0.980913486,-0.589148781,0.022234498,0.016993594,0.038,0.001643846,0.01901278,0.00984788,4.480962616,4.234031252,0.34432075,0.003515922,0.014097854,0.085954649,0.5118637139408438,-0.5491268202794114,0.47659799277527437,-0.00038355609312347834,0.999960653837815,0.0061306693797843525,0.006399887024695224
1750932671.07366,-1.691189035,-1.800895809,-1.216325,1.588107797,0.980952012,-0.589128826,0.022819617,0.017440794,0.039,0.001687105,0.019513117,0.010107034,4.480783104,4.234147708,0.344333532,0.003516226,0.014097854,0.085942785,0.511880174324944,-0.5491198164551863,0.47666281025418356,-0.0003749513314355,0.9999604900933823,0.0060887429705537045,0.006465668777491596
1750932671.0756679,-1.691142811,-1.80086048,-1.216246,1.588111215,0.980991538,-0.589108352,0.023404735,0.017887994,0.04,0.001730365,0.020013453,0.010366189,4.480598901,4.234267155,0.344346638,0.003516538,0.014097853,0.085930611,0.5118970571902585,-0.5491126262560427,0.47672931449573674,-0.00036612402509274863,0.9999603156512199,0.006045731624495747,0.006533161947755047
1750932671.0778375,-1.691095416,-1.800824257,-1.216165,1.588114719,0.981032065,-0.589087361,0.023989853,0.018335193,0.041,0.001773624,0.020513789,0.010625344,4.480410004,4.234389592,0.344360068,0.003516858,0.014097853,0.085918126,0.5119143604299067,-0.5491052501414195,0.47679750579840807,-0.00035707269423020197,0.9999601300206419,0.006001635228163402,0.006602366453015316
1750932671.0798275,-1.691046851,-1.800787139,-1.216082,1.588118309,0.981073593,-0.589065851,0.024574972,0.018782393,0.042,0.001816883,0.021014126,0.010884498,4.480216411,4.234515014,0.344373821,0.003517186,0.014097852,0.085905331,0.5119320851984919,-0.5490976870940302,0.47686738432121384,-0.00034779836039204424,0.9999599326931657,0.005956454101352936,0.006673282484530261
1750932671.0832353,-1.690946211,-1.800710221,-1.21591,1.58812575,0.981159651,-0.589021276,0.025745208,0.019676793,0.044,0.001903401,0.022014798,0.011402808,4.479815128,4.234774804,0.344402295,0.003517864,0.014097851,0.085878808,0.5119687957868962,-0.5490819990473466,0.47701220201997385,-0.0003285802635453005,0.9999595008431462,0.005862841018980761,0.006820249535184161
1750932671.0835772,-1.690946211,-1.800710221,-1.21591,1.58812575,0.981159651,-0.589021276,0.025745208,0.019676793,0.044,0.001903401,0.022014798,0.011402808,4.479815128,4.234774804,0.344402295,0.003517864,0.014097851,0.085878808,0.5119687957868962,-0.5490819990473466,0.47701220201997385,-0.0003285802635453005,0.9999595008431462,0.005862841018980761,0.006820249535184161
1750932671.0855355,-1.690894135,-1.80067042,-1.215821,1.5881296,0.981204181,-0.588998212,0.026330327,0.020123993,0.045,0.00194666,0.022515135,0.011661963,4.479607432,4.234909168,0.344417015,0.003518215,0.014097851,0.085865081,0.5119877800514513,-0.5490738739620029,0.4770871430751006,-0.0003186360541956759,0.9999592652439041,0.005814408753920472,0.006896301528973028
1750932671.08757,-1.69084089,-1.800629725,-1.21573,1.588133536,0.981249712,-0.588974629,0.026915445,0.020571193,0.046,0.001989919,0.023015471,0.011921117,4.479395031,4.235046506,0.344432055,0.003518574,0.01409785,0.085851041,0.5120071839228727,-0.5490655605277941,0.47716377094876594,-0.0003084689253063436,0.9999590157925456,0.005764893645087369,0.006974065054639106
1750932671.08959,-1.690786474,-1.800588136,-1.215637,1.588137559,0.981296243,-0.588950527,0.027500564,0.021018392,0.047,0.002033178,0.023515807,0.012180272,4.479177921,4.235186815,0.344447415,0.00351894,0.01409785,0.085836691,0.5120270064677168,-0.5490570579462345,0.47724208736504947,-0.0002980794112530323,0.9999587519113462,0.005714295901141997,0.007053541445358919
1750932671.091607,-1.690730887,-1.800545652,-1.215542,1.588141669,0.981343775,-0.588925908,0.028085682,0.021465592,0.048,0.002076437,0.024016144,0.012439427,4.4789561,4.235330093,0.344463095,0.003519314,0.014097849,0.085822029,0.5120472463304112,-0.5490483670340153,0.4773220932475867,-0.0002874660415343045,0.9999584730159856,0.0056626156007040076,0.0071347313454803605
1750932671.0937896,-1.690674131,-1.800502273,-1.215445,1.588145865,0.981392308,-0.58890077,0.0286708,0.021912792,0.049,0.002119697,0.02451648,0.012698582,4.478729566,4.235476337,0.344479094,0.003519696,0.014097849,0.085807055,0.5120679045097566,-0.5490394868047873,0.4774037874046916,-0.00027662983167223685,0.9999581785173116,0.005609853258710141,0.007217633870761636
1750932671.0956335,-1.690616204,-1.800458,-1.215346,1.588150148,0.981441841,-0.588875113,0.029255919,0.022359992,0.05,0.002162956,0.025016816,0.012957736,4.478498316,4.235625543,0.34449541,0.003520085,0.014097848,0.085791769,0.5120889797789584,-0.5490304162621422,0.47748717091981574,-0.0002655713135710395,0.9999578678010467,0.005556009385105884,0.007302249952883654
1750932671.1027622,-1.690616204,-1.800458,-1.215346,1.588150148,0.981441841,-0.588875113,0.029255919,0.022359992,0.05,0.002162956,0.025016816,0.012957736,4.478498316,4.235625543,0.34449541,0.003520085,0.014097848,0.085791769,0.5120889797789584,-0.5490304162621422,0.47748717091981574,-0.0002655713135710395,0.9999578678010467,0.005556009385105884,0.007302249952883654
1750932671.1028087,-1.690616204,-1.800458,-1.215346,1.588150148,0.981441841,-0.588875113,0.029255919,0.022359992,0.05,0.002162956,0.025016816,0.012957736,4.478498316,4.235625543,0.34449541,0.003520085,0.014097848,0.085791769,0.5120889797789584,-0.5490304162621422,0.47748717091981574,-0.0002655713135710395,0.9999578678010467,0.005556009385105884,0.007302249952883654
1750932671.1028252,-1.69049684,-1.800366772,-1.215142,1.588158973,0.981543909,-0.588822246,0.030426155,0.023254392,0.052,0.002249474,0.026017489,0.013476046,4.478021654,4.235932829,0.344528995,0.003520887,0.014097847,0.08576026,0.5121323777895475,-0.5490117053453668,0.4776590049647907,-0.00024278444445057748,0.9999571952334342,0.005445078579191036,0.007476621955371092
1750932671.1098151,-1.69049684,-1.800366772,-1.215142,1.588158973,0.981543909,-0.588822246,0.030426155,0.023254392,0.052,0.002249474,0.026017489,0.013476046,4.478021654,4.235932829,0.344528995,0.003520887,0.014097847,0.08576026,0.5121323777895475,-0.5490117053453668,0.4776590049647907,-0.00024278444445057748,0.9999571952334342,0.005445078579191036,0.007476621955371092
1750932671.10986,-1.690435402,-1.800319816,-1.215037,1.588163515,0.981596445,-0.588795034,0.031011274,0.023701591,0.053,0.002292733,0.026517825,0.0137352,4.477776237,4.236090902,0.344546261,0.0035213,0.014097847,0.085744037,0.512154700506782,-0.5490020631206531,0.477747457465497,-0.00023105665726750728,0.9999568320993103,0.005387991892802523,0.007566379193248346
1750932671.1098776,-1.690372795,-1.800271965,-1.21493,1.588168144,0.981649981,-0.588767305,0.031596392,0.024148791,0.054,0.002335992,0.027018162,0.013994355,4.477526093,4.236251924,0.344563843,0.00352172,0.014097846,0.085727501,0.5121774377000315,-0.548992230440651,0.4778375996851988,-0.00021910566811739738,0.9999564501903456,0.005329825525756179,0.007657850566166236
1750932671.1123052,-1.690309017,-1.80022322,-1.214821,1.588172859,0.981704517,-0.588739057,0.032181511,0.024595991,0.055,0.002379251,0.027518498,0.01425351,4.477271217,4.236415892,0.344581739,0.003522148,0.014097845,0.085710652,0.5122005890543404,-0.5489822054375187,0.4779294327308709,-0.00020693250869334198,0.9999560488378834,0.005270579206776282,0.00775103646557329
1750932671.1167655,-1.69017795,-1.800123048,-1.214597,1.588182549,0.981816593,-0.588681006,0.033351747,0.025490391,0.057,0.002465769,0.028519171,0.014771819,4.476747261,4.236752649,0.34461847,0.003523027,0.014097844,0.085676015,0.5122481313340339,-0.5489615778310805,0.47811817109017113,-0.0001819167930894975,0.9999551850507129,0.005148849806155552,0.007942552621702431
1750932671.1177275,-1.690110662,-1.80007162,-1.214482,1.588187524,0.981874131,-0.588651204,0.033936866,0.025937591,0.058,0.002509029,0.029019507,0.015030974,4.476478174,4.236925431,0.344637303,0.003523478,0.014097844,0.085658225,0.5122725209693868,-0.5489509751618192,0.47821507696841004,-0.00016907479802550824,0.9999547212110395,0.005086367581364279,0.008040883427352518
1750932671.1227674,-1.689972574,-1.799966081,-1.214246,1.588197733,0.981992211,-0.588590043,0.035107102,0.02683199,0.06,0.002595547,0.03002018,0.015549283,4.475925767,4.237279784,0.344675903,0.003524403,0.014097842,0.085621705,0.5123225351587384,-0.5489291871194262,0.47841396528999125,-0.00014272269732342133,0.9999537260335769,0.004958169374385383,0.008242692415271537
1750932671.1228108,-1.689972574,-1.799966081,-1.214246,1.588197733,0.981992211,-0.588590043,0.035107102,0.02683199,0.06,0.002595547,0.03002018,0.015549283,4.475925767,4.237279784,0.344675903,0.003524403,0.014097842,0.085621705,0.5123225351587384,-0.5489291871194262,0.47841396528999125,-0.00014272269732342133,0.9999537260335769,0.004958169374385383,0.008242692415271537
1750932671.1236372,-1.689901775,-1.799911969,-1.214125,1.588202967,0.982052751,-0.588558685,0.035692221,0.02727919,0.061,0.002638806,0.030520516,0.015808438,4.475642439,4.237461346,0.344695667,0.003524876,0.014097842,0.085602973,0.5123481583544937,-0.5489180016310915,0.47851594833102606,-0.00012921315625709446,0.9999531932153876,0.0048924542960010215,0.008346171174350778
1750932671.1255891,-1.689829805,-1.799856964,-1.214002,1.588208288,0.982114293,-0.588526809,0.036277339,0.02772639,0.062,0.002682065,0.031020852,0.016067593,4.475354358,4.237645828,0.344715739,0.003525358,0.014097841,0.085583926,0.5123741904845002,-0.5489066207703349,0.4786196238310689,-0.00011548016259452663,0.9999526359025235,0.004825663086487356,0.008451366262497751
1750932671.1279666,-1.689756665,-1.799801064,-1.213877,1.588213695,0.982176835,-0.588494415,0.036862458,0.02817359,0.063,0.002725324,0.031521189,0.016326748,4.47506152,4.237833225,0.344736119,0.003525847,0.01409784,0.085564565,0.5124006315624541,-0.548895044641308,0.478724992722208,-0.00010152475232812872,0.9999520533256269,0.004757795521609254,0.008558278118977504
1750932671.129752,-1.689682355,-1.799744269,-1.21375,1.588219189,0.982240378,-0.588461502,0.037447576,0.02862079,0.064,0.002768583,0.032021525,0.016585902,4.474763921,4.238023532,0.344756806,0.003526343,0.014097839,0.085544889,0.5124274815045692,-0.5488832721234862,0.4788320553608364,-8.734696210335036e-05,0.9999514446962853,0.004688852511257851,0.008666907317362455
1750932671.1316528,-1.689606875,-1.799686581,-1.213621,1.58822477,0.982304921,-0.588428071,0.038032694,0.029067989,0.065,0.002811842,0.032521861,0.016845057,4.474461559,4.238216746,0.344777798,0.003526847,0.014097839,0.085524897,0.5124547385372524,-0.5488713028656315,0.4789408107901374,-7.294681835248956e-05,0.9999508092226331,0.004618835095347712,0.00877725333602328
1750932671.1336496,-1.689530224,-1.799627998,-1.21349,1.588230437,0.982370465,-0.588394122,0.038617813,0.029515189,0.066,0.002855102,0.033022198,0.017104212,4.474154428,4.238412863,0.344799094,0.003527359,0.014097838,0.08550459,0.5124824021438279,-0.5488591366161718,0.4790512614205489,-5.832386749311666e-05,0.9999501460930067,0.004547742530896035,0.00888931745262953
1750932671.1358683,-1.689452404,-1.79956852,-1.213357,1.58823619,0.98243701,-0.588359654,0.039202931,0.029962389,0.067,0.002898361,0.033522534,0.017363367,4.473842526,4.238611878,0.344820695,0.003527878,0.014097837,0.085483966,0.5125104726379,-0.5488467726581019,0.47916340616077346,-4.347863696217274e-05,0.9999494544904883,0.004475575886662546,0.00900309914782685
1750932671.1375399,-1.689373413,-1.799508148,-1.213222,1.58824203,0.982504555,-0.588324669,0.039788049,0.030409589,0.068,0.00294162,0.03402287,0.017622521,4.473525848,4.238813786,0.344842598,0.003528404,0.014097837,0.085463027,0.5125389474893165,-0.5488342108724996,0.47927724619217305,-2.8410670504620045e-05,0.9999487335741439,0.004402335804626515,0.00911859944084847
1750932671.1396723,-1.689293251,-1.799446882,-1.213085,1.588247957,0.982573101,-0.588289164,0.040373168,0.030856789,0.069,0.002984879,0.034523207,0.017881676,4.473204392,4.239018584,0.344864803,0.003528938,0.014097836,0.085441771,0.5125678275901854,-0.5488214491698455,0.47939278189589074,-1.3121005687899506e-05,0.9999479824971738,0.004328022827961876,0.009235818646528476
1750932671.1417608,-1.68921192,-1.799384721,-1.212946,1.58825397,0.982642648,-0.588253142,0.040958286,0.031303989,0.07,0.003028138,0.035023543,0.018140831,4.472878153,4.239226267,0.344887309,0.00352948,0.014097835,0.085420198,0.5125971112182532,-0.5488084891280817,0.4795100128530201,2.3918262413506936e-06,0.9999472004073676,0.004252637337438483,0.00935475640640571
1750932671.1438007,-1.689129418,-1.799321666,-1.212805,1.588260069,0.982713195,-0.588216601,0.041543405,0.031751189,0.071,0.003071397,0.035523879,0.018399985,4.472547126,4.23943683,0.344910114,0.003530029,0.014097834,0.085398309,0.5126267979394059,-0.5487953286505025,0.47962894025880914,1.812628233987918e-05,0.9999463864302957,0.004176179600983305,0.009475413467069944
1750932671.1491451,-1.689045746,-1.799257716,-1.212662,1.588266255,0.982784744,-0.588179542,0.042128523,0.032198388,0.072,0.003114656,0.036024216,0.01865914,4.472211309,4.239650269,0.344933218,0.003530585,0.014097834,0.085376102,0.512656886986922,-0.5487819679139457,0.4797495644401411,3.408382038486945e-05,0.9999455396771841,0.004098650588164985,0.00959779044124687
1750932671.1491828,-1.689045746,-1.799257716,-1.212662,1.588266255,0.982784744,-0.588179542,0.042128523,0.032198388,0.072,0.003114656,0.036024216,0.01865914,4.472211309,4.239650269,0.344933218,0.003530585,0.014097834,0.085376102,0.512656886986922,-0.5487819679139457,0.4797495644401411,3.408382038486945e-05,0.9999455396771841,0.004098650588164985,0.00959779044124687
1750932671.1515512,-1.688960904,-1.799192872,-1.212517,1.588272528,0.982857292,-0.588141964,0.042713641,0.032645588,0.073,0.003157915,0.036524552,0.018918295,4.471870697,4.239866578,0.34495662,0.003531149,0.014097833,0.085353577,0.5126873778521353,-0.5487684056495908,0.4798718851408281,5.026240471587482e-05,0.9999446592540902,0.004020051123580637,0.009721887258975366
1750932671.15356,-1.688787709,-1.799060501,-1.212221,1.588285333,0.983005392,-0.588065255,0.043883878,0.033539988,0.075,0.003244434,0.037525225,0.019436604,4.471175072,4.240307791,0.345004312,0.003532299,0.014097831,0.085307575,0.5127495594623849,-0.5487406764093227,0.48012161912215673,8.328804561893996e-05,0.9999427937507804,0.003859641733092771,0.009975242086170975
1750932671.1557136,-1.688699356,-1.798992974,-1.21207,1.588291865,0.983080943,-0.588026122,0.044468996,0.033987188,0.076,0.003287693,0.038025561,0.019695759,4.470820051,4.240532685,0.345028601,0.003532886,0.01409783,0.085284096,0.5127812496473501,-0.5487265071982628,0.4802490332341315,0.00010013351910066068,0.9999418068142489,0.0037778329653952985,0.010104500800099432
1750932671.1580467,-1.688699356,-1.798992974,-1.21207,1.588291865,0.983080943,-0.588026122,0.044468996,0.033987188,0.076,0.003287693,0.038025561,0.019695759,4.470820051,4.240532685,0.345028601,0.003532886,0.01409783,0.085284096,0.5127812496473501,-0.5487265071982628,0.4802490332341315,0.00010013351910066068,0.9999418068142489,0.0037778329653952985,0.010104500800099432
1750932671.15969,-1.68851914,-1.798855236,-1.211762,1.588305188,0.983235046,-0.587946303,0.045639233,0.034881587,0.078,0.003374211,0.039026234,0.020214069,4.470095569,4.240991022,0.345078056,0.00353408,0.014097829,0.085236182,0.512845822858033,-0.5486975588974813,0.4805089577464361,0.0001344910592744311,0.9999397198362844,0.0036110102024196054,0.0103681826375638
1750932671.1616223,-1.688427276,-1.798785026,-1.211605,1.58831198,0.983313599,-0.587905615,0.046224352,0.035328787,0.079,0.00341747,0.03952657,0.020473223,4.4697261,4.241224455,0.345103221,0.003534688,0.014097828,0.085211746,0.5128787048128179,-0.5486827770890802,0.48064146908358596,0.0001520025355506144,0.9999386178589087,0.003525997839543255,0.010502606765940982
1750932671.169402,-1.688427276,-1.798785026,-1.211605,1.58831198,0.983313599,-0.587905615,0.046224352,0.035328787,0.079,0.00341747,0.03952657,0.020473223,4.4697261,4.241224455,0.345103221,0.003534688,0.014097828,0.085211746,0.5128787048128179,-0.5486827770890802,0.48064146908358596,0.0001520025355506144,0.9999386178589087,0.003525997839543255,0.010502606765940982
1750932671.169907,-1.688144664,-1.798569028,-1.211122,1.588332874,0.983555261,-0.587780444,0.047979707,0.036670387,0.082,0.003547247,0.041027579,0.021250687,4.468588726,4.24194175,0.34518045,0.003536557,0.014097825,0.08513652,0.5129797193981254,-0.5486371986372898,0.4810492044090282,0.0002058692655444276,0.9999350661373868,0.0032645624823330614,0.010916215391071684
1750932671.171604,-1.68804812,-1.79849524,-1.210957,1.588340012,0.983637817,-0.587737683,0.048564825,0.037117587,0.083,0.003590506,0.041527915,0.021509842,4.468199931,4.242186496,0.345206767,0.003537195,0.014097825,0.085110803,0.5130141782741982,-0.5486215915851641,0.4811885176825548,0.0002242684569592332,0.9999337969343872,0.0031752871783147446,0.011057531522636253
1750932671.1739707,-1.687950405,-1.798420558,-1.21079,1.588347236,0.983721373,-0.587694404,0.049149943,0.037564786,0.084,0.003633766,0.042028252,0.021768997,4.467806293,4.242434057,0.34523337,0.00353784,0.014097824,0.085084766,0.5130490285445409,-0.5486057764821498,0.48132953297729375,0.0002428892105199403,0.9999324833698875,0.003084947377912866,0.011200571692403901
1750932671.1760395,-1.68785152,-1.798344981,-1.210621,1.588354547,0.98380593,-0.587650607,0.049735062,0.038011986,0.085,0.003677025,0.042528588,0.022028152,4.467407807,4.242684427,0.345260256,0.003538492,0.014097823,0.085058408,0.5130842698414216,-0.5485897528864225,0.48147225068864097,0.0002617319745453861,0.9999311243920014,0.0029935441552574812,0.011345336571123372
1750932671.180371,-1.687751465,-1.79826851,-1.21045,1.588361944,0.983891487,-0.587606292,0.05032018,0.038459186,0.086,0.003720284,0.043028924,0.022287306,4.467004469,4.242937601,0.345287425,0.003539151,0.014097822,0.085031728,0.5131199008939371,-0.548573520034082,0.48161667062507263,0.0002807962087544161,0.9999297189492997,0.0029010780259753504,0.011491825866720892
1750932671.1817,-1.687547843,-1.798112884,-1.210102,1.588376999,0.984065605,-0.587516106,0.051490417,0.039353586,0.088,0.003806802,0.044029597,0.022805616,4.466183215,4.243452338,0.345342606,0.003540491,0.01409782,0.084977402,0.5131923297086394,-0.5485404224478431,0.48191062186666894,0.0003195898605034917,0.9999267643380964,0.0027129599046206935,0.011789981816026833
1750932671.1841862,-1.687444277,-1.79803373,-1.209925,1.588384655,0.984154164,-0.587470235,0.052075535,0.039800786,0.089,0.003850061,0.044529933,0.023064771,4.46576529,4.24371389,0.345370615,0.003541172,0.014097819,0.084949755,0.5132291253775682,-0.548523556483091,0.48206015274229913,0.0003393181946016981,0.9999252130045033,0.00261730898377947,0.01194164790742291
1750932671.1856744,-1.687339541,-1.797953681,-1.209746,1.588392399,0.984243724,-0.587423847,0.052660654,0.040247985,0.09,0.00389332,0.04503027,0.023323925,4.465342493,4.243978223,0.345398902,0.00354186,0.014097818,0.084921785,0.5132663067212355,-0.5485064789089488,0.4822113884378527,0.0003592687850268633,0.999923610828354,0.002520598433852045,0.012095041027697127
1750932671.1875668,-1.687233635,-1.797872738,-1.209565,1.588400229,0.984334285,-0.58737694,0.053245772,0.040695185,0.091,0.003936579,0.045530606,0.02358308,4.464914819,4.24424533,0.345427465,0.003542556,0.014097817,0.084893492,0.5133038734434198,-0.548489187991865,0.4823643287846457,0.00037944059270586696,0.9999219567006074,0.0024228284119809885,0.012250160625531357
1750932671.1896126,-1.687126558,-1.797790901,-1.209382,1.588408145,0.984425847,-0.587329514,0.05383089,0.041142385,0.092,0.003979838,0.046030942,0.023842235,4.464482262,4.244515207,0.345456303,0.003543258,0.014097816,0.084864875,0.5133418242727843,-0.5484716828256276,0.48251897501415913,0.0003998335606787275,0.9999202494819135,0.0023239993502347854,0.012407007542987208
1750932671.1915042,-1.687018311,-1.797708169,-1.209197,1.588416148,0.984518409,-0.587281571,0.054416009,0.041589585,0.093,0.004023098,0.046531279,0.024101389,4.464044818,4.244787847,0.345485415,0.003543968,0.014097816,0.084835934,0.5133801576513267,-0.5484539639298723,0.4826753275626546,0.0004204481310238632,0.9999184880200207,0.002224112363236792,0.01256558249029268
1750932671.1935804,-1.686908894,-1.797624542,-1.20901,1.588424238,0.984611972,-0.587233109,0.055001127,0.042036785,0.094,0.004066357,0.047031615,0.024360544,4.463602481,4.245063243,0.345514798,0.003544684,0.014097815,0.084806669,0.5134188736320956,-0.5484360295224984,0.48283338694055467,0.0004412837495281772,0.9999166711549411,0.0021231681946236136,0.0127258858980895
1750932671.1957676,-1.686798307,-1.797540021,-1.208821,1.588432414,0.984706535,-0.587184129,0.055586246,0.042483985,0.095,0.004109616,0.047531951,0.024619699,4.463155246,4.245341391,0.345544453,0.003545408,0.014097814,0.084777079,0.5134579702914667,-0.5484178792806957,0.48299315300080176,0.000462340370445063,0.9999147977231745,0.0020211674252725033,0.012887917513856728
1750932671.1977837,-1.686686549,-1.797454606,-1.20863,1.588440676,0.9848021,-0.58713463,0.056171364,0.042931184,0.096,0.004152875,0.048032288,0.024878854,4.462703108,4.245622283,0.345574377,0.003546139,0.014097813,0.084747165,0.5134974468589975,-0.5483995117521047,0.4831546269947534,0.0004836184339294333,0.999912866534631,0.0019181105388295506,0.013051678193570516
1750932671.1996427,-1.686573621,-1.797368297,-1.208437,1.588449025,0.984898665,-0.587084613,0.056756482,0.043378384,0.097,0.004196134,0.048532624,0.025138008,4.462246061,4.245905913,0.345604569,0.003546877,0.014097812,0.084716924,0.5135373020234599,-0.5483809267410807,0.4833178087181526,0.0005051173833220442,0.9999108763923544,0.0018139989584051194,0.013217168247459518
1750932671.2016351,-1.686459523,-1.797281093,-1.208242,1.588457461,0.98499623,-0.587034078,0.057341601,0.043825584,0.098,0.004239393,0.04903296,0.025397163,4.4617841,4.246192276,0.345635027,0.003547621,0.014097811,0.084686358,0.5135775349488355,-0.5483621236294806,0.48348269936147426,0.0005268371570813233,0.9999088260812398,0.001708833164414999,0.013384388542739309
1750932671.2035673,-1.686344255,-1.797192994,-1.208045,1.588465983,0.985094796,-0.586983025,0.057926719,0.044272784,0.099,0.004282652,0.049533297,0.025656318,4.461317219,4.246481363,0.345665751,0.003548373,0.01409781,0.084655465,0.5136181444677905,-0.5483431017184096,0.48364929945763524,0.0005487782025030046,0.9999067143825952,0.0016026135124973706,0.013553339257069662
1750932671.2057414,-1.686227816,-1.797104002,-1.207846,1.588474591,0.985194363,-0.586931453,0.058511837,0.044719984,0.1,0.004325911,0.050033633,0.025915472,4.460845413,4.24677317,0.345696738,0.003549132,0.014097809,0.084624246,0.5136591292528572,-0.5483238591839165,0.48381760895623643,0.0005709399657606251,0.9999045400666166,0.0014953410598143458,0.013724020432747194
1750932671.207719,-1.686110207,-1.797014114,-1.207645,1.588483286,0.985294931,-0.586879363,0.059096956,0.045167184,0.101,0.00436917,0.050533969,0.026174627,4.460368675,4.247067689,0.345727988,0.003549898,0.014097808,0.0845927,0.5137004887092609,-0.5483043963059614,0.48398762965479025,0.0005933228735264828,0.9999023018702062,0.0013870164446830387,0.013896433643661606
1750932671.2097616,-1.685991428,-1.796923333,-1.207442,1.588492068,0.985396499,-0.586826754,0.059682074,0.045614383,0.102,0.00441243,0.051034306,0.026433782,4.459887002,4.247364914,0.345759498,0.003550671,0.014097807,0.084560826,0.513742221484146,-0.548284711243277,0.4841593601201312,0.0006159258790970052,0.9998999985497332,0.0012776412869522876,0.014070578108121594
1750932671.2128086,-1.685871479,-1.796831657,-1.207237,1.588500936,0.985499068,-0.586773628,0.060267193,0.046061583,0.103,0.004455689,0.051534642,0.026692937,4.459400386,4.247664838,0.345791268,0.00355145,0.014097806,0.084528625,0.5137843257749253,-0.548264804630394,0.4843328022260517,0.0006387504182671599,0.9998976288251517,0.0011672154078499212,0.014246454854943684
1750932671.219841,-1.685871479,-1.796831657,-1.207237,1.588500936,0.985499068,-0.586773628,0.060267193,0.046061583,0.103,0.004455689,0.051534642,0.026692937,4.459400386,4.247664838,0.345791268,0.00355145,0.014097806,0.084528625,0.5137843257749253,-0.548264804630394,0.4843328022260517,0.0006387504182671599,0.9998976288251517,0.0011672154078499212,0.014246454854943684
1750932671.2198927,-1.68575036,-1.796739087,-1.20703,1.588509891,0.985602638,-0.586719982,0.060852311,0.046508783,0.104,0.004498948,0.052034978,0.026952091,4.458908822,4.247967455,0.345823295,0.003552237,0.014097805,0.084496095,0.5138268018748482,-0.548244673823667,0.4845079558725104,0.0006617949286376014,0.999895191413209,0.0010557403281282595,0.01442406421831173
1750932671.2199135,-1.68562807,-1.796645622,-1.206821,1.588518932,0.985707208,-0.586665819,0.061437429,0.046955983,0.105,0.004542207,0.052535314,0.027211246,4.458412304,4.248272757,0.345855579,0.00355303,0.014097804,0.084463237,0.5138696469015307,-0.548224319617669,0.4846848230136398,0.0006850603447364457,0.999892685008359,0.0009432158640014228,0.01460340723709541
1750932671.222062,-1.68562807,-1.796645622,-1.206821,1.588518932,0.985707208,-0.586665819,0.061437429,0.046955983,0.105,0.004542207,0.052535314,0.027211246,4.458412304,4.248272757,0.345855579,0.00355303,0.014097804,0.084463237,0.5138696469015307,-0.548224319617669,0.4846848230136398,0.0006850603447364457,0.999892685008359,0.0009432158640014228,0.01460340723709541
1750932671.2237484,-1.68537998,-1.796456009,-1.206397,1.588537274,0.985919351,-0.586555938,0.062607666,0.047850383,0.107,0.004628725,0.053535987,0.027729556,4.457404382,4.24889139,0.345920908,0.003554638,0.014097802,0.084396532,0.5139564415526727,-0.5481829355071715,0.48504369654580765,0.0007322531523954296,0.9998874599855858,0.0007150243473404342,0.014967294647904316
1750932671.2256343,-1.685254179,-1.796359861,-1.206182,1.588546574,0.986026923,-0.586500219,0.063192784,0.048297583,0.108,0.004671984,0.054036323,0.02798871,4.456892966,4.249204707,0.345953951,0.003555452,0.014097801,0.084362686,0.5140003889997877,-0.5481619032879913,0.4852257048170618,0.0007561794175162043,0.9998847387084647,0.0005993582718298582,0.015151840160714984
1750932671.2276716,-1.685127209,-1.796262819,-1.205965,1.588555962,0.986135496,-0.586443983,0.063777903,0.048744782,0.109,0.004715243,0.05453666,0.028247865,4.456376573,4.249520682,0.345987244,0.003556273,0.0140978,0.084328509,0.5140447009404263,-0.548140644185101,0.48540942676457144,0.000780326833205101,0.999881943130199,0.00048264782112988046,0.015338120591900217
1750932671.2296708,-1.684999068,-1.796164882,-1.205746,1.588565435,0.98624507,-0.586387228,0.064363021,0.049191982,0.11,0.004758503,0.055036996,0.02850702,4.455855195,4.249839307,0.346020786,0.0035571,0.014097799,0.084294002,0.5140893767896602,-0.548119156407999,0.4855948650937666,0.0008046943388539021,0.9998790718857657,0.000364891786873149,0.01552613686222377
1750932671.2316592,-1.684869757,-1.796066051,-1.205525,1.588574996,0.986355644,-0.586329955,0.06494814,0.049639182,0.111,0.004801762,0.055537332,0.028766174,4.455328827,4.250160575,0.346054574,0.003557934,0.014097797,0.084259163,0.5141344149474224,-0.548097439286859,0.4857820190094557,0.0008292818576040399,0.9998761236013356,0.0002460928201472119,0.015715889471838985
1750932671.2345572,-1.684739275,-1.795966325,-1.205302,1.588584642,0.986467219,-0.586272163,0.065533258,0.050086382,0.112,0.004845021,0.056037669,0.029025329,4.454797462,4.250484479,0.346088607,0.003558775,0.014097796,0.084223993,0.5141798145094048,-0.5480754916969574,0.4859708904950415,0.0008540893322625344,0.9998730968917088,0.000126250005857601,0.015907378933442403
1750932671.2357442,-1.684607623,-1.795865705,-1.205077,1.588594376,0.986579795,-0.586213853,0.066118376,0.050533582,0.113,0.00488828,0.056538005,0.029284484,4.454261095,4.250811012,0.346122884,0.003559623,0.014097795,0.084188491,0.5142255738520577,-0.5480533129527743,0.48616147876430305,0.0008791171836632894,0.9998699903580058,5.366019257084568e-06,0.016100605754584232
1750932671.2375631,-1.684474802,-1.795764191,-1.20485,1.588604195,0.986693371,-0.586155025,0.066703495,0.050980782,0.114,0.004931539,0.057038341,0.029543639,4.453719718,4.251140165,0.346157402,0.003560477,0.014097794,0.084152656,0.5142716917550563,-0.5480309025977212,0.4863537836847693,0.0009043648671320164,0.9998668026104163,-0.00011655923349125086,0.016295569206229692
1750932671.239604,-1.68434081,-1.795661782,-1.204621,1.588614102,0.986807948,-0.586095679,0.067288613,0.051427981,0.115,0.004974798,0.057538678,0.029802793,4.453173326,4.251471933,0.346192161,0.003561339,0.014097793,0.084116489,0.5143181668611423,-0.5480082592449085,0.4865478079978283,0.000929832778943696,0.9998635321918006,-0.00023952442586991005,0.016492271886812526
1750932671.241773,-1.684205647,-1.795558479,-1.20439,1.588624095,0.986923526,-0.586035814,0.067873731,0.051875181,0.116,0.005018057,0.058039014,0.030061948,4.452621911,4.251806306,0.346227158,0.003562206,0.014097792,0.084079988,0.5143649980304386,-0.5479853814730243,0.4867435516517713,0.0009555203664375757,0.9998601776824402,-0.00036352920182001873,0.0166907133516766
1750932671.2440012,-1.684069315,-1.795454281,-1.204157,1.588634174,0.987040104,-0.585975431,0.06845885,0.052322381,0.117,0.005061316,0.05853935,0.030321103,4.452065468,4.252143278,0.346262391,0.00356308,0.014097791,0.084043154,0.5144121841587687,-0.5479622693609014,0.48694101446462357,0.0009814275626630602,0.9998567376412385,-0.0004885723885207952,0.016890893711695467
1750932671.2462292,-1.683931812,-1.795349189,-1.203922,1.58864434,0.987157683,-0.58591453,0.069043968,0.052769581,0.118,0.005104575,0.059039687,0.030580258,4.45150399,4.252482841,0.34629786,0.003563961,0.01409779,0.084005985,0.5144597232179036,-0.5479389213560167,0.487140197862845,0.0010075547835537053,0.9998532105955188,-0.0006146529153094931,0.017092814191500955
1750932671.2479932,-1.683793139,-1.795243203,-1.203685,1.588654592,0.987276263,-0.58585311,0.069629087,0.053216781,0.119,0.005147835,0.059540023,0.030839412,4.45093747,4.252824986,0.346333562,0.003564849,0.014097789,0.083968482,0.5145076146040445,-0.5479153362529485,0.4873411017405127,0.0010339014676624268,0.9998495950843153,-0.0007417699844324597,0.017296474634333495
1750932671.249898,-1.683653295,-1.795136322,-1.203446,1.588664931,0.987395843,-0.585791172,0.070214205,0.053663981,0.12,0.005191094,0.060040359,0.031098567,4.450365901,4.253169707,0.346369496,0.003565743,0.014097788,0.083930644,0.5145558564750641,-0.5478915135009195,0.4875437281262327,0.0010604675246274594,0.9998458896026491,-0.0008699228098561334,0.017501876688553755
1750932671.2517936,-1.683512282,-1.795028547,-1.203205,1.588675357,0.987516424,-0.585728716,0.070799323,0.05411118,0.121,0.005234353,0.060540696,0.031357722,4.449789277,4.253516995,0.346405659,0.003566643,0.014097787,0.08389247,0.5146044477235509,-0.5478674522985115,0.48774807553078164,0.001087253392723733,0.9998420926742325,-0.0009991096085050408,0.017709019647110136
1750932671.2539139,-1.683370098,-1.794919878,-1.202962,1.588685869,0.987638006,-0.585665741,0.071384442,0.05455838,0.122,0.005277612,0.061041032,0.031616876,4.44920759,4.253866842,0.346442051,0.00356755,0.014097786,0.08385396,0.5146533869425344,-0.5478431509073681,0.48795414605638476,0.0011142584949573441,0.9998382027783673,-0.0011293303853385358,0.017917904615541307
1750932671.2559235,-1.683226744,-1.794810314,-1.202717,1.588696467,0.987760588,-0.585602248,0.07196956,0.05500558,0.123,0.005320871,0.061541368,0.031876031,4.448620835,4.25421924,0.346478668,0.003568464,0.014097784,0.083815114,0.514702672699846,-0.5478186091887487,0.48816194027963716,0.0011414827549437005,0.9998342183916901,-0.0012605841948527753,0.018128532143725676
1750932671.2588,-1.68308222,-1.794699855,-1.20247,1.588707152,0.987884171,-0.585538237,0.072554678,0.05545278,0.124,0.00536413,0.062041705,0.032135186,4.448029003,4.254574182,0.34651551,0.003569384,0.014097783,0.08377593,0.5147523036559952,-0.5477938260475701,0.48837145885254607,0.0011689265873290754,0.9998301379732716,-0.001392869639474571,0.018340903062538473
1750932671.2634068,-1.682936525,-1.794588503,-1.202221,1.588717924,0.988008755,-0.585473707,0.073139797,0.05589998,0.125,0.005407389,0.062542041,0.032394341,4.447432088,4.254931658,0.346552575,0.00357031,0.014097782,0.08373641,0.5148022781843244,-0.5477687994602805,0.48858270183470776,0.0011965894182257985,0.9998259599834243,-0.0015261854540483536,0.018555017514084504
1750932671.2636416,-1.682641626,-1.794363114,-1.201717,1.588739726,0.988260925,-0.585343093,0.074310033,0.056794379,0.127,0.005493907,0.063542714,0.03291265,4.446222982,4.255654183,0.346627364,0.003572182,0.01409778,0.083656354,0.5149032529276623,-0.5477180153983771,0.48901036470967674,0.0012525727735325145,0.999817305030166,-0.0017959060704480407,0.01898847927163242
1750932671.2719607,-1.682492421,-1.794249078,-1.201462,1.588750757,0.98838851,-0.585277009,0.074895152,0.057241579,0.128,0.005537167,0.06404305,0.033171805,4.445610776,4.256019214,0.346665085,0.003573127,0.014097779,0.083615819,0.5149542498060358,-0.5476922554382809,0.4892267860025392,0.0012808926290126402,0.9998128249037828,-0.0019323084629670033,0.019207827987429586
1750932671.272012,-1.682492421,-1.794249078,-1.201462,1.588750757,0.98838851,-0.585277009,0.074895152,0.057241579,0.128,0.005537167,0.06404305,0.033171805,4.445610776,4.256019214,0.346665085,0.003573127,0.014097779,0.083615819,0.5149542498060358,-0.5476922554382809,0.4892267860025392,0.0012808926290126402,0.9998128249037828,-0.0019323084629670033,0.019207827987429586
1750932671.2726347,-1.682190499,-1.794018323,-1.200946,1.588773079,0.988646684,-0.585143285,0.076065389,0.058135979,0.13,0.005623685,0.065043723,0.033690114,4.444371021,4.256756774,0.34674117,0.003575037,0.014097777,0.083533729,0.5150572560873634,-0.5476399932691688,0.48966481238565324,0.0013381892819255739,0.9998035513498312,-0.0022081925665789846,0.019651764381343518
1750932671.2762249,-1.681883897,-1.79378399,-1.200422,1.588795747,0.98890886,-0.585007488,0.077235625,0.059030379,0.132,0.005710203,0.066044395,0.034208424,4.443110762,4.257504272,0.346818101,0.003576971,0.014097774,0.083450277,0.5151616023854477,-0.5475867359092371,0.49010975350988223,0.0013963604836697415,0.999793849280876,-0.002488175347158117,0.02010268889901415
1750932671.2775235,-1.681883897,-1.79378399,-1.200422,1.588795747,0.98890886,-0.585007488,0.077235625,0.059030379,0.132,0.005710203,0.066044395,0.034208424,4.443110762,4.257504272,0.346818101,0.003576971,0.014097774,0.083450277,0.5151616023854477,-0.5475867359092371,0.49010975350988223,0.0013963604836697415,0.999793849280876,-0.002488175347158117,0.02010268889901415
1750932671.2776906,-1.681728841,-1.793665482,-1.200157,1.58880721,0.989041449,-0.584938812,0.077820744,0.059477578,0.133,0.005753462,0.066544732,0.034467578,4.442472924,4.257881726,0.346856878,0.003577948,0.014097773,0.08340804,0.5152142742348521,-0.5475597313397607,0.49033481864345163,0.0014257738993384945,0.9997888334616056,-0.002629701379171426,0.02033077285609924
1750932671.280224,-1.681572614,-1.79354608,-1.19989,1.588818761,0.989175039,-0.584869618,0.078405862,0.059924778,0.134,0.005796721,0.067045068,0.034726733,4.441829938,4.258261639,0.346895861,0.003578931,0.014097772,0.083365461,0.5152672761235997,-0.5475324744938203,0.4905616149267229,0.0014554060554011579,0.9997837055600055,-0.002772248449744597,0.02056060622771203
1750932671.2818637,-1.681415218,-1.793425783,-1.199621,1.588830397,0.98930963,-0.584799905,0.07899098,0.060371978,0.135,0.00583998,0.067545404,0.034985888,4.441181796,4.258644001,0.346935047,0.00357992,0.014097771,0.083322539,0.5153206076325976,-0.5475049645688728,0.4907901422493433,0.0014852563972320091,0.9997784639262404,-0.0029158164605862986,0.02079218836702793
1750932671.2838016,-1.681256651,-1.793304592,-1.19935,1.588842121,0.989445221,-0.584729674,0.079576099,0.060819178,0.136,0.005883239,0.068045741,0.035245043,4.44052849,4.259028804,0.346974434,0.003580915,0.01409777,0.083279275,0.5153742660886383,-0.5474772001871419,0.49102040211684816,0.0015153248040360042,0.9997731068516641,-0.0030604033829638275,0.021025521112278123
1750932671.285666,-1.681096913,-1.793182506,-1.199077,1.58885393,0.989581813,-0.584658925,0.080161217,0.061266378,0.137,0.005926499,0.068546077,0.035504197,4.439870013,4.259416038,0.347014021,0.003581916,0.014097769,0.083235667,0.5154282499826853,-0.5474491807027835,0.4912523958909491,0.0015456117109006763,0.9997676326407593,-0.0032060096524515426,0.021260604658367065
1750932671.28757,-1.680936006,-1.793059526,-1.198802,1.588865827,0.989719405,-0.584587657,0.080746336,0.061713578,0.138,0.005969758,0.069046413,0.035763352,4.439206356,4.259805695,0.347053806,0.003582923,0.014097767,0.083191716,0.5154825587463988,-0.5474209043765039,0.49148612215715887,0.0015761160126948497,0.9997620395998418,-0.0033526321012939345,0.021497439184058553
1750932671.2895553,-1.680773928,-1.792935652,-1.198525,1.588877809,0.989857998,-0.584515872,0.081331454,0.062160778,0.139,0.006013017,0.06954675,0.036022507,4.438537512,4.260197766,0.347093785,0.003583937,0.014097766,0.08314742,0.5155371889844289,-0.5473923710701194,0.49172158308443187,0.0016068391387168916,0.9997563259973462,-0.0035002714446721885,0.021736025305561325
1750932671.291556,-1.68061068,-1.792810883,-1.198246,1.588889879,0.989997592,-0.584443567,0.081916572,0.062607977,0.14,0.006056276,0.070047086,0.036281661,4.437863474,4.260592241,0.347133959,0.003584956,0.014097765,0.083102779,0.515592141436772,-0.5473635781551639,0.4919587793272091,0.0016377794676632146,0.9997504900861636,-0.003648925290748638,0.021976364465345226
1750932671.293666,-1.680446262,-1.79268522,-1.197965,1.588902034,0.990138187,-0.584370745,0.082501691,0.063055177,0.141,0.006099535,0.070547422,0.036540816,4.437184233,4.260989112,0.347174323,0.003585981,0.014097764,0.083057793,0.5156474124051007,-0.5473345261715495,0.4921977109336316,0.0016689384413757597,0.9997445301391881,-0.0037985935338618573,0.02221845603135672
1750932671.295642,-1.680280673,-1.792558662,-1.197682,1.588914277,0.990279782,-0.584297404,0.083086809,0.063502377,0.142,0.006142794,0.071047759,0.036799971,4.436499781,4.261388368,0.347214877,0.003587012,0.014097763,0.083012461,0.5157030015373095,-0.5473052126465319,0.49243838003010526,0.0017003144267376045,0.9997384443639108,-0.003949274336823621,0.02246230228383115
1750932671.297658,-1.680113914,-1.792431211,-1.197397,1.588926606,0.990422378,-0.584223545,0.083671927,0.063949577,0.143,0.006186053,0.071548095,0.037059126,4.43581011,4.26179,0.347255617,0.003588049,0.014097762,0.082966782,0.515758906281015,-0.5472756369839883,0.4926807852770599,0.0017319083631387147,0.9997322310255699,-0.004100966576855394,0.022707902042984524
1750932671.2998483,-1.680113914,-1.792431211,-1.197397,1.588926606,0.990422378,-0.584223545,0.083671927,0.063949577,0.143,0.006186053,0.071548095,0.037059126,4.43581011,4.26179,0.347255617,0.003588049,0.014097762,0.082966782,0.515758906281015,-0.5472756369839883,0.4926807852770599,0.0017319083631387147,0.9997322310255699,-0.004100966576855394,0.022707902042984524
1750932671.301687,-1.679945985,-1.792302864,-1.19711,1.588939021,0.990565974,-0.584149168,0.084257046,0.064396777,0.144,0.006229312,0.072048431,0.03731828,4.435115213,4.262194,0.347296543,0.003589092,0.014097761,0.082920756,0.515815125726876,-0.5472457985176844,0.4929249294006842,0.001763719641731968,0.9997258883076775,-0.004253669949309137,0.022955257184638714
1750932671.3036604,-1.679776886,-1.792173623,-1.196821,1.588951523,0.990710571,-0.584074272,0.084842164,0.064843977,0.145,0.006272572,0.072548768,0.037577435,4.434415081,4.262600357,0.347337651,0.003590141,0.014097759,0.082874383,0.51587165832494,-0.5472156951407604,0.4931708118071694,0.0017957481644173146,0.9997194144286251,-0.004407382314045887,0.02320436778183832
1750932671.3055897,-1.679606617,-1.792043488,-1.19653,1.588964111,0.990856169,-0.583998858,0.085427283,0.065291176,0.146,0.006315831,0.073049104,0.03783659,4.433709705,4.263009062,0.34737894,0.003591196,0.014097758,0.082827662,0.5159285017856172,-0.5471853262925173,0.4934184332324092,0.0018279943444114504,0.9997128075815169,-0.004562102941697784,0.023455234189981664
1750932671.307648,-1.679435177,-1.791912459,-1.196237,1.588976786,0.991002768,-0.583922926,0.086012401,0.065738376,0.147,0.00635909,0.07354944,0.038095745,4.432999078,4.263420105,0.347420408,0.003592256,0.014097757,0.082780592,0.5159856542211146,-0.5471546905214695,0.49366779515235515,0.0018604580676921045,0.9997060659276162,-0.004717830522523015,0.023707857736783657
1750932671.3095868,-1.679262567,-1.791780535,-1.195942,1.588989548,0.991150367,-0.583846475,0.086597519,0.066185576,0.148,0.006402349,0.074049777,0.038354899,4.432283191,4.263833476,0.347462052,0.003593322,0.014097756,0.082733173,0.5160431149824618,-0.5471237864573297,0.4939188982461,0.0018931382348676279,0.99969918763285,-0.004874563880784896,0.023962239060981584
1750932671.3117669,-1.679088787,-1.791647716,-1.195645,1.589002396,0.991298967,-0.583769506,0.087182638,0.066632776,0.149,0.006445608,0.074550113,0.038614054,4.431562036,4.264249167,0.34750387,0.003594394,0.014097755,0.082685404,0.5161008817413514,-0.5470926135152533,0.4941717432608949,0.0019260357564719118,0.9996921708514616,-0.0050323022498169325,0.02421837853002261
1750932671.3142076,-1.678913837,-1.791514004,-1.195346,1.58901533,0.991448567,-0.583692019,0.087767756,0.067079976,0.15,0.006488867,0.075050449,0.038873209,4.430835605,4.264667166,0.34754586,0.003595472,0.014097754,0.082637285,0.5161589522750495,-0.5470611701636512,0.4944263296175624,0.001959150040583756,0.9996850137467811,-0.00519104389960908,0.02447627595139212
1750932671.3158739,-1.678737716,-1.791379396,-1.195045,1.589028351,0.991599169,-0.583614013,0.088352874,0.067527176,0.151,0.006532126,0.075550786,0.039132363,4.430103889,4.265087464,0.347588019,0.003596555,0.014097752,0.082588815,0.5162173259301571,-0.5470294548908898,0.494682660804836,0.0019924814546912286,0.999677714393648,-0.0053507882727592635,0.024735933926264227
1750932671.3178055,-1.678560425,-1.791243895,-1.194742,1.589041459,0.991750771,-0.583535489,0.088937993,0.067974375,0.152,0.006575385,0.076051122,0.039391518,4.429366879,4.265510051,0.347630346,0.003597644,0.014097751,0.082539993,0.5162759999267854,-0.5469974666760137,0.49494073485203804,0.002026029413570067,0.9996702709540425,-0.005511533097099835,0.024997351427826196
1750932671.3196735,-1.678381964,-1.791107499,-1.194437,1.589054653,0.991903373,-0.583456447,0.089523111,0.068421575,0.153,0.006618644,0.076551458,0.039650673,4.428624566,4.265934917,0.347672839,0.003598738,0.01409775,0.08249082,0.516334972925463,-0.5469652047120728,0.4952005538528048,0.002059793815464349,0.9996626815108769,-0.005673278121082867,0.025260529671437288
1750932671.321708,-1.678202333,-1.790970209,-1.19413,1.589067933,0.992056976,-0.583376887,0.09010823,0.068868775,0.154,0.006661904,0.077051795,0.039909828,4.427876943,4.266362051,0.347715494,0.003599838,0.014097749,0.082441294,0.5163942428992666,-0.5469326675991256,0.4954621179076456,0.0020937750595126886,0.9996549441645523,-0.005836021830204661,0.025525468899974337
1750932671.3288004,-1.678021531,-1.790832024,-1.193821,1.5890813,0.99221158,-0.583296808,0.090693348,0.069315975,0.155,0.006705163,0.077552131,0.040168982,4.427124001,4.266791445,0.34775831,0.003600944,0.014097748,0.082391415,0.5164538086482299,-0.5468998534666751,0.4957254291878345,0.0021279725179435133,0.9996470569638871,-0.005999763106240355,0.0257921708871264
1750932671.329585,-1.677656417,-1.790552971,-1.193197,1.589108294,0.99252379,-0.583135095,0.091863585,0.070210375,0.157,0.006791681,0.078552804,0.040687292,4.425602122,4.267656965,0.347844415,0.003603171,0.014097745,0.082290595,0.5165738193692762,-0.5468333904469086,0.49625729299070676,0.0021970161811674088,0.999630825309173,-0.006330232453167363,0.026330863424700587
1750932671.32995,-1.677472105,-1.790412103,-1.192882,1.589121921,0.992681396,-0.583053461,0.092448703,0.070657574,0.158,0.00683494,0.07905314,0.040946447,4.424833168,4.268093072,0.347887699,0.003604293,0.014097744,0.082239653,0.5166342606889671,-0.546799739029067,0.4965258470709287,0.002231862167489394,0.9996224769467499,-0.0064969580076536465,0.02660285531210047
1750932671.331767,-1.677286622,-1.790270341,-1.192565,1.589135634,0.992840003,-0.582971309,0.093033821,0.071104774,0.159,0.006878199,0.079553476,0.041205601,4.424058859,4.268531397,0.347931134,0.003605421,0.014097743,0.082188356,0.516694989621084,-0.5467658059817065,0.4967961508227754,0.002266924448386279,0.9996139709281588,-0.006664676252093282,0.026876611937483072
1750932671.333806,-1.677286622,-1.790270341,-1.192565,1.589135634,0.992840003,-0.582971309,0.093033821,0.071104774,0.159,0.006878199,0.079553476,0.041205601,4.424058859,4.268531397,0.347931134,0.003605421,0.014097743,0.082188356,0.516694989621084,-0.5467658059817065,0.4967961508227754,0.002266924448386279,0.9996139709281588,-0.006664676252093282,0.026876611937483072
1750932671.3356712,-1.67709997,-1.790127684,-1.192246,1.589149433,0.99299961,-0.582888639,0.09361894,0.071551974,0.16,0.006921458,0.080053813,0.041464756,4.423279185,4.268971927,0.347974719,0.003606553,0.014097742,0.082136703,0.5167560050791892,-0.5467315905291349,0.4970682042358424,0.0023022024170935088,0.9996053052820515,-0.006833385645751307,0.027152133555648612
1750932671.337722,-1.676912147,-1.789984133,-1.191925,1.589163319,0.993160218,-0.58280545,0.094204058,0.071999174,0.161,0.006964717,0.080554149,0.041723911,4.422494139,4.269414654,0.34801845,0.003607691,0.014097741,0.082084693,0.5168173050295367,-0.5466970902547884,0.49734200890006597,0.002337695942958563,0.9995964779928508,-0.007003084728844576,0.027429421544154186
1750932671.3397336,-1.676723153,-1.789839687,-1.191602,1.589177292,0.993321827,-0.582721743,0.094789177,0.072446374,0.162,0.007007976,0.081054485,0.041983065,4.421703711,4.269859565,0.348062325,0.003608835,0.01409774,0.082032326,0.5168788872840737,-0.5466623045352406,0.49761756627652554,0.0023734054069376536,0.999587487035223,-0.007173772491009842,0.027708476999453432
1750932671.342716,-1.67653299,-1.789694347,-1.191277,1.589191351,0.993484436,-0.582637518,0.095374295,0.072893574,0.163,0.007051236,0.081554822,0.04224222,4.420907891,4.270306652,0.348106342,0.003609983,0.014097739,0.081979602,0.5169407501654838,-0.5466272323468164,0.4978948750275204,0.0024093302215477835,0.9995783304324319,-0.00734544723557633,0.027989299074911295
1750932671.3438983,-1.676341656,-1.789548113,-1.19095,1.589205497,0.993648046,-0.582552775,0.095959413,0.073340773,0.164,0.007094495,0.082055158,0.042501375,4.420106671,4.270755902,0.348150499,0.003611137,0.014097737,0.081926519,0.5170028912974244,-0.5465918719268424,0.49817393741975957,0.0024454707475308787,0.9995690061164082,-0.0075181077634644995,0.028271889571369755
1750932671.346105,-1.676149152,-1.789400984,-1.190621,1.589219729,0.993812657,-0.582467513,0.096544532,0.073787973,0.165,0.007137754,0.082555494,0.04276053,4.41930004,4.271207305,0.348194793,0.003612296,0.014097736,0.081873077,0.5170653097464815,-0.5465562218661452,0.4984547541895856,0.0024818263816617915,0.9995595120449048,-0.007691753154259678,0.028556248909422884
1750932671.348057,-1.675955478,-1.789252961,-1.19029,1.589234048,0.993978268,-0.582381732,0.09712965,0.074235173,0.166,0.007181013,0.083055831,0.043019684,4.418487991,4.271660849,0.348239221,0.00361346,0.014097735,0.081819275,0.5171280033954303,-0.5465202805743156,0.49873732547733235,0.002518396496478583,0.9995498461683665,-0.007866381396803889,0.02884237763433053
1750932671.3543828,-1.675955478,-1.789252961,-1.19029,1.589234048,0.993978268,-0.582381732,0.09712965,0.074235173,0.166,0.007181013,0.083055831,0.043019684,4.418487991,4.271660849,0.348239221,0.00361346,0.014097735,0.081819275,0.5171280033954303,-0.5465202805743156,0.49873732547733235,0.002518396496478583,0.9995498461683665,-0.007866381396803889,0.02884237763433053
1750932671.3544307,-1.675564619,-1.788954232,-1.189622,1.589262945,0.994312493,-0.582208617,0.098299887,0.075129573,0.168,0.007267531,0.084056503,0.043537994,4.416847596,4.27257432,0.348328471,0.003615803,0.014097733,0.081710591,0.5172542061405281,-0.546447521177106,0.4993077362422673,0.0025921832064627107,0.9995299906692762,-0.008218582459415933,0.029419946316376865
1750932671.3557172,-1.675367434,-1.788803525,-1.189285,1.589277524,0.994481106,-0.582121282,0.098885005,0.075576773,0.169,0.00731079,0.08455684,0.043797148,4.416019232,4.273034224,0.348373288,0.003616983,0.014097732,0.081655708,0.5173177121482261,-0.5464106999126411,0.49959557801750587,0.002629398540536062,0.9995197968470545,-0.008396152424590261,0.02971138836541934
1750932671.3577635,-1.675169079,-1.788651925,-1.188946,1.589292188,0.99465072,-0.582033428,0.099470124,0.076023972,0.17,0.007354049,0.085057176,0.044056303,4.415185411,4.273496225,0.348418229,0.003618167,0.014097731,0.081600462,0.5173814851026528,-0.5463735820438501,0.49988517689220446,0.002666828404270612,0.9995094228771518,-0.0085747003687224,0.03000460164094105
1750932671.3596623,-1.674969554,-1.78849943,-1.188605,1.58930694,0.994821335,-0.581945057,0.100055242,0.076471172,0.171,0.007397308,0.085557512,0.044315458,4.414346123,4.273960313,0.348463292,0.003619356,0.014097729,0.081544854,0.5174455225844006,-0.5463361672609998,0.5001765350309659,0.002704473619363437,0.9994988665913099,-0.00875422423649964,0.030299588497967638
1750932671.3618429,-1.674768858,-1.78834604,-1.188262,1.589321778,0.99499295,-0.581856167,0.10064036,0.076918372,0.172,0.007440568,0.086057848,0.044574613,4.413501358,4.274426475,0.348508475,0.00362055,0.014097728,0.081488882,0.5175098232736195,-0.5462984531685745,0.5004696539862241,0.0027423325864712913,0.9994881258522649,-0.008934723736715451,0.03059634952181282
1750932671.3637629,-1.674566992,-1.788191756,-1.187917,1.589336702,0.995165566,-0.581766758,0.101225479,0.077365572,0.173,0.007483827,0.086558185,0.044833767,4.412651107,4.2748947,0.348553775,0.00362175,0.014097727,0.081432547,0.5175743851642303,-0.546260438395247,0.5007645331832936,0.002780405688648166,0.9994771985413523,-0.009116196911423003,0.030894884592906062
1750932671.3656895,-1.674363956,-1.788036578,-1.18757,1.589351713,0.995339183,-0.581676832,0.101810597,0.077812772,0.174,0.007527086,0.087058521,0.045092922,4.41179536,4.275364977,0.348599189,0.003622953,0.014097726,0.081375847,0.51763920518401,-0.5462221224837573,0.5010611734537124,0.002818693782550073,0.9994660824916155,-0.009298641968654889,0.031195194690243445
1750932671.3676698,-1.67415975,-1.787880505,-1.187221,1.58936681,0.9955138,-0.581586387,0.102395715,0.078259972,0.175,0.007570345,0.087558857,0.045352077,4.410934106,4.275837295,0.348644715,0.003624162,0.014097725,0.081318783,0.5177042825458207,-0.5461835032522308,0.5013595762968907,0.0028571952511679734,0.9994547755240549,-0.009482058171658257,0.031497280680827876
1750932671.3696551,-1.673954373,-1.787723538,-1.18687,1.589381994,0.995689418,-0.581495423,0.102980834,0.078707172,0.176,0.007613604,0.088059194,0.045611232,4.410067337,4.276311641,0.34869035,0.003625376,0.014097724,0.081261352,0.5177696147330698,-0.5461445788571909,0.5016597426133895,0.002895910448709502,0.9994432754477273,-0.009666443663626444,0.0318011435626035
1750932671.371756,-1.673954373,-1.787723538,-1.18687,1.589381994,0.995689418,-0.581495423,0.102980834,0.078707172,0.176,0.007613604,0.088059194,0.045611232,4.410067337,4.276311641,0.34869035,0.003625376,0.014097724,0.081261352,0.5177696147330698,-0.5461445788571909,0.5016597426133895,0.002895910448709502,0.9994432754477273,-0.009666443663626444,0.0318011435626035
1750932671.3737168,-1.673747826,-1.787565676,-1.186517,1.589397265,0.995866037,-0.581403942,0.103565952,0.079154371,0.177,0.007656863,0.08855953,0.045870386,4.409195042,4.276788004,0.348736092,0.003626594,0.014097723,0.081203556,0.5178351990780324,-0.546105349250032,0.5019616731778749,0.0029348402433241132,0.9994315800622889,-0.009851797044749267,0.03210678404841779
1750932671.3758287,-1.673540109,-1.78740692,-1.186162,1.589412622,0.996043656,-0.581311942,0.104151071,0.079601571,0.178,0.007700122,0.089059866,0.046129541,4.408317211,4.277266372,0.348781937,0.003627817,0.014097722,0.081145392,0.5179010342703915,-0.5460658119078053,0.5022653681590036,0.0029739830244024123,0.999419687183135,-0.010038117004257633,0.03241420217657213
1750932671.3807979,-1.673331222,-1.78724727,-1.185805,1.589428065,0.996222276,-0.581219423,0.104736189,0.080048771,0.179,0.007743381,0.089560203,0.046388696,4.407433834,4.277746733,0.348827884,0.003629044,0.014097721,0.081086861,0.517967118199146,-0.5460259653963649,0.5025708283996297,0.0030133391585386686,0.9994075945870843,-0.010225402076562133,0.03272339867963961
1750932671.3816495,-1.673121165,-1.787086725,-1.185446,1.589443595,0.996401897,-0.581126387,0.105321307,0.080495971,0.18,0.00778664,0.090060539,0.04664785,4.4065449,4.278229076,0.348873929,0.003630277,0.014097719,0.081027961,0.5180334479517872,-0.5459858093700897,0.5028780554174979,0.0030529094893832973,0.9993953000156538,-0.010413650690327264,0.03303437496867158
1750932671.3839488,-1.672909937,-1.786925286,-1.185085,1.589459212,0.996582518,-0.581032832,0.105906426,0.080943171,0.181,0.0078299,0.090560875,0.046907005,4.4056504,4.278713388,0.34892007,0.003631513,0.014097718,0.080968693,0.5181000219721298,-0.545945341008334,0.5031870501234892,0.003092692381708965,0.9993828012262186,-0.010602861361748912,0.03334713178089208
1750932671.3857691,-1.672697539,-1.786762953,-1.184722,1.589474915,0.996764141,-0.580938759,0.106491544,0.081390371,0.182,0.007873159,0.091061212,0.04716616,4.404750324,4.279199658,0.348966304,0.003632755,0.014097717,0.080909055,0.5181668377677243,-0.5459045596459614,0.5034978126332224,0.0031326892190341286,0.9993700959762029,-0.010793032743151026,0.0336616691650514
1750932671.3896215,-1.672483971,-1.786599725,-1.184357,1.589490704,0.996946763,-0.580844167,0.107076662,0.08183757,0.183,0.007916418,0.091561548,0.047425315,4.40384466,4.279687873,0.349012629,0.003634,0.014097716,0.080849047,0.518233893958688,-0.5458634634568417,0.5038103444702362,0.0031728978598660916,0.9993571819831747,-0.010984163655429624,0.03397798826607325
1750932671.3915727,-1.672053324,-1.786270586,-1.183621,1.589522543,0.997315011,-0.58065343,0.108246899,0.08273197,0.185,0.008002936,0.092562221,0.047943624,4.402016529,4.280670089,0.349105539,0.003636505,0.014097714,0.080727918,0.5183687160539828,-0.5457803219859779,0.5044407189494271,0.003253955442099106,0.9993307186043149,-0.011369296505226905,0.03461597499335484
1750932671.3939967,-1.672053324,-1.786270586,-1.183621,1.589522543,0.997315011,-0.58065343,0.108246899,0.08273197,0.185,0.008002936,0.092562221,0.047943624,4.402016529,4.280670089,0.349105539,0.003636505,0.014097714,0.080727918,0.5183687160539828,-0.5457803219859779,0.5044407189494271,0.003253955442099106,0.9993307186043149,-0.011369296505226905,0.03461597499335484
1750932671.395712,-1.671836245,-1.786104674,-1.18325,1.589538592,0.997500636,-0.580557283,0.108832018,0.08317917,0.186,0.008046195,0.093062557,0.048202779,4.401094042,4.281164066,0.349152118,0.003637764,0.014097713,0.080666796,0.5184364788249923,-0.5457382729519858,0.5047585639787135,0.003294802614128526,0.9993171646043186,-0.011563296099918548,0.03493764425694432
1750932671.3980882,-1.671617996,-1.785937869,-1.182877,1.589554728,0.997687261,-0.580460618,0.109417136,0.08362637,0.187,0.008089454,0.093562893,0.048461934,4.400165925,4.281659939,0.349198777,0.003639027,0.014097712,0.080605301,0.5185044722316189,-0.545695903258815,0.5050781804324055,0.0033358620152012883,0.9993033926772358,-0.011758248228133279,0.035261097642975595
1750932671.3997903,-1.671398576,-1.785770169,-1.182502,1.58957095,0.997874887,-0.580363435,0.110002254,0.08407357,0.188,0.008132713,0.09406323,0.048721088,4.399232169,4.282157696,0.349245513,0.003640295,0.014097711,0.080543433,0.5185726941820682,-0.5456532116351404,0.505399571248112,0.003377134004039331,0.9992894004385652,-0.011954152578177238,0.035586336889165036
1750932671.4017189,-1.671177987,-1.785601575,-1.182125,1.589587259,0.998063514,-0.580265734,0.110587373,0.084520769,0.189,0.008175973,0.094563566,0.048980243,4.398292762,4.282657324,0.349292322,0.003641567,0.01409771,0.08048119,0.5186411427966613,-0.5456101966712084,0.5057227351582512,0.003418618430929768,0.9992751855915861,-0.012151006372961612,0.035913361762013034
1750932671.4039316,-1.670956227,-1.785432086,-1.181746,1.589603654,0.998253141,-0.580167514,0.111172491,0.084967969,0.19,0.008219232,0.095063902,0.049239398,4.397347694,4.28315881,0.349339203,0.003642843,0.014097709,0.080418573,0.5187098159903161,-0.5455668562261775,0.5060476751671636,0.0034603141534454286,0.9992607457309283,-0.012348809299452123,0.03624217399818015
1750932671.405867,-1.670733297,-1.785261703,-1.181365,1.589620136,0.99844377,-0.580068776,0.111757609,0.085415169,0.191,0.008262491,0.095564239,0.049498552,4.396396955,4.283662142,0.349386151,0.003644123,0.014097708,0.080355581,0.518778711039268,-0.5455231892159089,0.5063743907441632,0.0035022225130748744,0.9992460785123369,-0.01254755881657343,0.03657277379322043
1750932671.408,-1.670509196,-1.785090425,-1.180982,1.589636704,0.998635398,-0.57996952,0.112342728,0.085862369,0.192,0.00830575,0.096064575,0.049757707,4.395440533,4.284167308,0.349433165,0.003645407,0.014097707,0.080292212,0.518847825555359,-0.5454791941800604,0.5067028841653535,0.0035443418702954103,0.9992311815246234,-0.012747254374945052,0.036905162450691135
1750932671.4097853,-1.670283926,-1.784918253,-1.180597,1.589653359,0.998828028,-0.579869746,0.112927846,0.086309569,0.193,0.008349009,0.096564911,0.050016862,4.394478417,4.284674293,0.349480242,0.003646696,0.014097706,0.080228467,0.518917157606754,-0.5454348696799933,0.5070331541709592,0.0035866735683537493,0.9992160524184883,-0.01294789310642603,0.03723933976363589
1750932671.4121375,-1.670057485,-1.784745187,-1.18021,1.5896701,0.999021658,-0.579769453,0.113512965,0.086756769,0.194,0.008392268,0.097065248,0.050276017,4.393510596,4.285183086,0.349527377,0.003647988,0.014097705,0.080164345,0.518986704812639,-0.5453902133867609,0.5073652031021961,0.0036292159655207496,0.9992006887578814,-0.01314947440660926,0.03757530705238781
1750932671.4138038,-1.669829874,-1.784571226,-1.179821,1.589686928,0.999216289,-0.579668642,0.114098083,0.087203968,0.195,0.008435527,0.097565584,0.050535171,4.39253706,4.285693673,0.34957457,0.003649284,0.014097704,0.080099844,0.5190564648696959,-0.5453452244973708,0.5076990317802527,0.0036719698880205262,0.9991850881136269,-0.013351996260573085,0.03791306535170429
1750932671.4170587,-1.669601093,-1.784396371,-1.17943,1.589703842,0.99941192,-0.579567312,0.114683201,0.087651168,0.196,0.008478786,0.09806592,0.050794326,4.391557797,4.286206042,0.349621816,0.003650585,0.014097703,0.080034965,0.5191264356777863,-0.5452999008696012,0.5080346404123232,0.0037149342058569947,0.9991692480804033,-0.013555457210385896,0.038252614735532604
1750932671.4176548,-1.669371141,-1.784220621,-1.179037,1.589720843,0.999608553,-0.579465464,0.11526832,0.088098368,0.197,0.008522045,0.098566257,0.051053481,4.390572797,4.286720179,0.349669113,0.003651889,0.014097702,0.079969706,0.5191966143582996,-0.5452542413267679,0.5083720312897072,0.0037581102321184437,0.9991531661630471,-0.013759855747375281,0.038593957087257304
1750932671.4197984,-1.669140019,-1.784043978,-1.178642,1.58973793,0.999806185,-0.579363098,0.115853438,0.088545568,0.198,0.008565305,0.099066593,0.051312635,4.389582047,4.287236071,0.349716458,0.003653197,0.014097701,0.079904067,0.519266998276116,-0.5452082442557299,0.5087112032172175,0.0038014963445700224,0.9991368399734112,-0.01396518990909126,0.038937091625998094
1750932671.421828,-1.668907727,-1.783866439,-1.178245,1.589755104,1.000004819,-0.579260214,0.116438556,0.088992768,0.199,0.008608564,0.099566929,0.05157179,4.388585537,4.287753705,0.349763848,0.003654508,0.0140977,0.079838047,0.5193375858153347,-0.5451619084332024,0.5090521591027298,0.0038450938483065742,0.9991202669709122,-0.014171458401381813,0.03928202067166271
1750932671.4236946,-1.668674265,-1.783688006,-1.177846,1.589772365,1.000204453,-0.579156811,0.117023675,0.089439968,0.2,0.008651823,0.100067266,0.051830945,4.387583255,4.288273068,0.349811279,0.003655824,0.014097699,0.079771646,0.5194083746481297,-0.5451152314348215,0.509394898489685,0.0038889010934585366,0.999103444718804,-0.014378659057456881,0.03962874415136818
1750932671.4256504,-1.668439633,-1.783508679,-1.177445,1.589789711,1.000405088,-0.57905289,0.117608793,0.089887167,0.201,0.008695082,0.100567602,0.0520901,4.38657519,4.288794146,0.34985875,0.003657143,0.014097698,0.079704863,0.5194793616870291,-0.5450682123714243,0.5097394222642699,0.003932918958495644,0.9990863707278766,-0.014586791064657727,0.039977262296231046
1750932671.4276595,-1.66820383,-1.783328458,-1.177042,1.589807145,1.000606724,-0.578948451,0.118193912,0.090334367,0.202,0.008738341,0.101067938,0.052349254,4.385561331,4.289316926,0.349906256,0.003658466,0.014097697,0.079637697,0.5195505444180305,-0.5450208491585948,0.5100857320584806,0.003977147213322,0.9990690424561591,-0.014795851775740594,0.04032757711550471
1750932671.4296439,-1.667966857,-1.783147342,-1.176637,1.589824665,1.00080936,-0.578843493,0.11877903,0.090781567,0.203,0.0087816,0.101568275,0.052608409,4.384541666,4.289841394,0.349953795,0.003659792,0.014097696,0.079570148,0.5196219213250863,-0.544973140186167,0.5104338287024534,0.004021584735617872,0.9990514573969088,-0.015005840359161665,0.040679688843967984
1750932671.4347956,-1.667728714,-1.782965332,-1.17623,1.589842271,1.001012997,-0.578738017,0.119364148,0.091228767,0.204,0.008824859,0.102068611,0.052867564,4.383516183,4.290367537,0.350001364,0.003661122,0.014097695,0.079502215,0.5196934891706396,-0.5449250841934683,0.5107837124183972,0.004066232363535188,0.9990336130350898,-0.015216754863750898,0.04103359784173299
1750932671.4362133,-1.667728714,-1.782965332,-1.17623,1.589842271,1.001012997,-0.578738017,0.119364148,0.091228767,0.204,0.008824859,0.102068611,0.052867564,4.383516183,4.290367537,0.350001364,0.003661122,0.014097695,0.079502215,0.5196934891706396,-0.5449250841934683,0.5107837124183972,0.004066232363535188,0.9990336130350898,-0.015216754863750898,0.04103359784173299
1750932671.4378564,-1.667728714,-1.782965332,-1.17623,1.589842271,1.001012997,-0.578738017,0.119364148,0.091228767,0.204,0.008824859,0.102068611,0.052867564,4.383516183,4.290367537,0.350001364,0.003661122,0.014097695,0.079502215,0.5196934891706396,-0.5449250841934683,0.5107837124183972,0.004066232363535188,0.9990336130350898,-0.015216754863750898,0.04103359784173299
1750932671.4398263,-1.667248917,-1.782598628,-1.17541,1.589877744,1.001423272,-0.57852551,0.120534385,0.092123167,0.206,0.008911377,0.103069284,0.053385873,4.381447718,4.291424793,0.35009658,0.003663793,0.014097694,0.079365192,0.5198371887018712,-0.5448279239146517,0.5114888467442706,0.004156155687612033,0.9989971361416103,-0.01564135444792576,0.04174681283398039
1750932671.441784,-1.667007263,-1.782413934,-1.174997,1.58989561,1.001629911,-0.578418479,0.121119503,0.092570367,0.207,0.008954637,0.10356962,0.053645028,4.380404713,4.291955879,0.35014422,0.003665133,0.014097693,0.079296102,0.5199093153358597,-0.5447788164338566,0.5118440991514245,0.004201431565395896,0.9989784984859302,-0.015855036519864543,0.0421061201317719
1750932671.443718,-1.666764439,-1.782228346,-1.174582,1.589913562,1.001837551,-0.57831093,0.121704622,0.093017566,0.208,0.008997896,0.104069956,0.053904183,4.379355843,4.292488584,0.350191877,0.003666477,0.014097692,0.079226625,0.519981622933886,-0.5447293553494681,0.5122011422286517,0.004246916870677684,0.9989595912755975,-0.016069637700507722,0.042467227832285674
1750932671.4457283,-1.666520444,-1.782041864,-1.174165,1.589931601,1.002046191,-0.578202862,0.12228974,0.093464766,0.209,0.009041155,0.104570293,0.054163337,4.378301097,4.293022895,0.350239549,0.003667824,0.014097691,0.07915676,0.5200541092972911,-0.5446795381979443,0.5125599776143047,0.004292610404284222,0.9989404118942288,-0.01628515611476417,0.04283013741307765
1750932671.447719,-1.66627528,-1.781854487,-1.173746,1.589949727,1.002255832,-0.578094277,0.122874859,0.093911966,0.21,0.009084414,0.105070629,0.054422492,4.377240463,4.293558798,0.350287232,0.003669175,0.01409769,0.079086506,0.520126771581393,-0.5446293648616287,0.5129206054210903,0.004338513494514155,0.998920957751441,-0.016501589776761,0.04319484923508054
1750932671.4510553,-1.666028945,-1.781666216,-1.173325,1.589967939,1.002466474,-0.577985173,0.123459977,0.094359166,0.211,0.009127673,0.105570965,0.054681647,4.37617393,4.294096278,0.350334923,0.003670528,0.014097689,0.079015864,0.5201996074649893,-0.544578832203438,0.5132830273443002,0.004384624983912781,0.9989012262150975,-0.01671893758863318,0.043561364253573244
1750932671.453127,-1.66578144,-1.78147705,-1.172902,1.589986238,1.002678116,-0.57787555,0.124045095,0.094806366,0.212,0.009170932,0.106071302,0.054940802,4.375101484,4.294635323,0.350382619,0.003671885,0.014097688,0.078944832,0.5202726149491909,-0.5445279387710522,0.5136472442349236,0.004430944172661797,0.9988812146515069,-0.016937197396755626,0.04392968352278838
1750932671.4536233,-1.665532764,-1.781286991,-1.172477,1.590004623,1.002890759,-0.577765409,0.124630214,0.095253566,0.213,0.009214191,0.106571638,0.055199956,4.374023113,4.295175917,0.350430317,0.003673245,0.014097688,0.07887341,0.5203457900957376,-0.5444766830028563,0.5140132563819311,0.00447747190841495,0.9988609204406064,-0.017156367585195564,0.044299807145579066
1750932671.4557943,-1.665282919,-1.781096036,-1.17205,1.590023094,1.003104402,-0.57765475,0.125215332,0.095700765,0.214,0.00925745,0.107071974,0.055459111,4.372938807,4.295718046,0.350478013,0.003674608,0.014097687,0.078801596,0.5204191315568375,-0.5444250640139293,0.5143810652539105,0.004524207506542405,0.9988403409058724,-0.01737644667302747,0.04467173632732022
1750932671.4579592,-1.665031903,-1.780904187,-1.171621,1.590041653,1.003319047,-0.577543573,0.12580045,0.096147965,0.215,0.009300709,0.107572311,0.055718266,4.371848552,4.296261696,0.350525704,0.003675974,0.014097686,0.07872939,0.5204926358209744,-0.5443730792323215,0.5147506718818998,0.004571151736639517,0.9988194733651189,-0.01759743199211887,0.04504547242187532
1750932671.4597995,-1.664779717,-1.780711444,-1.17119,1.590060297,1.003534692,-0.577431877,0.126385569,0.096595165,0.216,0.009343969,0.108072647,0.055977421,4.370752337,4.296806852,0.350573388,0.003677343,0.014097685,0.078656792,0.5205663008911453,-0.5443207268956204,0.5151220764373281,0.004618302992596923,0.9987983151825024,-0.017819322760143787,0.04542101498681979
1750932671.461769,-1.664526361,-1.780517807,-1.170757,1.590079028,1.003751337,-0.577319663,0.126970687,0.097042365,0.217,0.009387228,0.108572983,0.056236575,4.369650148,4.297353501,0.35062106,0.003678714,0.014097684,0.078583801,0.5206401237050529,-0.5442680056041703,0.5154952798370583,0.004665661541381464,0.9987768636541412,-0.018042116357396255,0.04579836535209951
1750932671.463773,-1.664526361,-1.780517807,-1.170757,1.590079028,1.003751337,-0.577319663,0.126970687,0.097042365,0.217,0.009387228,0.108572983,0.056236575,4.369650148,4.297353501,0.35062106,0.003678714,0.014097684,0.078583801,0.5206401237050529,-0.5442680056041703,0.5154952798370583,0.004665661541381464,0.9987768636541412,-0.018042116357396255,0.04579836535209951
1750932671.4657323,-1.664271834,-1.780323275,-1.170322,1.590097846,1.003968984,-0.577206931,0.127555806,0.097489565,0.218,0.009430487,0.10907332,0.05649573,4.368541974,4.297901627,0.350668718,0.003680089,0.014097684,0.078510415,0.5207141015527642,-0.544214913592983,0.5158702844039222,0.004713228184877974,0.9987551160220883,-0.018265811466862906,0.04617752517447196
1750932671.4677212,-1.664016138,-1.780127849,-1.169885,1.59011675,1.004187631,-0.57709368,0.128140924,0.097936765,0.219,0.009473746,0.109573656,0.056754885,4.367427802,4.298451216,0.350716358,0.003681467,0.014097683,0.078436635,0.5207882325715288,-0.5441614489146994,0.5162470889075493,0.004761001275821703,0.9987330696534835,-0.01849040589743299,0.046558493716289805
1750932671.4697676,-1.663759271,-1.779931528,-1.169446,1.590135741,1.004407278,-0.576979911,0.128726042,0.098383964,0.22,0.009517005,0.110073992,0.057014039,4.36630762,4.299002253,0.350763977,0.003682847,0.014097682,0.078362459,0.5208625132594741,-0.5441076100287716,0.5166256964084885,0.004808981084513259,0.9987107217384402,-0.01871589823227538,0.046941273299430514
1750932671.4716709,-1.663501233,-1.779734313,-1.169005,1.590154818,1.004627927,-0.576865624,0.129311161,0.098831164,0.221,0.009560264,0.110574329,0.057273194,4.365181415,4.299554723,0.350811572,0.00368423,0.014097681,0.078287887,0.5209369406184955,-0.5440533951280462,0.5170061071444098,0.004857168447988244,0.9986880695589518,-0.018942286732690085,0.047325864055698615
1750932671.4738548,-1.663242026,-1.779536203,-1.168562,1.590173982,1.004849576,-0.576750819,0.129896279,0.099278364,0.222,0.009603523,0.111074665,0.057532349,4.364049175,4.300108612,0.350859139,0.003685616,0.014097681,0.078212918,0.5210115127864579,-0.5439988028686253,0.5173883212444464,0.004905562154667333,0.9986651103858172,-0.019169568904329446,0.047712266620361724
1750932671.4757607,-1.662981648,-1.779337199,-1.168117,1.590193232,1.005072225,-0.576635495,0.130481397,0.099725564,0.223,0.009646782,0.111575001,0.057791504,4.362910886,4.300663904,0.350906675,0.003687004,0.01409768,0.078137552,0.521086226717219,-0.5439438305413847,0.5177723404141408,0.004954161530976348,0.9986418414346473,-0.019397743553437704,0.04810048195784471
1750932671.477699,-1.6627201,-1.779137301,-1.16767,1.590212569,1.005295876,-0.576519653,0.131066516,0.100172764,0.224,0.009690041,0.112075338,0.058050658,4.361766537,4.301220586,0.350954177,0.003688395,0.014097679,0.078061787,0.5211610794643012,-0.5438884769761844,0.5181581648405827,0.0050029678584355705,0.9986182599398914,-0.01962680809501525,0.04849051073387928
1750932671.4798024,-1.662457382,-1.778936508,-1.167221,1.590231993,1.005520527,-0.576403292,0.131651634,0.100619964,0.225,0.009733301,0.112575674,0.058309813,4.360616114,4.301778641,0.351001641,0.003689788,0.014097679,0.077985623,0.521236069037336,-0.5438327400160816,0.5185457961199497,0.005051979436130026,0.9985943630923665,-0.0198567609429007,0.04888235416573438
1750932671.4818552,-1.662193494,-1.778734821,-1.16677,1.590251502,1.005746178,-0.576286413,0.132236753,0.101067163,0.226,0.00977656,0.11307601,0.058568968,4.359459605,4.302338054,0.351049064,0.003691183,0.014097678,0.07790906,0.5213111917595626,-0.5437766184374889,0.5189352344901762,0.005101196621172245,0.998570148121463,-0.020087600802462555,0.04927601209221736
1750932671.4887855,-1.661928435,-1.77853224,-1.166317,1.590271099,1.005972831,-0.576169016,0.132821871,0.101514363,0.227,0.009819819,0.113576347,0.058828123,4.358296996,4.302898811,0.351096442,0.003692582,0.014097677,0.077832096,0.5213864447447446,-0.5437201099635641,0.5193264816114288,0.0051506201280488014,0.9985456121662598,-0.02031932473419049,0.04967148657079475
1750932671.488835,-1.661928435,-1.77853224,-1.166317,1.590271099,1.005972831,-0.576169016,0.132821871,0.101514363,0.227,0.009819819,0.113576347,0.058828123,4.358296996,4.302898811,0.351096442,0.003692582,0.014097677,0.077832096,0.5213864447447446,-0.5437201099635641,0.5193264816114288,0.0051506201280488014,0.9985456121662598,-0.02031932473419049,0.04967148657079475
1750932671.4906204,-1.661928435,-1.77853224,-1.166317,1.590271099,1.005972831,-0.576169016,0.132821871,0.101514363,0.227,0.009819819,0.113576347,0.058828123,4.358296996,4.302898811,0.351096442,0.003692582,0.014097677,0.077832096,0.5213864447447446,-0.5437201099635641,0.5193264816114288,0.0051506201280488014,0.9985456121662598,-0.02031932473419049,0.04967148657079475
1750932671.4926584,-1.661662206,-1.778328764,-1.165862,1.590290782,1.006200484,-0.576051101,0.133406989,0.101961563,0.228,0.009863078,0.114076683,0.059087277,4.357128275,4.303460896,0.351143773,0.003693982,0.014097677,0.07775473,0.5214618255698231,-0.5436632133155868,0.51971953834409,0.005200248807945283,0.9985207524129732,-0.02055193171878359,0.050068777851986886
1750932671.4978943,-1.660585589,-1.777505916,-1.164022,1.590370379,1.007121103,-0.575574256,0.135747463,0.103750362,0.232,0.010036114,0.116078028,0.060123896,4.352392007,4.305722209,0.351332546,0.003699606,0.014097675,0.077441241,0.5217645719761582,-0.5434317044235502,0.521309876496057,0.00540081204356301,0.9984180185328224,-0.0214911479094034,0.051676126594383705
1750932671.4982,-1.660585589,-1.777505916,-1.164022,1.590370379,1.007121103,-0.575574256,0.135747463,0.103750362,0.232,0.010036114,0.116078028,0.060123896,4.352392007,4.305722209,0.351332546,0.003699606,0.014097675,0.077441241,0.5217645719761582,-0.5434317044235502,0.521309876496057,0.00540081204356301,0.9984180185328224,-0.0214911479094034,0.051676126594383705
1750932671.4982467,-1.660585589,-1.777505916,-1.164022,1.590370379,1.007121103,-0.575574256,0.135747463,0.103750362,0.232,0.010036114,0.116078028,0.060123896,4.352392007,4.305722209,0.351332546,0.003699606,0.014097675,0.077441241,0.5217645719761582,-0.5434317044235502,0.521309876496057,0.00540081204356301,0.9984180185328224,-0.0214911479094034,0.051676126594383705
1750932671.50216,-1.659490247,-1.776668758,-1.16215,1.59045136,1.008057732,-0.575089118,0.138087936,0.105539162,0.236,0.010209151,0.118079374,0.061160515,4.347556891,4.308003533,0.351520274,0.003705262,0.014097672,0.077121274,0.522069134828569,-0.5431938325102762,0.5229292390861575,0.005604643732551256,0.9983098745313965,-0.022444332575700828,0.053312609361855
1750932671.5027375,-1.659490247,-1.776668758,-1.16215,1.59045136,1.008057732,-0.575089118,0.138087936,0.105539162,0.236,0.010209151,0.118079374,0.061160515,4.347556891,4.308003533,0.351520274,0.003705262,0.014097672,0.077121274,0.522069134828569,-0.5431938325102762,0.5229292390861575,0.005604643732551256,0.9983098745313965,-0.022444332575700828,0.053312609361855
