mathias31415/motion_primitives_from_planned_trajectory/data/trajectory_20250625_162740_executed.csv
timestamp,shoulder_lift_joint_pos,elbow_joint_pos,wrist_1_joint_pos,wrist_2_joint_pos,wrist_3_joint_pos,shoulder_pan_joint_pos,shoulder_lift_joint_vel,elbow_joint_vel,wrist_1_joint_vel,wrist_2_joint_vel,wrist_3_joint_vel,shoulder_pan_joint_vel,shoulder_lift_joint_eff,elbow_joint_eff,wrist_1_joint_eff,wrist_2_joint_eff,wrist_3_joint_eff,shoulder_pan_joint_eff
1750861677.232882738,-1.884210502,-1.256169448,-1.604975449,1.565526676,-0.951060650,-2.521037382,0.000000000,0.000000000,0.000000000,0.000000000,0.000000000,0.000000000,5.617297531,4.289458890,0.299889653,-0.000434799,0.000000000,0.000000000
1750861677.234307289,-1.884210502,-1.256169448,-1.604975449,1.565526676,-0.951060650,-2.521037382,0.000000000,0.000000000,0.000000000,0.000000000,0.000000000,0.000000000,5.617297531,4.289458890,0.299889653,-0.000434799,0.000000000,0.000000000
1750861677.236338854,-1.884210502,-1.256169448,-1.604975449,1.565526676,-0.951060650,-2.521037382,0.000000000,0.000000000,0.000000000,0.000000000,0.000000000,0.000000000,5.617297531,4.289458890,0.299889653,-0.000434799,0.000000000,0.000000000
1750861677.238264799,-1.884210502,-1.256169448,-1.604975449,1.565526676,-0.951060650,-2.521037382,0.000000000,0.000000000,0.000000000,0.000000000,0.000000000,0.000000000,5.617297531,4.289458890,0.299889653,-0.000434799,0.000000000,0.000000000
1750861677.240427971,-1.884210502,-1.256169448,-1.604975449,1.565526676,-0.951060650,-2.521037382,0.000000000,0.000000000,0.000000000,0.000000000,0.000000000,0.000000000,5.617297531,4.289458890,0.299889653,-0.000434799,0.000000000,0.000000000
1750861677.245007038,-1.884210502,-1.256169448,-1.604975449,1.565526676,-0.951060650,-2.521037382,0.000000000,0.000000000,0.000000000,0.000000000,0.000000000,0.000000000,5.617297531,4.289458890,0.299889653,-0.000434799,0.000000000,0.000000000
1750861677.245624781,-1.884210502,-1.256169448,-1.604975449,1.565526676,-0.951060650,-2.521037382,0.000000000,0.000000000,0.000000000,0.000000000,0.000000000,0.000000000,5.617297531,4.289458890,0.299889653,-0.000434799,0.000000000,0.000000000
1750861677.246915340,-1.884210502,-1.256169448,-1.604975449,1.565526676,-0.951060650,-2.521037382,0.000000000,0.000000000,0.000000000,0.000000000,0.000000000,0.000000000,5.617297531,4.289458890,0.299889653,-0.000434799,0.000000000,0.000000000
1750861677.248503208,-1.884210502,-1.256169448,-1.604975449,1.565526676,-0.951060650,-2.521037382,0.000000000,0.000000000,0.000000000,0.000000000,0.000000000,0.000000000,5.617297531,4.289458890,0.299889653,-0.000434799,0.000000000,0.000000000
1750861677.250751734,-1.884210502,-1.256169448,-1.604975449,1.565526676,-0.951060650,-2.521037382,0.000000000,0.000000000,0.000000000,0.000000000,0.000000000,0.000000000,5.617297531,4.289458890,0.299889653,-0.000434799,0.000000000,0.000000000
1750861677.252610922,-1.884210502,-1.256169448,-1.604975449,1.565526676,-0.951060650,-2.521037382,0.000000000,0.000000000,0.000000000,0.000000000,0.000000000,0.000000000,5.617297531,4.289458890,0.299889653,-0.000434799,0.000000000,0.000000000
1750861677.254661798,-1.884210502,-1.256169448,-1.604975449,1.565526676,-0.951060650,-2.521037382,0.000000000,0.000000000,0.000000000,0.000000000,0.000000000,0.000000000,5.617297531,4.289458890,0.299889653,-0.000434799,0.000000000,0.000000000
1750861677.256558418,-1.884210502,-1.256169448,-1.604975449,1.565526676,-0.951060650,-2.521037382,0.000000000,0.000000000,0.000000000,0.000000000,0.000000000,0.000000000,5.617297531,4.289458890,0.299889653,-0.000434799,0.000000000,0.000000000
1750861677.258708954,-1.884210502,-1.256169448,-1.604975449,1.565526676,-0.951060650,-2.521037382,0.000000000,0.000000000,0.000000000,0.000000000,0.000000000,0.000000000,5.617297531,4.289458890,0.299889653,-0.000434799,0.000000000,0.000000000
1750861677.260571480,-1.884210502,-1.256169448,-1.604975449,1.565526676,-0.951060650,-2.521037382,0.000000000,0.000000000,0.000000000,0.000000000,0.000000000,0.000000000,5.617297531,4.289458890,0.299889653,-0.000434799,0.000000000,0.000000000
1750861677.262454987,-1.884210502,-1.256169448,-1.604975449,1.565526676,-0.951060650,-2.521037382,0.000000000,0.000000000,0.000000000,0.000000000,0.000000000,0.000000000,5.617297531,4.289458890,0.299889653,-0.000434799,0.000000000,0.000000000
1750861677.264400721,-1.884210502,-1.256169448,-1.604975449,1.565526676,-0.951060650,-2.521037382,0.000000000,0.000000000,0.000000000,0.000000000,0.000000000,0.000000000,5.617297531,4.289458890,0.299889653,-0.000434799,0.000000000,0.000000000
1750861677.266812086,-1.884210502,-1.256169448,-1.604975449,1.565526676,-0.951060650,-2.521037382,0.000000000,0.000000000,0.000000000,0.000000000,0.000000000,0.000000000,5.617297531,4.289458890,0.299889653,-0.000434799,0.000000000,0.000000000
1750861677.268395185,-1.884210502,-1.256169448,-1.604975449,1.565526676,-0.951060650,-2.521037382,0.000000000,0.000000000,0.000000000,0.000000000,0.000000000,0.000000000,5.617297531,4.289458890,0.299889653,-0.000434799,0.000000000,0.000000000
1750861677.270680904,-1.884210502,-1.256169448,-1.604975449,1.565526676,-0.951060650,-2.521037382,0.000000000,0.000000000,0.000000000,0.000000000,0.000000000,0.000000000,5.617297531,4.289458890,0.299889653,-0.000434799,0.000000000,0.000000000
1750861677.272320986,-1.884210502,-1.256169448,-1.604975449,1.565526676,-0.951060650,-2.521037382,0.000000000,0.000000000,0.000000000,0.000000000,0.000000000,0.000000000,5.617297531,4.289458890,0.299889653,-0.000434799,0.000000000,0.000000000
1750861677.274319172,-1.884210502,-1.256169448,-1.604975449,1.565526676,-0.951060650,-2.521037382,0.000000000,0.000000000,0.000000000,0.000000000,0.000000000,0.000000000,5.617297531,4.289458890,0.299889653,-0.000434799,0.000000000,0.000000000
1750861677.276497126,-1.884210502,-1.256169448,-1.604975449,1.565526676,-0.951060650,-2.521037382,0.000000000,0.000000000,0.000000000,0.000000000,0.000000000,0.000000000,5.617297531,4.289458890,0.299889653,-0.000434799,0.000000000,0.000000000
1750861677.278371572,-1.884210502,-1.256169448,-1.604975449,1.565526676,-0.951060650,-2.521037382,0.000000000,0.000000000,0.000000000,0.000000000,0.000000000,0.000000000,5.617297531,4.289458890,0.299889653,-0.000434799,0.000000000,0.000000000
1750861677.280434132,-1.884210502,-1.256169448,-1.604975449,1.565526676,-0.951060650,-2.521037382,0.000000000,0.000000000,0.000000000,0.000000000,0.000000000,0.000000000,5.617297531,4.289458890,0.299889653,-0.000434799,0.000000000,0.000000000
1750861677.282461166,-1.884210502,-1.256169448,-1.604975449,1.565526676,-0.951060650,-2.521037382,0.000000000,0.000000000,0.000000000,0.000000000,0.000000000,0.000000000,5.617297531,4.289458890,0.299889653,-0.000434799,0.000000000,0.000000000
1750861677.284387827,-1.884210502,-1.256169448,-1.604975449,1.565526676,-0.951060650,-2.521037382,0.000000000,0.000000000,0.000000000,0.000000000,0.000000000,0.000000000,5.617297531,4.289458890,0.299889653,-0.000434799,0.000000000,0.000000000
1750861677.293430805,-1.884210502,-1.256169448,-1.604975449,1.565526676,-0.951060650,-2.521037382,0.000000000,0.000000000,0.000000000,0.000000000,0.000000000,0.000000000,5.617297531,4.289458890,0.299889653,-0.000434799,0.000000000,0.000000000
1750861677.293491602,-1.884210502,-1.256169448,-1.604975449,1.565526676,-0.951060650,-2.521037382,0.000000000,0.000000000,0.000000000,0.000000000,0.000000000,0.000000000,5.617297531,4.289458890,0.299889653,-0.000434799,0.000000000,0.000000000
1750861677.293510437,-1.884210502,-1.256169448,-1.604975449,1.565526676,-0.951060650,-2.521037382,0.000000000,0.000000000,0.000000000,0.000000000,0.000000000,0.000000000,5.617297531,4.289458890,0.299889653,-0.000434799,0.000000000,0.000000000
1750861677.294723511,-1.884210502,-1.256169448,-1.604975449,1.565526676,-0.951060650,-2.521037382,0.000000000,0.000000000,0.000000000,0.000000000,0.000000000,0.000000000,5.617297531,4.289458890,0.299889653,-0.000434799,0.000000000,0.000000000
1750861677.297212601,-1.884210502,-1.256169448,-1.604975449,1.565526676,-0.951060650,-2.521037382,0.000000000,0.000000000,0.000000000,0.000000000,0.000000000,0.000000000,5.617297531,4.289458890,0.299889653,-0.000434799,0.000000000,0.000000000
1750861677.298507452,-1.884210502,-1.256169448,-1.604975449,1.565526676,-0.951060650,-2.521037382,0.000000000,0.000000000,0.000000000,0.000000000,0.000000000,0.000000000,5.617297531,4.289458890,0.299889653,-0.000434799,0.000000000,0.000000000
1750861677.300194740,-1.884210100,-1.256170800,-1.604974494,1.565526710,-0.951059648,-2.521036379,0.000401083,-0.001351297,0.000955093,0.000033891,0.001002057,0.001002473,5.637287200,4.057394633,0.319395676,0.004217154,0.028228264,0.453637178
1750861677.302175999,-1.884208897,-1.256174854,-1.604971629,1.565526812,-0.951056642,-2.521033372,0.000802152,-0.002702574,0.001910181,0.000067782,0.002004115,0.002004949,5.637274985,4.057396426,0.319395513,0.004217158,0.028228320,0.453637367
1750861677.304471731,-1.884206892,-1.256181610,-1.604966854,1.565526981,-0.951051632,-2.521028359,0.001203193,-0.004053812,0.002865258,0.000101673,0.003006178,0.003007428,5.637252603,4.057400104,0.319395206,0.004217168,0.028228432,0.453638208
1750861677.306434393,-1.884204084,-1.256191069,-1.604960168,1.565527218,-0.951044617,-2.521021342,0.001604191,-0.005404990,0.003820319,0.000135564,0.004008247,0.004009913,5.637220055,4.057405665,0.319394756,0.004217183,0.028228601,0.453639698
1750861677.308576345,-1.884200475,-1.256203230,-1.604951572,1.565527523,-0.951035599,-2.521012320,0.002005133,-0.006756090,0.004775358,0.000169455,0.005010323,0.005012406,5.637177340,4.057413111,0.319394162,0.004217203,0.028228825,0.453641839
1750861677.311277390,-1.884196064,-1.256218093,-1.604941067,1.565527896,-0.951024576,-2.521001292,0.002406004,-0.008107090,0.005730371,0.000203346,0.006012410,0.006014909,5.637124460,4.057422439,0.319393425,0.004217228,0.028229106,0.453644631
1750861677.312921286,-1.884196064,-1.256218093,-1.604941067,1.565527896,-0.951024576,-2.521001292,0.002406004,-0.008107090,0.005730371,0.000203346,0.006012410,0.006014909,5.637124460,4.057422439,0.319393425,0.004217228,0.028229106,0.453644631
1750861677.314863205,-1.884184837,-1.256255925,-1.604914325,1.565528845,-0.950996518,-2.520973223,0.003207477,-0.010808716,0.007640292,0.000271127,0.008016621,0.008019953,5.636988208,4.057446745,0.319391520,0.004217295,0.028229836,0.453652164
1750861677.316378355,-1.884178021,-1.256278893,-1.604898090,1.565529421,-0.950979482,-2.520956180,0.003608051,-0.012159301,0.008595190,0.000305017,0.009018749,0.009022498,5.636904839,4.057461721,0.319390353,0.004217335,0.028230285,0.453656905
1750861677.318492651,-1.884170405,-1.256304562,-1.604879944,1.565530065,-0.950960443,-2.520937133,0.004008498,-0.013509709,0.009550039,0.000338907,0.010020896,0.010025061,5.636811311,4.057478579,0.319389043,0.004217382,0.028230790,0.453662297
1750861677.320418596,-1.884161987,-1.256332932,-1.604859890,1.565530777,-0.950939399,-2.520916080,0.004408803,-0.014859919,0.010504834,0.000372797,0.011023062,0.011027644,5.636707624,4.057497317,0.319387589,0.004217433,0.028231351,0.453668338
1750861677.322469234,-1.884152770,-1.256364002,-1.604837925,1.565531556,-0.950916351,-2.520893022,0.004808953,-0.016209912,0.011459570,0.000406686,0.012025250,0.012030249,5.636593781,4.057517935,0.319385993,0.004217489,0.028231968,0.453675029
1750861677.324448109,-1.884142752,-1.256397771,-1.604814051,1.565532404,-0.950891298,-2.520867959,0.005208933,-0.017559668,0.012414240,0.000440575,0.013027462,0.013032877,5.636469785,4.057540432,0.319384253,0.004217551,0.028232641,0.453682369
1750861677.326578617,-1.884131934,-1.256434240,-1.604788268,1.565533319,-0.950864241,-2.520840891,0.005608730,-0.018909167,0.013368841,0.000474464,0.014029700,0.014035532,5.636335637,4.057564807,0.319382371,0.004217618,0.028233370,0.453690358
1750861677.328433037,-1.884120317,-1.256473408,-1.604760576,1.565534301,-0.950835179,-2.520811817,0.006008328,-0.020258389,0.014323365,0.000508353,0.015031966,0.015038214,5.636191340,4.057591059,0.319380346,0.004217690,0.028234155,0.453698995
1750861677.330306530,-1.884107901,-1.256515273,-1.604730975,1.565535352,-0.950804113,-2.520780738,0.006407715,-0.021607315,0.015277808,0.000542241,0.016034262,0.016040926,5.636036898,4.057619187,0.319378178,0.004217767,0.028234996,0.453708282
1750861677.332341433,-1.884094686,-1.256559837,-1.604699465,1.565536470,-0.950771042,-2.520747653,0.006806875,-0.022955926,0.016232164,0.000576128,0.017036589,0.017043670,5.635872313,4.057649190,0.319375867,0.004217849,0.028235892,0.453718216
1750861677.334295034,-1.884080674,-1.256607097,-1.604666046,1.565537656,-0.950735966,-2.520712563,0.007205795,-0.024304200,0.017186429,0.000610016,0.018038950,0.018046448,5.635697587,4.057681066,0.319373415,0.004217937,0.028236844,0.453728798
1750861677.336407185,-1.884065863,-1.256657053,-1.604630719,1.565538910,-0.950698886,-2.520675467,0.007604461,-0.025652120,0.018140596,0.000643902,0.019041347,0.019049261,5.635512726,4.057714815,0.319370820,0.004218030,0.028237852,0.453740028
1750861677.338521004,-1.884050256,-1.256709705,-1.604593484,1.565540232,-0.950659801,-2.520636366,0.008002858,-0.026999664,0.019094660,0.000677789,0.020043782,0.020052113,5.635317732,4.057750434,0.319368082,0.004218128,0.028238916,0.453751905
1750861677.340245962,-1.884033852,-1.256765052,-1.604554341,1.565541622,-0.950618711,-2.520595259,0.008400972,-0.028346814,0.020048617,0.000711675,0.021046257,0.021055004,5.635112609,4.057787922,0.319365203,0.004218231,0.028240035,0.453764429
1750861677.342279196,-1.884016652,-1.256823092,-1.604513290,1.565543079,-0.950575616,-2.520552146,0.008798790,-0.029693549,0.021002459,0.000745560,0.022048773,0.022057936,5.634897360,4.057827278,0.319362182,0.004218339,0.028241210,0.453777599
1750861677.344348907,-1.883998657,-1.256883826,-1.604470331,1.565544604,-0.950530516,-2.520507027,0.009196297,-0.031039850,0.021956183,0.000779445,0.023051333,0.023060913,5.634671992,4.057868501,0.319359019,0.004218452,0.028242440,0.453791415
1750861677.346374035,-1.883979867,-1.256947251,-1.604425465,1.565546197,-0.950483411,-2.520459902,0.009593479,-0.032385697,0.022909783,0.000813329,0.024053939,0.024063934,5.634436506,4.057911587,0.319355715,0.004218571,0.028243726,0.453805877
1750861677.348508596,-1.883979867,-1.256947251,-1.604425465,1.565546197,-0.950483411,-2.520459902,0.009593479,-0.032385697,0.022909783,0.000813329,0.024053939,0.024063934,5.634436506,4.057911587,0.319355715,0.004218571,0.028243726,0.453805877
1750861677.350416183,-1.883960283,-1.257013368,-1.604378692,1.565547857,-0.950434300,-2.520410771,0.009990322,-0.033731071,0.023863253,0.000847213,0.025056592,0.025067004,5.634190909,4.057956537,0.319352270,0.004218694,0.028245067,0.453820984
1750861677.352337599,-1.883939906,-1.257082175,-1.604330012,1.565549585,-0.950383184,-2.520359634,0.010386812,-0.035075952,0.024816588,0.000881096,0.026059294,0.026070123,5.633935204,4.058003347,0.319348683,0.004218823,0.028246463,0.453836735
1750861677.357712269,-1.883918736,-1.257153671,-1.604279426,1.565551382,-0.950330063,-2.520306491,0.010782934,-0.036420320,0.025769783,0.000914978,0.027062049,0.027073293,5.633669398,4.058052015,0.319344955,0.004218957,0.028247914,0.453853130
1750861677.357769012,-1.883918736,-1.257153671,-1.604279426,1.565551382,-0.950330063,-2.520306491,0.010782934,-0.036420320,0.025769783,0.000914978,0.027062049,0.027073293,5.633669398,4.058052015,0.319344955,0.004218957,0.028247914,0.453853130
1750861677.359086990,-1.883874022,-1.257304728,-1.604172534,1.565555177,-0.950217803,-2.520194185,0.011574021,-0.039107441,0.027675731,0.000982740,0.029067720,0.029079797,5.633107499,4.058154921,0.319337078,0.004219240,0.028250983,0.453887851
1750861677.360530376,-1.883850479,-1.257384285,-1.604116230,1.565557176,-0.950158665,-2.520135022,0.011968957,-0.040450153,0.028628474,0.001016620,0.030070640,0.030083134,5.632811417,4.058209154,0.319332929,0.004219390,0.028252599,0.453906175
1750861677.363112450,-1.883826146,-1.257466528,-1.604058021,1.565559243,-0.950097521,-2.520073852,0.012363470,-0.041792275,0.029581054,0.001050500,0.031073620,0.031086530,5.632505255,4.058265237,0.319328639,0.004219544,0.028254271,0.453925141
1750861677.364604712,-1.883801025,-1.257551454,-1.603997906,1.565561378,-0.950034370,-2.520010676,0.012757545,-0.043133786,0.030533468,0.001084378,0.032076661,0.032089987,5.632189019,4.058323169,0.319324210,0.004219704,0.028255997,0.453944748
1750861677.366322756,-1.883775117,-1.257639063,-1.603935887,1.565563581,-0.949969214,-2.519945492,0.013151169,-0.044474667,0.031485710,0.001118256,0.033079766,0.033093507,5.631862713,4.058382945,0.319319641,0.004219868,0.028257778,0.453964996
1750861677.368293524,-1.883748421,-1.257729352,-1.603871963,1.565565851,-0.949902051,-2.519878302,0.013544326,-0.045814898,0.032437775,0.001152133,0.034082935,0.034097093,5.631526346,4.058444565,0.319314933,0.004220038,0.028259613,0.453985883
1750861677.370273352,-1.883720940,-1.257822322,-1.603806136,1.565568189,-0.949832882,-2.519809104,0.013937004,-0.047154460,0.033389657,0.001186009,0.035086172,0.035100746,5.631179923,4.058508026,0.319310085,0.004220213,0.028261503,0.454007410
1750861677.372256756,-1.883692673,-1.257917970,-1.603738405,1.565570595,-0.949761707,-2.519737898,0.014329188,-0.048493334,0.034341351,0.001219884,0.036089477,0.036104467,5.630823451,4.058573324,0.319305099,0.004220393,0.028263447,0.454029575
1750861677.374202967,-1.883663623,-1.258016295,-1.603668771,1.565573069,-0.949688524,-2.519664686,0.014720864,-0.049831499,0.035292851,0.001253758,0.037092854,0.037108260,5.630456937,4.058640458,0.319299974,0.004220578,0.028265446,0.454052378
1750861677.378346682,-1.883633790,-1.258117295,-1.603597234,1.565575610,-0.949613335,-2.519589465,0.015112017,-0.051168936,0.036244154,0.001287632,0.038096304,0.038112125,5.630080388,4.058709425,0.319294711,0.004220768,0.028267499,0.454075818
1750861677.380366087,-1.883603175,-1.258220970,-1.603523794,1.565578220,-0.949536139,-2.519512237,0.015502635,-0.052505626,0.037195252,0.001321504,0.039099828,0.039116066,5.629693812,4.058780221,0.319289310,0.004220963,0.028269606,0.454099894
1750861677.382246733,-1.883571780,-1.258327317,-1.603448453,1.565580896,-0.949456936,-2.519433001,0.015892703,-0.053841549,0.038146142,0.001355375,0.040103429,0.040120082,5.629297214,4.058852844,0.319283771,0.004221163,0.028271767,0.454124606
1750861677.384247541,-1.883539605,-1.258436336,-1.603371210,1.565583641,-0.949375725,-2.519351757,0.016282207,-0.055176686,0.039096818,0.001389245,0.041107108,0.041124178,5.628890604,4.058927290,0.319278094,0.004221368,0.028273981,0.454149952
1750861677.386286259,-1.883506652,-1.258548023,-1.603292066,1.565586453,-0.949292507,-2.519268504,0.016671133,-0.056511018,0.040047275,0.001423114,0.042110868,0.042128354,5.628473990,4.059003558,0.319272281,0.004221578,0.028276250,0.454175933
1750861677.388356924,-1.883472921,-1.258662379,-1.603211021,1.565589333,-0.949207282,-2.519183243,0.017059466,-0.057844525,0.040997507,0.001456982,0.043114711,0.043132612,5.628047378,4.059081643,0.319266330,0.004221793,0.028278572,0.454202546
1750861677.390278816,-1.883438414,-1.258779401,-1.603128076,1.565592281,-0.949120048,-2.519095974,0.017447193,-0.059177187,0.041947509,0.001490849,0.044118638,0.044136955,5.627610777,4.059161542,0.319260243,0.004222014,0.028280947,0.454229791
1750861677.392266512,-1.883403132,-1.258899087,-1.603043231,1.565595297,-0.949030807,-2.519006695,0.017834301,-0.060508986,0.042897277,0.001524715,0.045122651,0.045141383,5.627164197,4.059243253,0.319254020,0.004222239,0.028283376,0.454257667
1750861677.394230843,-1.883367077,-1.259021436,-1.602956487,1.565598380,-0.948939558,-2.518915408,0.018220774,-0.061839902,0.043846804,0.001558579,0.046126752,0.046145900,5.626707644,4.059326772,0.319247661,0.004222469,0.028285858,0.454286174
1750861677.396174908,-1.883330250,-1.259146446,-1.602867844,1.565601531,-0.948846300,-2.518822112,0.018606599,-0.063169915,0.044796087,0.001592442,0.047130943,0.047150507,5.626241129,4.059412094,0.319241166,0.004222704,0.028288394,0.454315310
1750861677.398197174,-1.883292651,-1.259274115,-1.602777303,1.565604750,-0.948751034,-2.518726806,0.018991762,-0.064499007,0.045745119,0.001626304,0.048135226,0.048155206,5.625764660,4.059499218,0.319234537,0.004222944,0.028290982,0.454345074
1750861677.400150776,-1.883254283,-1.259404442,-1.602684863,1.565608036,-0.948653759,-2.518629491,0.019376248,-0.065827157,0.046693895,0.001660165,0.049139603,0.049159998,5.625278246,4.059588140,0.319227772,0.004223190,0.028293623,0.454375466
1750861677.402170897,-1.883215147,-1.259537423,-1.602590527,1.565611391,-0.948554475,-2.518530166,0.019760045,-0.067154347,0.047642412,0.001694024,0.050144076,0.050164886,5.624781896,4.059678854,0.319220873,0.004223440,0.028296316,0.454406484
1750861677.404382467,-1.883175243,-1.259673058,-1.602494294,1.565614813,-0.948453183,-2.518428831,0.020143138,-0.068480558,0.048590662,0.001727882,0.051148646,0.051169871,5.624275620,4.059771359,0.319213840,0.004223695,0.028299062,0.454438128
1750861677.406287193,-1.883134575,-1.259811345,-1.602396165,1.565618302,-0.948349881,-2.518325487,0.020525513,-0.069805770,0.049538642,0.001761739,0.052153315,0.052174956,5.623759429,4.059865651,0.319206673,0.004223955,0.028301861,0.454470395
1750861677.413465261,-1.883093142,-1.259952281,-1.602296140,1.565621859,-0.948244569,-2.518220131,0.020907155,-0.071129964,0.050486347,0.001795594,0.053158085,0.053180142,5.623233331,4.059961724,0.319199372,0.004224220,0.028304711,0.454503286
1750861677.413529873,-1.883093142,-1.259952281,-1.602296140,1.565621859,-0.948244569,-2.518220131,0.020907155,-0.071129964,0.050486347,0.001795594,0.053158085,0.053180142,5.623233331,4.059961724,0.319199372,0.004224220,0.028304711,0.454503286
1750861677.414891005,-1.883050947,-1.260095864,-1.602194219,1.565625485,-0.948137248,-2.518112766,0.021288052,-0.072453121,0.051433770,0.001829448,0.054162959,0.054185430,5.622697336,4.060059576,0.319191939,0.004224490,0.028307614,0.454536799
1750861677.416576862,-1.882964274,-1.260390964,-1.601984696,1.565632938,-0.947916577,-2.517892003,0.022047553,-0.075096246,0.053327755,0.001897150,0.056173022,0.056196324,5.621595700,4.060260600,0.319176675,0.004225044,0.028313575,0.454605687
1750861677.418555975,-1.882919801,-1.260542477,-1.601877094,1.565636766,-0.947803225,-2.517778604,0.022426129,-0.076416176,0.054274306,0.001931000,0.057178216,0.057201933,5.621030079,4.060363764,0.319168846,0.004225329,0.028316633,0.454641060
1750861677.420199633,-1.882874570,-1.260696628,-1.601767599,1.565640662,-0.947687864,-2.517663195,0.022803903,-0.077734992,0.055220556,0.001964847,0.058183520,0.058207652,5.620454604,4.060468689,0.319160885,0.004225618,0.028319742,0.454677050
1750861677.422314405,-1.882828585,-1.260853416,-1.601656212,1.565644625,-0.947570491,-2.517545774,0.023180862,-0.079052676,0.056166500,0.001998693,0.059188936,0.059213483,5.619869286,4.060575373,0.319152793,0.004225912,0.028322903,0.454713656
1750861677.424185276,-1.882781847,-1.261012838,-1.601542933,1.565648656,-0.947451108,-2.517426341,0.023556991,-0.080369207,0.057112133,0.002032537,0.060194466,0.060219428,5.619274137,4.060683810,0.319144570,0.004226211,0.028326115,0.454750878
1750861677.427089691,-1.882734358,-1.261174892,-1.601427764,1.565652755,-0.947329713,-2.517304896,0.023932277,-0.081684568,0.058057451,0.002066380,0.061200113,0.061225489,5.618669166,4.060793996,0.319136217,0.004226515,0.028329377,0.454788713
1750861677.428668976,-1.882686119,-1.261339576,-1.601310704,1.565656922,-0.947206307,-2.517181439,0.024306706,-0.082998739,0.059002447,0.002100220,0.062205876,0.062231668,5.618054387,4.060905928,0.319127735,0.004226824,0.028332690,0.454827161
1750861677.430390120,-1.882637132,-1.261506886,-1.601191754,1.565661156,-0.947080890,-2.517055969,0.024680264,-0.084311700,0.059947119,0.002134060,0.063211759,0.063237966,5.617429811,4.061019599,0.319119124,0.004227138,0.028336054,0.454866220
1750861677.432516336,-1.882587398,-1.261676822,-1.601070915,1.565665458,-0.946953460,-2.516928487,0.025052937,-0.085623434,0.060891459,0.002167897,0.064217763,0.064244384,5.616795450,4.061135006,0.319110384,0.004227456,0.028339468,0.454905888
1750861677.434324265,-1.882536921,-1.261849379,-1.600948188,1.565669828,-0.946824019,-2.516798991,0.025424711,-0.086933921,0.061835465,0.002201732,0.065223891,0.065250926,5.616151315,4.061252143,0.319101515,0.004227779,0.028342932,0.454946166
1750861677.436333418,-1.882485700,-1.262024556,-1.600823574,1.565674265,-0.946692565,-2.516667483,0.025795573,-0.088243141,0.062779129,0.002235566,0.066230143,0.066257593,5.615497420,4.061371007,0.319092519,0.004228107,0.028346446,0.454987051
1750861677.438392401,-1.882433739,-1.262202351,-1.600697072,1.565678770,-0.946559098,-2.516533961,0.026165508,-0.089551078,0.063722449,0.002269397,0.067236521,0.067264386,5.614833776,4.061491593,0.319083396,0.004228440,0.028350010,0.455028541
1750861677.440423250,-1.882381039,-1.262382760,-1.600568684,1.565683343,-0.946423618,-2.516398425,0.026534504,-0.090857710,0.064665419,0.002303227,0.068243028,0.068271307,5.614160397,4.061613895,0.319074145,0.004228777,0.028353623,0.455070636
1750861677.442347527,-1.882327602,-1.262565781,-1.600438411,1.565687983,-0.946286126,-2.516260876,0.026902545,-0.092163020,0.065608034,0.002337054,0.069249665,0.069278358,5.613477295,4.061737908,0.319064768,0.004229119,0.028357286,0.455113334
1750861677.444318295,-1.882273429,-1.262751411,-1.600306252,1.565692691,-0.946146620,-2.516121312,0.027269618,-0.093466989,0.066550289,0.002370880,0.070256433,0.070285541,5.612784484,4.061863629,0.319055266,0.004229466,0.028360998,0.455156633
1750861677.446290493,-1.882218524,-1.262939648,-1.600172210,1.565697467,-0.946005100,-2.515979733,0.027635709,-0.094769598,0.067492180,0.002404704,0.071263335,0.071292857,5.612081975,4.061991050,0.319045638,0.004229818,0.028364759,0.455200532
1750861677.448279381,-1.882162887,-1.263130489,-1.600036284,1.565702310,-0.945861566,-2.515836140,0.028000805,-0.096070828,0.068433701,0.002438525,0.072270372,0.072300308,5.611369784,4.062120169,0.319035885,0.004230174,0.028368568,0.455245030
1750861677.450249672,-1.882106521,-1.263323930,-1.599898475,1.565707221,-0.945716018,-2.515690532,0.028364892,-0.097370661,0.069374849,0.002472344,0.073277547,0.073307897,5.610647923,4.062250978,0.319026007,0.004230535,0.028372426,0.455290125
1750861677.452284336,-1.882049428,-1.263519970,-1.599758785,1.565712199,-0.945568456,-2.515542909,0.028727956,-0.098669077,0.070315618,0.002506161,0.074284860,0.074315624,5.609916406,4.062383474,0.319016006,0.004230900,0.028376332,0.455335815
1750861677.454257250,-1.881991610,-1.263718606,-1.599617213,1.565717245,-0.945418879,-2.515393269,0.029089983,-0.099966058,0.071256004,0.002539976,0.075292313,0.075323491,5.609175247,4.062517650,0.319005882,0.004231270,0.028380287,0.455382100
1750861677.459329367,-1.881933069,-1.263919834,-1.599473761,1.565722359,-0.945267287,-2.515241615,0.029450959,-0.101261586,0.072196001,0.002573789,0.076299908,0.076331500,5.608424460,4.062653502,0.318995634,0.004231645,0.028384289,0.455428976
1750861677.463011742,-1.881873807,-1.264123651,-1.599328429,1.565727540,-0.945113679,-2.515087943,0.029810872,-0.102555641,0.073135606,0.002607599,0.077307647,0.077339653,5.607664060,4.062791024,0.318985265,0.004232025,0.028388339,0.455476443
1750861677.463054895,-1.881813826,-1.264330055,-1.599181219,1.565732789,-0.944958056,-2.514932256,0.030169706,-0.103848206,0.074074813,0.002641407,0.078315532,0.078347951,5.606894061,4.062930210,0.318974773,0.004232409,0.028392436,0.455524499
1750861677.464559317,-1.881753129,-1.264539043,-1.599032130,1.565738106,-0.944800417,-2.514774552,0.030527448,-0.105139261,0.075013618,0.002675213,0.079323563,0.079356396,5.606114477,4.063071055,0.318964160,0.004232797,0.028396580,0.455573142
1750861677.466449976,-1.881691717,-1.264750611,-1.598881165,1.565743490,-0.944640762,-2.514614830,0.030884085,-0.106428789,0.075952016,0.002709016,0.080331744,0.080364990,5.605325323,4.063213553,0.318953427,0.004233190,0.028400771,0.455622371
1750861677.468271971,-1.881629593,-1.264964757,-1.598728322,1.565748942,-0.944479090,-2.514453091,0.031239603,-0.107716770,0.076890003,0.002742816,0.081340075,0.081373734,5.604526615,4.063357699,0.318942574,0.004233588,0.028405009,0.455672184
1750861677.470214128,-1.881566760,-1.265181477,-1.598573605,1.565754462,-0.944315401,-2.514289335,0.031593988,-0.109003186,0.077827575,0.002776614,0.082348558,0.082382630,5.603718368,4.063503487,0.318931601,0.004233990,0.028409293,0.455722580
1750861677.472270012,-1.881503218,-1.265400769,-1.598417012,1.565760049,-0.944149695,-2.514123561,0.031947226,-0.110288018,0.078764725,0.002810410,0.083357194,0.083391680,5.602900596,4.063650911,0.318920509,0.004234397,0.028413624,0.455773555
1750861677.474512577,-1.881503218,-1.265400769,-1.598417012,1.565760049,-0.944149695,-2.514123561,0.031947226,-0.110288018,0.078764725,0.002810410,0.083357194,0.083391680,5.602900596,4.063650911,0.318920509,0.004234397,0.028413624,0.455773555
1750861677.476577759,-1.881374022,-1.265847053,-1.598098207,1.565771425,-0.943812231,-2.513785957,0.032650209,-0.112852860,0.080637747,0.002877993,0.085374935,0.085410247,5.601236542,4.063950643,0.318897970,0.004235224,0.028422422,0.455877240
1750861677.478267431,-1.881308371,-1.266074039,-1.597935995,1.565777215,-0.943640472,-2.513614127,0.032999925,-0.114132832,0.081573609,0.002911780,0.086384043,0.086419768,5.600390292,4.064102940,0.318886524,0.004235644,0.028426889,0.455929946
1750861677.480274916,-1.881242023,-1.266303583,-1.597771913,1.565783073,-0.943466695,-2.513440278,0.033348441,-0.115411148,0.082509033,0.002945565,0.087393311,0.087429449,5.599534580,4.064256849,0.318874962,0.004236068,0.028431402,0.455983225
1750861677.482297659,-1.881174978,-1.266535682,-1.597605960,1.565788997,-0.943290899,-2.513264409,0.033695742,-0.116687788,0.083444013,0.002979347,0.088402740,0.088439291,5.598669424,4.064412364,0.318863284,0.004236497,0.028435959,0.456037076
1750861677.484238386,-1.881107241,-1.266770333,-1.597438137,1.565794990,-0.943113084,-2.513086521,0.034041814,-0.117962735,0.084378547,0.003013126,0.089412333,0.089449296,5.597794839,4.064569479,0.318851490,0.004236930,0.028440561,0.456091495
1750861677.486381292,-1.881038812,-1.267007532,-1.597268446,1.565801050,-0.942933250,-2.512906612,0.034386645,-0.119235970,0.085312628,0.003046902,0.090422091,0.090459467,5.596910843,4.064728188,0.318839581,0.004237368,0.028445207,0.456146483
1750861677.488322735,-1.880969695,-1.267247276,-1.597096887,1.565807178,-0.942751396,-2.512724683,0.034730219,-0.120507475,0.086246253,0.003080675,0.091432015,0.091469804,5.596017451,4.064888484,0.318827558,0.004237810,0.028449898,0.456202035
1750861677.490204811,-1.880899892,-1.267489561,-1.596923461,1.565813373,-0.942567521,-2.512540733,0.035072525,-0.121777232,0.087179417,0.003114446,0.092442108,0.092480308,5.595114681,4.065050362,0.318815421,0.004238257,0.028454632,0.456258151
1750861677.492277861,-1.880829406,-1.267734383,-1.596748169,1.565819635,-0.942381627,-2.512354761,0.035413548,-0.123045223,0.088112117,0.003148213,0.093452369,0.093490982,5.594202549,4.065213815,0.318803171,0.004238707,0.028459410,0.456314829
1750861677.494302034,-1.880758239,-1.267981740,-1.596571013,1.565825965,-0.942193712,-2.512166769,0.035753274,-0.124311430,0.089044347,0.003181977,0.094462803,0.094501828,5.593281074,4.065378836,0.318790808,0.004239162,0.028464230,0.456372065
1750861677.496266842,-1.880686393,-1.268231628,-1.596391992,1.565832363,-0.942003776,-2.511976754,0.036091690,-0.125575835,0.089976104,0.003215738,0.095473408,0.095512846,5.592350272,4.065545419,0.318778334,0.004239622,0.028469094,0.456429860
1750861677.498220682,-1.880613873,-1.268484042,-1.596211109,1.565838828,-0.941811818,-2.511784717,0.036428783,-0.126838419,0.090907382,0.003249496,0.096484188,0.096524037,5.591410162,4.065713557,0.318765749,0.004240085,0.028474001,0.456488209
1750861677.506199121,-1.880540679,-1.268738980,-1.596028363,1.565845361,-0.941617839,-2.511590658,0.036764539,-0.128099165,0.091838179,0.003283250,0.097495144,0.097535405,5.590460760,4.065883245,0.318753053,0.004240553,0.028478950,0.456547112
1750861677.506270170,-1.880540679,-1.268738980,-1.596028363,1.565845361,-0.941617839,-2.511590658,0.036764539,-0.128099165,0.091838179,0.003283250,0.097495144,0.097535405,5.590460760,4.065883245,0.318753053,0.004240553,0.028478950,0.456547112
1750861677.506362677,-1.880540679,-1.268738980,-1.596028363,1.565845361,-0.941617839,-2.511590658,0.036764539,-0.128099165,0.091838179,0.003283250,0.097495144,0.097535405,5.590460760,4.065883245,0.318753053,0.004240553,0.028478950,0.456547112
1750861677.508376598,-1.880241231,-1.269783891,-1.595278779,1.565872167,-0.940821697,-2.510794187,0.038093923,-0.133123406,0.095556458,0.003418234,0.101540753,0.101582660,5.586570600,4.066577349,0.318701175,0.004242466,0.028499162,0.456788212
1750861677.510774851,-1.880241231,-1.269783891,-1.595278779,1.565872167,-0.940821697,-2.510794187,0.038093923,-0.133123406,0.095556458,0.003418234,0.101540753,0.101582660,5.586570600,4.066577349,0.318701175,0.004242466,0.028499162,0.456788212
1750861677.512397289,-1.880164714,-1.270051389,-1.595086738,1.565879037,-0.940617604,-2.510590010,0.038422792,-0.134374691,0.096484780,0.003451972,0.102552609,0.102594927,5.585575014,4.066754680,0.318687936,0.004242954,0.028504318,0.456849848
1750861677.514369965,-1.880087540,-1.270321388,-1.594892841,1.565885975,-0.940411487,-2.510383808,0.038750242,-0.135624031,0.097412595,0.003485706,0.103564650,0.103607379,5.584570247,4.066933519,0.318674590,0.004243447,0.028509515,0.456912024
1750861677.516339779,-1.880009714,-1.270593884,-1.594697088,1.565892980,-0.940203345,-2.510175580,0.039076262,-0.136871407,0.098339898,0.003519436,0.104576876,0.104620016,5.583556317,4.067113859,0.318661137,0.004243944,0.028514751,0.456974738
1750861677.518302917,-1.879931236,-1.270868872,-1.594499481,1.565900053,-0.939993179,-2.509965327,0.039400836,-0.138116802,0.099266686,0.003553162,0.105589290,0.105632841,5.582533245,4.067295694,0.318647580,0.004244445,0.028520028,0.457037988
1750861677.521524429,-1.879852111,-1.271146350,-1.594300022,1.565907193,-0.939780988,-2.509753049,0.039723952,-0.139360198,0.100192955,0.003586885,0.106601893,0.106645854,5.581501048,4.067479015,0.318633917,0.004244950,0.028525344,0.457101770
1750861677.522618771,-1.879772342,-1.271426312,-1.594098710,1.565914400,-0.939566771,-2.509538744,0.040045597,-0.140601578,0.101118699,0.003620604,0.107614685,0.107659057,5.580459747,4.067663817,0.318620151,0.004245459,0.028530699,0.457166083
1750861677.524538517,-1.879691930,-1.271708755,-1.593895547,1.565921675,-0.939350529,-2.509322412,0.040365756,-0.141840924,0.102043917,0.003654319,0.108627669,0.108672452,5.579409360,4.067850092,0.318606281,0.004245972,0.028536093,0.457230925
1750861677.526407480,-1.879610879,-1.271993674,-1.593690535,1.565929018,-0.939132260,-2.509104054,0.040684417,-0.143078218,0.102968602,0.003688031,0.109640846,0.109686039,5.578349909,4.068037832,0.318592309,0.004246489,0.028541526,0.457296293
1750861677.528304577,-1.879529193,-1.272281066,-1.593483673,1.565936427,-0.938911965,-2.508883668,0.041001566,-0.144313442,0.103892752,0.003721738,0.110654217,0.110699821,5.577281412,4.068227031,0.318578235,0.004247010,0.028546997,0.457362184
1750861677.530480862,-1.879446874,-1.272570927,-1.593274964,1.565943905,-0.938689643,-2.508661254,0.041317190,-0.145546580,0.104816362,0.003755441,0.111667784,0.111713797,5.576203890,4.068417682,0.318564059,0.004247534,0.028552506,0.457428596
1750861677.532320261,-1.879363926,-1.272863251,-1.593064408,1.565951449,-0.938465294,-2.508436813,0.041631276,-0.146777614,0.105739429,0.003789140,0.112681548,0.112727971,5.575117363,4.068609776,0.318549783,0.004248063,0.028558052,0.457495527
1750861677.534387827,-1.879280350,-1.273158036,-1.592852007,1.565959061,-0.938238917,-2.508210342,0.041943809,-0.148006526,0.106661949,0.003822835,0.113695510,0.113742342,5.574021851,4.068803306,0.318535406,0.004248596,0.028563635,0.457562973
1750861677.536419630,-1.879196151,-1.273455276,-1.592637761,1.565966740,-0.938010512,-2.507981843,0.042254778,-0.149233299,0.107583917,0.003856525,0.114709671,0.114756913,5.572917375,4.068998266,0.318520931,0.004249132,0.028569255,0.457630934
1750861677.538244009,-1.879111332,-1.273754967,-1.592421671,1.565974487,-0.937780078,-2.507751315,0.042564168,-0.150457916,0.108505331,0.003890212,0.115724033,0.115771685,5.571803956,4.069194647,0.318506357,0.004249672,0.028574912,0.457699405
1750861677.540352106,-1.879025896,-1.274057106,-1.592203740,1.565982301,-0.937547616,-2.507518756,0.042871966,-0.151680359,0.109426185,0.003923894,0.116738597,0.116786658,5.570681614,4.069392442,0.318491685,0.004250216,0.028580605,0.457768385
1750861677.542393684,-1.878939845,-1.274361687,-1.591983967,1.565990183,-0.937313124,-2.507284168,0.043178159,-0.152900611,0.110346477,0.003957571,0.117753365,0.117801835,5.569550370,4.069591643,0.318476916,0.004250764,0.028586333,0.457837870
1750861677.544269323,-1.878853184,-1.274668707,-1.591762354,1.565998132,-0.937076602,-2.507047549,0.043482733,-0.154118654,0.111266202,0.003991245,0.118768337,0.118817216,5.568410247,4.069792244,0.318462050,0.004251316,0.028592097,0.457907858
1750861677.546379328,-1.878765915,-1.274978161,-1.591538902,1.566006148,-0.936838050,-2.506808899,0.043785676,-0.155334472,0.112185357,0.004024913,0.119783515,0.119832803,5.567261264,4.069994236,0.318447089,0.004251871,0.028597896,0.457978347
1750861677.548293829,-1.878678043,-1.275290043,-1.591313613,1.566014231,-0.936597468,-2.506568218,0.044086974,-0.156548048,0.113103939,0.004058577,0.120798900,0.120848597,5.566103444,4.070197611,0.318432033,0.004252430,0.028603730,0.458049334
1750861677.550384521,-1.878589569,-1.275604351,-1.591086487,1.566022382,-0.936354855,-2.506325504,0.044386614,-0.157759363,0.114021942,0.004092236,0.121814494,0.121864599,5.564936808,4.070402361,0.318416883,0.004252993,0.028609597,0.458120816
1750861677.558267355,-1.878500497,-1.275921079,-1.590857526,1.566030600,-0.936110210,-2.506080759,0.044684582,-0.158968402,0.114939365,0.004125891,0.122830297,0.122880810,5.563761378,4.070608480,0.318401639,0.004253559,0.028615499,0.458192789
1750861677.558503628,-1.878410831,-1.276240223,-1.590626730,1.566038886,-0.935863533,-2.505833981,0.044980866,-0.160175147,0.115856202,0.004159540,0.123846310,0.123897232,5.562577176,4.070815959,0.318386302,0.004254129,0.028621434,0.458265253
1750861677.558592319,-1.878320575,-1.276561778,-1.590394101,1.566047238,-0.935614824,-2.505585170,0.045275452,-0.161379581,0.116772451,0.004193185,0.124862536,0.124913865,5.561384224,4.071024791,0.318370874,0.004254703,0.028627402,0.458338202
1750861677.560630560,-1.878229731,-1.276885740,-1.590159641,1.566055658,-0.935364083,-2.505334325,0.045568327,-0.162581686,0.117688108,0.004226825,0.125878974,0.125930711,5.560182545,4.071234966,0.318355353,0.004255280,0.028633403,0.458411636
1750861677.562383890,-1.878138303,-1.277212104,-1.589923349,1.566064146,-0.935111308,-2.505081447,0.045859478,-0.163781447,0.118603169,0.004260460,0.126895627,0.126947772,5.558972160,4.071446478,0.318339743,0.004255860,0.028639436,0.458485551
1750861677.564289808,-1.878046294,-1.277540864,-1.589685228,1.566072700,-0.934856500,-2.504826534,0.046148891,-0.164978846,0.119517631,0.004294089,0.127912495,0.127965047,5.557753093,4.071659319,0.318324042,0.004256445,0.028645501,0.458559943
1750861677.566341400,-1.877953708,-1.277872017,-1.589445279,1.566081322,-0.934599658,-2.504569587,0.046436554,-0.166173866,0.120431490,0.004327714,0.128929579,0.128982539,5.556525366,4.071873480,0.318308252,0.004257032,0.028651597,0.458634811
1750861677.568287373,-1.877860549,-1.278205558,-1.589203503,1.566090011,-0.934340782,-2.504310604,0.046722454,-0.167366491,0.121344743,0.004361333,0.129946881,0.130000248,5.555289002,4.072088953,0.318292374,0.004257623,0.028657724,0.458710151
1750861677.570276260,-1.877766820,-1.278541482,-1.588959901,1.566098767,-0.934079871,-2.504049585,0.047006576,-0.168556704,0.122257386,0.004394947,0.130964401,0.131018175,5.554044024,4.072305731,0.318276408,0.004258218,0.028663883,0.458785960
1750861677.573935032,-1.877672524,-1.278879783,-1.588714474,1.566107591,-0.933816924,-2.503786531,0.047288909,-0.169744487,0.123169416,0.004428555,0.131982141,0.132036322,5.552790455,4.072523805,0.318260355,0.004258816,0.028670071,0.458862236
1750861677.574211121,-1.877577665,-1.279220458,-1.588467223,1.566116482,-0.933551942,-2.503521440,0.047569439,-0.170929824,0.124080830,0.004462158,0.133000102,0.133054689,5.551528320,4.072743166,0.318244216,0.004259417,0.028676289,0.458938975
1750861677.576381922,-1.877482247,-1.279563501,-1.588218151,1.566125439,-0.933284923,-2.503254312,0.047848153,-0.172112699,0.124991623,0.004495755,0.134018285,0.134073278,5.550257640,4.072963808,0.318227992,0.004260022,0.028682537,0.459016173
1750861677.578366041,-1.877386274,-1.279908907,-1.587967257,1.566134465,-0.933015869,-2.502985147,0.048125038,-0.173293095,0.125901794,0.004529347,0.135036690,0.135092090,5.548978440,4.073185721,0.318211683,0.004260630,0.028688813,0.459093829
1750861677.580335617,-1.877289748,-1.280256672,-1.587714544,1.566143557,-0.932744777,-2.502713944,0.048400080,-0.174470996,0.126811338,0.004562933,0.136055319,0.136111125,5.547690744,4.073408897,0.318195290,0.004261241,0.028695119,0.459171939
1750861677.582604170,-1.877289748,-1.280256672,-1.587714544,1.566143557,-0.932744777,-2.502713944,0.048400080,-0.174470996,0.126811338,0.004562933,0.136055319,0.136111125,5.547690744,4.073408897,0.318195290,0.004261241,0.028695119,0.459171939
1750861677.584351778,-1.877192675,-1.280606790,-1.587460012,1.566152716,-0.932471647,-2.502440702,0.048673267,-0.175646383,0.127720251,0.004596513,0.137074174,0.137130385,5.546394576,4.073633328,0.318178814,0.004261855,0.028701452,0.459250499
1750861677.586367846,-1.877095057,-1.280959256,-1.587203663,1.566161943,-0.932196480,-2.502165422,0.048944586,-0.176819243,0.128628532,0.004630088,0.138093253,0.138149870,5.545089960,4.073859006,0.318162255,0.004262473,0.028707813,0.459329507
1750861677.588524103,-1.876996898,-1.281314065,-1.586945499,1.566171237,-0.931919274,-2.501888102,0.049214024,-0.177989556,0.129536176,0.004663656,0.139112560,0.139169583,5.543776919,4.074085922,0.318145615,0.004263094,0.028714201,0.459408959
1750861677.590386152,-1.876898202,-1.281671212,-1.586685519,1.566180597,-0.931640029,-2.501608743,0.049481567,-0.179157309,0.130443181,0.004697218,0.140132094,0.140189522,5.542455479,4.074314068,0.318128893,0.004263718,0.028720616,0.459488853
1750861677.592617512,-1.876798973,-1.282030692,-1.586423726,1.566190025,-0.931358745,-2.501327344,0.049747203,-0.180322483,0.131349543,0.004730775,0.141151857,0.141209690,5.541125664,4.074543435,0.318112092,0.004264345,0.028727057,0.459569185
1750861677.594372034,-1.876699214,-1.282392500,-1.586160121,1.566199521,-0.931075422,-2.501043904,0.050010919,-0.181485062,0.132255258,0.004764325,0.142171850,0.142230087,5.539787499,4.074774015,0.318095211,0.004264976,0.028733524,0.459649951
1750861677.596404076,-1.876598930,-1.282756631,-1.585894706,1.566209083,-0.930790058,-2.500758424,0.050272702,-0.182645031,0.133160325,0.004797868,0.143192073,0.143250715,5.538441009,4.075005799,0.318078252,0.004265609,0.028740017,0.459731148
1750861677.598376751,-1.876498125,-1.283123079,-1.585627480,1.566218712,-0.930502653,-2.500470901,0.050532538,-0.183802373,0.134064739,0.004831406,0.144212528,0.144271574,5.537086218,4.075238779,0.318061215,0.004266245,0.028746535,0.459812773
1750861677.600429296,-1.876396801,-1.283491839,-1.585358447,1.566228408,-0.930213208,-2.500181337,0.050790415,-0.184957071,0.134968498,0.004864937,0.145233214,0.145292665,5.535723152,4.075472946,0.318044100,0.004266885,0.028753077,0.459894823
1750861677.605437279,-1.876294964,-1.283862905,-1.585087607,1.566238172,-0.929921720,-2.499889731,0.051046320,-0.186109110,0.135871598,0.004898461,0.146254134,0.146313988,5.534351836,4.075708292,0.318026910,0.004267527,0.028759643,0.459977294
1750861677.606708050,-1.876192618,-1.284236273,-1.584814961,1.566248002,-0.929628191,-2.499596081,0.051300241,-0.187258473,0.136774037,0.004931979,0.147275288,0.147335546,5.532972295,4.075944808,0.318009644,0.004268173,0.028766232,0.460060183
1750861677.608617067,-1.876192618,-1.284236273,-1.584814961,1.566248002,-0.929628191,-2.499596081,0.051300241,-0.187258473,0.136774037,0.004931979,0.147275288,0.147335546,5.532972295,4.075944808,0.318009644,0.004268173,0.028766232,0.460060183
1750861677.610596895,-1.875882558,-1.285370132,-1.583986204,1.566277896,-0.928735346,-2.498702871,0.052049962,-0.190690348,0.139477355,0.005032491,0.150340160,0.150401628,5.528784583,4.076661289,0.317957399,0.004270126,0.028786138,0.460311322
1750861677.612424612,-1.875778212,-1.285752652,-1.583706349,1.566287994,-0.928433643,-2.498401045,0.052295813,-0.191828848,0.140377118,0.005065981,0.151362258,0.151424128,5.527372402,4.076902397,0.317939839,0.004270783,0.028792817,0.460395846
1750861677.614287376,-1.875673376,-1.286137445,-1.583424696,1.566298160,-0.928129896,-2.498097174,0.052539615,-0.192964592,0.141276205,0.005099464,0.152384593,0.152446866,5.525952126,4.077144633,0.317922206,0.004271442,0.028799517,0.460480771
1750861677.616193771,-1.875568055,-1.286524508,-1.583141245,1.566308392,-0.927824105,-2.497791257,0.052781354,-0.194097564,0.142174612,0.005132940,0.153407167,0.153469842,5.524523782,4.077387986,0.317904503,0.004272104,0.028806238,0.460566093
1750861677.618201017,-1.875462252,-1.286913834,-1.582855998,1.566318691,-0.927516268,-2.497483295,0.053021019,-0.195227749,0.143072338,0.005166409,0.154429980,0.154493057,5.523087394,4.077632447,0.317886729,0.004272769,0.028812979,0.460651807
1750861677.620151997,-1.875355972,-1.287305417,-1.582568956,1.566329058,-0.927206385,-2.497173285,0.053258595,-0.196355129,0.143969379,0.005199870,0.155453033,0.155516512,5.521642992,4.077878009,0.317868886,0.004273437,0.028819740,0.460737911
1750861677.624115467,-1.875249219,-1.287699252,-1.582280121,1.566339491,-0.926894455,-2.496861228,0.053494071,-0.197479691,0.144865732,0.005233324,0.156476327,0.156540207,5.520190600,4.078124661,0.317850975,0.004274107,0.028826520,0.460824400
1750861677.624582291,-1.875141997,-1.288095334,-1.581989494,1.566349991,-0.926580479,-2.496547124,0.053727433,-0.198601418,0.145761395,0.005266770,0.157499862,0.157564143,5.518730247,4.078372396,0.317832995,0.004274780,0.028833319,0.460911271
1750861677.626410246,-1.875034311,-1.288493656,-1.581697076,1.566360558,-0.926264456,-2.496230972,0.053958669,-0.199720293,0.146656365,0.005300209,0.158523639,0.158588321,5.517261958,4.078621204,0.317814949,0.004275456,0.028840135,0.460998519
1750861677.628313065,-1.874926164,-1.288894213,-1.581402869,1.566371192,-0.925946384,-2.495912771,0.054187766,-0.200836303,0.147550639,0.005333640,0.159547659,0.159612742,5.515785761,4.078871076,0.317796836,0.004276134,0.028846969,0.461086142
1750861677.630311251,-1.874817561,-1.289297000,-1.581106874,1.566381892,-0.925626265,-2.495592520,0.054414711,-0.201949430,0.148444215,0.005367062,0.160571922,0.160637405,5.514301684,4.079122003,0.317778657,0.004276814,0.028853821,0.461174136
1750861677.632240295,-1.874708506,-1.289702009,-1.580809092,1.566392660,-0.925304097,-2.495270221,0.054639492,-0.203059659,0.149337089,0.005400477,0.161596429,0.161662312,5.512809754,4.079373977,0.317760414,0.004277497,0.028860688,0.461262495
1750861677.634402752,-1.874708506,-1.289702009,-1.580809092,1.566392660,-0.925304097,-2.495270221,0.054639492,-0.203059659,0.149337089,0.005400477,0.161596429,0.161662312,5.512809754,4.079373977,0.317760414,0.004277497,0.028860688,0.461262495
1750861677.636327505,-1.874599004,-1.290109236,-1.580509526,1.566403494,-0.924979879,-2.494945871,0.054862096,-0.204166975,0.150229260,0.005433884,0.162621180,0.162687463,5.511309999,4.079626988,0.317742107,0.004278183,0.028867572,0.461351218
1750861677.638518572,-1.874489059,-1.290518675,-1.580208176,1.566414396,-0.924653612,-2.494619471,0.055082509,-0.205271363,0.151120724,0.005467283,0.163646176,0.163712859,5.509802446,4.079881028,0.317723737,0.004278870,0.028874471,0.461440299
1750861677.640240908,-1.874378676,-1.290930320,-1.579905043,1.566425363,-0.924325294,-2.494291019,0.055300720,-0.206372806,0.152011479,0.005500673,0.164671417,0.164738499,5.508287122,4.080136086,0.317705304,0.004279561,0.028881386,0.461529735
1750861677.642455101,-1.874267858,-1.291344164,-1.579600130,1.566436398,-0.923994926,-2.493960517,0.055516716,-0.207471289,0.152901523,0.005534055,0.165696905,0.165764386,5.506764057,4.080392155,0.317686809,0.004280253,0.028888314,0.461619521
1750861677.644329548,-1.874156611,-1.291760203,-1.579293438,1.566447500,-0.923662506,-2.493627962,0.055730483,-0.208566797,0.153790853,0.005567429,0.166722638,0.166790518,5.505233279,4.080649224,0.317668254,0.004280948,0.028895257,0.461709654
1750861677.646264553,-1.874044938,-1.292178430,-1.578984967,1.566458668,-0.923328035,-2.493293354,0.055942010,-0.209659315,0.154679466,0.005600794,0.167748619,0.167816898,5.503694815,4.080907286,0.317649638,0.004281645,0.028902212,0.461800130
1750861677.648329735,-1.873932844,-1.292598838,-1.578674720,1.566469903,-0.922991512,-2.492956694,0.056151283,-0.210748827,0.155567360,0.005634150,0.168774847,0.168843524,5.502148694,4.081166330,0.317630963,0.004282344,0.028909181,0.461890945
1750861677.650249243,-1.873820334,-1.293021423,-1.578362698,1.566481205,-0.922652936,-2.492617980,0.056358291,-0.211835318,0.156454533,0.005667497,0.169801323,0.169870398,5.500594944,4.081426348,0.317612230,0.004283045,0.028916161,0.461982094
1750861677.653672457,-1.873707412,-1.293446177,-1.578048903,1.566492573,-0.922312306,-2.492277212,0.056563020,-0.212918772,0.157340982,0.005700836,0.170828047,0.170897519,5.499033595,4.081687330,0.317593439,0.004283749,0.028923154,0.462073573
1750861677.655638933,-1.873594083,-1.293873096,-1.577733335,1.566504008,-0.921969623,-2.491934390,0.056765457,-0.213999175,0.158226704,0.005734165,0.171855020,0.171924889,5.497464675,4.081949267,0.317574590,0.004284454,0.028930157,0.462165379
1750861677.660713196,-1.873366223,-1.294733400,-1.577096889,1.566527078,-0.921278094,-2.491242580,0.057163409,-0.216150766,0.159995962,0.005800796,0.173909713,0.173980376,5.494304239,4.082475971,0.317536725,0.004285872,0.028944194,0.462349951
1750861677.662571192,-1.873251700,-1.295166773,-1.576776013,1.566538713,-0.920929247,-2.490893591,0.057358897,-0.217221923,0.160879492,0.005834098,0.174937433,0.175008493,5.492712781,4.082740719,0.317517710,0.004286583,0.028951227,0.462442710
1750861677.664272785,-1.873136789,-1.295602285,-1.576453371,1.566550414,-0.920578344,-2.490542546,0.057552044,-0.218289968,0.161762286,0.005867390,0.175965404,0.176036859,5.491113869,4.083006385,0.317498641,0.004287297,0.028958269,0.462535778
1750861677.666179180,-1.873021493,-1.296039931,-1.576128964,1.566562182,-0.920225385,-2.490189443,0.057742837,-0.219354887,0.162644343,0.005900673,0.176993625,0.177065476,5.489507532,4.083272961,0.317479519,0.004288012,0.028965318,0.462629150
1750861677.668302059,-1.872905819,-1.296479703,-1.575802794,1.566574017,-0.919870370,-2.489834283,0.057931263,-0.220416664,0.163525659,0.005933945,0.178022096,0.178094343,5.487893800,4.083540436,0.317460344,0.004288729,0.028972376,0.462722823
1750861677.670467854,-1.872789770,-1.296921595,-1.575474862,1.566585918,-0.919513297,-2.489477066,0.058117310,-0.221475283,0.164406234,0.005967208,0.179050819,0.179123460,5.486272703,4.083808801,0.317441118,0.004289449,0.028979440,0.462816792
1750861677.672349215,-1.872673351,-1.297365602,-1.575145170,1.566597886,-0.919154166,-2.489117789,0.058300966,-0.222530731,0.165286064,0.006000461,0.180079792,0.180152828,5.484644271,4.084078048,0.317421840,0.004290169,0.028986510,0.462911053
1750861677.674311161,-1.872556568,-1.297811716,-1.574813719,1.566609920,-0.918792977,-2.488756454,0.058482217,-0.223582992,0.166165148,0.006033704,0.181109016,0.181182446,5.483008534,4.084348166,0.317402513,0.004290892,0.028993587,0.463005600
1750861677.676276922,-1.872439424,-1.298259932,-1.574480510,1.566622020,-0.918429730,-2.488393059,0.058661052,-0.224632052,0.167043483,0.006066936,0.182138492,0.182212316,5.481365522,4.084619147,0.317383136,0.004291616,0.029000668,0.463100430
1750861677.678282738,-1.872321925,-1.298710242,-1.574145545,1.566634188,-0.918064423,-2.488027605,0.058837457,-0.225677896,0.167921067,0.006100159,0.183168219,0.183242437,5.479715265,4.084890981,0.317363710,0.004292342,0.029007754,0.463195539
1750861677.680199385,-1.872204076,-1.299162641,-1.573808826,1.566646421,-0.917697057,-2.487660090,0.059011421,-0.226720508,0.168797899,0.006133370,0.184198198,0.184272809,5.478057794,4.085163658,0.317344236,0.004293070,0.029014844,0.463290920
1750861677.682255507,-1.872085881,-1.299617122,-1.573470354,1.566658721,-0.917327630,-2.487290513,0.059182931,-0.227759876,0.169673975,0.006166572,0.185228429,0.185303433,5.476393140,4.085437171,0.317324715,0.004293799,0.029021937,0.463386571
1750861677.684214830,-1.871967346,-1.300073679,-1.573130131,1.566671087,-0.916956143,-2.486918876,0.059351974,-0.228795982,0.170549295,0.006199762,0.186258912,0.186334308,5.474721333,4.085711508,0.317305148,0.004294530,0.029029032,0.463482486
1750861677.686365366,-1.871848475,-1.300532304,-1.572788157,1.566683520,-0.916582594,-2.486545176,0.059518538,-0.229828814,0.171423856,0.006232942,0.187289646,0.187365435,5.473042404,4.085986660,0.317285535,0.004295262,0.029036130,0.463578660
1750861677.688745737,-1.871729273,-1.300992992,-1.572444436,1.566696019,-0.916206984,-2.486169414,0.059682611,-0.230858356,0.172297656,0.006266110,0.188320633,0.188396814,5.471356384,4.086262619,0.317265876,0.004295996,0.029043229,0.463675090
1750861677.690283060,-1.871609746,-1.301455735,-1.572098967,1.566708585,-0.915829312,-2.485791589,0.059844181,-0.231884595,0.173170694,0.006299268,0.189351872,0.189428444,5.469663304,4.086539375,0.317246174,0.004296731,0.029050329,0.463771769
1750861677.692237616,-1.871489898,-1.301920528,-1.571751753,1.566721216,-0.915449577,-2.485411700,0.060003234,-0.232907514,0.174042967,0.006332414,0.190383362,0.190460325,5.467963196,4.086816918,0.317226428,0.004297467,0.029057429,0.463868694
1750861677.694216728,-1.871369735,-1.302387363,-1.571402796,1.566733914,-0.915067778,-2.485029747,0.060159759,-0.233927101,0.174914473,0.006365549,0.191415105,0.191492459,5.466256091,4.087095239,0.317206640,0.004298205,0.029064528,0.463965859
1750861677.696147442,-1.871249261,-1.302856234,-1.571052096,1.566746678,-0.914683916,-2.484645730,0.060313742,-0.234943340,0.175785211,0.006398672,0.192447100,0.192524844,5.464542020,4.087374329,0.317186809,0.004298944,0.029071626,0.464063260
1750861677.698203802,-1.871128481,-1.303327134,-1.570699656,1.566759509,-0.914297990,-2.484259648,0.060465173,-0.235956217,0.176655179,0.006431784,0.193479346,0.193557480,5.462821015,4.087654178,0.317166937,0.004299684,0.029078722,0.464160891
1750861677.706297874,-1.871007402,-1.303800057,-1.570345476,1.566772406,-0.913909998,-2.483871500,0.060614038,-0.236965718,0.177524375,0.006464884,0.194511845,0.194590368,5.461093108,4.087934776,0.317147024,0.004300425,0.029085816,0.464258749
1750861677.706366062,-1.871007402,-1.303800057,-1.570345476,1.566772406,-0.913909998,-2.483871500,0.060614038,-0.236965718,0.177524375,0.006464884,0.194511845,0.194590368,5.461093108,4.087934776,0.317147024,0.004300425,0.029085816,0.464258749
1750861677.706398010,-1.871007402,-1.303800057,-1.570345476,1.566772406,-0.913909998,-2.483871500,0.060614038,-0.236965718,0.177524375,0.006464884,0.194511845,0.194590368,5.461093108,4.087934776,0.317147024,0.004300425,0.029085816,0.464258749
1750861677.708517551,-1.870642413,-1.305230891,-1.569272517,1.566811493,-0.912733631,-2.482694658,0.061045116,-0.239973821,0.180127312,0.006564111,0.197610849,0.197690539,5.455868295,4.088780973,0.317087051,0.004302656,0.029107075,0.464553627
1750861677.710353136,-1.870520184,-1.305711835,-1.568911396,1.566824654,-0.912337376,-2.482298243,0.061183595,-0.240969675,0.180993402,0.006597163,0.198644354,0.198724431,5.454113101,4.089064476,0.317066983,0.004303401,0.029114152,0.464652339
1750861677.712291479,-1.870397680,-1.306194767,-1.568548544,1.566837881,-0.911939054,-2.481899760,0.061319447,-0.241962080,0.181858712,0.006630202,0.199678109,0.199758574,5.452351165,4.089348680,0.317046878,0.004304148,0.029121222,0.464751251
1750861677.714223146,-1.870274907,-1.306679681,-1.568183962,1.566851175,-0.911538664,-2.481499209,0.061452660,-0.242951025,0.182723239,0.006663228,0.200712115,0.200792967,5.450582521,4.089633577,0.317026737,0.004304895,0.029128287,0.464850358
1750861677.716163397,-1.870151871,-1.307166569,-1.567817652,1.566864534,-0.911136205,-2.481096588,0.061583221,-0.243936493,0.183586982,0.006696241,0.201746371,0.201827610,5.448807201,4.089919157,0.317006561,0.004305644,0.029135343,0.464949656
1750861677.719442844,-1.870028576,-1.307655424,-1.567449615,1.566877960,-0.910731678,-2.480691898,0.061711118,-0.244918472,0.184449940,0.006729242,0.202780878,0.202862503,5.447025238,4.090205411,0.316986350,0.004306393,0.029142392,0.465049140
1750861677.720190763,-1.869905028,-1.308146240,-1.567079853,1.566891451,-0.910325082,-2.480285138,0.061836339,-0.245896947,0.185312110,0.006762229,0.203815635,0.203897646,5.445236665,4.090492330,0.316966104,0.004307143,0.029149432,0.465148803
1750861677.722260714,-1.869781233,-1.308639010,-1.566708367,1.566905009,-0.909916415,-2.479876307,0.061958871,-0.246871904,0.186173492,0.006795204,0.204850641,0.204933037,5.443441516,4.090779903,0.316945825,0.004307894,0.029156463,0.465248642
1750861677.724347830,-1.869657195,-1.309133726,-1.566335159,1.566918632,-0.909505679,-2.479465406,0.062078703,-0.247843329,0.187034083,0.006828165,0.205885896,0.205968677,5.441639822,4.091068122,0.316925513,0.004308645,0.029163484,0.465348650
1750861677.726399899,-1.869532920,-1.309630381,-1.565960231,1.566932321,-0.909092872,-2.479052433,0.062195822,-0.248811209,0.187893883,0.006861112,0.206921401,0.207004566,5.439831619,4.091356976,0.316905170,0.004309397,0.029170494,0.465448822
1750861677.728256464,-1.869408413,-1.310128968,-1.565583584,1.566946076,-0.908677993,-2.478637387,0.062310215,-0.249775529,0.188752890,0.006894046,0.207957153,0.208040703,5.438016939,4.091646457,0.316884794,0.004310150,0.029177492,0.465549152
1750861677.730209112,-1.869283681,-1.310629480,-1.565205220,1.566959897,-0.908261043,-2.478220270,0.062421872,-0.250736275,0.189611101,0.006926966,0.208993154,0.209077087,5.436195815,4.091936554,0.316864388,0.004310903,0.029184478,0.465649636
1750861677.732164860,-1.869158728,-1.311131911,-1.564825140,1.566973784,-0.907842020,-2.477801079,0.062530779,-0.251693435,0.190468517,0.006959871,0.210029402,0.210113718,5.434368283,4.092227259,0.316843952,0.004311656,0.029191451,0.465750268
1750861677.734151363,-1.869033560,-1.311636252,-1.564443346,1.566987737,-0.907420925,-2.477379815,0.062636924,-0.252646993,0.191325135,0.006992763,0.211065898,0.211150596,5.432534375,4.092518561,0.316823487,0.004312410,0.029198410,0.465851043
1750861677.736325741,-1.868908182,-1.312142496,-1.564059840,1.567001755,-0.906997757,-2.476956476,0.062740296,-0.253596937,0.192180954,0.007025641,0.212102639,0.212187720,5.430694126,4.092810452,0.316802993,0.004313165,0.029205354,0.465951954
1750861677.738334417,-1.868782600,-1.312650637,-1.563674623,1.567015839,-0.906572514,-2.476531063,0.062840881,-0.254543252,0.193035973,0.007058504,0.213139627,0.213225089,5.428847569,4.093102922,0.316782471,0.004313919,0.029212284,0.466052997
1750861677.740251541,-1.868656820,-1.313160667,-1.563287697,1.567029989,-0.906145198,-2.476103576,0.062938669,-0.255485924,0.193890190,0.007091352,0.214176860,0.214262704,5.426994739,4.093395961,0.316761921,0.004314675,0.029219197,0.466154165
1750861677.742181301,-1.868530847,-1.313672578,-1.562899063,1.567044205,-0.905715807,-2.475674012,0.063033646,-0.256424941,0.194743604,0.007124185,0.215214338,0.215300562,5.425135671,4.093689559,0.316741345,0.004315430,0.029226094,0.466255454
1750861677.744294882,-1.868404687,-1.314186364,-1.562508723,1.567058486,-0.905284340,-2.475242373,0.063125801,-0.257360289,0.195596214,0.007157004,0.216252061,0.216338665,5.423270400,4.093983709,0.316720743,0.004316185,0.029232973,0.466356857
1750861677.749356747,-1.868278346,-1.314702017,-1.562116679,1.567072833,-0.904850798,-2.474808658,0.063215122,-0.258291953,0.196448018,0.007189807,0.217290026,0.217377010,5.421398958,4.094278398,0.316700115,0.004316941,0.029239834,0.466458369
1750861677.749406815,-1.868278346,-1.314702017,-1.562116679,1.567072833,-0.904850798,-2.474808658,0.063215122,-0.258291953,0.196448018,0.007189807,0.217290026,0.217377010,5.421398958,4.094278398,0.316700115,0.004316941,0.029239834,0.466458369
1750861677.751039982,-1.868151829,-1.315219529,-1.561722931,1.567087245,-0.904415180,-2.474372865,0.063301596,-0.259219921,0.197299016,0.007222596,0.218328235,0.218415598,5.419521383,4.094573619,0.316679463,0.004317697,0.029246676,0.466559983
1750861677.753215790,-1.868025142,-1.315738894,-1.561327483,1.567101723,-0.903977485,-2.473934995,0.063385212,-0.260144178,0.198149205,0.007255368,0.219366686,0.219454427,5.417637708,4.094869362,0.316658786,0.004318453,0.029253498,0.466661695
1750861677.755026102,-1.867898290,-1.316260104,-1.560930335,1.567116267,-0.903537713,-2.473495047,0.063465957,-0.261064712,0.198998585,0.007288126,0.220405378,0.220493497,5.415747968,4.095165618,0.316638086,0.004319208,0.029260299,0.466763498
1750861677.756471395,-1.867771280,-1.316783151,-1.560531489,1.567130876,-0.903095864,-2.473053021,0.063543819,-0.261981509,0.199847155,0.007320867,0.221444311,0.221532808,5.413852199,4.095462376,0.316617363,0.004319964,0.029267080,0.466865387
1750861677.758285284,-1.867644117,-1.317308027,-1.560130947,1.567145550,-0.902651936,-2.472608916,0.063618786,-0.262894556,0.200694913,0.007353592,0.222483484,0.222572358,5.411950436,4.095759628,0.316596618,0.004320720,0.029273838,0.466967356
1750861677.760265589,-1.867516806,-1.317834726,-1.559728710,1.567160290,-0.902205929,-2.472162731,0.063690847,-0.263803838,0.201541859,0.007386301,0.223522896,0.223612146,5.410042715,4.096057363,0.316575851,0.004321475,0.029280573,0.467069398
1750861677.762247562,-1.867389355,-1.318363240,-1.559324780,1.567175095,-0.901757844,-2.471714467,0.063759988,-0.264709344,0.202387990,0.007418994,0.224562546,0.224652172,5.408129071,4.096355573,0.316555063,0.004322230,0.029287284,0.467171508
1750861677.764635801,-1.867389355,-1.318363240,-1.559324780,1.567175095,-0.901757844,-2.471714467,0.063759988,-0.264709344,0.202387990,0.007418994,0.224562546,0.224652172,5.408129071,4.096355573,0.316555063,0.004322230,0.029287284,0.467171508
1750861677.766433477,-1.867134052,-1.319425682,-1.558511847,1.567204902,-0.900855434,-2.470811697,0.063889467,-0.266508970,0.204077807,0.007484331,0.226642558,0.226732934,5.404284158,4.096953378,0.316513427,0.004323740,0.029300633,0.467375906
1750861677.768305779,-1.867006213,-1.319959594,-1.558102848,1.567219903,-0.900401109,-2.470357191,0.063949780,-0.267403063,0.204921491,0.007516973,0.227682917,0.227773668,5.402352960,4.097252955,0.316492579,0.004324494,0.029307268,0.467478183
1750861677.770282984,-1.866878255,-1.320495291,-1.557692162,1.567234970,-0.899944702,-2.469900602,0.064007126,-0.268293327,0.205764356,0.007549599,0.228723511,0.228814636,5.400415983,4.097552968,0.316471713,0.004325248,0.029313877,0.467580504
1750861677.772260427,-1.866750186,-1.321032765,-1.557279791,1.567250102,-0.899486215,-2.469441932,0.064061493,-0.269179747,0.206606402,0.007582208,0.229764339,0.229855837,5.398473264,4.097853409,0.316450829,0.004326002,0.029320457,0.467682861
1750861677.774230480,-1.866622011,-1.321572008,-1.556865737,1.567265299,-0.899025645,-2.468981179,0.064112869,-0.270062310,0.207447628,0.007614799,0.230805399,0.230897270,5.396524837,4.098154267,0.316429928,0.004326755,0.029327010,0.467785250
1750861677.776332140,-1.866493737,-1.322113012,-1.556450001,1.567280561,-0.898562993,-2.468518343,0.064161242,-0.270941003,0.208288033,0.007647373,0.231846691,0.231938934,5.394570741,4.098455534,0.316409010,0.004327507,0.029333532,0.467887664
1750861677.778360128,-1.866365368,-1.322655769,-1.556032585,1.567295888,-0.898098258,-2.468053423,0.064206601,-0.271815813,0.209127615,0.007679929,0.232888214,0.232980827,5.392611012,4.098757200,0.316388075,0.004328259,0.029340025,0.467990096
1750861677.780357599,-1.866236912,-1.323200273,-1.555613491,1.567311281,-0.897631440,-2.467586419,0.064248933,-0.272686728,0.209966375,0.007712467,0.233929965,0.234022950,5.390645686,4.099059255,0.316367125,0.004329010,0.029346486,0.468092540
1750861677.782257557,-1.866108375,-1.323746514,-1.555192720,1.567326738,-0.897162538,-2.467117331,0.064288226,-0.273553733,0.210804311,0.007744987,0.234971945,0.235065300,5.388674800,4.099361690,0.316346160,0.004329760,0.029352916,0.468194991
1750861677.784293652,-1.865979761,-1.324294485,-1.554770275,1.567342260,-0.896691552,-2.466646158,0.064324468,-0.274416816,0.211641421,0.007777488,0.236014152,0.236107877,5.386698392,4.099664497,0.316325180,0.004330509,0.029359313,0.468297441
1750861677.786254883,-1.865851079,-1.324844178,-1.554346155,1.567357848,-0.896218481,-2.466172899,0.064357648,-0.275275964,0.212477707,0.007809971,0.237056585,0.237150679,5.384716498,4.099967664,0.316304186,0.004331258,0.029365676,0.468399884
1750861677.788238049,-1.865722333,-1.325395586,-1.553920364,1.567373500,-0.895743325,-2.465697555,0.064387753,-0.276131163,0.213313165,0.007842436,0.238099243,0.238193705,5.382729156,4.100271184,0.316283178,0.004332005,0.029372005,0.468502313
1750861677.790272236,-1.865593530,-1.325948700,-1.553492903,1.567389218,-0.895266084,-2.465220124,0.064414772,-0.276982402,0.214147796,0.007874881,0.239142124,0.239236953,5.380736403,4.100575047,0.316262158,0.004332752,0.029378298,0.468604723
1750861677.793184996,-1.865593530,-1.325948700,-1.553492903,1.567389218,-0.895266084,-2.465220124,0.064414772,-0.276982402,0.214147796,0.007874881,0.239142124,0.239236953,5.380736403,4.100575047,0.316262158,0.004332752,0.029378298,0.468604723
1750861677.798842430,-1.865335777,-1.327060016,-1.552632977,1.567420847,-0.894305343,-2.464259003,0.064459504,-0.278672944,0.215814573,0.007939714,0.241228551,0.241324114,5.376734816,4.101183762,0.316220080,0.004334243,0.029390775,0.468809457
1750861677.798891783,-1.865335777,-1.327060016,-1.552632977,1.567420847,-0.894305343,-2.464259003,0.064459504,-0.278672944,0.215814573,0.007939714,0.241228551,0.241324114,5.376734816,4.101183762,0.316220080,0.004334243,0.029390775,0.468809457
1750861677.798908710,-1.865206840,-1.327618202,-1.552200516,1.567436759,-0.893821842,-2.463775310,0.064477192,-0.279512222,0.216646717,0.007972102,0.242272094,0.242368023,5.374726057,4.101488597,0.316199023,0.004334986,0.029396957,0.468911768
1750861677.800945759,-1.865077870,-1.328178063,-1.551766391,1.567452735,-0.893336254,-2.463289530,0.064491747,-0.280347488,0.217478030,0.008004469,0.243315856,0.243412150,5.372712039,4.101793737,0.316177956,0.004335728,0.029403101,0.469014032
1750861677.802590132,-1.865077870,-1.328178063,-1.551766391,1.567452735,-0.893336254,-2.463289530,0.064491747,-0.280347488,0.217478030,0.008004469,0.243315856,0.243412150,5.372712039,4.101793737,0.316177956,0.004335728,0.029403101,0.469014032
1750861677.804218769,-1.864948875,-1.328739589,-1.551330604,1.567468777,-0.892848579,-2.462801662,0.064503156,-0.281178728,0.218308512,0.008036817,0.244359834,0.244456492,5.370692799,4.102099174,0.316156878,0.004336469,0.029409204,0.469116243
1750861677.806302071,-1.864819860,-1.329302775,-1.550893158,1.567484883,-0.892358815,-2.462311704,0.064511407,-0.282005930,0.219138162,0.008069145,0.245404027,0.245501050,5.368668376,4.102404897,0.316135791,0.004337209,0.029415267,0.469218395
1750861677.808290243,-1.864690831,-1.329867610,-1.550454052,1.567501053,-0.891866963,-2.461819657,0.064516489,-0.282829081,0.219966979,0.008101452,0.246448435,0.246545820,5.366638807,4.102710898,0.316114694,0.004337948,0.029421289,0.469320480
1750861677.811970472,-1.864561796,-1.330434088,-1.550013290,1.567517288,-0.891373021,-2.461325521,0.064518390,-0.283648169,0.220794963,0.008133739,0.247493054,0.247590802,5.364604133,4.103017167,0.316093588,0.004338684,0.029427268,0.469422492
1750861677.812288761,-1.864432760,-1.331002200,-1.549570873,1.567533588,-0.890876990,-2.460829294,0.064517098,-0.284463180,0.221622112,0.008166005,0.248537884,0.248635994,5.362564391,4.103323695,0.316072474,0.004339420,0.029433204,0.469524423
1750861677.814472437,-1.864303730,-1.331571938,-1.549126802,1.567549952,-0.890378869,-2.460330977,0.064512600,-0.285274102,0.222448427,0.008198250,0.249582923,0.249681394,5.360519619,4.103630473,0.316051352,0.004340154,0.029439096,0.469626267
1750861677.816270590,-1.864174712,-1.332143294,-1.548681080,1.567566381,-0.889878658,-2.459830568,0.064504886,-0.286080923,0.223273906,0.008230474,0.250628170,0.250727001,5.358469858,4.103937492,0.316030222,0.004340886,0.029444943,0.469728018
1750861677.818459988,-1.864045712,-1.332716259,-1.548233707,1.567582874,-0.889376357,-2.459328069,0.064493944,-0.286883629,0.224098549,0.008262677,0.251673623,0.251772814,5.356415146,4.104244742,0.316009085,0.004341617,0.029450743,0.469829667
1750861677.820251465,-1.863916738,-1.333290826,-1.547784686,1.567599432,-0.888871964,-2.458823477,0.064479761,-0.287682209,0.224922355,0.008294858,0.252719280,0.252818830,5.354355521,4.104552214,0.315987942,0.004342346,0.029456497,0.469931208
1750861677.822387934,-1.863787795,-1.333866985,-1.547334018,1.567616054,-0.888365479,-2.458316793,0.064462326,-0.288476649,0.225745324,0.008327017,0.253765139,0.253865047,5.352291025,4.104859900,0.315966792,0.004343073,0.029462203,0.470032633
1750861677.824503899,-1.863658891,-1.334444730,-1.546881705,1.567632740,-0.887856903,-2.457808017,0.064441627,-0.289266937,0.226567454,0.008359154,0.254811199,0.254911465,5.350221695,4.105167789,0.315945637,0.004343799,0.029467860,0.470133937
1750861677.826434374,-1.863530031,-1.335024050,-1.546427749,1.567649490,-0.887346234,-2.457297147,0.064417652,-0.290053060,0.227388747,0.008391269,0.255857459,0.255958081,5.348147572,4.105475874,0.315924477,0.004344522,0.029473467,0.470235111
1750861677.828339815,-1.863401223,-1.335604939,-1.545972151,1.567666305,-0.886833473,-2.456784184,0.064390391,-0.290835007,0.228209200,0.008423362,0.256903915,0.257004894,5.346068695,4.105784144,0.315903311,0.004345244,0.029479023,0.470336149
1750861677.830345392,-1.863272472,-1.336187388,-1.545514913,1.567683184,-0.886318619,-2.456269127,0.064359830,-0.291612764,0.229028813,0.008455431,0.257950567,0.258051902,5.343985104,4.106092590,0.315882141,0.004345964,0.029484528,0.470437042
1750861677.832270861,-1.863143785,-1.336771387,-1.545056036,1.567700127,-0.885801671,-2.455751976,0.064325958,-0.292386319,0.229847587,0.008487478,0.258997413,0.259099102,5.341896839,4.106401204,0.315860967,0.004346681,0.029489981,0.470537785
1750861677.834310770,-1.863015170,-1.337356930,-1.544595523,1.567717134,-0.885282629,-2.455232731,0.064288763,-0.293155660,0.230665520,0.008519502,0.260044450,0.260146493,5.339803941,4.106709977,0.315839790,0.004347397,0.029495380,0.470638369
1750861677.836253405,-1.862886633,-1.337944007,-1.544133375,1.567734205,-0.884761493,-2.454711390,0.064248235,-0.293920773,0.231482611,0.008551502,0.261091677,0.261194073,5.337706449,4.107018899,0.315818609,0.004348110,0.029500724,0.470738788
1750861677.838239431,-1.862758179,-1.338532610,-1.543669593,1.567751340,-0.884238262,-2.454187954,0.064204360,-0.294681648,0.232298861,0.008583479,0.262139092,0.262241840,5.335604404,4.107327961,0.315797425,0.004348821,0.029506013,0.470839033
1750861677.840324640,-1.862629817,-1.339122731,-1.543204180,1.567768538,-0.883712936,-2.453662423,0.064157127,-0.295438271,0.233114269,0.008615432,0.263186692,0.263289792,5.333497847,4.107637154,0.315776239,0.004349530,0.029511245,0.470939098
1750861677.843043804,-1.862501553,-1.339714361,-1.542737137,1.567785801,-0.883185515,-2.453134795,0.064106525,-0.296190630,0.233928834,0.008647360,0.264234476,0.264337927,5.331386818,4.107946470,0.315755051,0.004350236,0.029516420,0.471038974
1750861677.845021486,-1.862501553,-1.339714361,-1.542737137,1.567785801,-0.883185515,-2.453134795,0.064106525,-0.296190630,0.233928834,0.008647360,0.264234476,0.264337927,5.331386818,4.107946470,0.315755051,0.004350236,0.029516420,0.471038974
1750861677.846985579,-1.862373394,-1.340307491,-1.542268465,1.567803128,-0.882655998,-2.452605071,0.064052542,-0.296938713,0.234742556,0.008679265,0.265282442,0.265386242,5.329271358,4.108255899,0.315733861,0.004350940,0.029521537,0.471138655
1750861677.849030972,-1.862245345,-1.340902113,-1.541798167,1.567820518,-0.882124385,-2.452073250,0.063995166,-0.297682507,0.235555435,0.008711145,0.266330587,0.266434737,5.327151508,4.108565433,0.315712669,0.004351641,0.029526594,0.471238133
1750861677.850832462,-1.862117415,-1.341498218,-1.541326244,1.567837972,-0.881590676,-2.451539332,0.063934386,-0.298422001,0.236367469,0.008743000,0.267378910,0.267483408,5.325027309,4.108875061,0.315691476,0.004352340,0.029531591,0.471337401
1750861677.852335691,-1.861989610,-1.342095798,-1.540852698,1.567855490,-0.881054869,-2.451003316,0.063870189,-0.299157181,0.237178660,0.008774830,0.268427408,0.268532253,5.322898803,4.109184777,0.315670283,0.004353036,0.029536527,0.471436450
1750861677.854371309,-1.861861937,-1.342694844,-1.540377530,1.567873072,-0.880516966,-2.450465203,0.063802565,-0.299888036,0.237989005,0.008806635,0.269476079,0.269581271,5.320766031,4.109494569,0.315649089,0.004353730,0.029541400,0.471535273
1750861677.856323242,-1.861734402,-1.343295347,-1.539900742,1.567890717,-0.879976965,-2.449924991,0.063731501,-0.300614553,0.238798506,0.008838414,0.270524920,0.270630458,5.318629034,4.109804431,0.315627895,0.004354420,0.029546210,0.471633862
1750861677.858269691,-1.861607013,-1.343897299,-1.539422336,1.567908425,-0.879434866,-2.449382681,0.063656986,-0.301336721,0.239607161,0.008870168,0.271573930,0.271679813,5.316487854,4.110114352,0.315606701,0.004355108,0.029550955,0.471732210
1750861677.860843658,-1.861479776,-1.344500691,-1.538942314,1.567926197,-0.878890669,-2.448838272,0.063579008,-0.302054526,0.240414970,0.008901896,0.272623107,0.272729334,5.314342533,4.110424324,0.315585508,0.004355794,0.029555636,0.471830309
1750861677.863004684,-1.861352699,-1.345105514,-1.538460677,1.567944033,-0.878344374,-2.448291763,0.063497556,-0.302767957,0.241221933,0.008933597,0.273672447,0.273779017,5.312193113,4.110734339,0.315564315,0.004356476,0.029560249,0.471928150
1750861677.864327192,-1.861225789,-1.345711760,-1.537977427,1.567961932,-0.877795979,-2.447743156,0.063412618,-0.303477002,0.242028049,0.008965272,0.274721948,0.274828861,5.310039637,4.111044386,0.315543124,0.004357155,0.029564796,0.472025727
1750861677.866293669,-1.861099051,-1.346319419,-1.537492566,1.567979894,-0.877245486,-2.447192448,0.063324182,-0.304181648,0.242833318,0.008996920,0.275771608,0.275878863,5.307882145,4.111354458,0.315521933,0.004357831,0.029569273,0.472123030
1750861677.868338108,-1.861099051,-1.346319419,-1.537492566,1.567979894,-0.877245486,-2.447192448,0.063324182,-0.304181648,0.242833318,0.008996920,0.275771608,0.275878863,5.307882145,4.111354458,0.315521933,0.004357831,0.029569273,0.472123030
1750861677.870320082,-1.860972494,-1.346928483,-1.537006094,1.567997920,-0.876692893,-2.446639640,0.063232237,-0.304881884,0.243637740,0.009028541,0.276821425,0.276929020,5.305720682,4.111664546,0.315500745,0.004358504,0.029573682,0.472220053
1750861677.872311831,-1.860846125,-1.347538944,-1.536518015,1.568016008,-0.876138200,-2.446084732,0.063136771,-0.305577697,0.244441314,0.009060135,0.277871396,0.277979331,5.303555288,4.111974641,0.315479558,0.004359174,0.029578020,0.472316787
1750861677.874329567,-1.860719949,-1.348150791,-1.536028330,1.568034160,-0.875581407,-2.445527723,0.063037773,-0.306269075,0.245244041,0.009091701,0.278921518,0.279029792,5.301386008,4.112284734,0.315458373,0.004359840,0.029582286,0.472413224
1750861677.876613855,-1.860593976,-1.348764017,-1.535537040,1.568052375,-0.875022514,-2.444968612,0.062935230,-0.306956006,0.246045919,0.009123240,0.279971789,0.280080401,5.299212883,4.112594816,0.315437191,0.004360504,0.029586480,0.472509356
1750861677.878464460,-1.860468211,-1.349378612,-1.535044147,1.568070653,-0.874461520,-2.444407401,0.062829132,-0.307638478,0.246846949,0.009154750,0.281022207,0.281131155,5.297035958,4.112904880,0.315416011,0.004361163,0.029590600,0.472605175
1750861677.880385637,-1.860342662,-1.349994568,-1.534549652,1.568088994,-0.873898425,-2.443844088,0.062719467,-0.308316480,0.247647130,0.009186232,0.282072768,0.282182053,5.294855274,4.113214915,0.315394834,0.004361820,0.029594645,0.472700673
1750861677.882320166,-1.860217335,-1.350611875,-1.534053559,1.568107398,-0.873333229,-2.443278673,0.062606223,-0.308989998,0.248446461,0.009217686,0.283123469,0.283233090,5.292670876,4.113524914,0.315373660,0.004362473,0.029598614,0.472795841
1750861677.884333134,-1.860092239,-1.351230525,-1.533555867,1.568125865,-0.872765931,-2.442711155,0.062489389,-0.309659021,0.249244943,0.009249111,0.284174309,0.284284264,5.290482807,4.113834868,0.315352489,0.004363122,0.029602507,0.472890671
1750861677.886298895,-1.859967380,-1.351850508,-1.533056579,1.568144394,-0.872196531,-2.442141535,0.062368953,-0.310323537,0.250042576,0.009280507,0.285225285,0.285335573,5.288291110,4.114144769,0.315331322,0.004363767,0.029606322,0.472985156
1750861677.888285398,-1.859842766,-1.352471816,-1.532555697,1.568162987,-0.871625030,-2.441569813,0.062244904,-0.310983534,0.250839359,0.009311873,0.286276393,0.286387013,5.286095830,4.114454607,0.315310158,0.004364409,0.029610058,0.473079286
1750861677.890265703,-1.859718403,-1.353094439,-1.532053223,1.568181642,-0.871051426,-2.440995987,0.062117230,-0.311639000,0.251635291,0.009343210,0.287327631,0.287438583,5.283897009,4.114764374,0.315288998,0.004365048,0.029613713,0.473173053
1750861677.894567966,-1.859470462,-1.354343596,-1.531043502,1.568219140,-0.869897910,-2.439842026,0.061850960,-0.312936292,0.253224604,0.009405793,0.289430484,0.289542096,5.279488924,4.115383663,0.315246689,0.004366312,0.029620780,0.473359466
1750861677.899414062,-1.859470462,-1.354343596,-1.531043502,1.568219140,-0.869897910,-2.439842026,0.061850960,-0.312936292,0.253224604,0.009405793,0.289430484,0.289542096,5.279488924,4.115383663,0.315246689,0.004366312,0.029620780,0.473359466
1750861677.899468899,-1.859470462,-1.354343596,-1.531043502,1.568219140,-0.869897910,-2.439842026,0.061850960,-0.312936292,0.253224604,0.009405793,0.289430484,0.289542096,5.279488924,4.115383663,0.315246689,0.004366312,0.029620780,0.473359466
1750861677.900460243,-1.859346898,-1.354970111,-1.530536259,1.568237983,-0.869317997,-2.439261890,0.061712342,-0.313578093,0.254017985,0.009437040,0.290482094,0.290594034,5.277279749,4.115693167,0.315225541,0.004366938,0.029624189,0.473452095
1750861677.902482033,-1.859223615,-1.355597905,-1.530027430,1.568256888,-0.868735981,-2.438679650,0.061570053,-0.314215316,0.254810514,0.009468255,0.291533822,0.291646090,5.275067211,4.116002566,0.315204397,0.004367561,0.029627513,0.473544327
1750861677.904252052,-1.859100620,-1.356226969,-1.529517017,1.568275856,-0.868151862,-2.438095306,0.061424082,-0.314847948,0.255602191,0.009499440,0.292585665,0.292698259,5.272851354,4.116311852,0.315183258,0.004368179,0.029630752,0.473636154
1750861677.906206131,-1.858977921,-1.356857294,-1.529005022,1.568294886,-0.867565638,-2.437508857,0.061274416,-0.315475978,0.256393017,0.009530593,0.293637619,0.293750539,5.270632225,4.116621016,0.315162123,0.004368793,0.029633904,0.473727567
1750861677.908278704,-1.858855525,-1.357488870,-1.528491446,1.568313978,-0.866977311,-2.436920303,0.061121046,-0.316099393,0.257182991,0.009561714,0.294689683,0.294802927,5.268409867,4.116930051,0.315140992,0.004369403,0.029636969,0.473818558
1750861677.910744905,-1.858733439,-1.358121689,-1.527976291,1.568333133,-0.866386880,-2.436329645,0.060963958,-0.316718181,0.257972113,0.009592804,0.295741852,0.295855419,5.266184326,4.117238947,0.315119867,0.004370008,0.029639944,0.473909118
1750861677.912424088,-1.858611672,-1.358755740,-1.527459558,1.568352349,-0.865794344,-2.435736882,0.060803142,-0.317332332,0.258760383,0.009623862,0.296794123,0.296908013,5.263955647,4.117547696,0.315098746,0.004370609,0.029642830,0.473999238
1750861677.914247751,-1.858490229,-1.359391015,-1.526941250,1.568371628,-0.865199703,-2.435142013,0.060638586,-0.317941832,0.259547800,0.009654887,0.297846494,0.297960705,5.261723876,4.117856291,0.315077630,0.004371206,0.029645624,0.474088909
1750861677.916197777,-1.858369120,-1.360027504,-1.526421367,1.568390969,-0.864602958,-2.434545039,0.060470279,-0.318546671,0.260334364,0.009685879,0.298898960,0.299013492,5.259489058,4.118164722,0.315056519,0.004371798,0.029648326,0.474178122
1750861677.918289661,-1.858248351,-1.360665198,-1.525899913,1.568410371,-0.864004107,-2.433945959,0.060298209,-0.319146836,0.261120075,0.009716838,0.299951519,0.300066370,5.257251239,4.118472981,0.315035413,0.004372385,0.029650935,0.474266870
1750861677.920301199,-1.858127929,-1.361304088,-1.525376888,1.568429836,-0.863403151,-2.433344773,0.060122365,-0.319742316,0.261904933,0.009747764,0.301004168,0.301119337,5.255010465,4.118781061,0.315014311,0.004372968,0.029653449,0.474355142
1750861677.922303438,-1.858007864,-1.361944165,-1.524852294,1.568449362,-0.862800090,-2.432741481,0.059942735,-0.320333098,0.262688937,0.009778657,0.302056902,0.302172388,5.252766782,4.119088953,0.314993215,0.004373546,0.029655868,0.474442930
1750861677.924226046,-1.857888161,-1.362585418,-1.524326132,1.568468951,-0.862194924,-2.432136084,0.059759308,-0.320919171,0.263472088,0.009809515,0.303109719,0.303225521,5.250520236,4.119396649,0.314972124,0.004374119,0.029658189,0.474530224
1750861677.926476240,-1.857768829,-1.363227838,-1.523798406,1.568488601,-0.861587651,-2.431528579,0.059572073,-0.321500523,0.264254385,0.009840340,0.304162614,0.304278731,5.248270874,4.119704140,0.314951038,0.004374687,0.029660413,0.474617017
1750861677.928317070,-1.857649875,-1.363871417,-1.523269115,1.568508312,-0.860978273,-2.430918969,0.059381018,-0.322077142,0.265035827,0.009871129,0.305215585,0.305332016,5.246018743,4.120011420,0.314929957,0.004375251,0.029662537,0.474703298
1750861677.930294037,-1.857531307,-1.364516144,-1.522738263,1.568528085,-0.860366789,-2.430307251,0.059186132,-0.322649017,0.265816416,0.009901884,0.306268628,0.306385372,5.243763888,4.120318478,0.314908881,0.004375809,0.029664561,0.474789059
1750861677.932357550,-1.857413133,-1.365162009,-1.522205850,1.568547920,-0.859753199,-2.429693427,0.058987404,-0.323216135,0.266596149,0.009932604,0.307321739,0.307438794,5.241506358,4.120625308,0.314887810,0.004376362,0.029666484,0.474874291
1750861677.934318066,-1.857295360,-1.365809005,-1.521671879,1.568567815,-0.859137502,-2.429077496,0.058784821,-0.323778486,0.267375028,0.009963289,0.308374915,0.308492280,5.239246198,4.120931901,0.314866743,0.004376911,0.029668303,0.474958984
1750861677.936275482,-1.857177997,-1.366457120,-1.521136351,1.568587773,-0.858519699,-2.428459458,0.058578373,-0.324336057,0.268153052,0.009993937,0.309428152,0.309545826,5.236983457,4.121238250,0.314845682,0.004377453,0.029670019,0.475043129
1750861677.938300848,-1.857061050,-1.367106346,-1.520599267,1.568607791,-0.857899789,-2.427839313,0.058368048,-0.324888836,0.268930221,0.010024550,0.310481446,0.310599428,5.234718181,4.121544345,0.314824626,0.004377991,0.029671630,0.475126717
1750861677.943468809,-1.856944527,-1.367756672,-1.520060631,1.568627871,-0.857277773,-2.427217060,0.058153835,-0.325436811,0.269706534,0.010055126,0.311534793,0.311653082,5.232450419,4.121850181,0.314803574,0.004378523,0.029673135,0.475209738
1750861677.945149183,-1.856828437,-1.368408090,-1.519520442,1.568648012,-0.856653650,-2.426592700,0.057935723,-0.325979972,0.270481991,0.010085666,0.312588190,0.312706785,5.230180218,4.122155747,0.314782527,0.004379050,0.029674532,0.475292184
1750861677.946381569,-1.856712787,-1.369060589,-1.518978703,1.568668213,-0.856027420,-2.425966233,0.057713699,-0.326518306,0.271256593,0.010116168,0.313641632,0.313760532,5.227907626,4.122461037,0.314761484,0.004379571,0.029675821,0.475374044
1750861677.948418856,-1.856597585,-1.369714160,-1.518435416,1.568688476,-0.855399084,-2.425337658,0.057487754,-0.327051801,0.272030338,0.010146634,0.314695117,0.314814320,5.225632691,4.122766043,0.314740446,0.004380087,0.029676999,0.475455310
1750861677.950565100,-1.856482838,-1.370368793,-1.517890582,1.568708800,-0.854768640,-2.424706976,0.057257875,-0.327580447,0.272803226,0.010177061,0.315748639,0.315868144,5.223355462,4.123070756,0.314719412,0.004380597,0.029678067,0.475535972
1750861677.952274323,-1.856368556,-1.371024478,-1.517344204,1.568729184,-0.854136089,-2.424074186,0.057024052,-0.328104230,0.273575258,0.010207451,0.316802195,0.316922001,5.221075986,4.123375169,0.314698382,0.004381101,0.029679023,0.475616020
1750861677.954220295,-1.856254745,-1.371681207,-1.516796282,1.568749630,-0.853501431,-2.423439288,0.056786272,-0.328623139,0.274346433,0.010237802,0.317855781,0.317975887,5.218794313,4.123679274,0.314677356,0.004381599,0.029679865,0.475695445
1750861677.956233025,-1.856141413,-1.372338968,-1.516246819,1.568770136,-0.852864666,-2.422802282,0.056544525,-0.329137163,0.275116751,0.010268115,0.318909393,0.319029797,5.216510491,4.123983064,0.314656334,0.004382092,0.029680592,0.475774238
1750861677.958945036,-1.856141413,-1.372338968,-1.516246819,1.568770136,-0.852864666,-2.422802282,0.056544525,-0.329137163,0.275116751,0.010268115,0.318909393,0.319029797,5.216510491,4.123983064,0.314656334,0.004382092,0.029680592,0.475774238
1750861677.960667133,-1.855916221,-1.373657550,-1.515143274,1.568811329,-0.851584814,-2.421521947,0.056049084,-0.330150508,0.276654814,0.010328623,0.321016678,0.321137675,5.211936596,4.124589665,0.314614301,0.004383059,0.029681698,0.475929886
1750861677.962367535,-1.855804376,-1.374318351,-1.514589197,1.568832017,-0.850941727,-2.420878618,0.055795367,-0.330649805,0.277422558,0.010358818,0.322070343,0.322191635,5.209646622,4.124892461,0.314593289,0.004383533,0.029682074,0.476006723
1750861677.964421272,-1.855693042,-1.374980146,-1.514033585,1.568852764,-0.850296532,-2.420233181,0.055537638,-0.331144170,0.278189444,0.010388973,0.323124016,0.323245602,5.207354696,4.125194911,0.314572281,0.004384001,0.029682330,0.476082888
1750861677.966297865,-1.855582228,-1.375642924,-1.513476440,1.568873573,-0.849649231,-2.419585635,0.055275884,-0.331633591,0.278955472,0.010419088,0.324177695,0.324299572,5.205060868,4.125497006,0.314551275,0.004384463,0.029682466,0.476158372
1750861677.968278885,-1.855471941,-1.376306677,-1.512917763,1.568894441,-0.848999822,-2.418935982,0.055010096,-0.332118056,0.279720640,0.010449162,0.325231374,0.325353542,5.202765188,4.125798739,0.314530272,0.004384919,0.029682479,0.476233165
1750861677.970284939,-1.855362254,-1.376971005,-1.512357884,1.568915357,-0.848348686,-2.418284602,0.054564526,-0.331528560,0.279583239,0.010445506,0.325236004,0.325358068,5.271817073,4.332476773,0.296244471,-0.000341155,0.000130426,0.003415010
1750861677.972238064,-1.855239011,-1.377722973,-1.511724090,1.568939097,-0.847609919,-2.417545545,0.054067483,-0.330305226,0.278856573,0.010419108,0.324517826,0.324639532,5.348222160,4.462080402,0.284258258,-0.003581212,-0.020231286,-0.325523656
1750861677.974288464,-1.855130842,-1.378383682,-1.511166312,1.568959935,-0.846960861,-2.416896243,0.054101425,-0.330404375,0.278921256,0.010418622,0.324541025,0.324662716,5.466056026,4.250921563,0.300011905,-0.000179238,0.000653498,-0.010057397
1750861677.976304054,-1.855022606,-1.379044590,-1.510608405,1.568980772,-0.846311755,-2.416246894,0.054135322,-0.330503330,0.278985789,0.010418148,0.324564335,0.324686012,5.465174575,4.250736097,0.300010052,-0.000177371,0.000656663,-0.010039601
1750861677.978304148,-1.854914301,-1.379705696,-1.510050369,1.569001607,-0.845662603,-2.415597499,0.054169174,-0.330602089,0.279050173,0.010417686,0.324587758,0.324709421,5.464291665,4.250549350,0.300008204,-0.000175505,0.000659831,-0.010021765
1750861677.980289221,-1.854805929,-1.380366998,-1.509492205,1.569022442,-0.845013404,-2.414948057,0.054202981,-0.330700654,0.279114408,0.010417237,0.324611294,0.324732943,5.463407297,4.250361320,0.300006360,-0.000173638,0.000663003,-0.010003888
1750861677.982251167,-1.854697489,-1.381028498,-1.508933912,1.569043276,-0.844364158,-2.414298567,0.054236743,-0.330799024,0.279178493,0.010416801,0.324634942,0.324756577,5.462521470,4.250172008,0.300004521,-0.000171771,0.000666178,-0.009985971
1750861677.984466314,-1.854697489,-1.381028498,-1.508933912,1.569043276,-0.844364158,-2.414298567,0.054236743,-0.330799024,0.279178493,0.010416801,0.324634942,0.324756577,5.462521470,4.250172008,0.300004521,-0.000171771,0.000666178,-0.009985971
1750861677.993438721,-1.854588982,-1.381690194,-1.508375491,1.569064110,-0.843714864,-2.413649030,0.054270461,-0.330897200,0.279242430,0.010416378,0.324658703,0.324780325,5.461634184,4.249981413,0.300002686,-0.000169905,0.000669356,-0.009968013
1750861677.994440556,-1.854263056,-1.383676459,-1.506699463,1.569126604,-0.841766697,-2.411700133,0.054371349,-0.331190566,0.279433346,0.010415184,0.324730664,0.324852248,5.458963571,4.249401922,0.299997206,-0.000164303,0.000678911,-0.009913897
1750861677.996403933,-1.854154280,-1.384338937,-1.506140533,1.569147434,-0.841117211,-2.411050404,0.054404890,-0.331287968,0.279496688,0.010414811,0.324754878,0.324876449,5.458070449,4.249206188,0.299995388,-0.000162435,0.000682103,-0.009895777
1750861677.998305559,-1.854045437,-1.385001610,-1.505581476,1.569168264,-0.840467677,-2.410400627,0.054438388,-0.331385177,0.279559881,0.010414451,0.324779205,0.324900764,5.457175867,4.249009167,0.299993574,-0.000160567,0.000685298,-0.009877616
1750861678.000292301,-1.853936527,-1.385664478,-1.505022293,1.569189092,-0.839818094,-2.409750801,0.054471842,-0.331482193,0.279622926,0.010414104,0.324803646,0.324925193,5.456279826,4.248810860,0.299991764,-0.000158699,0.000688497,-0.009859414
1750861678.003754377,-1.853827550,-1.386327539,-1.504462985,1.569209920,-0.839168462,-2.409100926,0.054505252,-0.331579017,0.279685822,0.010413770,0.324828200,0.324949736,5.455382325,4.248611265,0.299989958,-0.000156831,0.000691699,-0.009841172
1750861678.004257679,-1.853718506,-1.386990794,-1.503903550,1.569230747,-0.838518781,-2.408451002,0.054538620,-0.331675649,0.279748571,0.010413448,0.324852868,0.324974393,5.454483365,4.248410382,0.299988157,-0.000154963,0.000694904,-0.009822889
1750861678.006307125,-1.853609395,-1.387654241,-1.503343990,1.569251574,-0.837869051,-2.407801029,0.054571944,-0.331772089,0.279811172,0.010413139,0.324877650,0.324999164,5.453582945,4.248208211,0.299986360,-0.000153094,0.000698113,-0.009804565
1750861678.008233309,-1.853500218,-1.388317882,-1.502784306,1.569272400,-0.837219271,-2.407151005,0.054605225,-0.331868338,0.279873625,0.010412842,0.324902546,0.325024049,5.452681066,4.248004750,0.299984567,-0.000151226,0.000701325,-0.009786200
1750861678.010341883,-1.853390974,-1.388981715,-1.502224496,1.569293225,-0.836569441,-2.406500932,0.054638463,-0.331964395,0.279935931,0.010412559,0.324927556,0.325049049,5.451777727,4.247799999,0.299982778,-0.000149357,0.000704541,-0.009767794
1750861678.012276888,-1.853281664,-1.389645739,-1.501664562,1.569314050,-0.835919560,-2.405850809,0.054671658,-0.332060261,0.279998089,0.010412288,0.324952680,0.325074163,5.450872928,4.247593958,0.299980994,-0.000147488,0.000707759,-0.009749347
1750861678.014318705,-1.853172288,-1.390309956,-1.501104504,1.569334874,-0.835269630,-2.405200636,0.054704811,-0.332155937,0.280060099,0.010412029,0.324977919,0.325099392,5.449966670,4.247386626,0.299979213,-0.000145618,0.000710982,-0.009730859
1750861678.016258240,-1.853062845,-1.390974363,-1.500544322,1.569355698,-0.834619649,-2.404550412,0.054737922,-0.332251421,0.280121963,0.010411784,0.325003272,0.325124735,5.449058951,4.247178002,0.299977437,-0.000143749,0.000714207,-0.009712330
1750861678.018401623,-1.852953336,-1.391638961,-1.499984016,1.569376521,-0.833969617,-2.403900137,0.054770990,-0.332346716,0.280183679,0.010411551,0.325028740,0.325150194,5.448149772,4.246968086,0.299975665,-0.000141879,0.000717436,-0.009693760
1750861678.020292521,-1.852843761,-1.392303750,-1.499423587,1.569397344,-0.833319534,-2.403249811,0.054804017,-0.332441820,0.280245249,0.010411331,0.325054322,0.325175767,5.447239134,4.246756877,0.299973897,-0.000140010,0.000720669,-0.009675148
1750861678.022395372,-1.852734120,-1.392968728,-1.498863035,1.569418167,-0.832669399,-2.402599433,0.054837001,-0.332536735,0.280306671,0.010411123,0.325080020,0.325201456,5.446327035,4.246544375,0.299972133,-0.000138140,0.000723905,-0.009656496
1750861678.024361134,-1.852734120,-1.392968728,-1.498863035,1.569418167,-0.832669399,-2.402599433,0.054837001,-0.332536735,0.280306671,0.010411123,0.325080020,0.325201456,5.446327035,4.246544375,0.299972133,-0.000138140,0.000723905,-0.009656496
1750861678.026421547,-1.852624413,-1.393633896,-1.498302360,1.569438989,-0.832019213,-2.401949005,0.054869943,-0.332631460,0.280367947,0.010410929,0.325105832,0.325227260,5.445413476,4.246330579,0.299970373,-0.000136269,0.000727144,-0.009637802
1750861678.028410912,-1.852514640,-1.394299254,-1.497741563,1.569459810,-0.831368976,-2.401298524,0.054902844,-0.332725996,0.280429076,0.010410747,0.325131760,0.325253179,5.444498456,4.246115488,0.299968618,-0.000134399,0.000730387,-0.009619067
1750861678.031013489,-1.852404802,-1.394964800,-1.497180644,1.569480632,-0.830718686,-2.400647992,0.054935704,-0.332820343,0.280490059,0.010410578,0.325157803,0.325279214,5.443581977,4.245899102,0.299966866,-0.000132528,0.000733633,-0.009600290
1750861678.033330679,-1.852294897,-1.395630535,-1.496619603,1.569501453,-0.830068345,-2.399997407,0.054968522,-0.332914501,0.280550896,0.010410421,0.325183961,0.325305364,5.442664037,4.245681421,0.299965119,-0.000130657,0.000736883,-0.009581472
1750861678.035039186,-1.852184928,-1.396296458,-1.496058441,1.569522273,-0.829417950,-2.399346770,0.055001299,-0.333008470,0.280611586,0.010410278,0.325210235,0.325331630,5.441744636,4.245462444,0.299963375,-0.000128786,0.000740136,-0.009562613
1750861678.037048578,-1.852184928,-1.396296458,-1.496058441,1.569522273,-0.829417950,-2.399346770,0.055001299,-0.333008470,0.280611586,0.010410278,0.325210235,0.325331630,5.441744636,4.245462444,0.299963375,-0.000128786,0.000740136,-0.009562613
1750861678.038954258,-1.852184928,-1.396296458,-1.496058441,1.569522273,-0.829417950,-2.399346770,0.055001299,-0.333008470,0.280611586,0.010410278,0.325210235,0.325331630,5.441744636,4.245462444,0.299963375,-0.000128786,0.000740136,-0.009562613
1750861678.040808678,-1.852184928,-1.396296458,-1.496058441,1.569522273,-0.829417950,-2.399346770,0.055001299,-0.333008470,0.280611586,0.010410278,0.325210235,0.325331630,5.441744636,4.245462444,0.299963375,-0.000128786,0.000740136,-0.009562613
1750861678.042231560,-1.852074892,-1.396962569,-1.495497157,1.569543094,-0.828767504,-2.398696081,0.055034035,-0.333102252,0.280672130,0.010410147,0.325236624,0.325358012,5.440823775,4.245242169,0.299961636,-0.000126915,0.000743393,-0.009543712
1750861678.044247866,-1.851964791,-1.397628867,-1.494935752,1.569563914,-0.828117004,-2.398045338,0.055066730,-0.333195845,0.280732529,0.010410029,0.325263129,0.325384510,5.439901453,4.245020598,0.299959900,-0.000125044,0.000746653,-0.009524770
1750861678.046226978,-1.851854625,-1.398295352,-1.494374227,1.569584734,-0.827466451,-2.397394543,0.055099384,-0.333289250,0.280792781,0.010409923,0.325289750,0.325411124,5.438977670,4.244797729,0.299958169,-0.000123172,0.000749916,-0.009505786
1750861678.049697399,-1.851744394,-1.398962024,-1.493812581,1.569605554,-0.826815845,-2.396743694,0.055131997,-0.333382468,0.280852888,0.010409831,0.325316487,0.325437854,5.438052427,4.244573561,0.299956442,-0.000121300,0.000753183,-0.009486760
1750861678.050356627,-1.851634097,-1.399628882,-1.493250815,1.569626373,-0.826165185,-2.396092791,0.055164571,-0.333475499,0.280912849,0.010409751,0.325343339,0.325464701,5.437125723,4.244348094,0.299954718,-0.000119428,0.000756453,-0.009467693
1750861678.052416563,-1.851523736,-1.400295926,-1.492688930,1.569647193,-0.825514471,-2.395441835,0.055197104,-0.333568343,0.280972665,0.010409684,0.325370309,0.325491664,5.436197558,4.244121328,0.299952999,-0.000117556,0.000759727,-0.009448584
1750861678.054247856,-1.851413309,-1.400963155,-1.492126925,1.569668012,-0.824863704,-2.394790824,0.055229596,-0.333661000,0.281032335,0.010409629,0.325397394,0.325518744,5.435267932,4.243893262,0.299951284,-0.000115683,0.000763004,-0.009429433
1750861678.056275368,-1.851302817,-1.401630570,-1.491564801,1.569688831,-0.824212882,-2.394139760,0.055262049,-0.333753471,0.281091860,0.010409588,0.325424596,0.325545940,5.434336845,4.243663895,0.299949572,-0.000113811,0.000766285,-0.009410241
1750861678.058403015,-1.851192261,-1.402298169,-1.491002558,1.569709650,-0.823562005,-2.393488641,0.055294462,-0.333845755,0.281151241,0.010409559,0.325451914,0.325573253,5.433404297,4.243433227,0.299947865,-0.000111938,0.000769569,-0.009391007
1750861678.060377598,-1.851081640,-1.402965953,-1.490440196,1.569730470,-0.822911074,-2.392837467,0.055326836,-0.333937853,0.281210476,0.010409543,0.325479350,0.325600684,5.432470288,4.243201257,0.299946162,-0.000110064,0.000772857,-0.009371730
1750861678.062311888,-1.850970953,-1.403633920,-1.489877716,1.569751289,-0.822260088,-2.392186238,0.055359169,-0.334029766,0.281269566,0.010409540,0.325506902,0.325628231,5.431534817,4.242967986,0.299944462,-0.000108191,0.000776148,-0.009352412
1750861678.064237356,-1.850860203,-1.404302072,-1.489315118,1.569772108,-0.821609046,-2.391534954,0.055391464,-0.334121492,0.281328512,0.010409550,0.325534571,0.325655895,5.430597885,4.242733411,0.299942767,-0.000106317,0.000779443,-0.009333052
1750861678.066221714,-1.850749388,-1.404970406,-1.488752402,1.569792927,-0.820957949,-2.390883614,0.055423719,-0.334213034,0.281387313,0.010409572,0.325562357,0.325683677,5.429659492,4.242497534,0.299941075,-0.000104444,0.000782741,-0.009313650
1750861678.068228722,-1.850638508,-1.405638924,-1.488189568,1.569813746,-0.820306797,-2.390232219,0.055455935,-0.334304391,0.281445970,0.010409607,0.325590260,0.325711577,5.428719638,4.242260352,0.299939388,-0.000102569,0.000786043,-0.009294206
1750861678.070250034,-1.850527564,-1.406307624,-1.487626618,1.569834565,-0.819655588,-2.389580768,0.055488112,-0.334395563,0.281504482,0.010409655,0.325618281,0.325739594,5.427778322,4.242021867,0.299937704,-0.000100695,0.000789348,-0.009274719
1750861678.072227001,-1.850416556,-1.406976506,-1.487063551,1.569855385,-0.819004324,-2.388929260,0.055520250,-0.334486550,0.281562850,0.010409716,0.325646419,0.325767728,5.426835545,4.241782076,0.299936024,-0.000098821,0.000792657,-0.009255191
1750861678.074238777,-1.850305483,-1.407645570,-1.486500367,1.569876204,-0.818353002,-2.388277697,0.055552350,-0.334577353,0.281621074,0.010409789,0.325674674,0.325795981,5.425891306,4.241540980,0.299934348,-0.000096946,0.000795969,-0.009235620
1750861678.079134703,-1.850194346,-1.408314815,-1.485937066,1.569897024,-0.817701625,-2.387626076,0.055584411,-0.334667972,0.281679154,0.010409876,0.325703048,0.325824351,5.424945605,4.241298579,0.299932676,-0.000095071,0.000799285,-0.009216007
1750861678.084113121,-1.850083145,-1.408984241,-1.485373650,1.569917844,-0.817050190,-2.386974399,0.055616434,-0.334758407,0.281737091,0.010409975,0.325731539,0.325852840,5.423998443,4.241054871,0.299931008,-0.000093196,0.000802604,-0.009196352
