mathias31415/motion_primitives_from_planned_trajectory/data/trajectory_20250626_115605_executed.csv
timestamp,shoulder_lift_joint_pos,elbow_joint_pos,wrist_1_joint_pos,wrist_2_joint_pos,wrist_3_joint_pos,shoulder_pan_joint_pos,shoulder_lift_joint_vel,elbow_joint_vel,wrist_1_joint_vel,wrist_2_joint_vel,wrist_3_joint_vel,shoulder_pan_joint_vel,shoulder_lift_joint_eff,elbow_joint_eff,wrist_1_joint_eff,wrist_2_joint_eff,wrist_3_joint_eff,shoulder_pan_joint_eff,pose_x,pose_y,pose_z,pose_qx,pose_qy,pose_qz,pose_qw
1750931780.897797,-1.772426,-2.315765,-0.641101,1.574923,-0.393775,-1.963493,0.0,0.0,0.0,0.0,0.0,0.0,3.532626684,2.644873592,0.301336577,0.000340629,0.0,0.0,-0.3803405670463122,-0.4644079063838665,0.19865550759130257,-0.0005217049846878887,0.9999620216591399,0.007015731285439251,0.005144179021493773
1750931780.899733,-1.772426,-2.315765,-0.641101,1.574923,-0.393775,-1.963493,0.0,0.0,0.0,0.0,0.0,0.0,3.532626684,2.644873592,0.301336577,0.000340629,0.0,0.0,-0.3803405670463122,-0.4644079063838665,0.19865550759130257,-0.0005217049846878887,0.9999620216591399,0.007015731285439251,0.005144179021493773
1750931780.901196,-1.772426,-2.315765,-0.641101,1.574923,-0.393775,-1.963493,0.0,0.0,0.0,0.0,0.0,0.0,3.532626684,2.644873592,0.301336577,0.000340629,0.0,0.0,-0.3803405670463122,-0.4644079063838665,0.19865550759130257,-0.0005217049846878887,0.9999620216591399,0.007015731285439251,0.005144179021493773
1750931780.9033067,-1.772426,-2.315765,-0.641101,1.574923,-0.393775,-1.963493,0.0,0.0,0.0,0.0,0.0,0.0,3.532626684,2.644873592,0.301336577,0.000340629,0.0,0.0,-0.3803405670463122,-0.4644079063838665,0.19865550759130257,-0.0005217049846878887,0.9999620216591399,0.007015731285439251,0.005144179021493773
1750931780.9055738,-1.772426,-2.315765,-0.641101,1.574923,-0.393775,-1.963493,0.0,0.0,0.0,0.0,0.0,0.0,3.532626684,2.644873592,0.301336577,0.000340629,0.0,0.0,-0.3803405670463122,-0.4644079063838665,0.19865550759130257,-0.0005217049846878887,0.9999620216591399,0.007015731285439251,0.005144179021493773
1750931780.907226,-1.772426,-2.315765,-0.641101,1.574923,-0.393775,-1.963493,0.0,0.0,0.0,0.0,0.0,0.0,3.532626684,2.644873592,0.301336577,0.000340629,0.0,0.0,-0.3803405670463122,-0.4644079063838665,0.19865550759130257,-0.0005217049846878887,0.9999620216591399,0.007015731285439251,0.005144179021493773
1750931780.9092565,-1.772426,-2.315765,-0.641101,1.574923,-0.393775,-1.963493,0.0,0.0,0.0,0.0,0.0,0.0,3.532626684,2.644873592,0.301336577,0.000340629,0.0,0.0,-0.3803405670463122,-0.4644079063838665,0.19865550759130257,-0.0005217049846878887,0.9999620216591399,0.007015731285439251,0.005144179021493773
1750931780.9111311,-1.772426,-2.315765,-0.641101,1.574923,-0.393775,-1.963493,0.0,0.0,0.0,0.0,0.0,0.0,3.532626684,2.644873592,0.301336577,0.000340629,0.0,0.0,-0.3803405670463122,-0.4644079063838665,0.19865550759130257,-0.0005217049846878887,0.9999620216591399,0.007015731285439251,0.005144179021493773
1750931780.9131343,-1.77242605,-2.31576452,-0.641101534,1.574922656,-0.393774025,-1.963492,-5.0182e-05,0.000479742,-0.00053405,-0.000343623,0.00097515,0.001,3.500464887,2.771304353,0.289976904,-0.007073978,0.027469899,0.360449105,-0.38034022276079105,-0.4644084719599972,0.19865563267043612,-0.0005217188305259909,0.9999620215672851,0.007015850301864259,0.0051440331523094915
1750931780.915172,-1.772426201,-2.315763081,-0.641103136,1.574921626,-0.393771099,-1.963489,-0.000100364,0.000959483,-0.001068101,-0.000687245,0.001950299,0.002,3.500469592,2.771307952,0.289976874,-0.007074046,0.027469899,0.360449697,-0.38033918946825584,-0.4644101682544948,0.19865600688288268,-0.0005217598576465135,0.9999620212812782,0.007016207892491874,0.005143596846647101
1750931780.917277,-1.772426452,-2.315760682,-0.641105806,1.574919907,-0.393766224,-1.963484,-0.000150545,0.001439225,-0.001602151,-0.001030868,0.002925449,0.003,3.500477435,2.77131395,0.289976825,-0.007074158,0.027469899,0.360450684,-0.3803374676937602,-0.46441299564986394,0.19865663125549488,-0.0005218290810808764,0.9999620208115508,0.0070168036982405065,0.005142868338779402
1750931780.9192636,-1.772426803,-2.315757324,-0.641109545,1.574917502,-0.393759398,-1.963477,-0.000200727,0.001918967,-0.002136202,-0.00137449,0.003900598,0.004,3.500488415,2.771322347,0.289976756,-0.007074315,0.027469899,0.360452066,-0.38033505682282953,-0.46441695362390933,0.19865750522292192,-0.0005219254866590812,0.9999620201461142,0.007017638064708223,0.005141849383372809
1750931780.9213896,-1.772427255,-2.315753006,-0.641114351,1.574914409,-0.393750621,-1.963468,-0.000250909,0.002398709,-0.002670252,-0.001718113,0.004875748,0.005,3.500502531,2.771333144,0.289976667,-0.007074517,0.027469899,0.360453843,-0.3803319573587271,-0.46442204284921024,0.19865862890138725,-0.0005220490856531091,0.9999620192941137,0.007018710439612909,0.005140538663977609
1750931780.9238412,-1.772427807,-2.315747729,-0.641120226,1.57491063,-0.393739895,-1.963457,-0.000301091,0.00287845,-0.003204303,-0.002061736,0.005850897,0.006,3.500519785,2.771346339,0.289976558,-0.007074764,0.027469899,0.360456015,-0.38032816872382935,-0.4644282626260485,0.198660002184181,-0.0005222008684753856,0.9999620182427689,0.007020021343134771,0.0051389374819434085
1750931780.9253016,-1.772428459,-2.315741493,-0.641127168,1.574906162,-0.393727218,-1.963444,-0.000351273,0.003358192,-0.003738353,-0.002405358,0.006826047,0.007,3.500540175,2.771361934,0.28997643,-0.007075056,0.027469899,0.360458582,-0.38032369128078125,-0.46443561302102,0.19866162531213058,-0.0005223798510915372,0.999962017001992,0.0070215704129360105,0.005137044046459716
1750931780.9287555,-1.772429212,-2.315734297,-0.641135179,1.574901008,-0.39371259,-1.963429,-0.000401454,0.003837934,-0.004272403,-0.002748981,0.007801197,0.008,3.500563703,2.771379928,0.289976282,-0.007075393,0.027469899,0.360461543,-0.38031852478509953,-0.4644440944814199,0.19866349793597443,-0.0005225860201580235,0.999962015557722,0.007023357976040079,0.005134860108137604
1750931780.9290009,-1.772430065,-2.315726141,-0.641144258,1.574895167,-0.393696013,-1.963412,-0.000451636,0.004317675,-0.004806454,-0.003092603,0.008776346,0.009,3.500590368,2.771400321,0.289976114,-0.007075774,0.027469899,0.3604649,-0.3803126693132245,-0.46445370703014116,0.19866562075663774,-0.0005228203835361362,0.9999620139159968,0.007025383269932409,0.0051323848083517755
1750931780.9311607,-1.772431018,-2.315717026,-0.641154405,1.574888638,-0.393677485,-1.963393,-0.000501818,0.004797417,-0.005340504,-0.003436226,0.009751496,0.01,3.500620169,2.771423113,0.289975927,-0.007076201,0.027469899,0.360468651,-0.3803061246710181,-0.46446445005572856,0.19866799333183977,-0.0005230819462913566,0.9999620120708254,0.0070276469244667855,0.00512961784630648
1750931780.9330988,-1.772432072,-2.315706951,-0.64116562,1.574881422,-0.393657007,-1.963372,-0.000552,0.005277159,-0.005874555,-0.003779848,0.010726645,0.011,3.500653108,2.771448303,0.28997572,-0.007076672,0.027469899,0.360472798,-0.380298890892166,-0.46447632412516243,0.1986706155506509,-0.0005233712062208352,0.9999620100172246,0.007030148713481911,0.005126559661089625
1750931780.941892,-1.772433226,-2.315695917,-0.641177903,1.574873518,-0.393634578,-1.963349,-0.000602182,0.0057569,-0.006408605,-0.004123471,0.011701795,0.012,3.500689183,2.771475893,0.289975493,-0.007077189,0.027469899,0.360477339,-0.38029096775709165,-0.464489328603596,0.19867348754778824,-0.0005236876698324402,0.9999620077523868,0.00703288879565987,0.005123209758328313
1750931780.9419558,-1.772433226,-2.315695917,-0.641177903,1.574873518,-0.393634578,-1.963349,-0.000602182,0.0057569,-0.006408605,-0.004123471,0.011701795,0.012,3.500689183,2.771475893,0.289975493,-0.007077189,0.027469899,0.360477339,-0.38029096775709165,-0.464489328603596,0.19867348754778824,-0.0005236876698324402,0.9999620077523868,0.00703288879565987,0.005123209758328313
1750931780.9419746,-1.772433226,-2.315695917,-0.641177903,1.574873518,-0.393634578,-1.963349,-0.000602182,0.0057569,-0.006408605,-0.004123471,0.011701795,0.012,3.500689183,2.771475893,0.289975493,-0.007077189,0.027469899,0.360477339,-0.38029096775709165,-0.464489328603596,0.19867348754778824,-0.0005236876698324402,0.9999620077523868,0.00703288879565987,0.005123209758328313
1750931780.9454124,-1.772438847,-2.315642186,-0.641237717,1.574835033,-0.393525362,-1.963237,-0.000802909,0.007675867,-0.008544807,-0.005497961,0.015602393,0.016,3.500864852,2.771610239,0.289974387,-0.007079704,0.027469899,0.360499453,-0.38025237925046884,-0.46455265282019614,0.19868747276693188,-0.0005252305650800993,0.999961996463003,0.0070462300209612715,0.005106897793200625
1750931780.9454603,-1.772440503,-2.315626355,-0.641255341,1.574823693,-0.393493182,-1.963204,-0.00085309,0.008155609,-0.009078857,-0.005841584,0.016577543,0.017,3.500916612,2.771649822,0.289974062,-0.007080444,0.027469899,0.360505968,-0.38024100752836165,-0.4645713098681659,0.19869159352325338,-0.0005256850705297641,0.999961993057674,0.007050160605139946,0.005102090823658965
1750931780.947117,-1.772442259,-2.315609564,-0.641274032,1.574811666,-0.393459052,-1.963169,-0.000903272,0.008635351,-0.009612908,-0.006185207,0.017552692,0.018,3.500971507,2.771691803,0.289973716,-0.00708123,0.027469899,0.360512879,-0.3802289458296856,-0.464591097732056,0.19869596472809237,-0.0005261672955069695,0.9999619894155894,0.007054328081289039,0.005096991986975243
1750931780.9498682,-1.772444116,-2.315591813,-0.641293792,1.574798952,-0.393422971,-1.963132,-0.000953454,0.009115092,-0.010146958,-0.006528829,0.018527842,0.019,3.50102954,2.771736183,0.289973351,-0.007082061,0.027469899,0.360520185,-0.38021619390796724,-0.4646120161499338,0.1987005855918753,-0.0005266767407687129,0.9999619855175031,0.007058733778555316,0.005091601805620343
1750931780.9510803,-1.772446073,-2.315573103,-0.64131462,1.574785551,-0.39338494,-1.963093,-0.001003636,0.009594834,-0.010681008,-0.006872452,0.019502992,0.02,3.501090709,2.771782961,0.289972966,-0.007082937,0.027469899,0.360527886,-0.3802027514070792,-0.46463406461380613,0.1987054563771728,-0.0005272139112854517,0.9999619813601842,0.007063377170100689,0.005085920040592532
1750931780.9531343,-1.77244813,-2.315553434,-0.641336516,1.574771462,-0.393344959,-1.963052,-0.001053818,0.010074576,-0.011215059,-0.007216074,0.020478141,0.021,3.501155015,2.771832137,0.289972561,-0.007083857,0.027469899,0.360535982,-0.38018861825352,-0.464657243012811,0.19871057710670909,-0.0005277788154901918,0.9999619769370339,0.007068258381527489,0.005079946176153628
1750931780.955095,-1.772450288,-2.315532805,-0.64135948,1.574756687,-0.393303028,-1.963009,-0.001103999,0.010554318,-0.011749109,-0.007559697,0.021453291,0.022,3.501222457,2.77188371,0.289972137,-0.007084823,0.027469899,0.360544472,-0.38017379427087,-0.46468155192105903,0.19871594768307033,-0.0005283714493192844,0.9999619722380868,0.007073376960872842,0.005073681079502551
1750931780.957286,-1.772450288,-2.315532805,-0.64135948,1.574756687,-0.393303028,-1.963009,-0.001103999,0.010554318,-0.011749109,-0.007559697,0.021453291,0.022,3.501222457,2.77188371,0.289972137,-0.007084823,0.027469899,0.360544472,-0.38017379427087,-0.46468155192105903,0.19871594768307033,-0.0005283714493192844,0.9999619722380868,0.007073376960872842,0.005073681079502551
1750931780.960472,-1.772452546,-2.315511217,-0.641383513,1.574741224,-0.393259146,-1.962964,-0.001154181,0.011034059,-0.01228316,-0.00790332,0.02242844,0.023,3.501293036,2.771937682,0.289971692,-0.007085833,0.027469899,0.360553358,-0.38015827919993794,-0.46470699051204917,0.1987215681357555,-0.0005289913249054899,0.999961967252979,0.007078733682804523,0.0050671239552795636
1750931780.9612646,-1.772452546,-2.315511217,-0.641383513,1.574741224,-0.393259146,-1.962964,-0.001154181,0.011034059,-0.01228316,-0.00790332,0.02242844,0.023,3.501293036,2.771937682,0.289971692,-0.007085833,0.027469899,0.360553358,-0.38015827919993794,-0.46470699051204917,0.1987215681357555,-0.0005289913249054899,0.999961967252979,0.007078733682804523,0.0050671239552795636
1750931780.9631836,-1.772454905,-2.315488669,-0.641408613,1.574725073,-0.393213314,-1.962917,-0.001204363,0.011513801,-0.01281721,-0.008246942,0.02340359,0.024,3.501366751,2.771994051,0.289971228,-0.007086889,0.027469898,0.360562639,-0.3801420731517062,-0.46473355948308426,0.1987274386045158,-0.0005296389490552678,0.9999619619811538,0.007084327544956018,0.005060274362206672
1750931780.965158,-1.772457364,-2.315465161,-0.641434782,1.574708236,-0.393165532,-1.962868,-0.001254545,0.011993543,-0.013351261,-0.008590565,0.02437874,0.025,3.501443602,2.772052818,0.289970745,-0.007087989,0.027469898,0.360572315,-0.38012517559484027,-0.4647612586075147,0.19873355945723556,-0.0005303143173510981,0.9999619564072627,0.0070901585472550824,0.005053133350630034
1750931780.967334,-1.772459923,-2.315440695,-0.641462018,1.574690711,-0.393115799,-1.962817,-0.001304727,0.012473284,-0.013885311,-0.008934187,0.025353889,0.026,3.501523589,2.772113982,0.289970241,-0.007089134,0.027469898,0.360582386,-0.38010758616274015,-0.46479008685584394,0.19873993005381135,-0.0005310169435670093,0.9999619505239901,0.0070962269921630294,0.005045699925542459
1750931780.9691856,-1.772462583,-2.315415268,-0.641490323,1.574672499,-0.393064116,-1.962764,-0.001354908,0.012953026,-0.014419361,-0.00927781,0.026329039,0.027,3.501606713,2.772177543,0.289969717,-0.007090324,0.027469898,0.360592852,-0.38008930509443367,-0.4648200455975338,0.1987465509706337,-0.0005317473289289809,0.9999619443201655,0.007102532599744659,0.005037974482063615
1750931780.9712367,-1.772465343,-2.315388883,-0.641519696,1.5746536,-0.393010483,-1.962709,-0.00140509,0.013432768,-0.014953412,-0.009621433,0.027304188,0.028,3.501692973,2.772243501,0.289969174,-0.007091559,0.027469898,0.360603713,-0.38007033151479114,-0.46485113322098975,0.19875342157571776,-0.0005325054781718992,0.9999619377812287,0.007109075742507862,0.005029957138315234
1750931780.9730816,-1.772468203,-2.315361537,-0.641550136,1.574634013,-0.392954899,-1.962652,-0.001455272,0.013912509,-0.015487462,-0.009965055,0.028279338,0.029,3.501782369,2.772311856,0.289968611,-0.007092839,0.027469898,0.360614969,-0.3800506659884869,-0.4648833513118143,0.19876054337531232,-0.0005332909053409567,0.9999619309146831,0.007115854673428731,0.005021646588081299
1750931780.9751313,-1.772471164,-2.315333232,-0.641581645,1.57461374,-0.392897365,-1.962593,-0.001505454,0.014392251,-0.016021513,-0.010308678,0.029254487,0.03,3.501874901,2.772382608,0.289968028,-0.007094164,0.027469898,0.360626621,-0.38003030750682937,-0.4649166985832749,0.19876791468961214,-0.0005341041032255914,0.9999619236860209,0.007122871221178036,0.005013044636328044
1750931780.977094,-1.772474225,-2.315303968,-0.641614222,1.574592779,-0.392837881,-1.962532,-0.001555636,0.014871993,-0.016555563,-0.0106523,0.030229637,0.031,3.501970568,2.772455757,0.289967426,-0.007095533,0.027469898,0.360638667,-0.38000925604959646,-0.46495117493863686,0.1987755362454251,-0.0005349450886038792,0.9999619160941601,0.007130124744575621,0.0050041498953309225
1750931780.9791768,-1.772477386,-2.315273744,-0.641647868,1.57457113,-0.392776447,-1.962469,-0.001605817,0.015351735,-0.017089614,-0.010995923,0.031204787,0.032,3.502069372,2.772531302,0.289966803,-0.007096948,0.027469898,0.360651109,-0.37998751151045973,-0.4649867807023882,0.1987834084132618,-0.0005358138680421322,0.9999619081272126,0.007137615140524049,0.004994962280985142
1750931780.9811475,-1.772480648,-2.315242561,-0.641682581,1.574548795,-0.392713062,-1.962404,-0.001655999,0.015831476,-0.017623664,-0.011339545,0.032179936,0.033,3.502171311,2.772609243,0.289966161,-0.007098408,0.027469898,0.360663946,-0.3799650732565005,-0.4650235155538377,0.198791530440239,-0.0005367099398324774,0.9999618997712978,0.007145341922836461,0.004985482626915414
1750931780.9831443,-1.77248401,-2.315210419,-0.641718362,1.574525772,-0.392647727,-1.962337,-0.001706181,0.016311218,-0.018157714,-0.011683168,0.033155086,0.034,3.502276386,2.77268958,0.289965499,-0.007099912,0.027469897,0.360677178,-0.37994194114911545,-0.4650613791667461,0.19879990282107646,-0.0005376338194554883,0.9999618910153744,0.007153305361429081,0.004975709923106047
1750931780.9851243,-1.772487473,-2.315177316,-0.641755212,1.574502062,-0.392580442,-1.962268,-0.001756363,0.01679096,-0.018691765,-0.012026791,0.034130235,0.035,3.502384597,2.772772313,0.289964817,-0.007101462,0.027469897,0.360690805,-0.37991811517535506,-0.46510037245459035,0.1988085258075804,-0.000538585509865416,0.9999618818454612,0.007161505151987302,0.004965644539280367
1750931780.987251,-1.772491036,-2.315143255,-0.641793129,1.574477665,-0.392511206,-1.962197,-0.001806545,0.017270701,-0.019225815,-0.012370413,0.035105385,0.036,3.502495943,2.772857441,0.289964115,-0.007103056,0.027469897,0.360704828,-0.37989359443187304,-0.4651404938876041,0.19881739889494005,-0.000539564518503568,0.999961872248399,0.007169941180402923,0.004955286376832636
1750931780.9893124,-1.772494699,-2.315108234,-0.641832115,1.574452581,-0.39244002,-1.962124,-0.001856726,0.017750443,-0.019759866,-0.012714036,0.036080535,0.037,3.502610425,2.772944965,0.289963394,-0.007104695,0.027469897,0.360719246,-0.3798683789427019,-0.4651817442014954,0.1988265227939346,-0.0005405713529882359,0.9999618622101007,0.0071786133242064416,0.004944635341585187
1750931780.991331,-1.772498463,-2.315072253,-0.641872169,1.574426809,-0.392366884,-1.962049,-0.001906908,0.018230185,-0.020293916,-0.013057658,0.037055684,0.038,3.502728042,2.773034884,0.289962652,-0.007106379,0.027469897,0.360734059,-0.37984246852863274,-0.46522412335338154,0.19883589709049415,-0.0005416060254357952,0.9999618517172643,0.007187521650949522,0.0049336908709629495
1750931780.993327,-1.772502327,-2.315035313,-0.641913291,1.57440035,-0.392291797,-1.961972,-0.00195709,0.018709927,-0.020827967,-0.013401281,0.038030834,0.039,3.502848794,2.773127198,0.289961891,-0.007108109,0.027469897,0.360749268,-0.37981586250468524,-0.46526763070454996,0.19884552195236016,-0.0005426680396726099,0.9999618407546459,0.00719666584531496,0.004922453320212741
1750931781.0041173,-1.772506291,-2.314997413,-0.641955481,1.574373204,-0.392214761,-1.961893,-0.002007272,0.019189668,-0.021362017,-0.013744904,0.039005983,0.04,3.502972681,2.773221907,0.28996111,-0.007109883,0.027469897,0.360764872,-0.3797885607352453,-0.4653122666613885,0.19885539787749318,-0.0005437584048399302,0.9999618293109844,0.007206045310069449,0.004910922399737247
1750931781.004162,-1.772506291,-2.314997413,-0.641955481,1.574373204,-0.392214761,-1.961893,-0.002007272,0.019189668,-0.021362017,-0.013744904,0.039005983,0.04,3.502972681,2.773221907,0.28996111,-0.007109883,0.027469897,0.360764872,-0.3797885607352453,-0.4653122666613885,0.19885539787749318,-0.0005437584048399302,0.9999618293109844,0.007206045310069449,0.004910922399737247
1750931781.0093703,-1.772518786,-2.314877958,-0.642088459,1.574287642,-0.391971948,-1.961644,-0.002157817,0.020628893,-0.022964168,-0.014775771,0.041931432,0.043,3.503363152,2.773520399,0.289958647,-0.007115474,0.027469896,0.360814056,-0.3797024763657841,-0.4654529420667082,0.1988865285212556,-0.0005471941935191288,0.9999617919086504,0.0072355980792097345,0.004874568882653184
1750931781.009417,-1.772523152,-2.31483622,-0.642134922,1.574257747,-0.39188711,-1.961557,-0.002207999,0.021108635,-0.023498219,-0.015119394,0.042906582,0.044,3.503499579,2.773624684,0.289957786,-0.007117428,0.027469896,0.360831242,-0.3796723874856318,-0.465502089862082,0.19889740700828662,-0.0005483950494322026,0.9999617783643218,0.007245919771571816,0.004861863839798269
1750931781.0094323,-1.772527618,-2.314793523,-0.642182452,1.574227164,-0.391800322,-1.961468,-0.002258181,0.021588377,-0.024032269,-0.015463017,0.043881731,0.045,3.50363914,2.773731362,0.289956905,-0.007119427,0.027469896,0.360848823,-0.37964160086411874,-0.4655523650790193,0.19890853647044043,-0.0005496238051799913,0.9999617642593052,0.007256476225303641,0.00484886439100075
1750931781.0094469,-1.772527618,-2.314793523,-0.642182452,1.574227164,-0.391800322,-1.961468,-0.002258181,0.021588377,-0.024032269,-0.015463017,0.043881731,0.045,3.50363914,2.773731362,0.289956905,-0.007119427,0.027469896,0.360848823,-0.37964160086411874,-0.4655523650790193,0.19890853647044043,-0.0005496238051799913,0.9999617642593052,0.007256476225303641,0.00484886439100075
1750931781.0148592,-1.772532185,-2.314749867,-0.642231051,1.574195895,-0.391711583,-1.961377,-0.002308363,0.022068118,-0.024566319,-0.015806639,0.044856881,0.046,3.503781836,2.773840434,0.289956005,-0.007121471,0.027469896,0.360866799,-0.3796101157892103,-0.46560376745108917,0.19891991615065518,-0.0005508799592183691,0.9999617495620012,0.007267268297444769,0.004835571906693381
1750931781.0154068,-1.772541619,-2.314659675,-0.642331452,1.574131294,-0.391528255,-1.961189,-0.002408726,0.023027602,-0.02563442,-0.016493884,0.04680718,0.048,3.504076631,2.774065756,0.289954144,-0.007125693,0.027469896,0.360903939,-0.3795450499435768,-0.4657099548128422,0.1989434299341466,-0.0005534760314311748,0.9999617183655239,0.007289555001163512,0.0048081031224678425
1750931781.0157585,-1.772541619,-2.314659675,-0.642331452,1.574131294,-0.391528255,-1.961189,-0.002408726,0.023027602,-0.02563442,-0.016493884,0.04680718,0.048,3.504076631,2.774065756,0.289954144,-0.007125693,0.027469896,0.360903939,-0.3795450499435768,-0.4657099548128422,0.1989434299341466,-0.0005534760314311748,0.9999617183655239,0.007289555001163512,0.0048081031224678425
1750931781.0171103,-1.772546486,-2.31461314,-0.642383255,1.574097962,-0.391433666,-1.961092,-0.002458908,0.023507344,-0.026168471,-0.016837507,0.04778233,0.049,3.504228729,2.774182006,0.289953184,-0.007127871,0.027469895,0.360923102,-0.37951146803341645,-0.46576473883155306,0.19895556357904157,-0.0005548159681151531,0.9999617018211715,0.007301050238662437,0.004793926945690747
1750931781.0191383,-1.772551454,-2.314565646,-0.642436126,1.574063944,-0.391337126,-1.960993,-0.00250909,0.023987085,-0.026702521,-0.017181129,0.048757479,0.05,3.504383962,2.774300647,0.289952203,-0.007130095,0.027469895,0.360942661,-0.3794771859697312,-0.465820649468788,0.19896794778314514,-0.0005561833444097991,0.9999616846156418,0.007312779995831418,0.0047794570264414055
1750931781.0210288,-1.772556523,-2.314517192,-0.642490065,1.574029238,-0.391238636,-1.960892,-0.002559271,0.024466827,-0.027236572,-0.017524752,0.049732629,0.051,3.504542329,2.774421681,0.289951203,-0.007132363,0.027469895,0.360962616,-0.3794422037300033,-0.46587768700374127,0.19898058305682265,-0.0005575786803603878,0.9999616667353125,0.007324744021246018,0.0047646921174691
1750931781.0231516,-1.772561692,-2.314467778,-0.642545072,1.573993845,-0.391138196,-1.960789,-0.002609453,0.024946569,-0.027770622,-0.017868375,0.050707778,0.052,3.504703829,2.774545106,0.289950183,-0.007134677,0.027469895,0.360982966,-0.3794065207306575,-0.46593585128993925,0.1989934700356332,-0.000559001983342893,0.9999616481639982,0.00733694149095397,0.0047496323521869395
1750931781.0253675,-1.772566961,-2.314417406,-0.642601148,1.573957764,-0.391035805,-1.960684,-0.002659635,0.02542631,-0.028304672,-0.018211997,0.051682928,0.053,3.504868463,2.774670922,0.289949143,-0.007137035,0.027469895,0.361003713,-0.37937013611392284,-0.46599514091931626,0.19900660775775902,-0.0005604527663482186,0.9999616288698328,0.007349373810073366,0.0047342776943870915
1750931781.0272515,-1.77257233,-2.314366073,-0.642658291,1.573920997,-0.390931464,-1.960577,-0.002709817,0.025906052,-0.028838723,-0.01855562,0.052658077,0.054,3.50503623,2.77479913,0.289948083,-0.007139438,0.027469894,0.361024854,-0.37933304993077865,-0.4660555576336531,0.19901999787924482,-0.000561931536026513,0.9999616088520057,0.007362038105842451,0.004718627976978654
1750931781.0305626,-1.7725778,-2.314313781,-0.642716503,1.573883542,-0.390825173,-1.960468,-0.002759999,0.026385794,-0.029372773,-0.018899242,0.053633227,0.055,3.505207131,2.774929727,0.289947003,-0.007141886,0.027469894,0.361046392,-0.37929526137471786,-0.466117099880714,0.19903363874717175,-0.000563438308532448,0.9999615880697624,0.007374936889195689,0.004702683080068215
1750931781.0310447,-1.77258337,-2.31426053,-0.642775782,1.5738454,-0.390716931,-1.960357,-0.00281018,0.026865536,-0.029906824,-0.019242865,0.054608377,0.056,3.505381165,2.775062715,0.289945903,-0.007144379,0.027469894,0.361068325,-0.3792567699154297,-0.4661797677190514,0.19904753123750735,-0.0005649725936588451,0.9999615665142864,0.007388068400213893,0.004686442742280914
1750931781.0335815,-1.772589041,-2.314206319,-0.64283613,1.57380657,-0.390606739,-1.960244,-0.002860362,0.027345277,-0.030440874,-0.019586488,0.055583526,0.057,3.505558332,2.775198093,0.289944783,-0.007146918,0.027469894,0.361090655,-0.37921757528363526,-0.4662435612485067,0.19906167505736566,-0.0005665349060958455,0.9999615441558305,0.007401433563176095,0.004669906733228082
1750931781.0353303,-1.772594812,-2.314151149,-0.642897546,1.573767054,-0.390494597,-1.960129,-0.002910544,0.027825019,-0.030974925,-0.01993011,0.056558676,0.058,3.505738633,2.775335861,0.289943643,-0.007149501,0.027469894,0.36111338,-0.3791776765565614,-0.46630847991665203,0.1990760705151725,-0.0005681252501515666,0.9999615209751955,0.007415031343718984,0.00465307563288354
1750931781.0371695,-1.772600683,-2.314095019,-0.64296003,1.57372685,-0.390380504,-1.960012,-0.002960726,0.028304761,-0.031508975,-0.020273733,0.057533825,0.059,3.505922066,2.775476017,0.289942482,-0.007152129,0.027469894,0.361136501,-0.3791370736372544,-0.46637452397435697,0.19909071813106827,-0.0005697431475727534,0.9999614969560893,0.007428861466695018,0.004635948165315078
1750931781.039194,-1.772606654,-2.31403793,-0.643023582,1.573685959,-0.390264462,-1.959893,-0.003010908,0.028784502,-0.032043025,-0.020617355,0.058508975,0.06,3.506108631,2.775618563,0.289941302,-0.007154802,0.027469893,0.361160018,-0.37909576565431724,-0.46644169272496033,0.19910561752236175,-0.0005713896058369474,0.99996147207011,0.007442924001200556,0.004618524830440596
1750931781.041272,-1.772612726,-2.313979881,-0.643088202,1.57364438,-0.390146468,-1.959772,-0.003061089,0.029264244,-0.032577076,-0.020960978,0.059484125,0.061,3.506298329,2.775763497,0.289940102,-0.00715752,0.027469893,0.361183931,-0.3790537523913583,-0.46650998647348607,0.1991207686365592,-0.000573063142122235,0.9999614462956623,0.00745721894202238,0.004600804991873984
1750931781.0430768,-1.772618899,-2.313920873,-0.64315389,1.573602115,-0.390026525,-1.959649,-0.003111271,0.029743986,-0.033111126,-0.021304601,0.060459274,0.062,3.50649116,2.775910819,0.289938882,-0.007160283,0.027469893,0.361208241,-0.37901103285079724,-0.46657940456023916,0.19913617109353243,-0.0005747652600350862,0.9999614196025828,0.007471746159468096,0.0045827896102377755
1750931781.0451088,-1.772625172,-2.313860905,-0.643220646,1.573559162,-0.389904631,-1.959524,-0.003161453,0.030223728,-0.033645177,-0.021648223,0.061434424,0.063,3.506687123,2.776060529,0.289937642,-0.007163091,0.027469893,0.361232946,-0.37896760689150466,-0.46664994720476316,0.19915182599367232,-0.0005764949829092635,0.9999613919775613,0.007486504903860855,0.004564477205259527
1750931781.0470426,-1.772631545,-2.313799978,-0.643288471,1.573515522,-0.389780787,-1.959397,-0.003211635,0.030703469,-0.034179227,-0.021991846,0.062409573,0.064,3.506886217,2.776212626,0.289936381,-0.007165944,0.027469892,0.361258047,-0.37892347356045897,-0.46672161358605635,0.19916773284110226,-0.0005782528184469489,0.9999613633866167,0.007501495695751988,0.004545868452055582
1750931781.0490904,-1.772638018,-2.313738091,-0.643357363,1.573471195,-0.389654993,-1.959268,-0.003261817,0.031183211,-0.034713278,-0.022335468,0.063384723,0.065,3.507088444,2.776367111,0.289935101,-0.007168842,0.027469892,0.361283545,-0.37887863257910653,-0.4667944042413702,0.1991838923995257,-0.0005800387823516293,0.9999613338180265,0.007516716931536753,0.004526962608124739
1750931781.051141,-1.772644592,-2.313675245,-0.643427324,1.57342618,-0.389527248,-1.959137,-0.003311998,0.031662953,-0.035247328,-0.022679091,0.064359872,0.066,3.507293802,2.776523982,0.2899338,-0.007171784,0.027469892,0.361309439,-0.37883308315390196,-0.46686831816139934,0.19920030348138656,-0.0005818523901468632,0.9999613032302922,0.007532170434207031,0.004507759789734135
1750931781.0531693,-1.772644592,-2.313675245,-0.643427324,1.57342618,-0.389527248,-1.959137,-0.003311998,0.031662953,-0.035247328,-0.022679091,0.064359872,0.066,3.507293802,2.776523982,0.2899338,-0.007171784,0.027469892,0.361309439,-0.37883308315390196,-0.46686831816139934,0.19920030348138656,-0.0005818523901468632,0.9999613032302922,0.007532170434207031,0.004507759789734135
1750931781.0551248,-1.772651266,-2.313611439,-0.643498352,1.573380478,-0.389397554,-1.959004,-0.00336218,0.032142694,-0.035781378,-0.023022714,0.065335022,0.067,3.507502292,2.776683239,0.289932479,-0.007174772,0.027469892,0.361335729,-0.3787868248727736,-0.46694335590322444,0.19921696742860778,-0.0005836946542091695,0.9999612716140062,0.007547853936269824,0.004488259529824585
1750931781.0573647,-1.772658041,-2.313546674,-0.643570449,1.573334089,-0.389265908,-1.958869,-0.003412362,0.032622436,-0.036315429,-0.023366336,0.066310172,0.068,3.507713914,2.776844883,0.289931139,-0.007177805,0.027469892,0.361362415,-0.37873985681607114,-0.46701951649433965,0.19923388305620526,-0.0005855640862809717,0.9999612389267933,0.00756376906887153,0.004468462393952909
1750931781.059411,-1.772664916,-2.31348095,-0.643643614,1.573287013,-0.389132313,-1.958732,-0.003462544,0.033102178,-0.036849479,-0.023709959,0.067285321,0.069,3.507928666,2.777008911,0.289929778,-0.007180883,0.027469891,0.361389498,-0.37869217839599334,-0.4670967997920662,0.19925105113765307,-0.0005874622021405522,0.9999612051501789,0.007579914670335359,0.004448367830257353
1750931781.0630236,-1.772671891,-2.313414266,-0.643717847,1.573239249,-0.388996767,-1.958593,-0.003512726,0.033581919,-0.03738353,-0.024053581,0.068260471,0.07,3.50814655,2.777175325,0.289928397,-0.007184006,0.027469891,0.361416977,-0.3786437893054729,-0.4671752060518068,0.1992684722067813,-0.0005893880215249789,0.9999611702630445,0.007596290238598158,0.00442797499243228
1750931781.0645182,-1.772678966,-2.313346622,-0.643793148,1.573190799,-0.388859271,-1.958452,-0.003562907,0.034061661,-0.03791758,-0.024397204,0.06923562,0.071,3.508367565,2.777344124,0.289926995,-0.007187174,0.027469891,0.361444852,-0.3785946886843382,-0.4672547351190697,0.19928614634672123,-0.0005913420506203176,0.9999611342368243,0.007612895155985989,0.004407284620605818
1750931781.0831122,-1.772686142,-2.313278019,-0.643869517,1.57314166,-0.388719825,-1.958309,-0.003613089,0.034541403,-0.03845163,-0.024740826,0.07021077,0.072,3.50859171,2.777515306,0.289925574,-0.007190386,0.027469891,0.361473124,-0.37854487598990944,-0.46733538609401154,0.19930407261177494,-0.0005933243164453857,0.9999610970371505,0.007629730675796125,0.004386295513162532
1750931781.083187,-1.772693419,-2.313208456,-0.643946955,1.573091835,-0.388578428,-1.958164,-0.003663271,0.035021145,-0.038985681,-0.025084449,0.07118592,0.073,3.508818986,2.777688873,0.289924132,-0.007193644,0.02746989,0.361501792,-0.3784943504108309,-0.46741715928747174,0.19932225142262938,-0.0005953343213582272,0.999961058634687,0.007646795988889177,0.0043650088598048194
1750931781.0832052,-1.772700796,-2.313137934,-0.64402546,1.573041323,-0.388435081,-1.958017,-0.003713453,0.035500886,-0.039519731,-0.025428072,0.072161069,0.074,3.509049392,2.777864823,0.289922671,-0.007196947,0.02746989,0.361530857,-0.3784431112459463,-0.46750005406551615,0.19934068322347814,-0.0005973725864528019,0.9999610190102353,0.007664090109706757,0.004343423626010725
1750931781.0832226,-1.772708273,-2.313066453,-0.644105034,1.572990123,-0.388289784,-1.957868,-0.003763635,0.035980628,-0.040053782,-0.025771694,0.073136219,0.075,3.509282928,2.778043156,0.289921189,-0.007200295,0.02746989,0.361560319,-0.37839115783258587,-0.46758406990692636,0.19935936786567665,-0.0005994391307664591,0.9999609781269949,0.007681613902439018,0.004321539527289245
1750931781.0832393,-1.77271585,-2.312994012,-0.644185675,1.572938236,-0.388142536,-1.957717,-0.003813816,0.03646037,-0.040587832,-0.026115317,0.074111368,0.076,3.509519594,2.778223871,0.289919686,-0.007203687,0.02746989,0.361590177,-0.37833848968166894,-0.46766920735273787,0.19937830612644555,-0.0006015334676262696,0.9999609359688092,0.007699365537460944,0.004299356253118003
1750931781.0832567,-1.77271585,-2.312994012,-0.644185675,1.572938236,-0.388142536,-1.957717,-0.003813816,0.03646037,-0.040587832,-0.026115317,0.074111368,0.076,3.509519594,2.778223871,0.289919686,-0.007203687,0.02746989,0.361590177,-0.37833848968166894,-0.46766920735273787,0.19937830612644555,-0.0006015334676262696,0.9999609359688092,0.007699365537460944,0.004299356253118003
1750931781.0832736,-1.772723528,-2.312920611,-0.644267385,1.572885662,-0.387993338,-1.957564,-0.003863998,0.036940111,-0.041121883,-0.026458939,0.075086518,0.077,3.50975939,2.778406968,0.289918164,-0.007207125,0.027469889,0.361620432,-0.37828510601104137,-0.46775546593558526,0.19939749728395822,-0.0006036561115935943,0.9999608924928697,0.007717346143761218,0.004276874169271399
1750931781.083292,-1.772731306,-2.312846251,-0.644350163,1.5728324,-0.38784219,-1.957409,-0.00391418,0.037419853,-0.041655933,-0.026802562,0.076061667,0.078,3.510002316,2.778592447,0.289916621,-0.007210608,0.027469889,0.361651084,-0.378231006038247,-0.4678428448967622,0.19941694166938845,-0.0006058070840535642,0.9999608476742736,0.0077355551863076515,0.004254092416075834
1750931781.08331,-1.772739185,-2.312770932,-0.644434009,1.572778451,-0.387689091,-1.957252,-0.003964362,0.037899595,-0.042189983,-0.027146185,0.077036817,0.079,3.510248371,2.778780307,0.289915058,-0.007214136,0.027469889,0.361682132,-0.3781761889446214,-0.467931344025082,0.19943663879895052,-0.0006079858968141504,0.9999608014782322,0.007753992676802969,0.004231011430965909
1750931781.0834427,-1.772747163,-2.312694653,-0.644518923,1.572723815,-0.387534043,-1.957093,-0.004014544,0.038379337,-0.042724034,-0.027489807,0.078011967,0.08,3.510497555,2.778970548,0.289913475,-0.007217709,0.027469889,0.361713577,-0.378120654208141,-0.46802096354820305,0.19945659037073138,-0.0006101935682093002,0.9999607538867424,0.007772656954074626,0.004207630442572296
1750931781.085468,-1.772755243,-2.312617415,-0.644604905,1.572668492,-0.387377044,-1.956932,-0.004064725,0.038859078,-0.043258084,-0.02783343,0.078987116,0.081,3.510749868,2.779163169,0.289911872,-0.007221327,0.027469888,0.361745419,-0.3780644008945553,-0.4681117026995647,0.19947679429799361,-0.000612429113405997,0.9999607048519014,0.007791549602921976,0.004183949982362024
1750931781.0871592,-1.772763422,-2.312539217,-0.644691955,1.572612482,-0.387218094,-1.956769,-0.004114907,0.03933882,-0.043792135,-0.028177052,0.079962266,0.082,3.51100531,2.77935817,0.289910248,-0.00722499,0.027469888,0.361777658,-0.3780074284561873,-0.4682035616818545,0.19949725285733977,-0.0006146925516222822,0.9999606543599512,0.007810668496208533,0.004159969077694153
1750931781.089202,-1.772771702,-2.312460059,-0.644780073,1.572555784,-0.387057195,-1.956604,-0.004165089,0.039818562,-0.044326185,-0.028520675,0.080937415,0.083,3.511263881,2.77955555,0.289908604,-0.007228697,0.027469888,0.361810294,-0.377949736260321,-0.4682965401984054,0.199517964993204,-0.0006169849037776258,0.9999606023702017,0.00783001446578901,0.004135687429836901
1750931781.091358,-1.772780083,-2.312379943,-0.64486926,1.572498399,-0.386894345,-1.956437,-0.004215271,0.040298303,-0.044860236,-0.028864298,0.081912565,0.084,3.51152558,2.779755308,0.289906939,-0.00723245,0.027469888,0.361843327,-0.37789132295294614,-0.46839063681441206,0.19953892977939508,-0.0006193051819658511,0.9999605488374554,0.007849588434684788,0.00411110583575748
1750931781.0933058,-1.772788563,-2.312298866,-0.644959514,1.572440327,-0.386729544,-1.956268,-0.004265452,0.040778045,-0.045394286,-0.02920792,0.082887715,0.085,3.511790407,2.779957445,0.289905254,-0.007236248,0.027469887,0.361876757,-0.3778321884923394,-0.46848585303566553,0.19956015006236016,-0.0006216534071651851,0.9999604937600667,0.007869386875434002,0.004086222750861836
1750931781.0951626,-1.772797145,-2.31221683,-0.645050837,1.572381567,-0.386562794,-1.956097,-0.004315634,0.041257787,-0.045928336,-0.029551543,0.083862864,0.086,3.512058362,2.78016196,0.289903549,-0.007240091,0.027469887,0.361910584,-0.3777723316988454,-0.46858218727441653,0.1995816230716469,-0.0006240305989528744,0.9999604370740343,0.007889412925222909,0.004061038809633705
1750931781.1004047,-1.772805826,-2.312133835,-0.645143228,1.572322121,-0.386394093,-1.955924,-0.004365816,0.041737528,-0.046462387,-0.029895165,0.084838014,0.087,3.512329445,2.780368852,0.289901824,-0.007243979,0.027469887,0.361944809,-0.37771175158854264,-0.4686796393728416,0.19960335075527935,-0.0006264357685852569,0.9999603787635439,0.007909664066449435,0.004035553946289588
1750931781.101731,-1.77282349,-2.311964966,-0.645331213,1.572201165,-0.38605084,-1.955572,-0.00446618,0.042697012,-0.047530488,-0.03058241,0.086788313,0.089,3.512880993,2.780789765,0.289898311,-0.007251891,0.027469886,0.362014449,-0.37758841937103793,-0.4688778969299919,0.19964756869918257,-0.0006313311415967562,0.999960257126938,0.007950842486397316,0.003983678121298428
1750931781.1031184,-1.772832473,-2.311879092,-0.645426808,1.572139657,-0.385876288,-1.955393,-0.004516361,0.043176754,-0.048064538,-0.030926033,0.087763462,0.09,3.513161458,2.781003785,0.289896525,-0.007255914,0.027469886,0.362049866,-0.3775256653744624,-0.4689787017412619,0.19967005905061574,-0.0006338213735942841,0.9999601937271178,0.00797176924945704,0.003957287799099837
1750931781.1051211,-1.772841555,-2.311792259,-0.645523472,1.572077461,-0.385699786,-1.955212,-0.004566543,0.043656495,-0.048598589,-0.031269656,0.088738612,0.091,3.513445049,2.781220181,0.289894718,-0.007259982,0.027469885,0.362085679,-0.37746218497541245,-0.46908062296427705,0.19969280437570275,-0.0006363401675387439,0.9999601285617692,0.007992920735680475,0.003930594870289336
1750931781.1071987,-1.772850739,-2.311704466,-0.645621203,1.572014578,-0.385521334,-1.955029,-0.004616725,0.044136237,-0.049132639,-0.031613278,0.089713762,0.092,3.513731767,2.781438951,0.28989289,-0.007264095,0.027469885,0.36212189,-0.37739797755701077,-0.469183661132119,0.19971580374164943,-0.0006388875384515093,0.9999600615953089,0.008014296446939833,0.003903599554237979
1750931781.1091976,-1.772860022,-2.311615714,-0.645720002,1.571951008,-0.385340931,-1.954844,-0.004666907,0.044615979,-0.049666689,-0.031956901,0.090688911,0.093,3.514021612,2.781660095,0.289891042,-0.007268253,0.027469885,0.362158499,-0.3773330419890219,-0.46928781521694357,0.19973905841489625,-0.0006414630063125113,0.9999599927968845,0.008035895608034853,0.0038763014128146557
1750931781.111014,-1.772869406,-2.311526002,-0.64581987,1.571886751,-0.385158578,-1.954657,-0.004717089,0.04509572,-0.05020074,-0.032300523,0.091664061,0.094,3.514314583,2.781883613,0.289889173,-0.007272457,0.027469885,0.362195505,-0.37726737760349843,-0.4693930853527339,0.19976256768791148,-0.0006440670903857363,0.999959922121266,0.008057718826600186,0.003848700576322376
1750931781.1129987,-1.772878891,-2.311435331,-0.645920805,1.571821806,-0.384974275,-1.954468,-0.00476727,0.045575462,-0.05073479,-0.032644146,0.09263921,0.095,3.51461068,2.782109504,0.289887284,-0.007276705,0.027469884,0.362232909,-0.37720098351499537,-0.4694994708430691,0.1997863314532471,-0.00064669981553788,0.9999598495367501,0.008079765505901622,0.003820796141961984
1750931781.115049,-1.772888475,-2.3113437,-0.646022809,1.571756174,-0.384788021,-1.954277,-0.004817452,0.046055204,-0.051268841,-0.032987769,0.09361436,0.096,3.514909902,2.782337767,0.289885375,-0.007280999,0.027469884,0.36227071,-0.37713385885601874,-0.4696069716770731,0.19981035119418086,-0.000649360697892199,0.9999597750110485,0.008102034672315123,0.003792588127629697
1750931781.1170132,-1.77289816,-2.31125111,-0.64612588,1.571689855,-0.384599818,-1.954084,-0.004867634,0.046534946,-0.051802891,-0.033331391,0.09458951,0.097,3.51521225,2.782568402,0.289883444,-0.007285337,0.027469884,0.362308909,-0.3770660026291739,-0.4697155872294233,0.19983462565261223,-0.0006520507576590232,0.9999596985018745,0.008124526457609247,0.003764076472305833
1750931781.1190553,-1.772907946,-2.311157561,-0.64623002,1.571622849,-0.384409663,-1.953889,-0.004917816,0.047014687,-0.052336941,-0.033675014,0.095564659,0.098,3.515517723,2.782801408,0.289881494,-0.007289721,0.027469883,0.362347506,-0.37699741385369473,-0.46982531693414803,0.19985915470721216,-0.0006547685152201155,0.999959619963681,0.008147241463203492,0.0037352612790021943
1750931781.1211271,-1.772917832,-2.311063052,-0.646335228,1.571555155,-0.384217559,-1.953692,-0.004967998,0.047494429,-0.052870992,-0.034018636,0.096539809,0.099,3.515826321,2.783036784,0.289879523,-0.00729415,0.027469883,0.362386501,-0.376928091990888,-0.46993616102909846,0.19988393962143913,-0.0006575154966313001,0.999959539371129,0.008170178144800722,0.0037061412727015905
1750931781.1231177,-1.772917832,-2.311063052,-0.646335228,1.571555155,-0.384217559,-1.953692,-0.004967998,0.047494429,-0.052870992,-0.034018636,0.096539809,0.099,3.515826321,2.783036784,0.289879523,-0.00729415,0.027469883,0.362386501,-0.376928091990888,-0.46993616102909846,0.19988393962143913,-0.0006575154966313001,0.999959539371129,0.008170178144800722,0.0037061412727015905
1750931781.1252224,-1.772927818,-2.310967583,-0.646441504,1.571486774,-0.384023504,-1.953493,-0.005018179,0.047974171,-0.053405042,-0.034362259,0.097514958,0.1,3.516138044,2.783274531,0.289877531,-0.007298623,0.027469883,0.362425894,-0.37685803602204143,-0.4700481192040304,0.19990898051214728,-0.0006602907185807228,0.9999594566863182,0.00819333598014085,0.0036767166448594658
1750931781.1272964,-1.772937904,-2.310871155,-0.646548848,1.571417706,-0.383827499,-1.953292,-0.005068361,0.048453912,-0.053939093,-0.034705882,0.098490108,0.101,3.516452891,2.783514648,0.289875518,-0.007303142,0.027469882,0.362465685,-0.3767872448105522,-0.47016119056210653,0.19993427704345526,-0.0006630947022224802,0.9999593718657038,0.008216715088814044,0.0036469873199947195
1750931781.1313066,-1.772958379,-2.31067542,-0.646766741,1.571277508,-0.383429638,-1.952884,-0.005168725,0.049413396,-0.055007194,-0.035393127,0.100440407,0.103,3.517091958,2.784001986,0.289871432,-0.007312315,0.027469882,0.36254646,-0.37664345345508093,-0.47039067235425075,0.19998563656425394,-0.0006687885454670987,0.9999591956515985,0.008264136855784655,0.003586613405198334
1750931781.1314893,-1.772958379,-2.31067542,-0.646766741,1.571277508,-0.383429638,-1.952884,-0.005168725,0.049413396,-0.055007194,-0.035393127,0.100440407,0.103,3.517091958,2.784001986,0.289871432,-0.007312315,0.027469882,0.36254646,-0.37664345345508093,-0.47039067235425075,0.19998563656425394,-0.0006687885454670987,0.9999591956515985,0.008264136855784655,0.003586613405198334
1750931781.1394112,-1.772979254,-2.310475848,-0.646988906,1.571134561,-0.383023976,-1.952468,-0.005269088,0.050372879,-0.056075294,-0.036080372,0.102390706,0.105,3.517743519,2.784498796,0.289867262,-0.007321669,0.027469881,0.362628828,-0.37649671019185815,-0.47062460297995257,0.20003802054427525,-0.0006745972022334948,0.9999590104244724,0.008312439245066541,0.003525016783162669
1750931781.141443,-1.773000531,-2.310272437,-0.647215343,1.570988865,-0.382610512,-1.952044,-0.005369452,0.051332363,-0.057143395,-0.036767617,0.104341005,0.107,3.518407573,2.785005071,0.28986301,-0.007331202,0.02746988,0.362712789,-0.3763470077833083,-0.47086298054535475,0.20009142972243005,-0.000680520351259186,0.9999588158606455,0.0083616193912918,0.003462195225960629
1750931781.1439097,-1.77301132,-2.310169293,-0.647330164,1.570914986,-0.382400855,-1.951829,-0.005419634,0.051812104,-0.057677446,-0.03711124,0.105316155,0.108,3.518744285,2.785261757,0.289860853,-0.007336037,0.02746988,0.362755367,-0.3762710442045702,-0.470983835301215,0.2001185186483111,-0.0006835252926607172,0.9999587149680282,0.008386538371516572,0.0034303245920982803
1750931781.145087,-1.77302221,-2.310065189,-0.647446053,1.57084042,-0.382189248,-1.951612,-0.005469816,0.052291846,-0.058211496,-0.037454862,0.106291305,0.109,3.519084118,2.785520807,0.289858675,-0.007340917,0.02746988,0.362798344,-0.37619433792217033,-0.4711058007891898,0.2001458640764504,-0.0006865591746030927,0.999958611615576,0.008411675758428673,0.003398147036902922
1750931781.1470335,-1.7730332,-2.309960125,-0.64756301,1.570765167,-0.38197569,-1.951393,-0.005519997,0.052771588,-0.058745547,-0.037798485,0.107266454,0.11,3.519427074,2.785782221,0.289856477,-0.007345841,0.027469879,0.362841719,-0.37611688792709647,-0.4712288765968909,0.20017346671241573,-0.0006896215204157373,0.9999585057659277,0.008437030715162575,0.0033656620809536476
1750931781.1491144,-1.77304429,-2.309854102,-0.647681035,1.570689226,-0.381760182,-1.951172,-0.005570179,0.053251329,-0.059279597,-0.038142107,0.108241604,0.111,3.519773151,2.786045998,0.289854257,-0.007350811,0.027469879,0.362885492,-0.3760386931010718,-0.47135306174332625,0.20020132623167344,-0.0006927128581200869,0.9999583973715439,0.00846260351185885,0.003332869158965678
1750931781.1510415,-1.77305548,-2.30974712,-0.647800129,1.570612598,-0.381542724,-1.950949,-0.005620361,0.053731071,-0.059813647,-0.03848573,0.109216753,0.112,3.52012235,2.786312138,0.289852017,-0.007355826,0.027469879,0.362929665,-0.3759597522722483,-0.4714783557588584,0.20022944264722348,-0.0006958332069645754,0.9999582863848361,0.0084883940448179,0.0032997686267501325
1750931781.1531472,-1.773066771,-2.309639178,-0.64792029,1.570535283,-0.381323315,-1.950724,-0.005670543,0.054210813,-0.060347698,-0.038829353,0.110191903,0.113,3.52047467,2.78658064,0.289849756,-0.007360886,0.027469878,0.362974236,-0.3758800647226579,-0.4716047590144849,0.20025781620326683,-0.000698982090859723,0.9999581727718378,0.008514401002078776,0.003266359811734182
1750931781.1550925,-1.773078163,-2.309530277,-0.648041519,1.570457281,-0.381101956,-1.950497,-0.005720725,0.054690555,-0.060881748,-0.039172975,0.111167052,0.114,3.520830112,2.786851503,0.289847474,-0.007365992,0.027469878,0.363019206,-0.3757996291548815,-0.4717322704498178,0.20028644646078733,-0.0007021600340599475,0.9999580564792836,0.008540624921378418,0.0032326427907727676
1750931781.1571836,-1.773089654,-2.309420416,-0.648163817,1.570378591,-0.380878647,-1.950268,-0.005770906,0.055170296,-0.061415799,-0.039516598,0.112142202,0.115,3.521188673,2.787124727,0.289845171,-0.007371142,0.027469877,0.363064574,-0.37571844478691496,-0.4718608899991161,0.20031533504550458,-0.0007053670653770872,0.9999579374719942,0.008567064667237409,0.003198616426797776
1750931781.159228,-1.773101246,-2.309309596,-0.648287182,1.570299214,-0.380653387,-1.950037,-0.005821088,0.055650038,-0.061949849,-0.03986022,0.113117352,0.116,3.521550356,2.78740031,0.289842848,-0.007376338,0.027469877,0.363110342,-0.37563651034177403,-0.4719906170038862,0.20034448071899247,-0.0007086027049334418,0.999957815701247,0.008593720123477935,0.003164281061615223
1750931781.1612155,-1.773112939,-2.309197816,-0.648411616,1.57021915,-0.380426177,-1.949804,-0.00587127,0.05612978,-0.0624839,-0.040203843,0.114092501,0.117,3.521915158,2.787678253,0.289840503,-0.007381578,0.027469877,0.363156508,-0.3755538248813589,-0.47212145135934774,0.20037388383670618,-0.0007118674776619213,0.9999576911171316,0.008620591352997203,0.003129636578553368
1750931781.1639051,-1.773112939,-2.309197816,-0.648411616,1.57021915,-0.380426177,-1.949804,-0.00587127,0.05612978,-0.0624839,-0.040203843,0.114092501,0.117,3.521915158,2.787678253,0.289840503,-0.007381578,0.027469877,0.363156508,-0.3755538248813589,-0.47212145135934774,0.20037388383670618,-0.0007118674776619213,0.9999576911171316,0.008620591352997203,0.003129636578553368
1750931781.1652217,-1.773124731,-2.309085076,-0.648537118,1.570138399,-0.380197017,-1.949569,-0.005921452,0.056609521,-0.06301795,-0.040547466,0.115067651,0.118,3.52228308,2.787958555,0.289838138,-0.007386864,0.027469876,0.363203074,-0.3754703873606362,-0.4722533927114579,0.20040354580927996,-0.0007151614081661303,0.9999575636880333,0.008647676559206138,0.0030946821129595827
1750931781.1670883,-1.773136624,-2.308971378,-0.648663688,1.570056961,-0.379965907,-1.949332,-0.005971633,0.057089263,-0.063552,-0.040891088,0.1160428,0.119,3.522654122,2.788241214,0.289835752,-0.007392195,0.027469876,0.363250038,-0.3753861962816101,-0.47238643958602233,0.20043346471144938,-0.0007184845222915606,0.999957433349851,0.008674977192509054,0.0030594180948059694
1750931781.169144,-1.773148618,-2.308856719,-0.648791326,1.569974835,-0.379732846,-1.949093,-0.006021815,0.057569005,-0.064086051,-0.041234711,0.11701795,0.12,3.523028283,2.78852623,0.289833344,-0.007397571,0.027469876,0.363297402,-0.3753012513039969,-0.47252059312185585,0.20046364204683284,-0.0007218363496325775,0.9999573000703611,0.008702491635396204,0.003023843186092401
1750931781.1710596,-1.773160712,-2.308741102,-0.648920032,1.569892022,-0.379497835,-1.948852,-0.006071997,0.058048746,-0.064620101,-0.041578333,0.1179931,0.121,3.523405563,2.788813603,0.289830916,-0.007402993,0.027469875,0.363345165,-0.37521555056745365,-0.47265585128500986,0.20049407717056117,-0.0007252174116316585,0.9999571637936411,0.008730220215602194,0.0029879579097383795
1750931781.1730347,-1.773172906,-2.308624524,-0.649049806,1.569808521,-0.379260874,-1.948609,-0.006122179,0.058528488,-0.065154152,-0.041921956,0.118968249,0.122,3.523785961,2.789103331,0.289828467,-0.007408459,0.027469875,0.363393328,-0.3751290937127513,-0.4727922152058444,0.20052477158902618,-0.0007286277381180985,0.9999570244863412,0.008758161306170978,0.002951760928191078
1750931781.1752129,-1.7731852,-2.308506988,-0.649180649,1.569724334,-0.379021962,-1.948364,-0.006172361,0.05900823,-0.065688202,-0.042265579,0.119943399,0.123,3.524169478,2.789395414,0.289825996,-0.007413971,0.027469874,0.363441889,-0.3750418787174501,-0.4729296827925372,0.20055572396398286,-0.0007320668469212981,0.999956882083547,0.008786315975370303,0.0029152535848019708
1750931781.1770456,-1.773197595,-2.308388492,-0.649312559,1.569639459,-0.3787811,-1.948117,-0.006222542,0.059487972,-0.066222252,-0.042609201,0.120918548,0.124,3.524556112,2.789689852,0.289823505,-0.007419528,0.027469874,0.363490851,-0.3749539051928238,-0.4730682548237581,0.2005869350072031,-0.0007355352728352863,0.9999567365505145,0.00881468277193712,0.002878434077313137
1750931781.1791222,-1.773210091,-2.308269036,-0.649445538,1.569553897,-0.378538288,-1.947868,-0.006272724,0.059967713,-0.066756303,-0.042952824,0.121893698,0.125,3.524945865,2.789986643,0.289820992,-0.00742513,0.027469874,0.363540211,-0.3748651718052208,-0.47320793066404376,0.20061840462907923,-0.0007390330383219828,0.9999565878301512,0.008843262011273974,0.0028413029140555495
1750931781.1811533,-1.773222686,-2.308148621,-0.649579585,1.569467648,-0.378293525,-1.947617,-0.006322906,0.060447455,-0.067290353,-0.043296446,0.122868847,0.126,3.525338734,2.790285787,0.289818459,-0.007430777,0.027469873,0.363589972,-0.37477567722339955,-0.4733487093851243,0.20065013379552976,-0.0007425596695495339,0.9999564358836062,0.008872052332588441,0.0028038593937734025
1750931781.1831388,-1.773235382,-2.308027246,-0.649714699,1.569380711,-0.378046812,-1.947364,-0.006373088,0.060927197,-0.067824404,-0.043640069,0.123843997,0.127,3.525734721,2.790587283,0.289815904,-0.007436469,0.027469873,0.363640132,-0.3746854206720181,-0.47349059116466125,0.20068212207146557,-0.0007461156980315863,0.9999562806613015,0.008901053482011517,0.0027661027262086014
1750931781.1908357,-1.773235382,-2.308027246,-0.649714699,1.569380711,-0.378046812,-1.947364,-0.006373088,0.060927197,-0.067824404,-0.043640069,0.123843997,0.127,3.525734721,2.790587283,0.289815904,-0.007436469,0.027469873,0.363640132,-0.3746854206720181,-0.47349059116466125,0.20068212207146557,-0.0007461156980315863,0.9999562806613015,0.008901053482011517,0.0027661027262086014
1750931781.1909223,-1.773274072,-2.307657365,-0.650126452,1.569115778,-0.377294972,-1.946593,-0.006523633,0.062366422,-0.069426555,-0.044670937,0.126769446,0.13,3.52694138,2.791505875,0.289808114,-0.007453817,0.027469872,0.36379301,-0.37441006558222645,-0.47392284715493593,0.20077964248848224,-0.0007569599150567048,0.9999557948057013,0.008989320556504398,0.002650954944496694
1750931781.1912456,-1.77328717,-2.307532153,-0.650265839,1.569026093,-0.377040458,-1.946332,-0.006573815,0.062846164,-0.069960605,-0.045014559,0.127744595,0.131,3.527349832,2.791816771,0.289805474,-0.00745969,0.027469871,0.36384477,-0.37431674810937565,-0.47406913437973747,0.20081266790993996,-0.0007606332900261412,0.9999556259575592,0.009019162632115989,0.002611945297960199
1750931781.1933947,-1.773300368,-2.307405981,-0.650406295,1.56893572,-0.376783994,-1.946069,-0.006623997,0.063325905,-0.070494656,-0.045358182,0.128719745,0.132,3.527761399,2.792130016,0.289802814,-0.007465609,0.027469871,0.363896929,-0.3742226626588072,-0.4742165220254456,0.20084595354232132,-0.0007643362006679995,0.9999554535786309,0.009049213761960724,0.002572621001507444
1750931781.1950862,-1.773313666,-2.307278849,-0.650547818,1.56884466,-0.376525579,-1.945804,-0.006674179,0.063805647,-0.071028706,-0.045701804,0.129694895,0.133,3.528176081,2.792445608,0.289800132,-0.007471572,0.02746987,0.363949489,-0.37412780799925527,-0.47436500986288566,0.20087949977605707,-0.0007680681696066032,0.9999552776278873,0.009079472374571554,0.002532981804318597
1750931781.1969929,-1.773327064,-2.307150758,-0.650690409,1.568752913,-0.376265214,-1.945537,-0.00672436,0.064285389,-0.071562757,-0.046045427,0.130670044,0.134,3.528593878,2.792763547,0.289797429,-0.007477581,0.02746987,0.364002448,-0.37403218265593396,-0.4745145967444322,0.2009133061947419,-0.0007718297261478619,0.9999550980439976,0.00910993893620369,0.00249302773180036
1750931781.1991708,-1.773340563,-2.307021707,-0.650834069,1.568660478,-0.376002899,-1.945268,-0.006774542,0.06476513,-0.072096807,-0.04638905,0.131645194,0.135,3.52901479,2.793083831,0.289794705,-0.007483635,0.02746987,0.364055808,-0.3739357856859468,-0.474665282573518,0.20094737271524232,-0.0007756209041873937,0.9999549147697302,0.009140613629123384,0.0024527581531279172
1750931781.201164,-1.773354162,-2.306891697,-0.650978797,1.568567357,-0.375738633,-1.944997,-0.006824724,0.065244872,-0.072630858,-0.046732672,0.132620343,0.136,3.529438815,2.793406461,0.289791959,-0.007489734,0.027469869,0.364109568,-0.37383861545959096,-0.4748170664810061,0.2009816997366169,-0.0007794412227458129,0.9999547277588327,0.009171495152969769,0.002412173459377579
1750931781.2032335,-1.773354162,-2.306891697,-0.650978797,1.568567357,-0.375738633,-1.944997,-0.006824724,0.065244872,-0.072630858,-0.046732672,0.132620343,0.136,3.529438815,2.793406461,0.289791959,-0.007489734,0.027469869,0.364109568,-0.37383861545959096,-0.4748170664810061,0.2009816997366169,-0.0007794412227458129,0.9999547277588327,0.009171495152969769,0.002412173459377579
1750931781.206218,-1.773367862,-2.306760728,-0.651124592,1.568473548,-0.375472417,-1.944724,-0.006874906,0.065724614,-0.073164908,-0.047076295,0.133595493,0.137,3.529865954,2.793731434,0.289789192,-0.007495879,0.027469869,0.364163729,-0.373740670999229,-0.4749699480001736,0.20101628695816334,-0.0007832912203027598,0.9999545369570491,0.009202583399217935,0.0023712723711919485
1750931781.2070563,-1.773381662,-2.306628799,-0.651271456,1.568379051,-0.375204251,-1.944449,-0.006925088,0.066204355,-0.073698958,-0.047419917,0.134570642,0.138,3.530296207,2.794058752,0.289786404,-0.007502068,0.027469868,0.36421829,-0.37364195116794496,-0.4751239269154035,0.20105113533963553,-0.0007871709261849433,0.9999543423111468,0.009233877890128523,0.0023300545326526588
1750931781.2091002,-1.773395562,-2.30649591,-0.651419388,1.568283868,-0.374934135,-1.944172,-0.006975269,0.066684097,-0.074233009,-0.04776354,0.135545792,0.139,3.530729572,2.794388411,0.289783594,-0.007508303,0.027469868,0.364273252,-0.37354245452832013,-0.47527900290236247,0.2010862451604124,-0.0007910803598495818,0.9999541437734972,0.009265377313367545,0.002288520333595427
1750931781.211316,-1.773409563,-2.306362063,-0.651568388,1.568187997,-0.374662068,-1.943893,-0.007025451,0.067163839,-0.074767059,-0.048107163,0.136520942,0.14,3.53116605,2.794720413,0.289780763,-0.007514584,0.027469867,0.364328614,-0.3734421796093997,-0.47543517429072885,0.20112161509457444,-0.0007950190623786496,0.9999539412751237,0.009297082946938142,0.0022466690265346206
1750931781.2131555,-1.773423664,-2.306227255,-0.651718456,1.568091439,-0.374388051,-1.943612,-0.007075633,0.067643581,-0.07530111,-0.048450785,0.137496091,0.141,3.531605641,2.795054755,0.28977791,-0.007520909,0.027469867,0.364384377,-0.3733411256479389,-0.47559244219444313,0.20115724725168754,-0.0007989875564280842,0.9999537347808468,0.009328992256559926,0.002204499988125669
1750931781.2151434,-1.773437866,-2.306091488,-0.651869593,1.567994194,-0.374112084,-1.943329,-0.007125815,0.068123322,-0.07583516,-0.048794408,0.138471241,0.142,3.532048343,2.795391438,0.289775036,-0.00752728,0.027469867,0.364440541,-0.37323929089498226,-0.4757508049084308,0.20119314018978812,-0.000802985874799875,0.9999535242169774,0.009361106611694823,0.002162013583700047
1750931781.2171333,-1.773452168,-2.305954762,-0.652021797,1.567896262,-0.373834166,-1.943044,-0.007175997,0.068603064,-0.076369211,-0.04913803,0.13944639,0.143,3.532494157,2.79573046,0.289772141,-0.007533696,0.027469866,0.364497106,-0.37313667413045104,-0.475910262096522,0.20122929488972852,-0.0008070135458745945,0.9999533095430442,0.009393424120798558,0.0021192088940004605
1750931781.2190769,-1.77346657,-2.305817076,-0.65217507,1.567797642,-0.373554298,-1.942757,-0.007226178,0.069082806,-0.076903261,-0.049481653,0.14042154,0.144,3.532943083,2.796071821,0.289769224,-0.007540157,0.027469866,0.364554071,-0.37303327427903576,-0.4760708134919017,0.2012657117403323,-0.0008110711056559555,0.9999530906976473,0.009425944930412763,0.002076085271173
1750931781.221099,-1.773481072,-2.305678431,-0.65232941,1.567698335,-0.37327248,-1.942468,-0.00727636,0.069562547,-0.077437311,-0.049825276,0.14139669,0.145,3.533395119,2.796415519,0.289766285,-0.007546663,0.027469865,0.364611438,-0.3729290897905677,-0.4762324582706939,0.20130239068992126,-0.0008151585794230266,0.9999528676303747,0.009458667888805164,0.0020326426272046436
1750931781.2231596,-1.773495675,-2.305538826,-0.652484819,1.567598341,-0.372988711,-1.942177,-0.007326542,0.070042289,-0.077971362,-0.050168898,0.142371839,0.146,3.533850266,2.796761553,0.289763325,-0.007553215,0.027469865,0.364669205,-0.37282411947056815,-0.4763951962183303,0.20133933155018863,-0.000819275499730788,0.9999526402758112,0.009491593420816064,0.0019888809475716836
1750931781.2250884,-1.773510378,-2.305398261,-0.652641296,1.567497659,-0.372702993,-1.941884,-0.007376724,0.070522031,-0.078505412,-0.050512521,0.143346989,0.147,3.534308523,2.797109924,0.289760344,-0.007559812,0.027469864,0.364727374,-0.37271836212798365,-0.47655902682705215,0.20137653518977927,-0.0008234229009836365,0.9999524085851982,0.00952472026340371,0.0019447990361177087
1750931781.227123,-1.773525182,-2.305256738,-0.65279884,1.567396291,-0.372415324,-1.941589,-0.007426905,0.071001773,-0.079039463,-0.050856143,0.144322138,0.148,3.534769889,2.797460629,0.28975734,-0.007566454,0.027469864,0.364785944,-0.3726118158319286,-0.4767239486696069,0.20141400040694396,-0.0008275998067158507,0.9999521724943535,0.009558048471519183,0.0019003978001324762
1750931781.2293463,-1.773540086,-2.305114254,-0.652957453,1.567294235,-0.372125704,-1.941292,-0.007477087,0.071481514,-0.079573513,-0.051199766,0.145297288,0.149,3.535234366,2.797813669,0.289754316,-0.007573142,0.027469864,0.364844916,-0.3725044799832125,-0.47688996247443316,0.20145172908814624,-0.00083180625650304,0.9999519319537389,0.009591576957797452,0.0018556755641947842
1750931781.2313864,-1.77355509,-2.304970812,-0.653117135,1.567191492,-0.371834134,-1.940993,-0.007527269,0.071961256,-0.080107563,-0.051543388,0.146272437,0.15,3.535701951,2.798169042,0.289751269,-0.007579875,0.027469863,0.364904288,-0.3723963524818338,-0.4770570660922771,0.20148972003993526,-0.0008360427800158531,0.9999516868915104,0.009625306414618794,0.0018106329604466
1750931781.234514,-1.773570195,-2.304826409,-0.653277884,1.567088061,-0.371540614,-1.940692,-0.007577451,0.072440998,-0.080641614,-0.051887011,0.147247587,0.151,3.536172644,2.798526747,0.289748201,-0.007586653,0.027469863,0.364964063,-0.3722874327883568,-0.47722526076627364,0.2015279744626708,-0.0008403094106195891,0.9999514372677467,0.009659234632910256,0.001765268412611161
1750931781.2413447,-1.773600706,-2.304534726,-0.653602586,1.566879139,-0.370947723,-1.940084,-0.007677814,0.073400481,-0.081709715,-0.052574256,0.149197886,0.153,3.537123356,2.799249151,0.289741999,-0.007600346,0.027469862,0.365084816,-0.37206720946126676,-0.47756491751191793,0.20160527249871962,-0.0008489326094740845,0.9999509240711058,0.009727687766159947,0.0016735750626563804
1750931781.241405,-1.773600706,-2.304534726,-0.653602586,1.566879139,-0.370947723,-1.940084,-0.007677814,0.073400481,-0.081709715,-0.052574256,0.149197886,0.153,3.537123356,2.799249151,0.289741999,-0.007600346,0.027469862,0.365084816,-0.37206720946126676,-0.47756491751191793,0.20160527249871962,-0.0008489326094740845,0.9999509240711058,0.009727687766159947,0.0016735750626563804
1750931781.2435608,-1.773600706,-2.304534726,-0.653602586,1.566879139,-0.370947723,-1.940084,-0.007677814,0.073400481,-0.081709715,-0.052574256,0.149197886,0.153,3.537123356,2.799249151,0.289741999,-0.007600346,0.027469862,0.365084816,-0.37206720946126676,-0.47756491751191793,0.20160527249871962,-0.0008489326094740845,0.9999509240711058,0.009727687766159947,0.0016735750626563804
1750931781.2436492,-1.773600706,-2.304534726,-0.653602586,1.566879139,-0.370947723,-1.940084,-0.007677814,0.073400481,-0.081709715,-0.052574256,0.149197886,0.153,3.537123356,2.799249151,0.289741999,-0.007600346,0.027469862,0.365084816,-0.37206720946126676,-0.47756491751191793,0.20160527249871962,-0.0008489326094740845,0.9999509240711058,0.009727687766159947,0.0016735750626563804
1750931781.2456462,-1.773631618,-2.304239206,-0.653931561,1.566667467,-0.370347031,-1.939468,-0.007778178,0.074359964,-0.082777816,-0.053261501,0.151148185,0.155,3.538086498,2.799980874,0.28973571,-0.007614219,0.027469861,0.365207176,-0.37184379877357226,-0.4779089271424193,0.20168362451661695,-0.0008576761255989065,0.9999503918784435,0.009796933362306878,0.0015805918212926928
1750931781.2471087,-1.773647224,-2.304090006,-0.654097651,1.566560601,-0.37004376,-1.939157,-0.00782836,0.074839706,-0.083311866,-0.053605124,0.152123335,0.156,3.538572729,2.800350228,0.289732533,-0.007621224,0.02746986,0.365268959,-0.37173089473919774,-0.47808256343751404,0.20172319693670598,-0.0008620932651560505,0.9999501185166229,0.009831851109664386,0.0015336158422000362
1750931781.2490537,-1.773662931,-2.303939847,-0.654264809,1.566453047,-0.369738538,-1.938844,-0.007878542,0.075319448,-0.083845916,-0.053948747,0.153098485,0.157,3.539062067,2.800721908,0.289729335,-0.007628274,0.02746986,0.365331144,-0.37161718964021123,-0.4782572860412565,0.2017630328780667,-0.0008665402116928299,0.9999498402214304,0.009866965776900874,0.0014863161019650888
1750931781.2510324,-1.773678738,-2.303788728,-0.654433035,1.566344806,-0.369431366,-1.938529,-0.007928723,0.07579919,-0.084379967,-0.054292369,0.154073634,0.158,3.53955451,2.801095914,0.289726114,-0.00763537,0.027469859,0.365393731,-0.37150268213589493,-0.4784330949064915,0.20180313356064583,-0.0008710174917714115,0.9999495569422437,0.009902275696715286,0.0014386923110036643
1750931781.2530496,-1.773694646,-2.30363665,-0.654602329,1.566235877,-0.369122243,-1.938212,-0.007978905,0.076278931,-0.084914017,-0.054635992,0.155048784,0.159,3.540050059,2.801472246,0.289722871,-0.00764251,0.027469859,0.36545672,-0.37138737069263983,-0.4786099888560237,0.20184349813370137,-0.0008755246462819521,0.9999492686072551,0.009937781425323752,0.0013907439562160337
1750931781.255008,-1.773710654,-2.303483612,-0.654772691,1.566126262,-0.368811171,-1.937893,-0.008029087,0.076758673,-0.085448068,-0.054979614,0.156023933,0.16,3.540548714,2.801850901,0.289719607,-0.007649697,0.027469858,0.365520111,-0.3712712538428355,-0.47878796787458283,0.20188412781916143,-0.0008800626971697656,0.999948975165876,0.00997348110730797,0.0013424712159966533
1750931781.2570374,-1.773726762,-2.303329615,-0.654944121,1.566015959,-0.368498148,-1.937572,-0.008079269,0.077238415,-0.085982118,-0.055323237,0.156999083,0.161,3.541050472,2.80223188,0.28971632,-0.007656928,0.027469858,0.365583905,-0.37115433013675914,-0.47896703071348873,0.20192502234908075,-0.0008846306895884181,0.9999486765496566,0.010009375005317287,0.0012938729212255157
1750931781.2590983,-1.773742971,-2.303174659,-0.655116619,1.565904969,-0.368183174,-1.937249,-0.008129451,0.077718156,-0.086516169,-0.05566686,0.157974232,0.162,3.541555335,2.802615181,0.289713012,-0.007664205,0.027469858,0.365648101,-0.37103659800530847,-0.47914717680479607,0.20196618133132374,-0.0008892286543005443,0.9999483726923133,0.010045462837115713,0.0012449493094196528
1750931781.2612898,-1.77375928,-2.303018743,-0.655290186,1.565793291,-0.367866251,-1.936924,-0.008179632,0.078197898,-0.087050219,-0.056010482,0.158949382,0.163,3.542063302,2.803000803,0.289709681,-0.007671527,0.027469857,0.365712699,-0.3709180562375973,-0.47932840588182213,0.2020076058757462,-0.0008938576296521916,0.9999480635336866,0.01008174374163378,0.001195699333525919
1750931781.263382,-1.77377569,-2.302861867,-0.65546482,1.565680927,-0.367547377,-1.936597,-0.008229814,0.07867764,-0.087584269,-0.056354105,0.159924532,0.164,3.542574373,2.803388745,0.289706328,-0.007678895,0.027469857,0.3657777,-0.3707987032226185,-0.4795107176303875,0.20204929582699632,-0.0008985166394477327,0.9999477490187763,0.010118216317866151,0.0011461233249086234
1750931781.2680483,-1.773792199,-2.302704032,-0.655640523,1.565567875,-0.367226553,-1.936268,-0.008279996,0.079157382,-0.08811832,-0.056697727,0.160899681,0.165,3.543088546,2.803779007,0.289702954,-0.007686308,0.027469856,0.365843103,-0.3706785373758878,-0.4796941105201342,0.20209125184728793,-0.0009032062297934043,0.9999474290759941,0.010154880809966078,0.0010962201200228222
1750931781.268096,-1.77380881,-2.302545238,-0.655817293,1.565454136,-0.366903778,-1.935937,-0.008330178,0.079637123,-0.08865237,-0.05704135,0.161874831,0.166,3.543605823,2.804171587,0.289699557,-0.007693766,0.027469856,0.36590891,-0.37055755719333605,-0.4798785842250461,0.20213347262288517,-0.0009079259324097506,0.999947103638019,0.010191736921555204,0.0010459899426462698
1750931781.2717,-1.77382552,-2.302385484,-0.655995132,1.56533971,-0.366579053,-1.935604,-0.00838036,0.080116865,-0.089186421,-0.057384973,0.16284998,0.167,3.544126201,2.804566485,0.289696138,-0.00770127,0.027469855,0.365975119,-0.37043576126153754,-0.4800641383488525,0.2021759603117052,-0.0009126762801309412,0.9999467726498125,0.010228783130148267,0.0009954320209497173
1750931781.2757497,-1.77382552,-2.302385484,-0.655995132,1.56533971,-0.366579053,-1.935604,-0.00838036,0.080116865,-0.089186421,-0.057384973,0.16284998,0.167,3.544126201,2.804566485,0.289696138,-0.00770127,0.027469855,0.365975119,-0.37043576126153754,-0.4800641383488525,0.2021759603117052,-0.0009126762801309412,0.9999467726498125,0.010228783130148267,0.0009954320209497173
1750931781.2757711,-1.773842331,-2.30222477,-0.656174039,1.565224596,-0.366252378,-1.935269,-0.008430541,0.080596607,-0.089720471,-0.057728595,0.16382513,0.168,3.544649681,2.804963698,0.289692697,-0.007708819,0.027469855,0.366041731,-0.37031314822583367,-0.48025077234133984,0.20221871406646488,-0.0009174573149290004,0.9999464360401759,0.010266019488976388,0.0009445456461891032
1750931781.2757847,-1.773859242,-2.302063097,-0.656354014,1.565108795,-0.365923753,-1.934932,-0.008480723,0.081076348,-0.090254522,-0.058072218,0.164800279,0.169,3.545176263,2.805363227,0.289689234,-0.007716414,0.027469854,0.366108746,-0.3701897162335091,-0.4804384850185656,0.20226173420677046,-0.0009222690677797858,0.9999460937451947,0.010303445223006552,0.0008933308623080465
1750931781.2775693,-1.773876254,-2.301900465,-0.656535057,1.564992307,-0.365593177,-1.934593,-0.008530905,0.08155609,-0.090788572,-0.05841584,0.165775429,0.17,3.545705945,2.805765071,0.289685749,-0.007724054,0.027469854,0.366176164,-0.37006546375392374,-0.48062727573059716,0.20230502034961076,-0.0009271110762904963,0.999945745694706,0.01034106019971912,0.0008417874175248669
1750931781.2790527,-1.773893366,-2.301736873,-0.656717168,1.564875132,-0.365260651,-1.934252,-0.008581087,0.082035832,-0.091322622,-0.058759463,0.166750579,0.171,3.546238728,2.806169228,0.289682241,-0.007731739,0.027469853,0.366243985,-0.3699403894379612,-0.4808171443227261,0.20234857373201087,-0.0009319838739167834,0.9999453918321717,0.010378862880572066,0.0007899145331732795
1750931781.281108,-1.773910578,-2.301572321,-0.656900348,1.564757269,-0.364926175,-1.933909,-0.008631269,0.082515574,-0.091856673,-0.059103085,0.167725728,0.172,3.546774611,2.806575697,0.289678711,-0.00773947,0.027469853,0.366312209,-0.36981449179588194,-0.4810080899620409,0.20239239443749182,-0.0009368875036324373,0.9999450320846797,0.010416853302691546,0.0007377114915456029
1750931781.2830691,-1.773927891,-2.30140681,-0.657084595,1.56463872,-0.364589748,-1.933564,-0.00868145,0.082995315,-0.092390723,-0.059446708,0.168700878,0.173,3.547313594,2.806984477,0.289675159,-0.007747246,0.027469852,0.366380837,-0.36968776893156935,-0.48120011174770455,0.20243648186257554,-0.0009418214922519986,0.9999446663888847,0.010455030498438555,0.0006851787907993157
1750931781.2851274,-1.773945304,-2.30124034,-0.657269911,1.564519482,-0.364251371,-1.933217,-0.008731632,0.083475057,-0.092924774,-0.059790331,0.169676027,0.174,3.547855676,2.807395568,0.289671585,-0.007755068,0.027469852,0.366449868,-0.3695602195064424,-0.48139320862224905,0.20248083655775775,-0.0009467863933160189,0.999944294667466,0.010493394852456303,0.0006323147790107203
1750931781.2871048,-1.773962817,-2.30107291,-0.657456294,1.564399558,-0.363911044,-1.932868,-0.008781814,0.083954799,-0.093458824,-0.060133953,0.170651177,0.175,3.548400857,2.807808968,0.289667988,-0.007762935,0.027469851,0.366519303,-0.3694318419007135,-0.48158738077679913,0.20252545941700842,-0.0009517822243104509,0.9999439168725133,0.010531943809520845,0.0005791198899356198
1750931781.2891164,-1.773980431,-2.300904521,-0.657643746,1.564278947,-0.363568767,-1.932517,-0.008831996,0.08443454,-0.093992874,-0.060477576,0.171626327,0.176,3.548949136,2.808224676,0.289664368,-0.007770848,0.027469851,0.366589141,-0.3693026343507424,-0.4817826267259791,0.20257034937200025,-0.0009568090339703715,0.9999435329144065,0.010570678793190048,0.0005255939298368736
1750931781.2910955,-1.773998145,-2.300735172,-0.657832266,1.564157648,-0.363224539,-1.932164,-0.008882178,0.084914282,-0.094526925,-0.060821198,0.172601476,0.177,3.549500513,2.808642692,0.289660727,-0.007778806,0.02746985,0.366659382,-0.3691725956048817,-0.4819789463536632,0.20261550778569398,-0.000961866360206722,0.9999431427386676,0.010609597951048237,0.0004717354543507349
1750931781.298973,-1.77401596,-2.300564864,-0.658021854,1.564035662,-0.362878361,-1.931809,-0.008932359,0.085394024,-0.095060975,-0.061164821,0.173576626,0.178,3.550054987,2.809063014,0.289657063,-0.007786809,0.02746985,0.366730028,-0.3690417237488111,-0.4821763384689787,0.20266093382526715,-0.0009669547390833107,0.9999427462675757,0.010648701408603866,0.00041754484986560524
1750931781.2990327,-1.77405189,-2.300221369,-0.658404234,1.563789628,-0.362180154,-1.931093,-0.009032723,0.086353507,-0.096129076,-0.061852066,0.175526925,0.18,3.551173226,2.809910571,0.289649667,-0.007802953,0.027469849,0.36687253,-0.36877747472295214,-0.48257433826767376,0.20275259227616244,-0.0009772243039006144,0.9999419341863027,0.010727456515399638,0.0003081641220139748
1750931781.299051,-1.77405189,-2.300221369,-0.658404234,1.563789628,-0.362180154,-1.931093,-0.009032723,0.086353507,-0.096129076,-0.061852066,0.175526925,0.18,3.551173226,2.809910571,0.289649667,-0.007802953,0.027469849,0.36687253,-0.36877747472295214,-0.48257433826767376,0.20275259227616244,-0.0009772243039006144,0.9999419341863027,0.010727456515399638,0.0003081641220139748
1750931781.3017287,-1.774070006,-2.300048182,-0.658597026,1.56366558,-0.361828125,-1.930732,-0.009082905,0.086833249,-0.096663127,-0.062195689,0.176502074,0.181,3.55173699,2.810337805,0.289645935,-0.007811092,0.027469848,0.366944388,-0.368644094300136,-0.48277494452144004,0.20279882452572218,-0.0009824055682513915,0.9999415184315342,0.010767107348528898,0.00025297328425510213
1750931781.3032403,-1.774106538,-2.29969893,-0.658985815,1.563415423,-0.361118216,-1.930004,-0.009183268,0.087792732,-0.097731227,-0.062882934,0.178452374,0.183,3.552873804,2.811199177,0.289638404,-0.007827509,0.027469847,0.367089315,-0.3683748130479497,-0.48317936541921913,0.20289209671785724,-0.0009928612492221091,0.9999406671437999,0.010846952159001852,0.00014158888553448661
1750931781.3055828,-1.774106538,-2.29969893,-0.658985815,1.563415423,-0.361118216,-1.930004,-0.009183268,0.087792732,-0.097731227,-0.062882934,0.178452374,0.183,3.552873804,2.811199177,0.289638404,-0.007827509,0.027469847,0.367089315,-0.3683748130479497,-0.48317936541921913,0.20289209671785724,-0.0009928612492221091,0.9999406671437999,0.010846952159001852,0.00014158888553448661
1750931781.307167,-1.774143472,-2.29934584,-0.659378876,1.563162517,-0.360400506,-1.929268,-0.009283632,0.088752216,-0.098799328,-0.063570179,0.180402673,0.185,3.554022996,2.812069749,0.289630783,-0.007844107,0.027469846,0.367235858,-0.368102160513426,-0.4835880597289414,0.2029864465568531,-0.0010034415653888476,0.9999397890096646,0.010927516973183317,2.8864043280694333e-05
1750931781.308986,-1.774162089,-2.299167856,-0.659577008,1.563035033,-0.360038725,-1.928897,-0.009333814,0.089231957,-0.099333379,-0.063913802,0.181377822,0.186,3.554602233,2.812508481,0.289626938,-0.007852474,0.027469846,0.367309737,-0.36796456581456416,-0.4837940074358946,0.20303402651273192,-0.0010087782463586161,0.9999393397013535,0.010968067283501071,-2.8002418910425493e-05
1750931781.3109453,-1.774180807,-2.298988912,-0.659776209,1.562906862,-0.359674994,-1.928524,-0.009383995,0.089711699,-0.099867429,-0.064257424,0.182352972,0.187,3.555184564,2.81294951,0.28962307,-0.007860887,0.027469845,0.36738402,-0.3678261232995098,-0.4840010214121593,0.2030818763487468,-0.0010141463303227826,0.9999388834610466,0.011008796028309007,-8.520506599012864e-05
1750931781.312911,-1.774199625,-2.298809009,-0.659976478,1.562778003,-0.359309313,-1.928149,-0.009434177,0.090191441,-0.10040148,-0.064601047,0.183328122,0.188,3.555769987,2.813392835,0.28961918,-0.007869345,0.027469845,0.367458708,-0.36768683121370527,-0.48420910040039933,0.2031299965253295,-0.001019545860486901,0.9999384202191854,0.011049702243159765,-0.00014274500197359425
1750931781.3149376,-1.774218544,-2.298628147,-0.660177815,1.562648457,-0.358941682,-1.927772,-0.009484359,0.090671183,-0.10093553,-0.064944669,0.184303271,0.189,3.556358502,2.813838453,0.289615267,-0.007877849,0.027469844,0.3675338,-0.3675466877522643,-0.484418243690901,0.20317838667871752,-0.0010249768739303503,0.9999379498994931,0.011090785544841846,-0.00020062204534351173
1750931781.3178906,-1.774218544,-2.298628147,-0.660177815,1.562648457,-0.358941682,-1.927772,-0.009484359,0.090671183,-0.10093553,-0.064944669,0.184303271,0.189,3.556358502,2.813838453,0.289615267,-0.007877849,0.027469844,0.3675338,-0.3675466877522643,-0.484418243690901,0.20317838667871752,-0.0010249768739303503,0.9999379498994931,0.011090785544841846,-0.00020062204534351173
1750931781.319274,-1.774237563,-2.298446324,-0.66038022,1.562518225,-0.3585721,-1.927393,-0.009534541,0.091150924,-0.10146958,-0.065288292,0.185278421,0.19,3.556950109,2.814286365,0.289611331,-0.007886399,0.027469844,0.367609297,-0.36740569148915264,-0.4846284516086068,0.2032270485279019,-0.0010304388998099762,0.9999374724465897,0.011132043673575301,-0.0002588367224890132
1750931781.321178,-1.774256682,-2.298263543,-0.660583693,1.562387304,-0.358200568,-1.927012,-0.009584723,0.091630666,-0.102003631,-0.065631915,0.18625357,0.191,3.557544808,2.814736569,0.289607372,-0.007894994,0.027469843,0.367685199,-0.36726384042572424,-0.48483972162523836,0.20327598092188598,-0.001035932500289653,0.9999369877644178,0.011173477875246517,-0.00031739037279858933
1750931781.3233435,-1.774275902,-2.298079802,-0.660788235,1.562255697,-0.357827086,-1.926629,-0.009634904,0.092110408,-0.102537681,-0.065975537,0.18722872,0.192,3.558142597,2.815189064,0.28960339,-0.007903634,0.027469843,0.367761506,-0.36712113287432674,-0.4850520540665271,0.2033251842979443,-0.0010414577007797313,0.9999364957849383,0.011215086937135353,-0.0003762820589973315
1750931781.3253112,-1.774295222,-2.297895101,-0.660993844,1.562123402,-0.357451653,-1.926244,-0.009685086,0.092590149,-0.103071732,-0.06631916,0.188203869,0.193,3.558743477,2.815643848,0.289599386,-0.00791232,0.027469842,0.367838218,-0.3669775673898676,-0.4852654482593405,0.20337465969945737,-0.0010470140463099751,0.9999359964453765,0.011256869110976323,-0.00043551371665945726
1750931781.3271887,-1.774314642,-2.297709441,-0.661200522,1.56199042,-0.35707427,-1.925857,-0.009735268,0.093069891,-0.103605782,-0.066662782,0.189179019,0.194,3.559347447,2.816100921,0.289595358,-0.007921052,0.027469841,0.367915336,-0.3668331418322616,-0.4854799026803005,0.2034244066570719,-0.0010526020792988688,0.9999354896567353,0.011298824931383754,-0.0004950848186503251
1750931781.3292172,-1.774334163,-2.297522822,-0.661408267,1.561856751,-0.356694937,-1.925468,-0.00978545,0.093549633,-0.104139833,-0.067006405,0.190154169,0.195,3.559954506,2.816560282,0.289591308,-0.007929829,0.027469841,0.367992858,-0.36668785453705377,-0.4856954167686115,0.20347442504901353,-0.001058221839065169,0.9999349753488016,0.011340953229655518,-0.0005549960122761035
1750931781.3313751,-1.774353784,-2.297335243,-0.661617081,1.561722395,-0.356313654,-1.925077,-0.009835632,0.094029374,-0.104673883,-0.067350028,0.191129318,0.196,3.560564653,2.817021928,0.289587234,-0.007938652,0.02746984,0.368070786,-0.3665417038501692,-0.4859119900101675,0.20352471590953825,-0.0010638733672703187,0.9999344534457807,0.011383253301463057,-0.0006152477719565176
1750931781.334587,-1.774373505,-2.297146704,-0.661826963,1.561587351,-0.35593042,-1.924684,-0.009885813,0.094509116,-0.105207933,-0.06769365,0.192104468,0.197,3.56117789,2.81748586,0.289583137,-0.00794752,0.02746984,0.368149119,-0.36639468814934567,-0.4861296216595392,0.20357527958582544,-0.001069556208760794,0.9999339238749566,0.011425724142956842,-0.0006758412221706941
1750931781.3352032,-1.774393327,-2.296957206,-0.662037913,1.56145162,-0.355545236,-1.924289,-0.009935995,0.094988858,-0.105741984,-0.068037273,0.193079617,0.198,3.561794214,2.817952076,0.289579017,-0.007956434,0.027469839,0.368227858,-0.3662468053519125,-0.48634831041485166,0.20362611526442959,-0.001075270904932804,0.9999333865509914,0.011468365805323844,-0.0007367760187971173
1750931781.3371563,-1.774413249,-2.296766749,-0.662249931,1.561315202,-0.355158101,-1.923892,-0.009986177,0.0954686,-0.106276034,-0.068380895,0.194054767,0.199,3.562413625,2.818420575,0.289574874,-0.007965393,0.027469839,0.368307002,-0.366098053660586,-0.4865680554264381,0.203677223758991,-0.0010810169958544373,0.9999328414026902,0.011511177102776216,-0.0007980528212224619
1750931781.33913,-1.774433272,-2.296575332,-0.662463017,1.561178096,-0.354769017,-1.923493,-0.010036359,0.095948341,-0.106810085,-0.068724518,0.195029917,0.2,3.563036123,2.818891355,0.289570708,-0.007974398,0.027469838,0.368386552,-0.3659484315941236,-0.4867888563831134,0.2037286051785938,-0.0010867955292367052,0.9999322883492084,0.011554157488469805,-0.0008596725683966167
1750931781.3411498,-1.774453395,-2.296382955,-0.662677171,1.561040304,-0.354377982,-1.923092,-0.010086541,0.096428083,-0.107344135,-0.069068141,0.196005066,0.201,3.563661708,2.819364416,0.289566519,-0.007983449,0.027469838,0.368466508,-0.3657979371187281,-0.4870107125041,0.20378026033729219,-0.001092605534909591,0.9999317273239511,0.01159730542108064,-0.0009216349900489246
1750931781.343172,-1.774473618,-2.296189619,-0.662892393,1.560901824,-0.353984996,-1.922689,-0.010136722,0.096907825,-0.107878185,-0.069411763,0.196980216,0.202,3.564290378,2.819839757,0.289562307,-0.007992545,0.027469837,0.368546869,-0.36564656843869414,-0.4872336223217919,0.20383218901221167,-0.0010984470687189086,0.9999311582386722,0.011640620986551182,-0.0009839413358064771
1750931781.3451388,-1.774493942,-2.295995324,-0.663108684,1.560762657,-0.353590061,-1.922284,-0.010186904,0.097387566,-0.108412236,-0.069755386,0.197955365,0.203,3.564922134,2.820317375,0.289558071,-0.008001687,0.027469837,0.368627637,-0.3654943235882068,-0.48745758493483093,0.2038843907366312,-0.0011043211734787365,0.9999305810055478,0.01168410421789588,-0.0010465912662737454
1750931781.352858,-1.774493942,-2.295995324,-0.663108684,1.560762657,-0.353590061,-1.922284,-0.010186904,0.097387566,-0.108412236,-0.069755386,0.197955365,0.203,3.564922134,2.820317375,0.289558071,-0.008001687,0.027469837,0.368627637,-0.3654943235882068,-0.48745758493483093,0.2038843907366312,-0.0011043211734787365,0.9999305810055478,0.01168410421789588,-0.0010465912662737454
1750931781.3529277,-1.774514366,-2.295800069,-0.663326042,1.560622802,-0.353193175,-1.921877,-0.010237086,0.097867308,-0.108946286,-0.070099008,0.198930515,0.204,3.565556975,2.82079727,0.289553812,-0.008010875,0.027469836,0.368708811,-0.36534120111722224,-0.4876826001891752,0.20393686702575264,-0.001110226887984688,0.999929995565409,0.011727752672481462,-0.0011095864416415533
1750931781.3529456,-1.774555515,-2.295406681,-0.663763964,1.560341032,-0.352393552,-1.921057,-0.01033745,0.098826792,-0.110014387,-0.070786254,0.200880814,0.206,3.566835908,2.821763886,0.289545224,-0.008029387,0.027469835,0.368872376,-0.3650323149105148,-0.48813578370267546,0.20404264215535337,-0.0011221343194821908,0.9999287997129871,0.011815545345333852,-0.0012366112187444035
1750931781.3537571,-1.77457624,-2.295208548,-0.663984527,1.560199116,-0.351990816,-1.920644,-0.010387631,0.099306533,-0.110548438,-0.071129876,0.201855964,0.207,3.56748,2.822250605,0.289540894,-0.008038711,0.027469835,0.368954768,-0.3648765476185726,-0.48836395028914686,0.20409594159269984,-0.0011281366270318846,0.9999281891430744,0.011859687771711588,-0.0013006424414468264
1750931781.3551342,-1.774597065,-2.295009455,-0.664206158,1.560056512,-0.351586128,-1.920229,-0.010437813,0.099786275,-0.111082488,-0.071473499,0.202831113,0.208,3.568127174,2.822739595,0.289536542,-0.008048081,0.027469834,0.369037567,-0.36471989525097837,-0.48859316591645097,0.20414951643460583,-0.0011341702223067634,0.9999275700416845,0.011903992897174507,-0.0013650207115919915
1750931781.357191,-1.774617991,-2.294809403,-0.664428857,1.559913222,-0.351179491,-1.919812,-0.010487995,0.100266017,-0.111616538,-0.071817121,0.203806263,0.209,3.568777431,2.823230856,0.289532165,-0.008057497,0.027469834,0.369120772,-0.364562355524651,-0.4888234292575086,0.20420336587675703,-0.00114023664424362,0.9999269423208916,0.011948460561026865,-0.0014297452252341792
1750931781.35912,-1.774639017,-2.294608391,-0.664652624,1.559769244,-0.350770903,-1.919393,-0.010538177,0.100745758,-0.112150589,-0.072160744,0.204781412,0.21,3.569430769,2.823724387,0.289527766,-0.008066958,0.027469833,0.369204384,-0.36440392696484847,-0.4890547398590906,0.20425749120868508,-0.0011463349428669288,0.9999263059058805,0.01199308940340361,-0.0014948177748747822
1750931781.3613064,-1.774660144,-2.294406419,-0.664877459,1.559624579,-0.350360365,-1.918972,-0.010588359,0.1012255,-0.112684639,-0.072504366,0.205756562,0.211,3.570087188,2.824220187,0.289523343,-0.008076466,0.027469832,0.369288402,-0.36424460757828975,-0.48928709688395994,0.20431189208937306,-0.0011524656603065927,0.999925660711762,0.012037878956301769,-0.0015602382130350337
1750931781.3631244,-1.774681371,-2.294203489,-0.665103362,1.559479226,-0.349947877,-1.918549,-0.01063854,0.101705242,-0.11321869,-0.072847989,0.206731712,0.212,3.570746688,2.824718253,0.289518896,-0.008086018,0.027469832,0.369372827,-0.36408439517344804,-0.48952049828125804,0.20436656842924406,-0.001158628849834455,0.9999250066482533,0.012082829089628707,-0.0016260073399979335
1750931781.3656507,-1.774681371,-2.294203489,-0.665103362,1.559479226,-0.349947877,-1.918549,-0.01063854,0.101705242,-0.11321869,-0.072847989,0.206731712,0.212,3.570746688,2.824718253,0.289518896,-0.008086018,0.027469832,0.369372827,-0.36408439517344804,-0.48952049828125804,0.20436656842924406,-0.001158628849834455,0.9999250066482533,0.012082829089628707,-0.0016260073399979335
1750931781.367093,-1.774702698,-2.293999599,-0.665330334,1.559333187,-0.349533439,-1.918124,-0.010688722,0.102184983,-0.11375274,-0.073191612,0.207706861,0.213,3.571409268,2.825218585,0.289514425,-0.008095617,0.027469831,0.369457659,-0.3639232879758085,-0.489754944190474,0.20442152127521113,-0.001164824543181895,0.9999243436439328,0.012127938216744433,-0.001692124890371817
1750931781.3689854,-1.774724125,-2.293794749,-0.665558373,1.55918646,-0.34911705,-1.917697,-0.010738904,0.102664725,-0.114286791,-0.073535234,0.208682011,0.214,3.572074927,2.825721182,0.289509931,-0.008105261,0.027469831,0.369542898,-0.36376128436862726,-0.48999043383859764,0.20447675111232194,-0.0011710522908743423,0.9999236716217028,0.012173204959111115,-0.0017585926556055336
1750931781.371188,-1.774745653,-2.29358894,-0.665787481,1.559039046,-0.348698711,-1.917268,-0.010789086,0.103144467,-0.114820841,-0.073878857,0.20965716,0.215,3.572743666,2.826226042,0.289505413,-0.008114951,0.02746983,0.369628544,-0.3635983820482922,-0.49022696559797313,0.20453225690853016,-0.0011773126446767551,0.9999229904789241,0.012218630242989121,-0.001825409983357892
1750931781.373124,-1.774767282,-2.293382171,-0.666017657,1.558890944,-0.348278421,-1.916837,-0.010839267,0.103624209,-0.115354891,-0.074222479,0.21063231,0.216,3.573415482,2.826733164,0.289500872,-0.008124686,0.02746983,0.369714597,-0.36343457942737134,-0.490464539153132,0.20458803949258123,-0.0011836051502486997,0.9999223001404254,0.01226421250998509,-0.0018925781989904658
1750931781.3751006,-1.77478901,-2.293174443,-0.6662489,1.558742156,-0.347856181,-1.916404,-0.010889449,0.10410395,-0.115888942,-0.074566102,0.211607459,0.217,3.574090376,2.827242547,0.289496307,-0.008134468,0.027469829,0.369801057,-0.36326987417343537,-0.49070315317210794,0.20464409993872723,-0.0011899303367771262,0.9999216005384678,0.012309949688299177,-0.0019600972052248532
1750931781.3773184,-1.77481084,-2.292965755,-0.666481212,1.55859268,-0.347431991,-1.915969,-0.010939631,0.104583692,-0.116422992,-0.074909725,0.212582609,0.218,3.574768348,2.827754189,0.289491717,-0.008144295,0.027469829,0.369887924,-0.36310426469449286,-0.4909428070188552,0.20470043697366025,-0.0011962882734316944,0.9999208915608466,0.012355843202317095,-0.002027967772993559
1750931781.3790953,-1.774832769,-2.292756108,-0.666714592,1.558442517,-0.347005851,-1.915532,-0.010989813,0.105063434,-0.116957043,-0.075253347,0.213557759,0.219,3.575449396,2.828268089,0.289487104,-0.008154168,0.027469828,0.369975199,-0.3629377487434639,-0.4911834992865726,0.2047570522601041,-0.0012026789922826033,0.9999201731421403,0.012401890670924395,-0.0020961904541486895
1750931781.3811457,-1.774854799,-2.292545501,-0.66694904,1.558291667,-0.34657776,-1.915093,-0.011039995,0.105543175,-0.117491093,-0.07559697,0.214532908,0.22,3.576133521,2.828784247,0.289482468,-0.008164086,0.027469828,0.370062882,-0.36277032456454583,-0.49142522960745155,0.2048139453433785,-0.0012091020431218744,0.9999194451923232,0.012448091758516132,-0.002164765598692158
1750931781.3830628,-1.774876929,-2.292333935,-0.667184557,1.558140129,-0.346147719,-1.914652,-0.011090176,0.106022917,-0.118025144,-0.075940592,0.215508058,0.221,3.576820721,2.82930266,0.289477807,-0.00817405,0.027469827,0.370150972,-0.36260199004953675,-0.4916679963040246,0.20487111648717937,-0.0012155579815207598,0.9999187076165601,0.012494446296654303,-0.002233694017038473
1750931781.3849869,-1.77489916,-2.29212141,-0.667421141,1.557987904,-0.345715728,-1.914209,-0.011140358,0.106502659,-0.118559194,-0.076284215,0.216483207,0.222,3.577510996,2.829823327,0.289473122,-0.00818406,0.027469826,0.370239469,-0.36243274319422625,-0.49191179869500856,0.20492856559581626,-0.0012220468460901036,0.9999179603374738,0.01254095283226183,-0.0023029759250303185
1750931781.387005,-1.77492149,-2.291907925,-0.667658793,1.557834992,-0.345281786,-1.913764,-0.01119054,0.106982401,-0.119093244,-0.076627838,0.217458357,0.223,3.578204345,2.830346247,0.289468413,-0.008194116,0.027469826,0.370328374,-0.36226258214433765,-0.49215663619069633,0.20498629444105335,-0.001228568177782757,0.9999172032803908,0.012587609605321461,-0.0023726121845207217
1750931781.3890526,-1.774943922,-2.29169348,-0.667897514,1.557681393,-0.344845895,-1.913317,-0.011240722,0.107462142,-0.119627295,-0.07697146,0.218433507,0.224,3.578900768,2.830871419,0.28946368,-0.008204218,0.027469825,0.370417687,-0.362091504883926,-0.49240250776699807,0.20504430140861485,-0.001235123036964864,0.9999164363352612,0.012634417678707889,-0.0024426026273054887
1750931781.3912632,-1.774966453,-2.291478076,-0.668137303,1.557527106,-0.344408052,-1.912868,-0.011290904,0.107941884,-0.120161345,-0.077315083,0.219408656,0.225,3.579600265,2.831398842,0.289458924,-0.008214365,0.027469825,0.370507408,-0.3619195093366382,-0.49264941189932415,0.20510258817199223,-0.0012417099674053842,0.9999156594300735,0.012681374978915505,-0.0025129487703007924
1750931781.3931415,-1.774989085,-2.291261713,-0.668378159,1.557372133,-0.34396826,-1.912417,-0.011341085,0.108421626,-0.120695396,-0.077658705,0.220383806,0.226,3.580302834,2.831928513,0.289454143,-0.008224558,0.027469824,0.370597537,-0.36174659332300685,-0.4928973478306241,0.20516115393530315,-0.0012483305091483144,0.9999148724765385,0.012728480813123402,-0.0025836500067743374
1750931781.3952236,-1.775011818,-2.29104439,-0.668620084,1.557216472,-0.343526517,-1.911964,-0.011391267,0.108901367,-0.121229446,-0.078002328,0.221358955,0.227,3.581008476,2.832460432,0.289449337,-0.008234797,0.027469824,0.370688074,-0.36157275515088905,-0.4931463148008253,0.20521999919034145,-0.001254983724989894,0.9999140753757323,0.012775735151161188,-0.002654707647132903
1750931781.3971915,-1.77503465,-2.290826107,-0.668863077,1.557060123,-0.343082824,-1.911509,-0.011441449,0.109381109,-0.121763496,-0.07834595,0.222334105,0.228,3.581717188,2.832994597,0.289444508,-0.008245081,0.027469823,0.37077902,-0.3613979928104492,-0.49339631186986604,0.2052791254890464,-0.0012616701531929918,0.9999132680553453,0.012823135741744146,-0.0027261227141584183
1750931781.40578,-1.775057583,-2.290606865,-0.669107138,1.556903088,-0.342637181,-1.911052,-0.011491631,0.109860851,-0.122297547,-0.078689573,0.223309254,0.229,3.582428972,2.833531008,0.289439654,-0.008255412,0.027469823,0.370870373,-0.36122230386471865,-0.49364733760668916,0.20533853145957207,-0.0012683898414207863,0.9999124504168028,0.012870682818836991,-0.0027978942889251
1750931781.4071767,-1.775080617,-2.290386664,-0.669352267,1.556745365,-0.342189587,-1.910593,-0.011541813,0.110340592,-0.122831597,-0.079033196,0.224284404,0.23,3.583143826,2.834069662,0.289434776,-0.008265788,0.027469822,0.370962135,-0.36104568648433644,-0.4938993909142019,0.2053982173701474,-0.0012751423498622125,0.9999116223647058,0.012918375868407469,-0.0028700238487225247
1750931781.4072232,-1.775080617,-2.290386664,-0.669352267,1.556745365,-0.342189587,-1.910593,-0.011541813,0.110340592,-0.122831597,-0.079033196,0.224284404,0.23,3.583143826,2.834069662,0.289434776,-0.008265788,0.027469822,0.370962135,-0.36104568648433644,-0.4938993909142019,0.2053982173701474,-0.0012751423498622125,0.9999116223647058,0.012918375868407469,-0.0028700238487225247
1750931781.4072409,-1.775080617,-2.290386664,-0.669352267,1.556745365,-0.342189587,-1.910593,-0.011541813,0.110340592,-0.122831597,-0.079033196,0.224284404,0.23,3.583143826,2.834069662,0.289434776,-0.008265788,0.027469822,0.370962135,-0.36104568648433644,-0.4938993909142019,0.2053982173701474,-0.0012751423498622125,0.9999116223647058,0.012918375868407469,-0.0028700238487225247
1750931781.4111755,-1.775150319,-2.289720302,-0.670094063,1.556268073,-0.340835104,-1.909204,-0.011692358,0.111779818,-0.124433749,-0.080064063,0.227209853,0.233,3.585306805,2.835699072,0.289419997,-0.008297192,0.02746982,0.371239872,-0.36051024343775045,-0.4946617086225003,0.205578963111188,-0.0012955997250901528,0.9999090749003993,0.013062316764932216,-0.003088565024847192
1750931781.411304,-1.775150319,-2.289720302,-0.670094063,1.556268073,-0.340835104,-1.909204,-0.011692358,0.111779818,-0.124433749,-0.080064063,0.227209853,0.233,3.585306805,2.835699072,0.289419997,-0.008297192,0.02746982,0.371239872,-0.36051024343775045,-0.4946617086225003,0.205578963111188,-0.0012955997250901528,0.9999090749003993,0.013062316764932216,-0.003088565024847192
1750931781.412998,-1.775173754,-2.289496263,-0.670343465,1.556107601,-0.340379709,-1.908737,-0.01174254,0.112259559,-0.124967799,-0.080407686,0.228185002,0.234,3.586033935,2.836246687,0.289415021,-0.008307752,0.02746982,0.371333268,-0.36032989165019186,-0.4949178629061431,0.20563977401648614,-0.001302485476526662,0.9999082043260307,0.013110582754745057,-0.0031621310705675144
1750931781.4150984,-1.77519729,-2.289271264,-0.670593935,1.555946442,-0.339922364,-1.908268,-0.011792722,0.112739301,-0.125501849,-0.080751309,0.229160152,0.235,3.586764132,2.836796539,0.289410021,-0.008318357,0.027469819,0.371427073,-0.3601486011392472,-0.4951750401457412,0.2057008666648963,-0.001309404786601217,0.999907322895163,0.013158989775014092,-0.0032360574522223903
1750931781.417065,-1.775220925,-2.289045306,-0.670845472,1.555784596,-0.339463069,-1.907797,-0.011842903,0.113219043,-0.1260359,-0.081094931,0.230135302,0.236,3.587497396,2.837348626,0.289404997,-0.008329009,0.027469819,0.371521287,-0.3599663696387184,-0.49543323880480244,0.20576224215642547,-0.0013163576979451487,0.9999064305277398,0.013207536008531147,-0.0033103450377292066
1750931781.4190164,-1.775244661,-2.288818388,-0.671098078,1.555622063,-0.339001823,-1.907324,-0.011893085,0.113698784,-0.12656995,-0.081438554,0.231110451,0.237,3.588233726,2.837902947,0.289399948,-0.008339706,0.027469818,0.37161591,-0.3597831951697912,-0.4956924581819283,0.2058238998189468,-0.0013233437720540423,0.9999055271155869,0.013256221989840049,-0.0033849938725860444
1750931781.4209864,-1.775268498,-2.288590511,-0.671351752,1.555458842,-0.338538627,-1.906849,-0.011943267,0.114178526,-0.127104001,-0.081782176,0.232085601,0.238,3.588973121,2.838459501,0.289394875,-0.008350449,0.027469818,0.371710941,-0.35959907557722176,-0.4959526967359275,0.2058858395831002,-0.0013303635652474148,0.9999046125619628,0.0133050470034257,-0.003460004961272703
1750931781.4229684,-1.775292434,-2.288361674,-0.671606494,1.555294934,-0.338073481,-1.906372,-0.011993449,0.114658268,-0.127638051,-0.082125799,0.23306075,0.239,3.589715582,2.839018286,0.289389776,-0.008361238,0.027469817,0.371806382,-0.35941400880114693,-0.4962139539206553,0.20594806335829413,-0.0013374171111228135,0.9999036867951568,0.013354008580946482,-0.003535378868491409
1750931781.4256015,-1.775292434,-2.288361674,-0.671606494,1.555294934,-0.338073481,-1.906372,-0.011993449,0.114658268,-0.127638051,-0.082125799,0.23306075,0.239,3.589715582,2.839018286,0.289389776,-0.008361238,0.027469817,0.371806382,-0.35941400880114693,-0.4962139539206553,0.20594806335829413,-0.0013374171111228135,0.9999036867951568,0.013354008580946482,-0.003535378868491409
1750931781.427261,-1.775316471,-2.288131878,-0.671862304,1.555130339,-0.337606384,-1.905893,-0.012043631,0.11513801,-0.128172102,-0.082469422,0.2340359,0.24,3.590461107,2.839579301,0.289384654,-0.008372073,0.027469817,0.371902233,-0.3592279925377611,-0.49647622815453907,0.20601056978483764,-0.0013445039721746107,0.9999027497057206,0.013403107244299607,-0.003611115645569788
1750931781.429048,-1.775340609,-2.287901122,-0.672119183,1.554965056,-0.337137337,-1.905412,-0.012093812,0.115617751,-0.128706152,-0.082813044,0.235011049,0.241,3.591209695,2.840142545,0.289379506,-0.008382953,0.027469816,0.371998492,-0.35904102490800444,-0.4967395187361007,0.2060733594871651,-0.001351624705391784,0.9999018011956043,0.013452342264163657,-0.003687216300893413
1750931781.4312243,-1.775364847,-2.287669407,-0.672377129,1.554799087,-0.33666634,-1.904929,-0.012143994,0.116097493,-0.129240202,-0.083156667,0.235986199,0.242,3.591961347,2.840708015,0.289374334,-0.00839388,0.027469816,0.372095161,-0.3588531034257735,-0.4970038243002742,0.2061364330988019,-0.001358779342838575,0.9999008411904059,0.01350171146645897,-0.0037636807639130944
1750931781.4330752,-1.775389185,-2.287436732,-0.672636143,1.55463243,-0.336193392,-1.904444,-0.012194176,0.116577235,-0.129774253,-0.083500289,0.236961349,0.243,3.592716061,2.841275711,0.289369136,-0.008404853,0.027469815,0.37219224,-0.35866422630533745,-0.4972691440934814,0.206199791248711,-0.001365967447525189,0.9998998695887108,0.013551214273390925,-0.0038405105296302876
1750931781.4350803,-1.775413623,-2.287203098,-0.672896226,1.554465085,-0.335718494,-1.903957,-0.012244358,0.117056976,-0.130308303,-0.083843912,0.237936498,0.244,3.593473837,2.841845631,0.289363914,-0.008415871,0.027469814,0.372289728,-0.35847439115619123,-0.4975354763462359,0.20626343363784944,-0.0013731895792724446,0.9998988862836291,0.013600850721015786,-0.003917705808531018
1750931781.437414,-1.775438162,-2.286968504,-0.673157377,1.554297054,-0.335241646,-1.903468,-0.01229454,0.117536718,-0.130842354,-0.084187535,0.238911648,0.245,3.594234674,2.842417774,0.289358668,-0.008426936,0.027469814,0.372387625,-0.35828359582220215,-0.4978028206931954,0.20632736053681677,-0.0013804457745678635,0.9998978911941124,0.013650619095115503,-0.003995266367892721
1750931781.4392304,-1.775462801,-2.286732951,-0.673419595,1.554128335,-0.334762848,-1.902977,-0.012344721,0.11801646,-0.131376404,-0.084531157,0.239886797,0.246,3.594998572,2.842992138,0.289353396,-0.008438046,0.027469813,0.372485933,-0.35809183818718676,-0.4980711754759722,0.20639157247388246,-0.0013877360930441896,0.9998968842224127,0.013700518332930593,-0.004073193864309359
1750931781.4411488,-1.775487541,-2.286496438,-0.673682882,1.553958929,-0.334282099,-1.902484,-0.012394903,0.118496201,-0.131910455,-0.08487478,0.240861947,0.247,3.595765529,2.843568722,0.289348099,-0.008449202,0.027469813,0.37258465,-0.35789911607158786,-0.4983405399390722,0.2064560693723163,-0.0013950600896923471,0.9998958652659775,0.013750548290304136,-0.004151488054218382
1750931781.4431436,-1.775512381,-2.286258966,-0.673947237,1.553788836,-0.3337994,-1.901989,-0.012445085,0.118975943,-0.132444505,-0.085218402,0.241837097,0.248,3.596535546,2.844147524,0.289342777,-0.008460405,0.027469812,0.372683777,-0.357705427123535,-0.4986109124858788,0.20652085175877627,-0.0014024183129933425,0.9998948342337953,0.0138007075697171,-0.0042301496452906645
1750931781.4452846,-1.775537321,-2.286020534,-0.67421266,1.553618056,-0.333314751,-1.901492,-0.012495267,0.119455685,-0.132978555,-0.085562025,0.242812246,0.249,3.597308622,2.844728543,0.28933743,-0.008471653,0.027469812,0.372783314,-0.3575107693265273,-0.49888229250987914,0.2065859203827453,-0.0014098108115193147,0.9998937910352053,0.01385099476685226,-0.004309179352222243
1750931781.4473147,-1.775562362,-2.285781143,-0.674479151,1.553446588,-0.332828151,-1.900993,-0.012545448,0.119935427,-0.133512606,-0.085905647,0.243787396,0.25,3.598084756,2.845311778,0.289332058,-0.008482947,0.027469811,0.372883261,-0.3573151404014136,-0.4991546782984741,0.2066512744822253,-0.0014172371527760997,0.9998927355579805,0.013901410051185574,-0.00438857788127496
