mathias31415/motion_primitives_from_planned_trajectory/data/trajectory_20250701_092651_executed.csv
timestamp,shoulder_lift_joint_pos,elbow_joint_pos,wrist_1_joint_pos,wrist_2_joint_pos,wrist_3_joint_pos,shoulder_pan_joint_pos,shoulder_lift_joint_vel,elbow_joint_vel,wrist_1_joint_vel,wrist_2_joint_vel,wrist_3_joint_vel,shoulder_pan_joint_vel,shoulder_lift_joint_eff,elbow_joint_eff,wrist_1_joint_eff,wrist_2_joint_eff,wrist_3_joint_eff,shoulder_pan_joint_eff,pose_x,pose_y,pose_z,pose_qx,pose_qy,pose_qz,pose_qw
1751354845.383285,-1.78888449,-1.837171562,-1.078907167,1.605442939,0.99235265,-0.577682198,0.0,0.0,0.0,0.0,0.0,0.0,4.621649603,3.837421909,0.303379497,0.002859607,0.0,0.0,0.5429889973355045,-0.5570169993244386,0.3971100065420565,-0.0004449957396691954,0.9998429666269103,0.012479416777228726,0.012574109208646767
1751354845.3890862,-1.78888449,-1.837171562,-1.078907167,1.605442939,0.99235265,-0.577682198,0.0,0.0,0.0,0.0,0.0,0.0,4.621649603,3.837421909,0.303379497,0.002859607,0.0,0.0,0.5429889973355045,-0.5570169993244386,0.3971100065420565,-0.0004449957396691954,0.9998429666269103,0.012479416777228726,0.012574109208646767
1751354845.3892958,-1.78888449,-1.837171562,-1.078907167,1.605442939,0.99235265,-0.577682198,0.0,0.0,0.0,0.0,0.0,0.0,4.621649603,3.837421909,0.303379497,0.002859607,0.0,0.0,0.5429889973355045,-0.5570169993244386,0.3971100065420565,-0.0004449957396691954,0.9998429666269103,0.012479416777228726,0.012574109208646767
1751354845.3910162,-1.78888449,-1.837171562,-1.078907167,1.605442939,0.99235265,-0.577682198,0.0,0.0,0.0,0.0,0.0,0.0,4.621649603,3.837421909,0.303379497,0.002859607,0.0,0.0,0.5429889973355045,-0.5570169993244386,0.3971100065420565,-0.0004449957396691954,0.9998429666269103,0.012479416777228726,0.012574109208646767
1751354845.3928936,-1.78888449,-1.837171562,-1.078907167,1.605442939,0.99235265,-0.577682198,0.0,0.0,0.0,0.0,0.0,0.0,4.621649603,3.837421909,0.303379497,0.002859607,0.0,0.0,0.5429889973355045,-0.5570169993244386,0.3971100065420565,-0.0004449957396691954,0.9998429666269103,0.012479416777228726,0.012574109208646767
1751354845.3951454,-1.78888449,-1.837171562,-1.078907167,1.605442939,0.99235265,-0.577682198,0.0,0.0,0.0,0.0,0.0,0.0,4.621649603,3.837421909,0.303379497,0.002859607,0.0,0.0,0.5429889973355045,-0.5570169993244386,0.3971100065420565,-0.0004449957396691954,0.9998429666269103,0.012479416777228726,0.012574109208646767
1751354845.3972104,-1.78888449,-1.837171562,-1.078907167,1.605442939,0.99235265,-0.577682198,0.0,0.0,0.0,0.0,0.0,0.0,4.621649603,3.837421909,0.303379497,0.002859607,0.0,0.0,0.5429889973355045,-0.5570169993244386,0.3971100065420565,-0.0004449957396691954,0.9998429666269103,0.012479416777228726,0.012574109208646767
1751354845.3988836,-1.78888449,-1.837171562,-1.078907167,1.605442939,0.99235265,-0.577682198,0.0,0.0,0.0,0.0,0.0,0.0,4.621649603,3.837421909,0.303379497,0.002859607,0.0,0.0,0.5429889973355045,-0.5570169993244386,0.3971100065420565,-0.0004449957396691954,0.9998429666269103,0.012479416777228726,0.012574109208646767
1751354845.401016,-1.78888449,-1.837171562,-1.078907167,1.605442939,0.99235265,-0.577682198,0.0,0.0,0.0,0.0,0.0,0.0,4.621649603,3.837421909,0.303379497,0.002859607,0.0,0.0,0.5429889973355045,-0.5570169993244386,0.3971100065420565,-0.0004449957396691954,0.9998429666269103,0.012479416777228726,0.012574109208646767
1751354845.4033675,-1.78888449,-1.837171562,-1.078907167,1.605442939,0.99235265,-0.577682198,0.0,0.0,0.0,0.0,0.0,0.0,4.621649603,3.837421909,0.303379497,0.002859607,0.0,0.0,0.5429889973355045,-0.5570169993244386,0.3971100065420565,-0.0004449957396691954,0.9998429666269103,0.012479416777228726,0.012574109208646767
1751354845.4055192,-1.78888449,-1.837171562,-1.078907167,1.605442939,0.99235265,-0.577682198,0.0,0.0,0.0,0.0,0.0,0.0,4.621649603,3.837421909,0.303379497,0.002859607,0.0,0.0,0.5429889973355045,-0.5570169993244386,0.3971100065420565,-0.0004449957396691954,0.9998429666269103,0.012479416777228726,0.012574109208646767
1751354845.4072287,-1.78888449,-1.837171562,-1.078907167,1.605442939,0.99235265,-0.577682198,0.0,0.0,0.0,0.0,0.0,0.0,4.621649603,3.837421909,0.303379497,0.002859607,0.0,0.0,0.5429889973355045,-0.5570169993244386,0.3971100065420565,-0.0004449957396691954,0.9998429666269103,0.012479416777228726,0.012574109208646767
1751354845.4099813,-1.78888449,-1.837171562,-1.078907167,1.605442939,0.99235265,-0.577682198,0.0,0.0,0.0,0.0,0.0,0.0,4.621649603,3.837421909,0.303379497,0.002859607,0.0,0.0,0.5429889973355045,-0.5570169993244386,0.3971100065420565,-0.0004449957396691954,0.9998429666269103,0.012479416777228726,0.012574109208646767
1751354845.4138472,-1.78888449,-1.837171562,-1.078907167,1.605442939,0.99235265,-0.577682198,0.0,0.0,0.0,0.0,0.0,0.0,4.621649603,3.837421909,0.303379497,0.002859607,0.0,0.0,0.5429889973355045,-0.5570169993244386,0.3971100065420565,-0.0004449957396691954,0.9998429666269103,0.012479416777228726,0.012574109208646767
1751354845.413902,-1.78888449,-1.837171562,-1.078907167,1.605442939,0.99235265,-0.577682198,0.0,0.0,0.0,0.0,0.0,0.0,4.621649603,3.837421909,0.303379497,0.002859607,0.0,0.0,0.5429889973355045,-0.5570169993244386,0.3971100065420565,-0.0004449957396691954,0.9998429666269103,0.012479416777228726,0.012574109208646767
1751354845.4149387,-1.78888449,-1.837171562,-1.078907167,1.605442939,0.99235265,-0.577682198,0.0,0.0,0.0,0.0,0.0,0.0,4.621649603,3.837421909,0.303379497,0.002859607,0.0,0.0,0.5429889973355045,-0.5570169993244386,0.3971100065420565,-0.0004449957396691954,0.9998429666269103,0.012479416777228726,0.012574109208646767
1751354845.4176652,-1.78888449,-1.837171562,-1.078907167,1.605442939,0.99235265,-0.577682198,0.0,0.0,0.0,0.0,0.0,0.0,4.621649603,3.837421909,0.303379497,0.002859607,0.0,0.0,0.5429889973355045,-0.5570169993244386,0.3971100065420565,-0.0004449957396691954,0.9998429666269103,0.012479416777228726,0.012574109208646767
1751354845.419119,-1.78888449,-1.837171562,-1.078907167,1.605442939,0.99235265,-0.577682198,0.0,0.0,0.0,0.0,0.0,0.0,4.621649603,3.837421909,0.303379497,0.002859607,0.0,0.0,0.5429889973355045,-0.5570169993244386,0.3971100065420565,-0.0004449957396691954,0.9998429666269103,0.012479416777228726,0.012574109208646767
1751354845.421033,-1.78888449,-1.837171562,-1.078907167,1.605442939,0.99235265,-0.577682198,0.0,0.0,0.0,0.0,0.0,0.0,4.621649603,3.837421909,0.303379497,0.002859607,0.0,0.0,0.5429889973355045,-0.5570169993244386,0.3971100065420565,-0.0004449957396691954,0.9998429666269103,0.012479416777228726,0.012574109208646767
1751354845.4228544,-1.78888449,-1.837171562,-1.078907167,1.605442939,0.99235265,-0.577682198,0.0,0.0,0.0,0.0,0.0,0.0,4.621649603,3.837421909,0.303379497,0.002859607,0.0,0.0,0.5429889973355045,-0.5570169993244386,0.3971100065420565,-0.0004449957396691954,0.9998429666269103,0.012479416777228726,0.012574109208646767
1751354845.424935,-1.78888449,-1.837171562,-1.078907167,1.605442939,0.99235265,-0.577682198,0.0,0.0,0.0,0.0,0.0,0.0,4.621649603,3.837421909,0.303379497,0.002859607,0.0,0.0,0.5429889973355045,-0.5570169993244386,0.3971100065420565,-0.0004449957396691954,0.9998429666269103,0.012479416777228726,0.012574109208646767
1751354845.4271326,-1.78888449,-1.837171562,-1.078907167,1.605442939,0.99235265,-0.577682198,0.0,0.0,0.0,0.0,0.0,0.0,4.621649603,3.837421909,0.303379497,0.002859607,0.0,0.0,0.5429889973355045,-0.5570169993244386,0.3971100065420565,-0.0004449957396691954,0.9998429666269103,0.012479416777228726,0.012574109208646767
1751354845.4287536,-1.78888449,-1.837171562,-1.078907167,1.605442939,0.99235265,-0.577682198,0.0,0.0,0.0,0.0,0.0,0.0,4.621649603,3.837421909,0.303379497,0.002859607,0.0,0.0,0.5429889973355045,-0.5570169993244386,0.3971100065420565,-0.0004449957396691954,0.9998429666269103,0.012479416777228726,0.012574109208646767
1751354845.4308655,-1.78888449,-1.837171562,-1.078907167,1.605442939,0.99235265,-0.577682198,0.0,0.0,0.0,0.0,0.0,0.0,4.621649603,3.837421909,0.303379497,0.002859607,0.0,0.0,0.5429889973355045,-0.5570169993244386,0.3971100065420565,-0.0004449957396691954,0.9998429666269103,0.012479416777228726,0.012574109208646767
1751354845.4439125,-1.78888449,-1.837171562,-1.078907167,1.605442939,0.99235265,-0.577682198,0.0,0.0,0.0,0.0,0.0,0.0,4.621649603,3.837421909,0.303379497,0.002859607,0.0,0.0,0.5429889973355045,-0.5570169993244386,0.3971100065420565,-0.0004449957396691954,0.9998429666269103,0.012479416777228726,0.012574109208646767
1751354845.4439857,-1.78888449,-1.837171562,-1.078907167,1.605442939,0.99235265,-0.577682198,0.0,0.0,0.0,0.0,0.0,0.0,4.621649603,3.837421909,0.303379497,0.002859607,0.0,0.0,0.5429889973355045,-0.5570169993244386,0.3971100065420565,-0.0004449957396691954,0.9998429666269103,0.012479416777228726,0.012574109208646767
1751354845.4440055,-1.78888449,-1.837171562,-1.078907167,1.605442939,0.99235265,-0.577682198,0.0,0.0,0.0,0.0,0.0,0.0,4.621649603,3.837421909,0.303379497,0.002859607,0.0,0.0,0.5429889973355045,-0.5570169993244386,0.3971100065420565,-0.0004449957396691954,0.9998429666269103,0.012479416777228726,0.012574109208646767
1751354845.4440231,-1.78888449,-1.837171562,-1.078907167,1.605442939,0.99235265,-0.577682198,0.0,0.0,0.0,0.0,0.0,0.0,4.621649603,3.837421909,0.303379497,0.002859607,0.0,0.0,0.5429889973355045,-0.5570169993244386,0.3971100065420565,-0.0004449957396691954,0.9998429666269103,0.012479416777228726,0.012574109208646767
1751354845.4440403,-1.78888449,-1.837171562,-1.078907167,1.605442939,0.99235265,-0.577682198,0.0,0.0,0.0,0.0,0.0,0.0,4.621649603,3.837421909,0.303379497,0.002859607,0.0,0.0,0.5429889973355045,-0.5570169993244386,0.3971100065420565,-0.0004449957396691954,0.9998429666269103,0.012479416777228726,0.012574109208646767
1751354845.4452126,-1.78888449,-1.837171562,-1.078907167,1.605442939,0.99235265,-0.577682198,0.0,0.0,0.0,0.0,0.0,0.0,4.621649603,3.837421909,0.303379497,0.002859607,0.0,0.0,0.5429889973355045,-0.5570169993244386,0.3971100065420565,-0.0004449957396691954,0.9998429666269103,0.012479416777228726,0.012574109208646767
1751354845.4494472,-1.78888449,-1.837171562,-1.078907167,1.605442939,0.99235265,-0.577682198,0.0,0.0,0.0,0.0,0.0,0.0,4.621649603,3.837421909,0.303379497,0.002859607,0.0,0.0,0.5429889973355045,-0.5570169993244386,0.3971100065420565,-0.0004449957396691954,0.9998429666269103,0.012479416777228726,0.012574109208646767
1751354845.451366,-1.788884344,-1.837171338,-1.078907145,1.605441939,0.992353538,-0.577682379,0.000146386,0.000224082,2.21e-05,-0.001,0.000887677,-0.000180325,4.720628166,3.90238603,0.307928128,-0.026227,0.025022638,-0.079847596,0.5429888802351337,-0.5570172260353493,0.397110256316761,-0.00044446286553879424,0.9998429747974343,0.012478895420298041,0.012573995787638535
1751354845.4514277,-1.788884344,-1.837171338,-1.078907145,1.605441939,0.992353538,-0.577682379,0.000146386,0.000224082,2.21e-05,-0.001,0.000887677,-0.000180325,4.720628166,3.90238603,0.307928128,-0.026227,0.025022638,-0.079847596,0.5429888802351337,-0.5570172260353493,0.397110256316761,-0.00044446286553879424,0.9998429747974343,0.012478895420298041,0.012573995787638535
1751354845.4572487,-1.788883905,-1.837170665,-1.078907079,1.605438939,0.992356201,-0.57768292,0.000292772,0.000448164,4.4201e-05,-0.002,0.001775353,-0.000360651,4.720627186,3.902388194,0.307928228,-0.026227251,0.025022638,-0.079847632,0.5429885301857461,-0.5570179051719936,0.39711100702737,-0.00044286575900300733,0.9998429993011885,0.01247733080892195,0.012573656357951104
1751354845.4573472,-1.788882148,-1.837167976,-1.078906813,1.605426939,0.992366853,-0.577685084,0.000585545,0.000896329,8.8402e-05,-0.004,0.003550707,-0.000721301,4.720623267,3.90239685,0.307928626,-0.026228255,0.025022638,-0.079847777,0.5429871290284509,-0.5570206210949776,0.3971140090050367,-0.00043647731440743764,0.9998430972647342,0.012471072355919722,0.012572298672509481
1751354845.4574907,-1.788882148,-1.837167976,-1.078906813,1.605426939,0.992366853,-0.577685084,0.000585545,0.000896329,8.8402e-05,-0.004,0.003550707,-0.000721301,4.720623267,3.90239685,0.307928626,-0.026228255,0.025022638,-0.079847777,0.5429871290284509,-0.5570206210949776,0.3971140090050367,-0.00043647731440743764,0.9998430972647342,0.012471072355919722,0.012572298672509481
1751354845.458723,-1.78888083,-1.83716596,-1.078906614,1.605417939,0.992374842,-0.577686706,0.000731931,0.001120411,0.000110502,-0.005,0.004438384,-0.000901627,4.720620328,3.902403343,0.307928925,-0.026229008,0.025022639,-0.079847885,0.5429860783706317,-0.5570226572702444,0.3971162601627585,-0.0004316864528536825,0.9998431706849945,0.012466378787762671,0.01257128001848793
1751354845.4607425,-1.78887922,-1.837163495,-1.078906371,1.605406939,0.992384606,-0.57768869,0.000878317,0.001344493,0.000132603,-0.006,0.00532606,-0.001081952,4.720616736,3.902411278,0.307929291,-0.026229928,0.025022639,-0.079848017,0.5429847938108372,-0.557025147065466,0.39711901152008533,-0.00042583032087734296,0.9998432603584347,0.012460642213772211,0.012570035002868716
1751354845.462782,-1.788877317,-1.837160582,-1.078906084,1.605393939,0.992396146,-0.577691034,0.001024703,0.001568576,0.000154703,-0.007,0.006213737,-0.001262278,4.720612491,3.902420656,0.307929722,-0.026231016,0.025022639,-0.079848174,0.5429832759527301,-0.5570280890634552,0.39712226322001065,-0.00041890940487468176,0.999843366247092,0.012453862647304591,0.012568563631379311
1751354845.4671848,-1.788877317,-1.837160582,-1.078906084,1.605393939,0.992396146,-0.577691034,0.001024703,0.001568576,0.000154703,-0.007,0.006213737,-0.001262278,4.720612491,3.902420656,0.307929722,-0.026231016,0.025022639,-0.079848174,0.5429832759527301,-0.5570280890634552,0.39712226322001065,-0.00041890940487468176,0.999843366247092,0.012453862647304591,0.012568563631379311
1751354845.467268,-1.788877317,-1.837160582,-1.078906084,1.605393939,0.992396146,-0.577691034,0.001024703,0.001568576,0.000154703,-0.007,0.006213737,-0.001262278,4.720612491,3.902420656,0.307929722,-0.026231016,0.025022639,-0.079848174,0.5429832759527301,-0.5570280890634552,0.39712226322001065,-0.00041890940487468176,0.999843366247092,0.012453862647304591,0.012568563631379311
1751354845.4693136,-1.788872633,-1.837153411,-1.078905377,1.605361939,0.992424552,-0.577696805,0.001317476,0.00201674,0.000198904,-0.009,0.00798909,-0.001622928,4.72060204,3.902443739,0.307930785,-0.026233694,0.02502264,-0.079848559,0.5429795392229673,-0.5570353316641199,0.39713026768700954,-0.00040187266311935777,0.9998436264830972,0.012437174205339794,0.012564942390532829
1751354845.4707491,-1.788869851,-1.837149154,-1.078904957,1.605342939,0.992441418,-0.577700231,0.001463862,0.002240822,0.000221004,-0.01,0.008876767,-0.001803254,4.720595835,3.902457445,0.307931416,-0.026235284,0.02502264,-0.079848787,0.542977320380276,-0.5570396313838959,0.3971350206169837,-0.00039175729794055575,0.99984378072043,0.012427265320134818,0.012562792586010256
1751354845.4732232,-1.788866777,-1.837144448,-1.078904493,1.605321939,0.992460059,-0.577704018,0.001610248,0.002464904,0.000243105,-0.011,0.009764444,-0.001983579,4.720588977,3.902472593,0.307932114,-0.026237041,0.02502264,-0.07984904,0.5429748681294573,-0.5570443841495926,0.39714027381767975,-0.00038057707004906144,0.9998439509533632,0.01241631339789839,0.012560416580179678
1751354845.4758434,-1.78886341,-1.837139294,-1.078903984,1.605298939,0.992480476,-0.577708165,0.001756634,0.002688987,0.000265205,-0.012,0.01065212,-0.002163904,4.720581465,3.902489183,0.307932877,-0.026238965,0.025022641,-0.079849317,0.5429721826055781,-0.5570495891459877,0.39714602756228456,-0.00036833196225844416,0.99984413710796,0.012404318167533563,0.012557814825947011
1751354845.477166,-1.78886341,-1.837139294,-1.078903984,1.605298939,0.992480476,-0.577708165,0.001756634,0.002688987,0.000265205,-0.012,0.01065212,-0.002163904,4.720581465,3.902489183,0.307932877,-0.026238965,0.025022641,-0.079849317,0.5429721826055781,-0.5570495891459877,0.39714602756228456,-0.00036833196225844416,0.99984413710796,0.012404318167533563,0.012557814825947011
1751354845.4791305,-1.788859751,-1.837133692,-1.078903432,1.605273939,0.992502667,-0.577712673,0.001903021,0.002913069,0.000287306,-0.013,0.011539797,-0.00234423,4.720573299,3.902507216,0.307933708,-0.026241057,0.025022641,-0.079849617,0.5429692632199002,-0.5570552468984968,0.39715228087210264,-0.0003550224203509634,0.9998443391107339,0.012391280418205253,0.012554986136917606
1751354845.4809089,-1.788855798,-1.837127642,-1.078902835,1.605246939,0.992526635,-0.577717542,0.002049407,0.003137151,0.000309406,-0.014,0.012427474,-0.002524555,4.72056448,3.902526691,0.307934604,-0.026243317,0.025022642,-0.079849942,0.5429661097823636,-0.557061357286589,0.3971590355304039,-0.00034064694832530034,0.9998445568689269,0.012377199063611894,0.012551932224777348
1751354845.4827666,-1.788851553,-1.837121143,-1.078902194,1.605217939,0.992552377,-0.577722772,0.002195793,0.003361233,0.000331507,-0.015,0.013315151,-0.00270488,4.720555007,3.902547608,0.307935567,-0.026245743,0.025022642,-0.079850291,0.5429627228558285,-0.5570679206808388,0.39716629055045694,-0.0003252069955240706,0.9998447902930928,0.012362074617771099,0.01254865233066628
1751354845.4847405,-1.788847015,-1.837114197,-1.078901509,1.605186939,0.992579895,-0.577728362,0.002342179,0.003585316,0.000353607,-0.016,0.014202827,-0.002885206,4.720544881,3.902569967,0.307936596,-0.026248337,0.025022643,-0.079850664,0.5429591021520583,-0.557074935991123,0.3971740454657793,-0.0003087020178015179,0.9998450392857664,0.012345907358179878,0.012545146081715855
1751354845.4868395,-1.788842184,-1.837106802,-1.07890078,1.605153939,0.992609189,-0.577734312,0.002488566,0.003809398,0.000375708,-0.017,0.015090504,-0.003065531,4.720534101,3.902593768,0.307937692,-0.026251099,0.025022644,-0.079851061,0.5429552482844989,-0.5570824036215306,0.39718230155881123,-0.00029113199428113196,0.9998453037367914,0.012328696723058386,0.012541414384196814
1751354845.4887767,-1.788837061,-1.837098959,-1.078900006,1.605118939,0.992640257,-0.577740624,0.002634952,0.00403348,0.000397808,-0.018,0.015978181,-0.003245856,4.720522667,3.902619011,0.307938854,-0.026254028,0.025022644,-0.079851481,0.5429511600695863,-0.5570903246171751,0.3971910575959667,-0.0002724968758305092,0.999845583534788,0.012310442944010869,0.012537456917341618
1751354845.4907968,-1.788831645,-1.837090668,-1.078899189,1.605081939,0.992673101,-0.577747296,0.002781338,0.004257562,0.000419908,-0.019,0.016865857,-0.003426182,4.720510579,3.902645696,0.307940082,-0.026257124,0.025022645,-0.079851926,0.5429468382170335,-0.5570986976331757,0.3972003141280457,-0.0002527966109026756,0.9998458785615213,0.012291146301794625,0.01253327331549558
1751354845.492948,-1.788825936,-1.837081929,-1.078898327,1.605042939,0.992707721,-0.577754328,0.002927724,0.004481644,0.000442009,-0.02,0.017753534,-0.003606507,4.720497837,3.902673822,0.307941377,-0.026260387,0.025022646,-0.079852395,0.5429422828893221,-0.557107522780432,0.3972100714315794,-0.00023203117122387061,0.9998461886862119,0.012270806231679398,0.012528864498278915
1751354845.4948795,-1.788819934,-1.837072742,-1.078897421,1.605001939,0.992744116,-0.577761722,0.00307411,0.004705727,0.000464109,-0.021,0.018641211,-0.003786833,4.720484441,3.90270339,0.307942738,-0.026263818,0.025022646,-0.079852888,0.5429374928425738,-0.5571168010655317,0.3972203294228138,-0.00021020000042116637,0.999846513776988,0.012249422968566303,0.012524230151997193
1751354845.4970372,-1.788813639,-1.837063106,-1.07889647,1.604958939,0.992782286,-0.577769476,0.003220497,0.004929809,0.00048621,-0.022,0.019528887,-0.003967158,4.72047039,3.902734399,0.307944165,-0.026267416,0.025022647,-0.079853405,0.5429324695729909,-0.5571265316571447,0.39723108888790915,-0.00018730406510567845,0.9998468536890825,0.01222699595832519,0.012519371192861091
1751354845.498763,-1.788807052,-1.837053022,-1.078895476,1.604913939,0.992822231,-0.57777759,0.003366883,0.005153891,0.00050831,-0.023,0.020416564,-0.004147483,4.720455685,3.90276685,0.307945659,-0.026271182,0.025022648,-0.079853946,0.5429272127124146,-0.5571367143210121,0.39724234824053034,-0.00016334327833755722,0.9998472082825326,0.012203526272006316,0.012514286041467421
1751354845.5007985,-1.788800172,-1.83704249,-1.078894437,1.604866939,0.992863952,-0.577786066,0.003513269,0.005377973,0.000530411,-0.024,0.021304241,-0.004327809,4.720440326,3.902800741,0.307947219,-0.026275115,0.025022649,-0.07985451,0.5429217211209031,-0.5571473501322887,0.39725410852388643,-0.00013831611076465917,0.9998475773973894,0.012179013061600415,0.012508976060019054
1751354845.5026972,-1.788792999,-1.83703151,-1.078893354,1.604817939,0.992907448,-0.577794902,0.003659655,0.005602056,0.000552511,-0.025,0.022191918,-0.004508134,4.720424312,3.902836074,0.307948845,-0.026279215,0.02502265,-0.079855099,0.5429159957763318,-0.5571584379224866,0.3972663696617975,-0.00011222399597687066,0.9998479608739602,0.012153456583085764,0.012503440928051751
1751354845.5048733,-1.788785533,-1.837020082,-1.078892227,1.604766939,0.99295272,-0.577804098,0.003806041,0.005826138,0.000574612,-0.026,0.023079594,-0.004688459,4.720407643,3.902872847,0.307950537,-0.026283483,0.025022651,-0.079855712,0.542910036637447,-0.5571699776712641,0.397279131700713,-8.506637397114198e-05,0.9998483585441008,0.012126856818329186,0.012497680748320441
1751354845.5068154,-1.788777775,-1.837008206,-1.078891056,1.604713939,0.992999766,-0.577813656,0.003952428,0.00605022,0.000596712,-0.027,0.023967271,-0.004868785,4.720390319,3.902911061,0.307952296,-0.026287918,0.025022652,-0.079856348,0.5429038427283772,-0.557181970561553,0.3972923939298795,-5.684317375290508e-05,0.9998487702346381,0.012099213990051547,0.012491695239574654
1751354845.5088491,-1.788769723,-1.836995881,-1.07888984,1.604658939,0.993048589,-0.577823573,0.004098814,0.006274302,0.000618812,-0.028,0.024854948,-0.00504911,4.72037234,3.902950716,0.307954121,-0.02629252,0.025022653,-0.079857009,0.5428974157295966,-0.5571944149775585,0.39730615866507824,-2.755436427366858e-05,0.9998491957558804,0.012070527017077625,0.012485486158185576
1751354845.5108483,-1.788761379,-1.836983109,-1.07888858,1.604601939,0.993099186,-0.577833852,0.0042452,0.006498384,0.000640913,-0.029,0.025742624,-0.005229435,4.720353706,3.902991811,0.307956012,-0.02629729,0.025022654,-0.079857693,0.5428907535499841,-0.5572073122817554,0.3973204230663045,2.8001642307634024e-06,0.9998496349286181,0.0120407972000007,0.012479051568793522
1751354845.5130177,-1.788752743,-1.836969888,-1.078887277,1.604542939,0.993151559,-0.577844491,0.004391586,0.006722467,0.000663013,-0.03,0.026630301,-0.005409761,4.720334417,3.903034346,0.307957969,-0.026302227,0.025022655,-0.079858402,0.5428838577984304,-0.5572206617184119,0.3973351883200402,3.4220473052312126e-05,0.9998500875552095,0.012010024262379494,0.01247239199256289
1751354845.5149393,-1.788743813,-1.836956219,-1.078885928,1.604481939,0.993205707,-0.577855491,0.004537972,0.006946549,0.000685114,-0.031,0.027517978,-0.005590086,4.720314472,3.903078321,0.307959993,-0.026307331,0.025022656,-0.079859134,0.5428767274758259,-0.5572344635501387,0.39735045573607497,6.670660070276407e-05,0.9998505534252653,0.011978207070239683,0.012465509247623064
1751354845.5173316,-1.788734591,-1.836942102,-1.078884536,1.604418939,0.993261631,-0.577866851,0.004684359,0.007170631,0.000707214,-0.032,0.028405655,-0.005770411,4.720293871,3.903123735,0.307962083,-0.026312603,0.025022657,-0.07985989,0.5428693631605882,-0.5572487172560014,0.39736622349175105,0.00010025866401750235,0.9998510323390204,0.011945346971047825,0.012458401363606974
1751354845.5191462,-1.788734591,-1.836942102,-1.078884536,1.604418939,0.993261631,-0.577866851,0.004684359,0.007170631,0.000707214,-0.032,0.028405655,-0.005770411,4.720293871,3.903123735,0.307962083,-0.026312603,0.025022657,-0.07985989,0.5428693631605882,-0.5572487172560014,0.39736622349175105,0.00010025866401750235,0.9998510323390204,0.011945346971047825,0.012458401363606974
1751354845.5208132,-1.788725076,-1.836927536,-1.0788831,1.604353939,0.99331933,-0.577878573,0.004830745,0.007394713,0.000729315,-0.033,0.029293331,-0.005950737,4.720272615,3.903170589,0.307964238,-0.026318042,0.025022659,-0.07986067,0.5428617639200412,-0.5572634240487039,0.3973824931532889,0.000134877214752594,0.9998515240741889,0.011911443095737896,0.0124510697546667
1751354845.5227895,-1.788715268,-1.836912523,-1.078881619,1.604286939,0.993378804,-0.577890654,0.004977131,0.007618796,0.000751415,-0.034,0.030181008,-0.006131062,4.720250702,3.903218883,0.30796646,-0.026323649,0.02502266,-0.079861474,0.5428539308288071,-0.557278581918877,0.3973992636497743,0.00017056084106743834,0.9998520284096698,0.011876495703828488,0.012443514128466405
1751354845.528236,-1.788705167,-1.836897061,-1.078880094,1.604217939,0.993440054,-0.577903097,0.005123517,0.007842878,0.000773516,-0.035,0.031068685,-0.006311388,4.720228133,3.903268615,0.307968748,-0.026329423,0.025022661,-0.079862302,0.5428458627009799,-0.5572941928208816,0.3974165361772559,0.00020731161624542747,0.9998525451130467,0.011840504476677597,0.012435735064497402
1751354845.5295308,-1.788684087,-1.836864793,-1.078876911,1.604073939,0.993567879,-0.577929064,0.00541629,0.008291042,0.000817716,-0.037,0.032844038,-0.006672038,4.720181026,3.903372397,0.307973523,-0.026341473,0.025022664,-0.079864029,0.5428290232072728,-0.5573267704465285,0.39745258507038606,0.00028401097877787224,0.9998536146750827,0.01176539121060449,0.012419505972315207
1751354845.5309267,-1.788684087,-1.836864793,-1.078876911,1.604073939,0.993567879,-0.577929064,0.00541629,0.008291042,0.000817716,-0.037,0.032844038,-0.006672038,4.720181026,3.903372397,0.307973523,-0.026341473,0.025022664,-0.079864029,0.5428290232072728,-0.5573267704465285,0.39745258507038606,0.00028401097877787224,0.9998536146750827,0.01176539121060449,0.012419505972315207
1751354845.532884,-1.788673108,-1.836847987,-1.078875254,1.603998939,0.993634455,-0.577942588,0.005562676,0.008515125,0.000839817,-0.038,0.033731715,-0.006852364,4.720156488,3.903426446,0.307976009,-0.026347749,0.025022665,-0.079864928,0.542820251623344,-0.5573437370470469,0.39747136145173056,0.0003239602503069285,0.9998541670409483,0.011726269379654014,0.012411055839187923
1751354845.5348399,-1.788661837,-1.836830733,-1.078873552,1.603921939,0.993702806,-0.577956473,0.005709062,0.008739207,0.000861917,-0.039,0.034619391,-0.007032689,4.720131292,3.903481932,0.307978561,-0.026354192,0.025022667,-0.079865851,0.5428112452761975,-0.5573611559895895,0.39749063887200364,0.00036497603108724366,0.9998547307874476,0.01168610384405975,0.012402382488997204
1751354845.5368092,-1.788650272,-1.83681303,-1.078871806,1.603842939,0.993772933,-0.577970719,0.005855448,0.008963289,0.000884018,-0.04,0.035507068,-0.007213014,4.720105439,3.903538857,0.30798118,-0.026360803,0.025022668,-0.079866798,0.5428020039604748,-0.5573790271504044,0.3975104194284033,0.00040705889851567166,0.9998553056457844,0.011644894026105553,0.012393486924544938
1751354845.5390096,-1.788638415,-1.83679488,-1.078870016,1.603761939,0.993844835,-0.577985325,0.006001835,0.009187371,0.000906118,-0.041,0.036394745,-0.00739334,4.720078929,3.90359722,0.307983864,-0.026367581,0.02502267,-0.079867768,0.5427925278912231,-0.5573973497738292,0.39753070042407623,0.00045020798222338097,0.9998558913529005,0.011602640978643799,0.012384367645952568
1751354845.5413792,-1.788626265,-1.836776281,-1.078868182,1.603678939,0.993918512,-0.578000292,0.006148221,0.009411453,0.000928219,-0.042,0.037282422,-0.007573665,4.720051761,3.90365702,0.307986614,-0.026374527,0.025022671,-0.079868763,0.5427828169001152,-0.5574161246671235,0.39755148394837625,0.0004944238561502538,0.9998564876242259,0.011559343836688957,0.012375026095408748
1751354845.5432072,-1.788613822,-1.836757234,-1.078866303,1.603593939,0.993993964,-0.57801562,0.006294607,0.009635536,0.000950319,-0.043,0.038170098,-0.00775399,4.720023936,3.903718257,0.307989431,-0.02638164,0.025022673,-0.079869781,0.5427728706944664,-0.5574353516503148,0.3975727695740303,0.0005397066215547901,0.999857094174482,0.011515002559395367,0.012365462457212293
1751354845.5454607,-1.788601086,-1.836737739,-1.07886438,1.603506939,0.994071192,-0.578031308,0.006440993,0.009859618,0.00097242,-0.044,0.039057775,-0.007934316,4.719995452,3.903780931,0.307992313,-0.02638892,0.025022675,-0.079870822,0.5427626896633221,-0.5574550300819692,0.397594557260796,0.0005860563902721434,0.9998577107135342,0.011469617390223551,0.012355676489764359
1751354845.5469415,-1.788588058,-1.836717795,-1.078862414,1.603417939,0.994150195,-0.578047357,0.006587379,0.0100837,0.00099452,-0.045,0.039945452,-0.008114641,4.71996631,3.903845042,0.307995261,-0.026396368,0.025022676,-0.079871888,0.5427522735802173,-0.5574751607322103,0.3976168468379196,0.000633473276442758,0.9998583369443816,0.011423188546901802,0.01234566797890301
1751354845.5487208,-1.788574737,-1.836697404,-1.078860402,1.603326939,0.994230974,-0.578063767,0.006733766,0.010307782,0.00101662,-0.046,0.040833128,-0.008294967,4.719936509,3.903910589,0.307998275,-0.026403983,0.025022678,-0.079872977,0.5427416218399387,-0.557495743217904,0.397639638257752,0.0006819578720331169,0.9998589725566435,0.01137571544606522,0.012335437954289749
1751354845.5507164,-1.788561123,-1.836676564,-1.078858347,1.603233939,0.994313528,-0.578080537,0.006880152,0.010531865,0.001038721,-0.047,0.041720805,-0.008475292,4.719906049,3.903977572,0.308001355,-0.026411766,0.02502268,-0.07987409,0.5427307352717705,-0.5575167771855487,0.39766293249768386,0.0007315092961207019,0.9998596172401663,0.011327198315917332,0.012324986199166629
1751354845.5526657,-1.788547216,-1.836655276,-1.078856248,1.603138939,0.994397857,-0.578097668,0.007026538,0.010755947,0.001060821,-0.048,0.042608482,-0.008655617,4.719874931,3.904045991,0.3080045,-0.026419716,0.025022682,-0.079875226,0.5427196130171977,-0.5575382629936724,0.39768672913985337,0.0007821281617737147,0.9998602706748786,0.011277637104654903,0.012314312925728649
1751354845.5546548,-1.788533017,-1.83663354,-1.078854104,1.603041939,0.994483962,-0.57811516,0.007172924,0.010980029,0.001082922,-0.049,0.043496158,-0.008835943,4.719843153,3.904115845,0.308007712,-0.026427833,0.025022683,-0.079876386,0.5427082552745751,-0.5575602007841165,0.3977110276358976,0.0008338150844400081,0.9998609325337035,0.01122703177185723,0.012303418339286486
1751354845.5566883,-1.788518525,-1.836611356,-1.078851916,1.602942939,0.994571842,-0.578133012,0.00731931,0.011204111,0.001105022,-0.05,0.044383835,-0.009016268,4.719810715,3.904187135,0.308010989,-0.026436117,0.025022685,-0.07987757,0.5426966622412561,-0.5575825897918176,0.39773582871608715,0.0008865691821509742,0.9998616024838817,0.011175382269994968,0.01229230265528273
1751354845.5586698,-1.78850374,-1.836588724,-1.078849684,1.602841939,0.994661497,-0.578151225,0.007465697,0.011428193,0.001127123,-0.051,0.045271512,-0.009196593,4.719777618,3.904259859,0.308014332,-0.02644457,0.025022687,-0.079878777,0.5426848332762181,-0.5576054305179237,0.3977611324742143,0.0009403910750998185,0.9998622801845463,0.011122688544460016,0.012280966099165104
1751354845.5638459,-1.78850374,-1.836588724,-1.078849684,1.602841939,0.994661497,-0.578151225,0.007465697,0.011428193,0.001127123,-0.051,0.045271512,-0.009196593,4.719777618,3.904259859,0.308014332,-0.02644457,0.025022687,-0.079878777,0.5426848332762181,-0.5576054305179237,0.3977611324742143,0.0009403910750998185,0.9998622801845463,0.011122688544460016,0.012280966099165104
1751354845.56473,-1.788457628,-1.836518138,-1.078842722,1.602526939,0.994941115,-0.578208027,0.007904855,0.01210044,0.001193424,-0.054,0.047934542,-0.009737569,4.719674364,3.904486638,0.308024755,-0.02647093,0.025022693,-0.079882541,0.5426479326171406,-0.5576766616114798,0.39784006151881146,0.0011082647396911942,0.9998643562746311,0.010958340745760497,0.012245634686861542
1751354845.566924,-1.788441672,-1.836493713,-1.078840313,1.602417939,0.995037872,-0.578227683,0.008051241,0.012324522,0.001215524,-0.055,0.048822219,-0.009917895,4.719638625,3.904565099,0.308028361,-0.026480052,0.025022695,-0.079883842,0.5426351602119733,-0.557701308625654,0.3978673769530313,0.0011663595556230318,0.9998650614314846,0.010901469367987197,0.0122334173320277
1751354845.5689328,-1.788425423,-1.83646884,-1.07883786,1.602306939,0.995136404,-0.578247699,0.008197628,0.012548605,0.001237625,-0.056,0.049709895,-0.01009822,4.719602224,3.904644993,0.308032032,-0.026489341,0.025022697,-0.079885167,0.5426221519900556,-0.5577264065948061,0.39789519556255487,0.0012255223036699142,0.9998657725332784,0.010843553516424215,0.012220980265518506
1751354845.5708983,-1.788408881,-1.836443519,-1.078835363,1.602193939,0.995236712,-0.578268075,0.008344014,0.012772687,0.001259725,-0.057,0.050597572,-0.010278545,4.719565161,3.90472632,0.308035769,-0.026498797,0.025022699,-0.079886516,0.5426089078578321,-0.5577519554721972,0.39792351745252325,0.0012857536181764791,0.9998664891974881,0.010784593143137136,0.012208323728491252
1751354845.5727737,-1.788392047,-1.836417749,-1.078832821,1.602078939,0.995338795,-0.578288813,0.0084904,0.012996769,0.001281826,-0.058,0.051485249,-0.010458871,4.719527437,3.904809079,0.308039571,-0.026508421,0.025022702,-0.079887888,0.5425954272021478,-0.5577779566855043,0.3979523427185606,0.0013470541280093012,0.9998672110323721,0.01072458790216061,0.012195448407129264
1751354845.5746863,-1.78837492,-1.836391532,-1.078830235,1.601961939,0.995442653,-0.578309911,0.008636786,0.013220851,0.001303926,-0.059,0.052372926,-0.010639196,4.719489051,3.90489327,0.308043439,-0.026518212,0.025022704,-0.079889283,0.5425817101248303,-0.557804408502677,0.39798167085403613,0.0014094229880735147,0.9998679376477672,0.010663538295250536,0.012182353708013696
1751354845.5768015,-1.7883575,-1.836364866,-1.078827605,1.601842939,0.995548286,-0.57833137,0.008783172,0.013444933,0.001326027,-0.06,0.053260602,-0.010819522,4.719450002,3.904978893,0.308047373,-0.026528171,0.025022706,-0.079890702,0.5425677566074916,-0.557831311833416,0.3980115032237282,0.0014728608241178782,0.9998686686359232,0.010601443714162925,0.012169040734363772
1751354845.57878,-1.7883575,-1.836364866,-1.078827605,1.601842939,0.995548286,-0.57833137,0.008783172,0.013444933,0.001326027,-0.06,0.053260602,-0.010819522,4.719450002,3.904978893,0.308047373,-0.026528171,0.025022706,-0.079890702,0.5425677566074916,-0.557831311833416,0.3980115032237282,0.0014728608241178782,0.9998686686359232,0.010601443714162925,0.012169040734363772
1751354845.5809455,-1.788339787,-1.836337752,-1.078824931,1.601721939,0.995655695,-0.578353189,0.008929559,0.013669016,0.001348127,-0.061,0.054148279,-0.010999847,4.71941029,3.905065947,0.308051372,-0.026538297,0.025022708,-0.079892144,0.5425535667885419,-0.5578586658766351,0.39804183931336534,0.0015373677877303382,0.9998694035893398,0.01053830438607379,0.012155509320862104
1751354845.582858,-1.788321782,-1.83631019,-1.078822213,1.601598939,0.995764879,-0.578375369,0.009075945,0.013893098,0.001370227,-0.062,0.055035956,-0.011180172,4.719369915,3.905154433,0.308055436,-0.02654859,0.025022711,-0.079893609,0.5425391401901027,-0.5578864712425844,0.398072678478267,0.0016029440327066853,0.9998701420936302,0.010474120512844787,0.012141759327790257
1751354845.58478,-1.788303483,-1.836282179,-1.07881945,1.601473939,0.995875839,-0.57839791,0.009222331,0.01411718,0.001392328,-0.063,0.055923632,-0.011360498,4.719328876,3.905244349,0.308059566,-0.026559051,0.025022713,-0.079895098,0.5425244767599272,-0.557914727912887,0.3981040231014077,0.0016695901766116497,0.9998708837155244,0.010408890950570654,0.012127792699315097
1751354845.5867639,-1.788284892,-1.836253721,-1.078816644,1.601346939,0.995988574,-0.578420811,0.009368717,0.014341262,0.001414428,-0.064,0.056811309,-0.011540823,4.719287174,3.905335695,0.30806376,-0.026569679,0.025022715,-0.07989661,0.5425095764834046,-0.5579434349871694,0.39813587028672265,0.0017373054164378152,0.9998716280395388,0.010342617274544249,0.01211360719870224
1751354845.5890155,-1.788266008,-1.836224814,-1.078813793,1.601217939,0.996103084,-0.578444073,0.009515104,0.014565345,0.001436529,-0.065,0.057698986,-0.011721148,4.719244808,3.905428471,0.308068021,-0.026580475,0.025022718,-0.079898146,0.5424944393445231,-0.5579725933779291,0.398168222409677,0.0018060903668334885,0.9998723746162812,0.01027529805439505,0.01209920520856992
1751354845.590798,-1.788246832,-1.83619546,-1.078810897,1.601086939,0.99621937,-0.578467696,0.00966149,0.014789427,0.001458629,-0.066,0.058586662,-0.011901474,4.719201777,3.905522676,0.308072346,-0.026591438,0.02502272,-0.079899705,0.542479064778783,-0.5580022027329891,0.3982010775789576,0.001875945706013651,0.999873123007189,0.010206934051756423,0.012084585753009365
1751354845.5927515,-1.788227362,-1.836165657,-1.078807958,1.600953939,0.996337431,-0.578491679,0.009807876,0.015013509,0.00148073,-0.067,0.059474339,-0.012081799,4.719158081,3.90561831,0.308076737,-0.026602568,0.025022723,-0.079901287,0.5424634533138735,-0.5580322625066761,0.3982344384496012,0.0019468705765783212,0.9998738727582752,0.01013752465842069,0.012069749961225234
1751354845.594812,-1.7882076,-1.836135406,-1.078804974,1.600818939,0.996457267,-0.578516023,0.009954262,0.015237591,0.00150283,-0.068,0.060362016,-0.012262124,4.71911372,3.905715373,0.308081193,-0.026613866,0.025022725,-0.079902892,0.5424476045182076,-0.5580627733408552,0.3982683032436511,0.0020188656460318234,0.999874623412645,0.010067070076956473,0.012054697714595483
1751354845.5968351,-1.788187545,-1.836104706,-1.078801947,1.600681939,0.996578879,-0.578540727,0.010100648,0.015461673,0.001524931,-0.069,0.061249693,-0.01244245,4.719068693,3.905813864,0.308085714,-0.026625331,0.025022728,-0.07990452,0.5424315187793188,-0.55809373459878,0.3983026732335615,0.0020919310766266503,0.9998753745051014,0.009995570254568596,0.012039429302904808
1751354845.5988314,-1.788167198,-1.836073559,-1.078798875,1.600542939,0.996702266,-0.578565793,0.010247035,0.015685756,0.001547031,-0.07,0.062137369,-0.012622775,4.719023,3.905913783,0.308090301,-0.026636964,0.025022731,-0.079906172,0.5424151946033512,-0.5581251471359343,0.3983375467772222,0.002166067540284384,0.9998761255647338,0.009923025379931576,0.012023944626314516
1751354845.6006844,-1.788146557,-1.836041963,-1.078795759,1.600401939,0.996827428,-0.578591218,0.010393421,0.015909838,0.001569131,-0.071,0.063025046,-0.0128031,4.718976641,3.906015129,0.308094952,-0.026648764,0.025022733,-0.079907846,0.5423986337237447,-0.5581570093811252,0.39837292665832913,0.002241273681692387,0.9998768761087279,0.009849434587076772,0.01200824523610129
1751354845.6091592,-1.788125624,-1.83600992,-1.078792598,1.600258939,0.996954366,-0.578617005,0.010539807,0.01613392,0.001591232,-0.072,0.063912723,-0.012983426,4.718929615,3.906117901,0.308099669,-0.026660732,0.025022736,-0.079909544,0.5423818341707772,-0.5581893227863861,0.39840881035822406,0.002317551692032806,0.9998776256535782,0.009774798613914918,0.011992330197881417
1751354845.6093266,-1.788061068,-1.835911099,-1.078782852,1.599817939,0.997345832,-0.578696528,0.010978966,0.016806167,0.001657533,-0.075,0.066575753,-0.013524402,4.718784534,3.906434776,0.308114208,-0.026697639,0.025022744,-0.079914776,0.5423300094370168,-0.5582889649693632,0.3985194949561375,0.0025528116034640924,0.9998798633251104,0.00954461678121394,0.011943297717783035
1751354845.6093464,-1.788061068,-1.835911099,-1.078782852,1.599817939,0.997345832,-0.578696528,0.010978966,0.016806167,0.001657533,-0.075,0.066575753,-0.013524402,4.718784534,3.906434776,0.308114208,-0.026697639,0.025022744,-0.079914776,0.5423300094370168,-0.5582889649693632,0.3985194949561375,0.0025528116034640924,0.9998798633251104,0.00954461678121394,0.011943297717783035
1751354845.6093626,-1.788061068,-1.835911099,-1.078782852,1.599817939,0.997345832,-0.578696528,0.010978966,0.016806167,0.001657533,-0.075,0.066575753,-0.013524402,4.718784534,3.906434776,0.308114208,-0.026697639,0.025022744,-0.079914776,0.5423300094370168,-0.5582889649693632,0.3985194949561375,0.0025528116034640924,0.9998798633251104,0.00954461678121394,0.011943297717783035
1751354845.6110165,-1.788038963,-1.835877263,-1.078779515,1.599666939,0.997479871,-0.578723758,0.011125352,0.017030249,0.001679634,-0.076,0.067463429,-0.013704727,4.718734837,3.906543251,0.308119184,-0.026710276,0.025022747,-0.079916566,0.5423122572352111,-0.5583230799966084,0.39855740099346504,0.0026333747895583345,0.9998806038705911,0.009465798044561328,0.01192652539423791
1751354845.6129827,-1.788016566,-1.835842978,-1.078776133,1.599513939,0.997615685,-0.578751347,0.011271738,0.017254331,0.001701734,-0.077,0.068351106,-0.013885053,4.718684472,3.906653151,0.308124225,-0.02672308,0.02502275,-0.079918379,0.5422942680515586,-0.5583576446594649,0.3985958127998416,0.002715008709800902,0.9998813408822991,0.009385933244456352,0.011909539884136002
1751354845.6148424,-1.787993876,-1.835808246,-1.078772708,1.599358939,0.997753275,-0.578779298,0.011418124,0.017478413,0.001723835,-0.078,0.069238783,-0.014065378,4.718633437,3.906764475,0.308129331,-0.026736052,0.025022753,-0.079920215,0.5422760390694762,-0.5583926598579178,0.3986347297828186,0.002797715568179278,0.9998820738342842,0.009305023113298056,0.011892340279003495
1751354845.617572,-1.787970894,-1.835773065,-1.078769238,1.599201939,0.99789264,-0.578807609,0.01156451,0.017702496,0.001745935,-0.079,0.07012646,-0.014245703,4.718581733,3.906877222,0.308134502,-0.026749192,0.025022756,-0.079922074,0.5422575722872319,-0.5584281251025243,0.398674152826348,0.002881494028222527,0.999882802188533,0.00922306676659688,0.011874928176249359
1751354845.6207523,-1.787947618,-1.835737436,-1.078765724,1.599042939,0.998033781,-0.578836281,0.011710897,0.017926578,0.001768035,-0.08,0.071014136,-0.014426029,4.718529359,3.906991392,0.308139737,-0.026762499,0.025022759,-0.079923956,0.5422388662339465,-0.5584640403586488,0.39871408284947896,0.0029663452770740018,0.9998835254003499,0.009140064130088771,0.011857303924710823
1751354845.6224344,-1.78792405,-1.835701358,-1.078762166,1.598881939,0.998176697,-0.578865313,0.011857283,0.01815066,0.001790136,-0.081,0.071901813,-0.014606354,4.718476314,3.907106985,0.308145037,-0.026775973,0.025022762,-0.07992586,0.5422199220170898,-0.5585004054623611,0.39875451911127535,0.0030522685113728368,0.999884242926298,0.009056015400901202,0.011839467458345018
1751354845.62255,-1.787900189,-1.835664833,-1.078758564,1.598718939,0.998321388,-0.578894706,0.012003669,0.018374742,0.001812236,-0.082,0.07278949,-0.014786679,4.718422599,3.907223999,0.308150402,-0.026789615,0.025022765,-0.079927788,0.5422007381231015,-0.558537220351446,0.39879546126863663,0.0031392644296468573,0.9998849542116524,0.008970920769323537,0.011821418719977897
1751354845.6246717,-1.787876036,-1.835627859,-1.078754917,1.598553939,0.998467855,-0.57892446,0.012150055,0.018598825,0.001834337,-0.083,0.073677166,-0.014967005,4.718368212,3.907342435,0.308155831,-0.026803424,0.025022768,-0.079929738,0.5421813153299473,-0.5585744855542901,0.39883691009225664,0.003227333711636719,0.9998856586870625,0.008884779620017807,0.011803158905843113
1751354845.626677,-1.787851589,-1.835590438,-1.078751226,1.598386939,0.998616097,-0.578954574,0.012296441,0.018822907,0.001856437,-0.084,0.074564843,-0.01514733,4.718313154,3.907462292,0.308161325,-0.0268174,0.025022771,-0.079931711,0.5421616529586597,-0.5586121997399489,0.39887886588117055,0.003316475560513,0.9998863557884327,0.008797592147552913,0.011784687963189688
1751354845.632517,-1.78782685,-1.835552568,-1.078747491,1.598217939,0.998766114,-0.578985049,0.012442828,0.019046989,0.001878538,-0.085,0.07545252,-0.015327656,4.718257423,3.90758357,0.308166883,-0.026831544,0.025022774,-0.079933707,0.54214175131124,-0.5586503640334125,0.39892132852945716,0.003406690674450369,0.9998870449374425,0.008709358267564997,0.01176600626739793
1751354845.6328003,-1.787776493,-1.835475483,-1.078739889,1.597873939,0.999071475,-0.579047081,0.0127356,0.019495153,0.001922739,-0.087,0.077227873,-0.015688306,4.718143944,3.907830383,0.308178193,-0.026860335,0.025022781,-0.079937766,0.5421012289894073,-0.5587280413351444,0.39900777606898785,0.0035903419945927714,0.9998883970320216,0.008529750712643475,0.011728012528830429
1751354845.6348305,-1.787750875,-1.835436269,-1.078736021,1.597698939,0.999226818,-0.579078638,0.012881986,0.019719236,0.001944839,-0.088,0.07811555,-0.015868632,4.718086194,3.907955919,0.308183945,-0.026874981,0.025022784,-0.07993983,0.5420806078026998,-0.5587675540500153,0.3990517607791348,0.0036837781083755836,0.999889058790806,0.008438376870879203,0.011708701254592543
1751354845.6367042,-1.787724965,-1.835396607,-1.078732109,1.597521939,0.999383937,-0.579110555,0.013028372,0.019943318,0.001966939,-0.089,0.079003227,-0.016048957,4.71802777,3.908082872,0.308189761,-0.026889795,0.025022787,-0.079941916,0.5420597469992615,-0.558807515825763,0.39909625237191826,0.0037782883088561367,0.9998897102227979,0.00834595658339222,0.011689180327649507
1751354845.6387079,-1.787698762,-1.835356496,-1.078728153,1.597342939,0.999542831,-0.579142834,0.013174759,0.0201674,0.00198904,-0.09,0.079890903,-0.016229282,4.717968671,3.908211243,0.308195641,-0.026904776,0.025022791,-0.079944025,0.5420386454471399,-0.5588479277583762,0.3991412524018763,0.0038738732917184245,0.999890350709093,0.008252489206046158,0.011669450992688221
1751354845.640727,-1.787672266,-1.835315937,-1.078724153,1.597161939,0.999703501,-0.579175473,0.013321145,0.020391482,0.00201114,-0.091,0.08077858,-0.016409608,4.717908898,3.908341031,0.308201585,-0.026919925,0.025022794,-0.079946156,0.5420173037946422,-0.5588887884782554,0.3991867604106892,0.003970532775085907,0.99989097963534,0.008157974945115758,0.011649513215452397
1751354845.642684,-1.787645477,-1.83527493,-1.078720109,1.596978939,0.999865946,-0.579208472,0.013467531,0.020615565,0.002033241,-0.092,0.081666257,-0.016589933,4.717848448,3.908472236,0.308207593,-0.026935241,0.025022797,-0.07994831,0.5419957218888768,-0.5589300979069651,0.3992327765695233,0.004068266472505565,0.9998915963777723,0.008062413710652973,0.011629367402271289
1751354845.644708,-1.787645477,-1.83527493,-1.078720109,1.596978939,0.999865946,-0.579208472,0.013467531,0.020615565,0.002033241,-0.092,0.081666257,-0.016589933,4.717848448,3.908472236,0.308207593,-0.026935241,0.025022797,-0.07994831,0.5419957218888768,-0.5589300979069651,0.3992327765695233,0.004068266472505565,0.9998915963777723,0.008062413710652973,0.011629367402271289
1751354845.646659,-1.787618396,-1.835233475,-1.07871602,1.596793939,1.000030166,-0.579241832,0.013613917,0.020839647,0.002055341,-0.093,0.082553933,-0.016770258,4.717787323,3.908604857,0.308213666,-0.026950724,0.025022801,-0.079950487,0.5419738992956168,-0.55897185668981,0.3992793004129863,0.0041670750995694665,0.9998922003016342,0.007965805411964868,0.011609013963731934
1751354845.6486754,-1.787591022,-1.835191571,-1.078711887,1.596606939,1.000196161,-0.579275553,0.013760304,0.021063729,0.002077442,-0.094,0.08344161,-0.016950584,4.717725522,3.908738893,0.308219802,-0.026966375,0.025022804,-0.079952686,0.5419518358969379,-0.5590140647716156,0.39932633338219914,0.004266958867606691,0.9998927907643873,0.007868149691519425,0.01158845373029261
1751354845.6506903,-1.787563355,-1.83514922,-1.07870771,1.596417939,1.000363932,-0.579309635,0.01390669,0.021287811,0.002099542,-0.095,0.084329287,-0.017130909,4.717663043,3.908874343,0.308226003,-0.026982194,0.025022808,-0.079954907,0.5419295308991092,-0.5590567216552769,0.399373874398476,0.004367918509472282,0.9998933671223512,0.0077694470125038865,0.011567686274332693
1751354845.652592,-1.787535395,-1.83510642,-1.078703489,1.596226939,1.000533479,-0.579344077,0.014053076,0.021511893,0.002121643,-0.096,0.085216964,-0.017311234,4.717599887,3.909011208,0.308232267,-0.026998179,0.025022812,-0.07995715,0.5419069853369216,-0.559099827132313,0.3994219248960503,0.004469953734406263,0.9998939287182987,0.007669696749717578,0.011546712851087212
1751354845.6546347,-1.787507142,-1.835063172,-1.078699224,1.596033939,1.0007048,-0.57937888,0.014199462,0.021735976,0.002143743,-0.097,0.08610464,-0.01749156,4.717536052,3.909149486,0.308238596,-0.027014333,0.025022815,-0.079959416,0.5418841981720465,-0.5591433814535417,0.39947048442772914,0.004573064273118914,0.9998944748962755,0.007568899069755662,0.0115255334769026
1751354845.6566463,-1.787478597,-1.835019476,-1.078694914,1.595838939,1.000877897,-0.579414043,0.014345848,0.021960058,0.002165843,-0.098,0.086992317,-0.017671885,4.717471539,3.909289178,0.308244988,-0.027030653,0.025022819,-0.079961705,0.5418611700799062,-0.5591873841757455,0.39951955253751026,0.004677250851869272,0.999895004986126,0.007467053901198608,0.011504148569117136
1751354845.658645,-1.787449759,-1.834975332,-1.07869056,1.595641939,1.001052769,-0.579449567,0.014492235,0.02218414,0.002187944,-0.099,0.087879994,-0.017852211,4.717406347,3.909430281,0.308251444,-0.027047141,0.025022823,-0.079964015,0.5418379000570416,-0.5592318355728421,0.3995691300481614,0.004782513699081471,0.9998955183128373,0.007364161143036315,0.011482558568539422
1751354845.6606665,-1.787420628,-1.83493074,-1.078686162,1.595442939,1.001229417,-0.579485452,0.014638621,0.022408222,0.002210044,-0.1,0.08876767,-0.018032536,4.717340476,3.909572796,0.308257964,-0.027063797,0.025022826,-0.079966348,0.541814387936806,-0.5592767355586784,0.3996192171458849,0.004888853545232052,0.9998960141919075,0.007260220710785832,0.011460763909123753
1751354845.666062,-1.787391204,-1.834885699,-1.07868172,1.595241939,1.00140784,-0.579521697,0.014785007,0.022632305,0.002232145,-0.101,0.089655347,-0.018212861,4.717273924,3.909716722,0.308264547,-0.02708062,0.02502283,-0.079968702,0.5417906344276336,-0.5593220837121173,0.3996698146467155,0.004996269616924594,0.9998964919362396,0.00715523224176305,0.011438765452744255
1751354845.6661313,-1.787361488,-1.83484021,-1.078677234,1.595038939,1.001588039,-0.579558303,0.014931393,0.022856387,0.002254245,-0.102,0.090543024,-0.018393187,4.717206691,3.909862059,0.308271194,-0.027097611,0.025022834,-0.079971079,0.5417666386659303,-0.559367880399046,0.39972092135307485,0.005104763161072084,0.9998969508503656,0.007049196187652607,0.011416562806683135
1751354845.667204,-1.787331479,-1.834794273,-1.078672703,1.594833939,1.001770012,-0.57959527,0.015077779,0.023080469,0.002276346,-0.103,0.0914307,-0.018573512,4.717138777,3.910008805,0.308277905,-0.027114769,0.025022838,-0.079973478,0.5417424003930696,-0.5594141254735654,0.39977253833760695,0.005214333402374731,0.9998973902304493,0.006942111901237929,0.011394157268362032
1751354845.6690404,-1.787331479,-1.834794273,-1.078672703,1.594833939,1.001770012,-0.57959527,0.015077779,0.023080469,0.002276346,-0.103,0.0914307,-0.018573512,4.717138777,3.910008805,0.308277905,-0.027114769,0.025022838,-0.079973478,0.5417424003930696,-0.5594141254735654,0.39977253833760695,0.005214333402374731,0.9998973902304493,0.006942111901237929,0.011394157268362032
1751354845.6707563,-1.787270582,-1.834701055,-1.07866351,1.594417939,1.002139286,-0.579670285,0.015370552,0.023528633,0.002320547,-0.105,0.093206054,-0.018934163,4.717000903,3.910306524,0.308291517,-0.027149587,0.025022845,-0.079978343,0.5416931963519734,-0.5595079590886151,0.39987730343317696,0.005436706958096416,0.9998982075415054,0.006724799390308824,0.011348737634494838
1751354845.673038,-1.787239695,-1.834653774,-1.078658846,1.594206939,1.002326586,-0.579708334,0.015516938,0.023752716,0.002342647,-0.106,0.094093731,-0.019114488,4.716930942,3.910457496,0.308298417,-0.027167247,0.025022849,-0.079980808,0.5416682300483106,-0.5595555482340536,0.3999304514200037,0.005549510750481143,0.9998985840277393,0.006614570694261806,0.011325724889941309
1751354845.6753457,-1.787239695,-1.834653774,-1.078658846,1.594206939,1.002326586,-0.579708334,0.015516938,0.023752716,0.002342647,-0.106,0.094093731,-0.019114488,4.716930942,3.910457496,0.308298417,-0.027167247,0.025022849,-0.079980808,0.5416682300483106,-0.5595555482340536,0.3999304514200037,0.005549510750481143,0.9998985840277393,0.006614570694261806,0.011325724889941309
1751354845.6774507,-1.787208514,-1.834606044,-1.078654139,1.593993939,1.002515661,-0.579746743,0.015663324,0.023976798,0.002364747,-0.107,0.094981407,-0.019294813,4.716860297,3.910609874,0.308305382,-0.027185075,0.025022853,-0.079983295,0.5416430210302123,-0.5596035848209362,0.39998411161652586,0.005663392208191058,0.9998989380965426,0.006503293400428176,0.011302511094916269
1751354845.679273,-1.787177041,-1.834557867,-1.078649387,1.593778939,1.002706511,-0.579785513,0.01580971,0.02420088,0.002386848,-0.108,0.095869084,-0.019475139,4.716788969,3.910763659,0.308312409,-0.02720307,0.025022857,-0.079985804,0.541617568482896,-0.5596520692478792,0.40003828169078937,0.005778352089954965,0.9998992690125197,0.006390967950158465,0.011279095886345148
1751354845.6807008,-1.787145276,-1.834509241,-1.078644592,1.593561939,1.002899137,-0.579824644,0.015956097,0.024424962,0.002408948,-0.109,0.096756761,-0.019655464,4.716716955,3.91091885,0.3083195,-0.027221232,0.025022861,-0.079988335,0.5415918726662257,-0.5597010017092878,0.4000929628596744,0.00589439114469165,0.9998995760271582,0.006277594252257826,0.011255479738633445
1751354845.6826391,-1.787113217,-1.834460167,-1.078639752,1.593342939,1.003093538,-0.579864135,0.016102483,0.024649045,0.002431049,-0.11,0.097644437,-0.01983579,4.716644256,3.911075445,0.308326654,-0.027239563,0.025022866,-0.079990887,0.5415659334645451,-0.5597503812456461,0.4001481564619289,0.006011508606531104,0.9998998583846189,0.006163171394929907,0.011231664393562315
1751354845.684614,-1.787080866,-1.834410645,-1.078634867,1.593121939,1.003289715,-0.579903987,0.016248869,0.024873127,0.002453149,-0.111,0.098532114,-0.020016115,4.716570871,3.911233445,0.308333871,-0.02725806,0.02502287,-0.079993462,0.5415397504998474,-0.5598002085420278,0.40020386118496487,0.006129705740076276,0.9999001153250847,0.00604769982297985,0.011207649498145499
1751354845.6866548,-1.787048222,-1.834360674,-1.078629939,1.592898939,1.003487667,-0.5799442,0.016395255,0.025097209,0.00247525,-0.112,0.099419791,-0.02019644,4.7164968,3.911392849,0.308341151,-0.027276725,0.025022874,-0.079996058,0.5415133235258938,-0.5598504834617883,0.400260078382972,0.006248982300565733,0.999900346084614,0.005931179431980192,0.011183435546473514
1751354845.6907668,-1.787048222,-1.834360674,-1.078629939,1.592898939,1.003487667,-0.5799442,0.016395255,0.025097209,0.00247525,-0.112,0.099419791,-0.02019644,4.7164968,3.911392849,0.308341151,-0.027276725,0.025022874,-0.079996058,0.5415133235258938,-0.5598504834617883,0.400260078382972,0.006248982300565733,0.999900346084614,0.005931179431980192,0.011183435546473514
1751354845.6929626,-1.786982055,-1.834259389,-1.07861995,1.592446939,1.003888897,-0.580025707,0.016688028,0.025545374,0.002519451,-0.114,0.101195144,-0.020557091,4.716346595,3.911715864,0.308355899,-0.027314557,0.025022882,-0.080001315,0.5414597370300294,-0.5599523741132086,0.4003740490201457,0.006490774233187405,0.999900725961072,0.005694991810943857,0.011134412451860505
1751354845.6948233,-1.786948532,-1.834208074,-1.078614889,1.592217939,1.004092174,-0.580067001,0.016834414,0.025769456,0.002541551,-0.115,0.102082821,-0.020737416,4.716270461,3.911879474,0.308363368,-0.027333725,0.025022887,-0.080003976,0.5414325774423214,-0.5600039898515645,0.4004318035144346,0.006613289620350599,0.9999008735090438,0.005575324103057867,0.011109604736185524
1751354845.6967978,-1.786914717,-1.834156311,-1.078609783,1.591986939,1.004297228,-0.580108656,0.0169808,0.025993538,0.002563651,-0.116,0.102970498,-0.020917742,4.716193637,3.912044485,0.308370899,-0.027353059,0.025022891,-0.080006659,0.5414051731390745,-0.560056052850284,0.40049007019182037,0.006736886475172044,0.9999009917310006,0.005454607185290766,0.011084599967360585
1751354845.698616,-1.786880609,-1.8341041,-1.078604634,1.591753939,1.004504056,-0.580150672,0.017127186,0.02621762,0.002585752,-0.117,0.103858174,-0.021098067,4.716116124,3.912210896,0.308378493,-0.027372561,0.025022895,-0.080009363,0.5413775235484691,-0.5601085627598762,0.40054884978752114,0.006861563568181771,0.9999010798376232,0.005332841210018318,0.011059398246909099
1751354845.7006173,-1.786846209,-1.834051441,-1.07859944,1.591518939,1.004712661,-0.580193049,0.017273573,0.026441702,0.002607852,-0.118,0.104745851,-0.021278392,4.716037921,3.912378706,0.30838615,-0.027392231,0.0250229,-0.080012089,0.5413496288493557,-0.5601615197228821,0.4006081420042936,0.0069873226609337945,0.9999011370059825,0.005210025819793867,0.011034000504452988
1751354845.7025912,-1.786811515,-1.833998333,-1.078594203,1.591281939,1.00492304,-0.580235786,0.017419959,0.026665785,0.002629953,-0.119,0.105633528,-0.021458718,4.715959027,3.912547915,0.308393869,-0.027412068,0.025022904,-0.080014836,0.5413214891592408,-0.5602149229332766,0.4006679489694468,0.007114162017512149,0.9999011624300814,0.00508616062899096,0.011008407687608055
1751354845.704584,-1.786776529,-1.833944778,-1.078588921,1.591042939,1.005135195,-0.580278883,0.017566345,0.026889867,0.002652053,-0.12,0.106521204,-0.021639043,4.715879441,3.912718521,0.308401651,-0.027432073,0.025022908,-0.080017604,0.541293104204482,-0.5602687722372041,0.40072826837266273,0.007242082919139081,0.9999011552856933,0.004961246086774091,0.010982619477818168
1751354845.7065625,-1.78674125,-1.833890774,-1.078583594,1.590801939,1.005349125,-0.580322342,0.017712731,0.027113949,0.002674154,-0.121,0.107408881,-0.021819368,4.715799163,3.912890525,0.308409495,-0.027452245,0.025022913,-0.080020394,0.5412644731111149,-0.560323068904552,0.40078910245642974,0.007371086123417874,0.9999011147285471,0.004835281258709328,0.010956637673990448
1751354845.7087,-1.786705678,-1.833836322,-1.078578224,1.590558939,1.00556483,-0.580366161,0.017859117,0.027338031,0.002696254,-0.122,0.108296558,-0.021999694,4.715718193,3.913063924,0.308417402,-0.027472584,0.025022918,-0.080023205,0.5412355962866571,-0.5603778114110378,0.40085045057690155,0.007501170920536633,0.9999010399376256,0.004708266863658608,0.010930461546359516
1751354845.7106996,-1.786669813,-1.833781422,-1.078572809,1.590313939,1.005782311,-0.580410341,0.018005504,0.027562114,0.002718355,-0.123,0.109184235,-0.022180019,4.715636528,3.913238719,0.308425371,-0.027493091,0.025022922,-0.080026037,0.5412064731570783,-0.5604330003147667,0.40091231320612014,0.0076323385771555835,0.9999009300537982,0.004580202253598318,0.010904092475261761
1751354845.712584,-1.786633656,-1.833726074,-1.078567351,1.590066939,1.006001567,-0.580454881,0.01815189,0.027786196,0.002740455,-0.124,0.110071911,-0.022360345,4.71555417,3.913414909,0.308433402,-0.027513765,0.025022927,-0.080028891,0.5411771040671509,-0.5604886349590589,0.4009746895725376,0.0077645883867442774,0.9999007842422435,0.004451088134824757,0.010877529744704408
1751354845.7145863,-1.786597206,-1.833670277,-1.078561848,1.589817939,1.006222599,-0.580499782,0.018298276,0.028010278,0.002762555,-0.125,0.110959588,-0.02254067,4.715471117,3.913592492,0.308441495,-0.027534607,0.025022931,-0.080031765,0.5411474885713595,-0.5605447159865453,0.4010375815405898,0.007897921610260325,0.9999006016225562,0.004320923316345092,0.010850775584383915
1751354845.7165833,-1.786560463,-1.833614032,-1.0785563,1.589566939,1.006445405,-0.580545044,0.018444662,0.02823436,0.002784656,-0.126,0.111847265,-0.022720995,4.715387368,3.913771469,0.30844965,-0.027555616,0.025022936,-0.080034661,0.5411176261422055,-0.5606012430774271,0.4011009887165324,0.008032337535335983,0.9999003813392037,0.004189707950606094,0.010823830131810942
1751354845.7245824,-1.786523427,-1.83355734,-1.078550709,1.589313939,1.006669988,-0.580590666,0.018591048,0.028458442,0.002806756,-0.127,0.112734941,-0.022901321,4.715302923,3.913951837,0.308457867,-0.027576793,0.025022941,-0.080037578,0.541087516619268,-0.5606582152438183,0.40116491046546054,0.008167837460353617,0.9999001225206,0.004057442763446132,0.01079669267561321
1751354845.7246432,-1.786523427,-1.83355734,-1.078550709,1.589313939,1.006669988,-0.580590666,0.018591048,0.028458442,0.002806756,-0.127,0.112734941,-0.022901321,4.715302923,3.913951837,0.308457867,-0.027576793,0.025022941,-0.080037578,0.541087516619268,-0.5606582152438183,0.40116491046546054,0.008167837460353617,0.9999001225206,0.004057442763446132,0.01079669267561321
1751354845.7246592,-1.786486098,-1.833500199,-1.078545073,1.589058939,1.006896345,-0.580636649,0.018737435,0.028682525,0.002828857,-0.128,0.113622618,-0.023081646,4.715217781,3.914133598,0.308466146,-0.027598137,0.025022945,-0.080040516,0.5410571600517702,-0.5607156334531443,0.4012293485264266,0.008304420652849866,0.9998998242803834,0.003924126540916073,0.01076936546737621
1751354845.7255871,-1.786410563,-1.833384572,-1.078533669,1.588542939,1.007354386,-0.580729697,0.019030207,0.029130689,0.002873058,-0.13,0.115397971,-0.023442297,4.715045404,3.914501289,0.30848289,-0.027641327,0.025022955,-0.080046454,0.5409957049252866,-0.5608318066346636,0.4013597714065662,0.008580840026926597,0.999899105983054,0.0036543424792059042,0.010714141111928118
1751354845.726754,-1.786372356,-1.833326087,-1.078527901,1.588281939,1.00758607,-0.580776762,0.019176593,0.029354771,0.002895158,-0.131,0.116285648,-0.023622622,4.714958167,3.914687219,0.308491355,-0.027663174,0.02502296,-0.080049455,0.5409646054283642,-0.5608905610444002,0.40142575684336224,0.008720676790023743,0.9998986841282027,0.003517874419099051,0.010686245111549154
1751354845.730659,-1.786333857,-1.833267153,-1.078522089,1.588018939,1.007819529,-0.580824187,0.019322979,0.029578854,0.002917259,-0.132,0.117173325,-0.023802947,4.714870231,3.914874536,0.308499881,-0.027685187,0.025022965,-0.080052476,0.5409332586607196,-0.5609497605457758,0.40149225868401517,0.008861597993183253,0.9998982192635066,0.0033803554343913643,0.010658160808169354
1751354845.7313,-1.786295064,-1.833207771,-1.078516232,1.587753939,1.008054763,-0.580871974,0.019469366,0.029802936,0.002939359,-0.133,0.118061002,-0.023983273,4.714781594,3.915063241,0.308508469,-0.027707369,0.02502297,-0.080055518,0.5409016626882811,-0.5610094057143076,0.40155927818909126,0.009003604923153781,0.9998977104562969,0.003241784861458603,0.010629889630436673
1751354845.7341135,-1.786255979,-1.833147941,-1.078510331,1.587486939,1.008291773,-0.58092012,0.019615752,0.030027018,0.002961459,-0.134,0.118948678,-0.024163598,4.714692256,3.915253333,0.308517118,-0.027729717,0.025022975,-0.080058581,0.5408698192424078,-0.5610694949857444,0.40162681396682365,0.009146696890254933,0.9998971568021325,0.0031021634210917533,0.010601430899562581
1751354845.7353127,-1.786216601,-1.833087663,-1.078504386,1.587217939,1.008530558,-0.580968628,0.019762138,0.0302511,0.00298356,-0.135,0.119836355,-0.024343923,4.714602216,3.91544481,0.308525829,-0.027752233,0.02502298,-0.080061664,0.5408377262288717,-0.561130029739661,0.4016948670288891,0.009290875189054582,0.9998965573572625,0.0029614907085242746,0.01057278563575047
1751354845.737568,-1.786216601,-1.833087663,-1.078504386,1.587217939,1.008530558,-0.580968628,0.019762138,0.0302511,0.00298356,-0.135,0.119836355,-0.024343923,4.714602216,3.91544481,0.308525829,-0.027752233,0.02502298,-0.080061664,0.5408377262288717,-0.561130029739661,0.4016948670288891,0.009290875189054582,0.9998965573572625,0.0029614907085242746,0.01057278563575047
1751354845.7386274,-1.786176931,-1.833026937,-1.078498397,1.586946939,1.008771118,-0.581017496,0.019908524,0.030475182,0.00300566,-0.136,0.120724032,-0.024524249,4.714511474,3.915637672,0.3085346,-0.027774917,0.025022985,-0.080064768,0.5408053847263256,-0.561191008892621,0.4017634368687119,0.00943613912452597,0.9998959111961948,0.0028197668914069244,0.010543954013174262
1751354845.7405756,-1.786136967,-1.832965763,-1.078492364,1.586673939,1.009013454,-0.581066725,0.02005491,0.030699265,0.003027761,-0.137,0.121611708,-0.024704574,4.714420028,3.915831917,0.308543434,-0.027797768,0.02502299,-0.080067893,0.5407727935741176,-0.5612524326187125,0.40183252526181723,0.009582489990932417,0.9998952173567826,0.0026769913147988355,0.010514937475168672
1751354845.74262,-1.786096711,-1.83290414,-1.078486286,1.586398939,1.009257565,-0.581116314,0.020201297,0.030923347,0.003049861,-0.138,0.122499385,-0.0248849,4.714327878,3.916027546,0.308552328,-0.027820786,0.025022995,-0.080071038,0.540739953882722,-0.5613143007647994,0.4019021316960387,0.009729927092930394,0.999894474895705,0.002533163864331983,0.010485736628627935
1751354845.747167,-1.786056162,-1.832842069,-1.078480164,1.586121939,1.009503452,-0.581166265,0.020347683,0.031147429,0.003071962,-0.139,0.123387062,-0.025065225,4.714235023,3.916224557,0.308561283,-0.027843972,0.025023,-0.080074203,0.5407068636998118,-0.5613766138945286,0.40197225643986056,0.009878452240544603,0.9998936828420393,0.002388284690241996,0.010456351665512731
1751354845.7472167,-1.78601532,-1.83277955,-1.078473998,1.585842939,1.009751113,-0.581216575,0.020494069,0.031371511,0.003094062,-0.14,0.124274739,-0.02524555,4.714141463,3.916422949,0.3085703,-0.027867325,0.025023005,-0.080077389,0.5406735244742885,-0.5614393702583268,0.40204289975422813,0.010028063241901707,0.9998928402532323,0.0022423536822799082,0.010426783200198146
1751354845.74905,-1.785974186,-1.832716583,-1.078467788,1.585561939,1.010000551,-0.581267247,0.020640455,0.031595594,0.003116163,-0.141,0.125162415,-0.025425876,4.714047196,3.916622721,0.308579377,-0.027890846,0.02502301,-0.080080596,0.5406399344701195,-0.561502571471328,0.4021140611417819,0.010178763410011298,0.9998919461287981,0.0020953709947002914,0.010397031432214668
1751354845.7508771,-1.785932759,-1.832653168,-1.078461534,1.585278939,1.010251763,-0.581318279,0.020786841,0.031819676,0.003138263,-0.142,0.126050092,-0.025606201,4.713952222,3.916823873,0.308588516,-0.027914534,0.025023016,-0.080083822,0.5406060943866268,-0.5615662162010706,0.40218574162731047,0.010330550552601002,0.9998909995085489,0.001947336235481449,0.010367097407727713
1751354845.7527297,-1.785891039,-1.832589304,-1.078455235,1.584993939,1.010504751,-0.581369672,0.020933228,0.032043758,0.003160363,-0.143,0.126937769,-0.025786526,4.71385654,3.917026403,0.308597715,-0.027938389,0.025023021,-0.080087069,0.540572003832884,-0.5616303051274668,0.4022579422283815,0.010483426475374799,0.999889999380716,0.001798248752510227,0.010336982596053815
1751354845.7546864,-1.785849026,-1.832524993,-1.078448892,1.584706939,1.010759514,-0.581421425,0.021079614,0.03226784,0.003182464,-0.144,0.127825445,-0.025966852,4.71376015,3.917230311,0.308606974,-0.027962412,0.025023026,-0.080090336,0.5405376624023652,-0.5616948371009749,0.4023306618329587,0.01063739050417692,0.9998889447710154,0.001648109238981094,0.01030668636872302
1751354845.756698,-1.78580672,-1.832460233,-1.078442505,1.584417939,1.011016053,-0.581473539,0.021226,0.032491922,0.003204564,-0.145,0.128713122,-0.026147177,4.71366305,3.917435595,0.308616295,-0.027986603,0.025023032,-0.080093623,0.5405030699197476,-0.5617598129432515,0.4024039019701409,0.010792443948239909,0.999887834657883,0.0014969170366672968,0.01027621020510138
1751354845.7587347,-1.785764122,-1.832395025,-1.078436074,1.584126939,1.011274367,-0.581526014,0.021372386,0.032716005,0.003226665,-0.146,0.129600799,-0.026327502,4.713565239,3.917642256,0.308625675,-0.02801096,0.025023037,-0.08009693,0.5404682260096887,-0.5618252324349126,0.4024776615223495,0.010948586632722534,0.9998866680437282,0.001344672562280794,0.010245553906812348
1751354845.76071,-1.785721231,-1.832329369,-1.078429598,1.583833939,1.011534456,-0.581578849,0.021518773,0.032940087,0.003248765,-0.147,0.130488475,-0.026507828,4.713466718,3.917850291,0.308635117,-0.028035485,0.025023043,-0.080100257,0.5404331308973336,-0.5618910948414814,0.40255194164541075,0.011105818370670968,0.9998854439084911,0.0011913751620057447,0.01021471896140831
1751354845.7627068,-1.785678047,-1.832263265,-1.078423079,1.583538939,1.011796321,-0.581632045,0.021665159,0.033164169,0.003270866,-0.148,0.131376152,-0.026688153,4.713367485,3.9180597,0.308644618,-0.028060178,0.025023048,-0.080103604,0.5403977835803209,-0.5619574004411052,0.4026267423717427,0.011264140490125836,0.9998841612239243,0.0010370252566034475,0.010183705178624873
1751354845.7647064,-1.78563457,-1.832196712,-1.078416515,1.583241939,1.012059961,-0.581685602,0.021811545,0.033388251,0.003292966,-0.149,0.132263829,-0.026868479,4.713267539,3.918270481,0.30865418,-0.028085038,0.025023053,-0.080106971,0.5403621843140951,-0.5620241494290725,0.4027020648520366,0.011423552804580501,0.9998828189512596,0.000881621911406979,0.010152514477149857
1751354845.7666843,-1.7855908,-1.832129712,-1.078409907,1.582942939,1.012325376,-0.581739519,0.021957931,0.033612334,0.003315067,-0.15,0.133151506,-0.027048804,4.713166879,3.918482635,0.308663802,-0.028110065,0.025023059,-0.080110358,0.5403263326830599,-0.5620913406495157,0.4027779079847981,0.011584055148556642,0.9998814160686006,0.0007251658212405863,0.01012114625410639
1751354845.768695,-1.785546738,-1.832062263,-1.078403255,1.582641939,1.012592567,-0.581793797,0.022104317,0.033836416,0.003337167,-0.151,0.134039182,-0.027229129,4.713065506,3.91869616,0.308673484,-0.028135259,0.025023065,-0.080113765,0.5402902286859169,-0.5621589750388803,0.4028542725504184,0.011745648845105998,0.9998799515136062,0.0005676565955727026,0.010089601594979623
1751354845.7706935,-1.785502383,-1.831994366,-1.078396558,1.582338939,1.012861533,-0.581848435,0.022250704,0.034060498,0.003359267,-0.152,0.134926859,-0.027409455,4.712963417,3.918911055,0.308683226,-0.028160621,0.02502307,-0.080117191,0.5402538722244744,-0.5622270516499578,0.402931159084459,0.011908333219431792,0.9998784242397109,0.00040909384363569615,0.010057881589820619
1751354845.7726684,-1.785457735,-1.831926021,-1.078389818,1.582033939,1.013132274,-0.581903435,0.02239709,0.03428458,0.003381368,-0.153,0.135814536,-0.02758978,4.712860612,3.919127319,0.308693028,-0.028186151,0.025023076,-0.080120637,0.5402172617252464,-0.5622955712952175,0.40300856762845544,0.012072109606983903,0.9998768331818125,0.00024947797360436717,0.010025986070571489
1751354845.7747312,-1.785412795,-1.831857228,-1.078383033,1.581726939,1.013404791,-0.581958795,0.022543476,0.034508662,0.003403468,-0.154,0.136702212,-0.027770105,4.71275709,3.919344951,0.30870289,-0.028211848,0.025023081,-0.080124103,0.5401803984305033,-0.5623645329990009,0.40308649795244444,0.012236977836034781,0.999875177273017,8.880860894549165e-05,0.009993916135536535
1751354845.7771344,-1.785367561,-1.831787986,-1.078376204,1.581417939,1.013679083,-0.582014515,0.022689862,0.034732745,0.003425569,-0.155,0.137589889,-0.027950431,4.712652851,3.91956395,0.308712811,-0.028237712,0.025023087,-0.080127588,0.5401432819263537,-0.5624339365163415,0.4031649523740481,0.012402937734037871,0.9998734554351647,-7.29149168371346e-05,0.009961673309440377
1751354845.779604,-1.785367561,-1.831787986,-1.078376204,1.581417939,1.013679083,-0.582014515,0.022689862,0.034732745,0.003425569,-0.155,0.137589889,-0.027950431,4.712652851,3.91956395,0.308712811,-0.028237712,0.025023087,-0.080127588,0.5401432819263537,-0.5624339365163415,0.4031649523740481,0.012402937734037871,0.9998734554351647,-7.29149168371346e-05,0.009961673309440377
1751354845.7814243,-1.785322035,-1.831718297,-1.078369331,1.581106939,1.01395515,-0.582070596,0.022836248,0.034956827,0.003447669,-0.156,0.138477566,-0.028130756,4.712547893,3.919784315,0.308722792,-0.028263743,0.025023093,-0.080131093,0.5401059111306719,-0.5625037820727153,0.40324392840327683,0.012569990146293267,0.9998716665955876,-0.00023569165263343306,0.00992925659498587
1751354845.7836783,-1.785276216,-1.831648159,-1.078362413,1.580793939,1.014232993,-0.582127038,0.022982635,0.035180909,0.00346977,-0.157,0.139365242,-0.028311081,4.712442216,3.920006046,0.308732833,-0.028289942,0.025023099,-0.080134617,0.5400682863171136,-0.5625740698755457,0.40332342847464325,0.012738135897999664,0.9998698096405355,-0.00039952279485626243,0.009896668367674727
1751354845.793782,-1.785090013,-1.831363126,-1.078334301,1.579521939,1.015362118,-0.582356412,0.023568179,0.036077238,0.003558171,-0.161,0.142915949,-0.029032383,4.712012296,3.920906598,0.308773589,-0.028396411,0.025023122,-0.080148906,0.5399152405559953,-0.5628596362907355,0.40364666592595516,0.013421653631446559,0.9998616787588693,-0.0010653879828242008,0.009764605047780667
1751354845.7938995,-1.78504273,-1.831290748,-1.078327163,1.579198939,1.015648837,-0.582414657,0.023714566,0.03630132,0.003580272,-0.162,0.143803626,-0.029212708,4.711903009,3.921135138,0.308783926,-0.028423447,0.025023128,-0.080152526,0.5398763408861849,-0.5629321307763384,0.4037287861397406,0.013595268202775906,0.9998594646957316,-0.0012344900580615297,0.009731165148944914
1751354845.794705,-1.784995155,-1.831217921,-1.07831998,1.578873939,1.015937332,-0.582473263,0.023860952,0.036525402,0.003602372,-0.163,0.144691303,-0.029393034,4.711792998,3.921365038,0.308794322,-0.028450649,0.025023134,-0.080156166,0.5398371857604157,-0.563005066725219,0.40381143142882037,0.013769978164472783,0.9998571758233931,-0.0014046470148567926,0.009697557557556346
1751354845.7966468,-1.784947287,-1.831144646,-1.078312753,1.578546939,1.016227603,-0.582532229,0.024007338,0.036749485,0.003624473,-0.164,0.145578979,-0.029573359,4.711682261,3.921596296,0.308804777,-0.02847802,0.02502314,-0.080159824,0.5397977748694482,-0.5630784430501843,0.40389460210692557,0.01394578336537471,0.9998548110110789,-0.0015758587043728078,0.009663782575665738
1751354845.7986095,-1.784899126,-1.831070923,-1.078305482,1.578217939,1.016519648,-0.582591556,0.024153724,0.036973567,0.003646573,-0.165,0.146466656,-0.029753684,4.711570798,3.92182891,0.308815291,-0.028505557,0.025023146,-0.080163501,0.5397581073718589,-0.563152260134707,0.40397829848121436,0.014122683653547071,0.9998523691166502,-0.0017481252667642289,0.00962984092783739
1751354845.8032603,-1.784899126,-1.831070923,-1.078305482,1.578217939,1.016519648,-0.582591556,0.024153724,0.036973567,0.003646573,-0.165,0.146466656,-0.029753684,4.711570798,3.92182891,0.308815291,-0.028505557,0.025023146,-0.080163501,0.5397581073718589,-0.563152260134707,0.40397829848121436,0.014122683653547071,0.9998523691166502,-0.0017481252667642289,0.00962984092783739
1751354845.8048213,-1.784801925,-1.830922133,-1.078290808,1.577553939,1.017109066,-0.582711292,0.024446497,0.037421731,0.003690774,-0.167,0.14824201,-0.030114335,4.711345688,3.922298205,0.308836494,-0.028561134,0.025023158,-0.080170912,0.5396780019974573,-0.5633012154110407,0.404147269556165,0.014479773390543793,0.999847249412766,-0.002095823480431836,0.009561460569568811
1751354845.8067548,-1.784752886,-1.830847065,-1.078283404,1.577218939,1.017406437,-0.582771701,0.024592883,0.037645814,0.003712874,-0.168,0.149129686,-0.03029466,4.71123204,3.922534884,0.308847183,-0.028589174,0.025023165,-0.080174646,0.5396375641504656,-0.5633763536764348,0.4042325448722236,0.01465996254103152,0.9998445692778395,-0.002271255663066541,0.009527023754559629
1751354845.808799,-1.784703554,-1.830771549,-1.078275956,1.576881939,1.017705584,-0.582832471,0.024739269,0.037869896,0.003734975,-0.169,0.150017363,-0.030474986,4.711117662,3.922772915,0.308857931,-0.02861738,0.025023171,-0.080178399,0.5395968685655879,-0.5634519320636961,0.404318347131561,0.014841249185152524,0.9998418073760763,-0.0024477432143049315,0.009492423227080129
1751354845.8108137,-1.784653929,-1.830695586,-1.078268464,1.576542939,1.018006507,-0.582893601,0.024885655,0.038093978,0.003757075,-0.17,0.15090504,-0.030655311,4.711002553,3.923012297,0.308868737,-0.028645754,0.025023177,-0.08018217,0.5395559152060571,-0.5635279496642961,0.4044046760199031,0.015023633179610139,0.9998389625333814,-0.002625285987591142,0.009457659316097529
1751354845.8127427,-1.784604011,-1.830619173,-1.078260928,1.576201939,1.018309205,-0.582955092,0.025032042,0.03831806,0.003779176,-0.171,0.151792716,-0.030835636,4.710886712,3.92325303,0.308879601,-0.028674296,0.025023183,-0.080185959,0.5395147041588979,-0.5636044074734056,0.40449153374727387,0.015207114876390178,0.9998360335423603,-0.0028038849264527465,0.009422734037193322
1751354845.8147342,-1.784553801,-1.830542313,-1.078253347,1.575858939,1.018613678,-0.583016944,0.025178428,0.038542142,0.003801276,-0.172,0.152680393,-0.031015962,4.710770138,3.923495113,0.308890524,-0.028703004,0.02502319,-0.080189767,0.5394732344763852,-0.5636813048928455,0.40457891810319346,0.015391694637894167,0.9998330192162582,-0.0029835393517073025,0.009387646883637663
1751354845.81668,-1.784503297,-1.830465005,-1.078245723,1.575513939,1.018919926,-0.583079156,0.025324814,0.038766225,0.003823377,-0.173,0.15356807,-0.031196287,4.710652831,3.923738543,0.308901504,-0.02873188,0.025023196,-0.080193594,0.5394315061784899,-0.5637586410510989,0.4046668313173953,0.015577372321941646,0.9998299183500385,-0.003164249655357301,0.009352399040741657
1751354845.8186877,-1.784452501,-1.830387248,-1.078238054,1.575166939,1.01922795,-0.583141729,0.0254712,0.038990307,0.003845477,-0.174,0.154455746,-0.031376612,4.710534789,3.923983321,0.308912542,-0.028760923,0.025023202,-0.080197438,0.5393895192848305,-0.5638364168988502,0.4047552730670794,0.015764149287784374,0.9998267297078578,-0.003346016234157944,0.009316991697081724
1751354845.8206549,-1.784401412,-1.830309044,-1.078230341,1.574817939,1.019537749,-0.583204662,0.025617586,0.039214389,0.003867578,-0.175,0.155343423,-0.031556938,4.710416011,3.924229444,0.308923638,-0.028790134,0.025023209,-0.080201301,0.5393472731555062,-0.5639146311291144,0.4048442430548158,0.01595202489994038,0.9998234520920221,-0.003528838678942359,0.009281424780803654
1751354845.8226755,-1.784350031,-1.830230391,-1.078222584,1.574466939,1.019849324,-0.583267957,0.025763973,0.039438471,0.003889678,-0.176,0.1562311,-0.031737263,4.710296496,3.924476913,0.308934792,-0.028819511,0.025023215,-0.080205183,0.5393047671777839,-0.5639932851867161,0.40493374210884564,0.016141001020135288,0.999820084243473,-0.0037127173915774813,0.009245699487483567
1751354845.824761,-1.784298357,-1.83015129,-1.078214782,1.574113939,1.020162674,-0.583331611,0.025910359,0.039662554,0.003911778,-0.177,0.157118777,-0.031917589,4.710176244,3.924725725,0.308946003,-0.028849056,0.025023222,-0.080209082,0.539262002339735,-0.564072377015587,0.4050237708103682,0.01633107601236714,0.9998166249516197,-0.0038976527600363205,0.00920981702275299
1751354845.8269331,-1.784246389,-1.830071741,-1.078206936,1.573758939,1.020477799,-0.583395627,0.026056745,0.039886636,0.003933879,-0.178,0.158006453,-0.032097914,4.710055254,3.924975879,0.308957271,-0.028878768,0.025023228,-0.080213,0.5392189763656424,-0.5641519078745315,0.4051143301290783,0.016522251742473605,0.9998130729469576,-0.0040836449268671,0.009173778165584335
1751354845.8287852,-1.78419413,-1.829991743,-1.078199047,1.573401939,1.020794699,-0.583460003,0.026203131,0.040110718,0.003955979,-0.179,0.15889413,-0.032278239,4.709933523,3.925227375,0.308968597,-0.028908648,0.025023235,-0.080216935,0.5391756908598762,-0.56423187702538,0.4052054186242937,0.01671452758023512,0.9998094270081642,-0.0042706932064501555,0.009137582443536019
1751354845.830678,-1.784141577,-1.829911298,-1.078191113,1.573042939,1.021113375,-0.58352474,0.026349517,0.0403348,0.00397808,-0.18,0.159781807,-0.032458565,4.709811053,3.925480211,0.30897998,-0.028938694,0.025023241,-0.080220888,0.5391321439575478,-0.56431228417468,0.40529703789528343,0.01690790489138911,0.9998056858437249,-0.004458798533495323,0.009101231915524656
1751354845.8326776,-1.784088732,-1.829830404,-1.078183134,1.572681939,1.021433827,-0.583589837,0.026495904,0.040558883,0.00400018,-0.181,0.160669483,-0.03263889,4.70968784,3.925734387,0.308991421,-0.028968908,0.025023248,-0.08022486,0.5390883369160964,-0.5643931292666879,0.40538918801907453,0.017102383545940653,0.9998018481943186,-0.004647961032731689,0.009064727382023501
1751354845.8413525,-1.784088732,-1.829830404,-1.078183134,1.572681939,1.021433827,-0.583589837,0.026495904,0.040558883,0.00400018,-0.181,0.160669483,-0.03263889,4.70968784,3.925734387,0.308991421,-0.028968908,0.025023248,-0.08022486,0.5390883369160964,-0.5643931292666879,0.40538918801907453,0.017102383545940653,0.9998018481943186,-0.004647961032731689,0.009064727382023501
1751354845.8428676,-1.783928439,-1.829585034,-1.078158934,1.571586939,1.022405833,-0.583787294,0.026935062,0.041231129,0.004066482,-0.184,0.163332513,-0.033179866,4.709313744,3.926504935,0.309026083,-0.029060552,0.025023268,-0.08023688,0.538955344816775,-0.5646382912305002,0.40566882682263355,0.017692431289663194,0.9997897435850283,-0.005221791035690326,0.008954294814419235
1751354845.8448102,-1.783874422,-1.829502348,-1.078150779,1.571217939,1.022733385,-0.583853834,0.027081448,0.041455211,0.004088582,-0.185,0.16422019,-0.033360191,4.709187555,3.926764455,0.309037751,-0.029091435,0.025023275,-0.080240922,0.5389104900481922,-0.5647208863494779,0.4057631037891345,0.01789131854181437,0.999785507201059,-0.005415182478838016,0.008917180623795255
1751354845.846867,-1.783820113,-1.829419213,-1.07814258,1.570846939,1.023062713,-0.583920734,0.027227835,0.041679294,0.004110682,-0.186,0.165107867,-0.033540517,4.70906062,3.927025308,0.309049475,-0.029122484,0.025023282,-0.080244982,0.5388653734878691,-0.5648039184470953,0.40585791319616576,0.018091309004648455,0.999781167888218,-0.005609631475075496,0.00887991606283738
1751354845.848896,-1.783765511,-1.829335631,-1.078134337,1.570473939,1.023393817,-0.583987996,0.027374221,0.041903376,0.004132783,-0.187,0.165995544,-0.033720842,4.708932938,3.927287494,0.309061256,-0.029153701,0.025023288,-0.080249059,0.5388199928780923,-0.5648873878807504,0.4059532548892466,0.018292404054829414,0.9997767243212977,-0.005805137895549503,0.008842501528644865
1751354845.8509195,-1.783710616,-1.8292516,-1.078126049,1.570098939,1.023726696,-0.584055618,0.027520607,0.042127458,0.004154883,-0.188,0.16688322,-0.033901168,4.708804506,3.927551009,0.309073093,-0.029185085,0.025023295,-0.080253153,0.5387743497485,-0.5649712938619631,0.40604913060278514,0.018494602570662804,0.9997721751918875,-0.006001702670094394,0.008804939119316171
1751354845.8526423,-1.783655428,-1.829167121,-1.078117717,1.569721939,1.02406135,-0.5841236,0.027666993,0.04235154,0.004176984,-0.189,0.167770897,-0.034081493,4.708675325,3.927815855,0.309084986,-0.029216636,0.025023302,-0.080257265,0.5387284433721095,-0.5650556359350214,0.40614553993411634,0.01869790493153677,0.999767519183627,-0.00619932539305224,0.008767228824330113
1751354845.8546903,-1.783599948,-1.829082194,-1.078109341,1.569342939,1.024397779,-0.584191944,0.027813379,0.042575623,0.004199084,-0.19,0.168658574,-0.034261818,4.708545394,3.928082029,0.309096936,-0.029248354,0.025023309,-0.080261394,0.5386822724849373,-0.5651404151135018,0.4062424824750461,0.01890231251725175,0.9997627549486737,-0.006398005935848179,0.008729371053113277
1751354845.8580468,-1.783544175,-1.828996818,-1.078100921,1.568961939,1.024735984,-0.584260648,0.027959766,0.042799705,0.004221185,-0.191,0.16954625,-0.034442144,4.70841471,3.928349529,0.309108941,-0.029280239,0.025023316,-0.08026554,0.5386358380166739,-0.5652256302119466,0.40633995997291156,0.019107825209752217,0.9997578811433578,-0.006597744951598174,0.008691367501768377
1751354845.86074,-1.783488109,-1.828910995,-1.078092456,1.568578939,1.025075964,-0.584329712,0.028106152,0.043023787,0.004243285,-0.192,0.170433927,-0.034622469,4.708283274,3.928618356,0.309121003,-0.029312291,0.025023323,-0.080269703,0.5385891391142248,-0.5653112806905313,0.4064379716432368,0.01931444289149097,0.9997528964330562,-0.006798542307459446,0.008653218591933656
1751354845.860787,-1.78343175,-1.828824723,-1.078083948,1.568193939,1.02541772,-0.584399138,0.028252538,0.043247869,0.004265386,-0.193,0.171321604,-0.034802794,4.708151084,3.928888507,0.30913312,-0.029344511,0.02502333,-0.080273883,0.5385421747522585,-0.5653973677201706,0.406536518863,0.019522167445675538,0.999747799431645,-0.00700039813843699,0.008614925171441449
1751354845.8627443,-1.78343175,-1.828824723,-1.078083948,1.568193939,1.02541772,-0.584399138,0.028252538,0.043247869,0.004265386,-0.193,0.171321604,-0.034802794,4.708151084,3.928888507,0.30913312,-0.029344511,0.02502333,-0.080273883,0.5385421747522585,-0.5653973677201706,0.406536518863,0.019522167445675538,0.999747799431645,-0.00700039813843699,0.008614925171441449
1751354845.8649788,-1.783375099,-1.828738003,-1.078075395,1.567806939,1.025761251,-0.584468924,0.028398924,0.043471951,0.004287486,-0.194,0.172209281,-0.03498312,4.708018139,3.929159982,0.309145292,-0.029376897,0.025023337,-0.08027808,0.5384949457994607,-0.5654838900744447,0.40663560084425515,0.0197309977573208,0.9997425888034317,-0.007203312570925612,0.008576488099360104
1751354845.866779,-1.783318155,-1.828650835,-1.078066798,1.567417939,1.026106557,-0.58453907,0.028545311,0.043696034,0.004309586,-0.195,0.173096957,-0.035163445,4.707884438,3.929432779,0.309157521,-0.029409451,0.025023344,-0.080282294,0.5384474516419518,-0.5655708473710414,0.40673521858760675,0.019940934212129873,0.9997372631765471,-0.007407285735698866,0.008537908235896233
1751354845.8686695,-1.783260918,-1.828563219,-1.078058156,1.567026939,1.026453638,-0.584609577,0.028691697,0.043920116,0.004331687,-0.196,0.173984634,-0.03534377,4.70774998,3.929706897,0.309169804,-0.029442171,0.025023351,-0.080286524,0.538399691476647,-0.5656582400148493,0.4068353725792085,0.020151977697536565,0.9997318211558806,-0.007612318035263373,0.00849918686430054
1751354845.8706355,-1.783203388,-1.828475155,-1.078049471,1.566633939,1.026802495,-0.584680445,0.028838083,0.044144198,0.004353787,-0.197,0.174872311,-0.035524096,4.707614764,3.929982334,0.309182143,-0.029475059,0.025023359,-0.080290772,0.5383516647793234,-0.5657460676823853,0.406936062939712,0.020364129099594893,0.9997262613552629,-0.007818409061159978,0.00846032401246618
1751354845.8726282,-1.783145565,-1.828386642,-1.078040741,1.566238939,1.027153128,-0.584751674,0.028984469,0.04436828,0.004375888,-0.198,0.175759987,-0.035704421,4.707478788,3.930259089,0.309194537,-0.029508114,0.025023366,-0.080295036,0.5383033717143749,-0.5658343305057175,0.407037290913414,0.0205773888098304,0.9997205823625462,-0.008025559746400665,0.008421321821258801
1751354845.8746402,-1.78308745,-1.828297682,-1.078031967,1.565841939,1.027505535,-0.584823263,0.029130855,0.044592363,0.004397988,-0.199,0.176647664,-0.035884746,4.707342052,3.930537162,0.309206986,-0.029541335,0.025023373,-0.080299316,0.5382548119822587,-0.5659230273967845,0.4071390547216986,0.0207917557145172,0.9997147828291028,-0.00823376915650094,0.008382179474638164
1751354845.8766503,-1.783029042,-1.828208273,-1.078023149,1.565442939,1.027859718,-0.584895213,0.029277242,0.044816445,0.004420089,-0.2,0.177535341,-0.036065072,4.707204555,3.93081655,0.30921949,-0.029574724,0.02502338,-0.080303613,0.538205985110236,-0.5660121589783699,0.40724135676087425,0.02100723170702541,0.9997088612970226,-0.00844303822003695,0.00834289912636132
1751354845.8786309,-1.782970341,-1.828118416,-1.078014287,1.565041939,1.028215677,-0.584967523,0.029423628,0.045040527,0.004442189,-0.201,0.178423017,-0.036245397,4.707066295,3.931097253,0.309232049,-0.029608279,0.025023387,-0.080307926,0.5381568910123294,-0.5661017243032263,0.4073441967716092,0.0212238166781559,0.9997028163649003,-0.00865336679627572,0.00830348124508728
1751354845.8806405,-1.782911347,-1.828028111,-1.07800538,1.564638939,1.02857341,-0.585040194,0.029570014,0.045264609,0.00446429,-0.202,0.179310694,-0.036425723,4.706927272,3.931379269,0.309244663,-0.029642002,0.025023395,-0.080312256,0.5381075288742686,-0.5661917237675763,0.40744757525099207,0.02144151052210086,0.9996966466125828,-0.008864755295488287,0.008263927131728627
1751354845.8826203,-1.782852061,-1.827937357,-1.07799643,1.564233939,1.028932919,-0.585113226,0.0297164,0.045488691,0.00448639,-0.203,0.180198371,-0.036606048,4.706787483,3.931662597,0.309257331,-0.029675892,0.025023402,-0.080316602,0.538057898660876,-0.5662821573704044,0.4075514922013276,0.021660314629387292,0.9996903505979321,-0.009077203305752032,0.008224236845175347
1751354845.8846169,-1.782792482,-1.827846156,-1.077987435,1.563826939,1.029294204,-0.585186618,0.029862786,0.045712774,0.00450849,-0.204,0.181086048,-0.036786373,4.706646929,3.931947235,0.309270053,-0.029709948,0.02502341,-0.080320964,0.538007999971938,-0.5663730239554067,0.4076559477424899,0.021880228895945555,0.9996839268855877,-0.009290711220744645,0.00818441171279208
1751354845.8866172,-1.78273261,-1.827754506,-1.077978396,1.563417939,1.029657264,-0.585260372,0.030009173,0.045936856,0.004530591,-0.205,0.181973724,-0.036966699,4.706505608,3.932233182,0.30928283,-0.029744171,0.025023417,-0.080325342,0.5379578318519326,-0.5664643247377897,0.4077609433966264,0.022101254218690178,0.9996773740107777,-0.009505279450194581,0.008144453047948707
1751354845.8886135,-1.782672445,-1.827662409,-1.077969313,1.563006939,1.030022099,-0.585334485,0.030155559,0.046160938,0.004552691,-0.206,0.182861401,-0.037147024,4.706363519,3.932520437,0.309295661,-0.029778562,0.025023424,-0.080329736,0.537907395029921,-0.5665560574822178,0.40786647828059763,0.02232338949102571,0.9996706905633631,-0.009720907578410962,0.008104360928094323
1751354845.8965,-1.782672445,-1.827662409,-1.077969313,1.563006939,1.030022099,-0.585334485,0.030155559,0.046160938,0.004552691,-0.206,0.182861401,-0.037147024,4.706363519,3.932520437,0.309295661,-0.029778562,0.025023424,-0.080329736,0.537907395029921,-0.5665560574822178,0.40786647828059763,0.02232338949102571,0.9996706905633631,-0.009720907578410962,0.008104360928094323
1751354845.8965995,-1.782551237,-1.827476868,-1.077951013,1.562178939,1.030757095,-0.585483795,0.030448331,0.046609103,0.004596892,-0.208,0.184636754,-0.037507675,4.706077031,3.933098866,0.309321484,-0.029847843,0.025023439,-0.080338572,0.5378057121438314,-0.5667408232575956,0.4080791705529999,0.022770995485357964,0.9996569259606686,-0.010155345944630375,0.008023782911902354
1751354845.896741,-1.782490194,-1.827383426,-1.077941797,1.561761939,1.031127256,-0.58555899,0.030594717,0.046833185,0.004618993,-0.209,0.185524431,-0.037688,4.70593263,3.933390037,0.309334477,-0.029882734,0.025023447,-0.080343013,0.5377544657896414,-0.5668338543112142,0.40818632732618,0.022996465998901986,0.999649841897607,-0.010374155634490031,0.007983297596985246
1751354845.8988295,-1.782428858,-1.827289536,-1.077932537,1.561342939,1.031499193,-0.585634547,0.030741104,0.047057267,0.004641093,-0.21,0.186412108,-0.037868325,4.705787457,3.93368251,0.309347523,-0.029917792,0.025023455,-0.080347471,0.5377029479256955,-0.5669273182898021,0.4082940255065913,0.02322305005664275,0.9996426213136437,-0.010594026018825366,0.00794268291992609
1751354845.9008331,-1.78236723,-1.827195197,-1.077923233,1.560921939,1.031872905,-0.585710464,0.03088749,0.047281349,0.004663194,-0.211,0.187299784,-0.038048651,4.705641509,3.933976284,0.309360623,-0.029953016,0.025023462,-0.080351943,0.5376511598259639,-0.5670212142312929,0.408402265356269,0.023450746559511848,0.9996352627499614,-0.010814957223528805,0.00790193981693262
1751354845.90495,-1.782305308,-1.82710041,-1.077913885,1.560498939,1.032248392,-0.585786741,0.031033876,0.047505431,0.004685294,-0.212,0.188187461,-0.038228976,4.705494787,3.934271358,0.309373776,-0.029988408,0.02502347,-0.080356432,0.5375991004409282,-0.5671155414596187,0.40851104815794137,0.02367955591113492,0.9996277646996409,-0.011036949644819194,0.007861069646591636
1751354845.9050932,-1.782243094,-1.827005175,-1.077904492,1.560073939,1.032625654,-0.58586338,0.031180262,0.047729514,0.004707394,-0.213,0.189075138,-0.038409301,4.705347288,3.934567731,0.309386982,-0.030023966,0.025023478,-0.080360935,0.5375467687480807,-0.5672103011439033,0.408620372905656,0.023909479510881078,0.9996201256367893,-0.011260003153531994,0.007820072914678936
1751354845.9076407,-1.782180587,-1.826909492,-1.077895055,1.559646939,1.033004692,-0.585940378,0.031326648,0.047953596,0.004729495,-0.214,0.189962815,-0.038589627,4.705199012,3.9348654,0.309400242,-0.030059691,0.025023485,-0.080365454,0.5374941658004319,-0.5673054912607105,0.40873024063424107,0.02414051676183361,0.9996123440690005,-0.011484117863424473,0.007778950587902358
1751354845.9086351,-1.782117788,-1.826813361,-1.077885574,1.559217939,1.033385506,-0.586017738,0.031473035,0.048177678,0.004751595,-0.215,0.190850491,-0.038769952,4.705049957,3.935164365,0.309413554,-0.030095583,0.025023493,-0.080369989,0.5374412897203923,-0.5674011133251986,0.4088406509799754,0.02437266956411313,0.9996044184426804,-0.011709293649226703,0.007737703175058294
1751354845.9106395,-1.782054695,-1.826716782,-1.077876049,1.558786939,1.033768094,-0.586095458,0.031619421,0.04840176,0.004773696,-0.216,0.191738168,-0.038950278,4.704900123,3.935464624,0.309426919,-0.030131641,0.025023501,-0.080374538,0.5373881408948024,-0.5674971657850171,0.40895160586560597,0.024605936328030636,0.9995963472619733,-0.011935531172539706,0.007696332475329198
1751354845.9126735,-1.78199131,-1.826619754,-1.077866479,1.558353939,1.034152458,-0.586173539,0.031765807,0.048625843,0.004795796,-0.217,0.192625845,-0.039130603,4.704749507,3.935766175,0.309440337,-0.030167867,0.025023509,-0.080379103,0.5373347191703306,-0.5675936494712438,0.4090631049253902,0.024840318958164218,0.9995881289510348,-0.01216283055814895,0.007654839452262495
1751354845.9175828,-1.78199131,-1.826619754,-1.077866479,1.558353939,1.034152458,-0.586173539,0.031765807,0.048625843,0.004795796,-0.217,0.192625845,-0.039130603,4.704749507,3.935766175,0.309440337,-0.030167867,0.025023509,-0.080379103,0.5373347191703306,-0.5675936494712438,0.4090631049253902,0.024840318958164218,0.9995881289510348,-0.01216283055814895,0.007654839452262495
1751354845.917636,-1.781927632,-1.826522278,-1.077856865,1.557918939,1.034538598,-0.586251981,0.031912193,0.048849925,0.004817897,-0.218,0.193513521,-0.039310928,4.704598109,3.936069018,0.309453808,-0.030204259,0.025023517,-0.080383682,0.5372810235820198,-0.5676905637616799,0.40917514856824827,0.02507581785730303,0.9995797619691639,-0.012391191668456761,0.007613224644816414
1751354845.9187436,-1.781927632,-1.826522278,-1.077856865,1.557918939,1.034538598,-0.586251981,0.031912193,0.048849925,0.004817897,-0.218,0.193513521,-0.039310928,4.704598109,3.936069018,0.309453808,-0.030204259,0.025023517,-0.080383682,0.5372810235820198,-0.5676905637616799,0.40917514856824827,0.02507581785730303,0.9995797619691639,-0.012391191668456761,0.007613224644816414
1751354845.9208243,-1.781863661,-1.826424354,-1.077847208,1.557481939,1.034926512,-0.586330783,0.032058579,0.049074007,0.004839997,-0.219,0.194401198,-0.039491254,4.704445928,3.936373151,0.309467331,-0.030240817,0.025023524,-0.080388277,0.5372270542301418,-0.5677879078267227,0.409287737076287,0.0253124319291212,0.9995712448061409,-0.012620614369697738,0.007571488589899292
1751354845.9227169,-1.781799398,-1.826325982,-1.077837505,1.557042939,1.035316203,-0.586409946,0.032204966,0.049298089,0.004862098,-0.22,0.195288875,-0.039671579,4.704292962,3.936678573,0.309480906,-0.030277543,0.025023532,-0.080392886,0.5371728106459954,-0.5678856822872488,0.4094008704631815,0.02555016358583912,0.9995625758361804,-0.012851099314544003,0.007529633117552766
1751354845.924709,-1.781734841,-1.826227162,-1.077827759,1.556601939,1.035707668,-0.586489469,0.032351352,0.049522171,0.004884198,-0.221,0.196176552,-0.039851904,4.70413921,3.936985281,0.309494533,-0.030314435,0.02502354,-0.08039751,0.5371182923567733,-0.56798388593225,0.4095145502921989,0.025789011232752467,0.9995537535469101,-0.013082646372451255,0.007487658767142445
1751354845.926658,-1.781669992,-1.826127893,-1.077817969,1.556158939,1.036100909,-0.586569353,0.032497738,0.049746254,0.004906298,-0.222,0.197064228,-0.04003223,4.703984671,3.937293276,0.309508213,-0.030351493,0.025023548,-0.080402148,0.5370634992001011,-0.5680825195855489,0.40962877620660576,0.026028976777302978,0.9995447763224842,-0.013315255667344967,0.0074455665247712965
1751354845.9286797,-1.78160485,-1.826028177,-1.077808134,1.555713939,1.036495925,-0.586649598,0.032644124,0.049970336,0.004928399,-0.223,0.197951905,-0.040212555,4.703829343,3.937602554,0.309521944,-0.030388719,0.025023556,-0.080406802,0.5370084300829093,-0.5681815825376806,0.4097435482362099,0.026270060128403494,0.999535642590463,-0.013548927330371347,0.007403357367877448
1751354845.9306593,-1.781539416,-1.825928012,-1.077798255,1.555266939,1.036892716,-0.586730204,0.032790511,0.050194418,0.004950499,-0.224,0.198839582,-0.04039288,4.703673226,3.937913115,0.309535727,-0.030426111,0.025023564,-0.080411469,0.5369530853362554,-0.5682810750252862,0.409858867177205,0.026512261695326528,0.9995263507579318,-0.013783661488633914,0.007361032284739287
1751354845.932658,-1.781473688,-1.825827399,-1.077788332,1.554817939,1.037291283,-0.58681117,0.032936897,0.0504185,0.0049726,-0.225,0.199727258,-0.040573206,4.703516318,3.938224957,0.309549561,-0.030463669,0.025023572,-0.080416151,0.5368974644549188,-0.5683809958140463,0.4099747343352589,0.026755581891717024,0.9995168992173412,-0.014019458527208458,0.007318592705631625
1751354845.9346306,-1.781407668,-1.825726338,-1.077778365,1.554366939,1.037691625,-0.586892496,0.033083283,0.050642583,0.0049947,-0.226,0.200614935,-0.040753531,4.703358618,3.938538079,0.309563447,-0.030501394,0.025023581,-0.080420848,0.5368415674354814,-0.5684813449175461,0.4100911486041909,0.027000020620686016,0.9995072863876656,-0.014256318045142033,0.007276038774162721
1751354845.9366536,-1.781341355,-1.825624829,-1.077768353,1.553913939,1.038093743,-0.586974184,0.033229669,0.050866665,0.005016801,-0.227,0.201502612,-0.040933857,4.703200125,3.938852479,0.309577385,-0.030539285,0.025023589,-0.080425558,0.5367853926572389,-0.5685821231033688,0.41020811128796164,0.027245579800129913,0.9994975105984464,-0.014494240703405867,0.007233372332131229
1751354845.938663,-1.781274749,-1.825522871,-1.077758297,1.553458939,1.038497636,-0.587056232,0.033376055,0.051090747,0.005038901,-0.228,0.202390288,-0.041114182,4.703040837,3.939168157,0.309591373,-0.030577343,0.025023597,-0.080430283,0.536728941081644,-0.5686833291963628,0.41032562331836875,0.027492258342530138,0.9994875702662577,-0.014733226624068911,0.007190594392967356
1751354845.9406676,-1.781207851,-1.825420466,-1.077748198,1.553001939,1.038903304,-0.58713864,0.033522442,0.051314829,0.005061002,-0.229,0.203277965,-0.041294507,4.702880754,3.939485109,0.309605412,-0.030615568,0.025023605,-0.080435022,0.5366722117998353,-0.5687849626067567,0.41044368296549294,0.02774005664312429,0.9994774637883016,-0.014973274871326776,0.007147704272583997
1751354845.942677,-1.78114066,-1.825317612,-1.077738053,1.552542939,1.039310748,-0.58722141,0.033668828,0.051538911,0.005083102,-0.23,0.204165642,-0.041474833,4.702719873,3.939803335,0.309619502,-0.030653959,0.025023613,-0.080439774,0.5366152039884995,-0.5688870246315295,0.41056229305261294,0.027988976638685905,0.999467189441127,-0.01521438716599259,0.007104705520752588
1751354845.9447236,-1.781073176,-1.82521431,-1.077727865,1.552081939,1.039719967,-0.58730454,0.033815214,0.051762994,0.005105202,-0.231,0.205053319,-0.041655158,4.702558193,3.940122834,0.309633643,-0.030692516,0.025023622,-0.080444541,0.5365579178007543,-0.5689895135564035,0.4106814530028871,0.028239017225923868,0.99945674564779,-0.015456562568102105,0.007061597469491144
1751354845.9560397,-1.781005399,-1.82511056,-1.077717633,1.551618939,1.040130961,-0.58738803,0.0339616,0.051987076,0.005127303,-0.232,0.205940995,-0.041835483,4.702395714,3.940443603,0.309647835,-0.03073124,0.02502363,-0.080449321,0.5365003529349918,-0.5690924291943502,0.41080116336735817,0.028490178822368425,0.9994461307467944,-0.015699801467479332,0.007018381566473711
1751354845.9560905,-1.780937329,-1.825006362,-1.077707356,1.551153939,1.040543731,-0.587471882,0.034107986,0.052211158,0.005149403,-0.233,0.206828672,-0.042015809,4.702232434,3.940765642,0.309662076,-0.030770131,0.025023638,-0.080454115,0.536442507949344,-0.5691957724296066,0.4109214246989108,0.028742463345569635,0.9994353430255773,-0.015944104256765505,0.00697505925598492
