mathias31415/motion_primitives_from_planned_trajectory/data/trajectory_20250701_084407_executed.csv
timestamp,shoulder_lift_joint_pos,elbow_joint_pos,wrist_1_joint_pos,wrist_2_joint_pos,wrist_3_joint_pos,shoulder_pan_joint_pos,shoulder_lift_joint_vel,elbow_joint_vel,wrist_1_joint_vel,wrist_2_joint_vel,wrist_3_joint_vel,shoulder_pan_joint_vel,shoulder_lift_joint_eff,elbow_joint_eff,wrist_1_joint_eff,wrist_2_joint_eff,wrist_3_joint_eff,shoulder_pan_joint_eff
1751352270.125341654,-1.727100000,-2.203000000,-0.808000000,1.595100000,-0.031000000,-1.600700000,0.000000000,0.000000000,0.000000000,0.000000000,0.000000000,0.000000000,3.621137314,3.121199267,0.300553395,0.002005534,0.000000000,0.000000000
1751352270.127170801,-1.727100000,-2.203000000,-0.808000000,1.595100000,-0.031000000,-1.600700000,0.000000000,0.000000000,0.000000000,0.000000000,0.000000000,0.000000000,3.621137314,3.121199267,0.300553395,0.002005534,0.000000000,0.000000000
1751352270.129053116,-1.727100000,-2.203000000,-0.808000000,1.595100000,-0.031000000,-1.600700000,0.000000000,0.000000000,0.000000000,0.000000000,0.000000000,0.000000000,3.621137314,3.121199267,0.300553395,0.002005534,0.000000000,0.000000000
1751352270.131175995,-1.727100000,-2.203000000,-0.808000000,1.595100000,-0.031000000,-1.600700000,0.000000000,0.000000000,0.000000000,0.000000000,0.000000000,0.000000000,3.621137314,3.121199267,0.300553395,0.002005534,0.000000000,0.000000000
1751352270.133617401,-1.727100000,-2.203000000,-0.808000000,1.595100000,-0.031000000,-1.600700000,0.000000000,0.000000000,0.000000000,0.000000000,0.000000000,0.000000000,3.621137314,3.121199267,0.300553395,0.002005534,0.000000000,0.000000000
1751352270.135327578,-1.727100000,-2.203000000,-0.808000000,1.595100000,-0.031000000,-1.600700000,0.000000000,0.000000000,0.000000000,0.000000000,0.000000000,0.000000000,3.621137314,3.121199267,0.300553395,0.002005534,0.000000000,0.000000000
1751352270.137213230,-1.727100000,-2.203000000,-0.808000000,1.595100000,-0.031000000,-1.600700000,0.000000000,0.000000000,0.000000000,0.000000000,0.000000000,0.000000000,3.621137314,3.121199267,0.300553395,0.002005534,0.000000000,0.000000000
1751352270.139539003,-1.727100000,-2.203000000,-0.808000000,1.595100000,-0.031000000,-1.600700000,0.000000000,0.000000000,0.000000000,0.000000000,0.000000000,0.000000000,3.621137314,3.121199267,0.300553395,0.002005534,0.000000000,0.000000000
1751352270.141246796,-1.727100094,-2.202999000,-0.808000914,1.595099988,-0.031000404,-1.600700404,-0.000093751,0.001000000,-0.000913796,-0.000012005,-0.000403947,-0.000404080,3.634412223,3.327833036,0.281875256,0.000663521,-0.011379313,-0.126594572
1751352270.143390894,-1.727100375,-2.202996000,-0.808003655,1.595099952,-0.031001616,-1.600701616,-0.000187501,0.002000000,-0.001827591,-0.000024011,-0.000807894,-0.000808160,3.634421070,3.327840617,0.281875283,0.000663508,-0.011379313,-0.126595191
1751352270.145351410,-1.727100844,-2.202991000,-0.808008224,1.595099892,-0.031003636,-1.600703637,-0.000281252,0.003000000,-0.002741387,-0.000036016,-0.001211841,-0.001212240,3.634435814,3.327853252,0.281875327,0.000663487,-0.011379313,-0.126596222
1751352270.147330046,-1.727101500,-2.202984000,-0.808014621,1.595099808,-0.031006463,-1.600706465,-0.000375002,0.004000000,-0.003655183,-0.000048022,-0.001615787,-0.001616320,3.634456457,3.327870941,0.281875389,0.000663457,-0.011379313,-0.126597665
1751352270.149343491,-1.727102344,-2.202975000,-0.808022845,1.595099700,-0.031010099,-1.600710102,-0.000468753,0.005000000,-0.004568978,-0.000060027,-0.002019734,-0.002020400,3.634482998,3.327893684,0.281875469,0.000663418,-0.011379313,-0.126599521
1751352270.152437925,-1.727103375,-2.202964000,-0.808032897,1.595099568,-0.031014542,-1.600714547,-0.000562503,0.006000000,-0.005482774,-0.000072032,-0.002423681,-0.002424479,3.634515436,3.327921481,0.281875567,0.000663371,-0.011379313,-0.126601790
1751352270.153275967,-1.727104594,-2.202951000,-0.808044776,1.595099412,-0.031019793,-1.600719800,-0.000656254,0.007000000,-0.006396569,-0.000084038,-0.002827628,-0.002828559,3.634553772,3.327954332,0.281875683,0.000663316,-0.011379313,-0.126604471
1751352270.155335426,-1.727106000,-2.202936000,-0.808058483,1.595099232,-0.031025853,-1.600725861,-0.000750004,0.008000000,-0.007310365,-0.000096043,-0.003231575,-0.003232639,3.634598005,3.327992236,0.281875816,0.000663252,-0.011379313,-0.126607565
1751352270.157292604,-1.727107594,-2.202919000,-0.808074017,1.595099028,-0.031032720,-1.600732730,-0.000843755,0.009000000,-0.008224161,-0.000108049,-0.003635522,-0.003636719,3.634648136,3.328035193,0.281875967,0.000663179,-0.011379313,-0.126611071
1751352270.159284592,-1.727109375,-2.202900000,-0.808091380,1.595098799,-0.031040395,-1.600740408,-0.000937506,0.010000000,-0.009137956,-0.000120054,-0.004039469,-0.004040799,3.634704164,3.328083203,0.281876136,0.000663098,-0.011379313,-0.126614989
1751352270.165070057,-1.727111344,-2.202879000,-0.808110569,1.595098547,-0.031048878,-1.600748894,-0.001031256,0.011000000,-0.010051752,-0.000132059,-0.004443415,-0.004444879,3.634766089,3.328136266,0.281876322,0.000663008,-0.011379313,-0.126619321
1751352270.165684938,-1.727111344,-2.202879000,-0.808110569,1.595098547,-0.031048878,-1.600748894,-0.001031256,0.011000000,-0.010051752,-0.000132059,-0.004443415,-0.004444879,3.634766089,3.328136266,0.281876322,0.000663008,-0.011379313,-0.126619321
1751352270.167330265,-1.727115844,-2.202831000,-0.808154431,1.595097971,-0.031068267,-1.600768290,-0.001218757,0.013000000,-0.011879343,-0.000156070,-0.005251309,-0.005253039,3.634907629,3.328257548,0.281876749,0.000662803,-0.011379313,-0.126629220
1751352270.169491291,-1.727115844,-2.202831000,-0.808154431,1.595097971,-0.031068267,-1.600768290,-0.001218757,0.013000000,-0.011879343,-0.000156070,-0.005251309,-0.005253039,3.634907629,3.328257548,0.281876749,0.000662803,-0.011379313,-0.126629220
1751352270.171320677,-1.727118375,-2.202804000,-0.808179104,1.595097647,-0.031079174,-1.600779200,-0.001312508,0.014000000,-0.012793139,-0.000168076,-0.005655256,-0.005657119,3.634987244,3.328325768,0.281876989,0.000662688,-0.011379313,-0.126634789
1751352270.173522949,-1.727121094,-2.202775000,-0.808205604,1.595097299,-0.031090888,-1.600790918,-0.001406258,0.015000000,-0.013706935,-0.000180081,-0.006059203,-0.006061199,3.635072754,3.328399038,0.281877246,0.000662564,-0.011379313,-0.126640770
1751352270.175397396,-1.727124000,-2.202744000,-0.808233932,1.595096927,-0.031103410,-1.600803444,-0.001500009,0.016000000,-0.014620730,-0.000192086,-0.006463150,-0.006465279,3.635164161,3.328477360,0.281877522,0.000662432,-0.011379313,-0.126647164
1751352270.177283525,-1.727127094,-2.202711000,-0.808264087,1.595096530,-0.031116741,-1.600816779,-0.001593759,0.017000000,-0.015534526,-0.000204092,-0.006867097,-0.006869358,3.635261463,3.328560732,0.281877815,0.000662291,-0.011379313,-0.126653970
1751352270.179241180,-1.727130375,-2.202676000,-0.808296070,1.595096110,-0.031130879,-1.600830922,-0.001687510,0.018000000,-0.016448321,-0.000216097,-0.007271043,-0.007273438,3.635364660,3.328649154,0.281878125,0.000662142,-0.011379313,-0.126661189
1751352270.182890654,-1.727137500,-2.202600000,-0.808365518,1.595095198,-0.031161579,-1.600861632,-0.001875011,0.020000000,-0.018275913,-0.000240108,-0.008078937,-0.008081598,3.635588738,3.328841146,0.281878800,0.000661817,-0.011379313,-0.126676865
1751352270.183115005,-1.727137500,-2.202600000,-0.808365518,1.595095198,-0.031161579,-1.600861632,-0.001875011,0.020000000,-0.018275913,-0.000240108,-0.008078937,-0.008081598,3.635588738,3.328841146,0.281878800,0.000661817,-0.011379313,-0.126676865
1751352270.185097456,-1.727141344,-2.202559000,-0.808402984,1.595094706,-0.031178141,-1.600878199,-0.001968762,0.021000000,-0.019189708,-0.000252113,-0.008482884,-0.008485678,3.635709619,3.328944716,0.281879164,0.000661642,-0.011379313,-0.126685322
1751352270.187356710,-1.727145375,-2.202516000,-0.808442277,1.595094189,-0.031195510,-1.600895575,-0.002062512,0.022000000,-0.020103504,-0.000264119,-0.008886831,-0.008889758,3.635836393,3.329053333,0.281879546,0.000661459,-0.011379313,-0.126694191
1751352270.189358234,-1.727149594,-2.202471000,-0.808483398,1.595093649,-0.031213688,-1.600913758,-0.002156263,0.023000000,-0.021017300,-0.000276124,-0.009290778,-0.009293838,3.635969061,3.329166997,0.281879945,0.000661267,-0.011379313,-0.126703473
1751352270.191873312,-1.727154000,-2.202424000,-0.808526346,1.595093085,-0.031232673,-1.600932750,-0.002250013,0.024000000,-0.021931095,-0.000288130,-0.009694725,-0.009697918,3.636107621,3.329285709,0.281880362,0.000661066,-0.011379313,-0.126713168
1751352270.193366289,-1.727158594,-2.202375000,-0.808571122,1.595092497,-0.031252467,-1.600952550,-0.002343764,0.025000000,-0.022844891,-0.000300135,-0.010098671,-0.010101998,3.636252074,3.329409466,0.281880796,0.000660857,-0.011379313,-0.126723275
1751352270.195271730,-1.727163375,-2.202324000,-0.808617726,1.595091884,-0.031273068,-1.600973158,-0.002437515,0.026000000,-0.023758687,-0.000312140,-0.010502618,-0.010506078,3.636402419,3.329538269,0.281881249,0.000660639,-0.011379313,-0.126733796
1751352270.197281122,-1.727168344,-2.202271000,-0.808666157,1.595091248,-0.031294477,-1.600994574,-0.002531265,0.027000000,-0.024672482,-0.000324146,-0.010906565,-0.010910158,3.636558655,3.329672117,0.281881719,0.000660413,-0.011379313,-0.126744728
1751352270.199432850,-1.727173500,-2.202216000,-0.808716416,1.595090588,-0.031316694,-1.601016799,-0.002625016,0.028000000,-0.025586278,-0.000336151,-0.011310512,-0.011314237,3.636720782,3.329811008,0.281882206,0.000660178,-0.011379313,-0.126756074
1751352270.201918364,-1.727178844,-2.202159000,-0.808768502,1.595089903,-0.031339719,-1.601039831,-0.002718766,0.029000000,-0.026500073,-0.000348157,-0.011714459,-0.011718317,3.636888799,3.329954943,0.281882711,0.000659935,-0.011379313,-0.126767832
1751352270.203385592,-1.727184376,-2.202100000,-0.808822416,1.595089195,-0.031363552,-1.601063672,-0.002812517,0.030000000,-0.027413869,-0.000360162,-0.012118406,-0.012122397,3.637062706,3.330103920,0.281883234,0.000659683,-0.011379313,-0.126780004
1751352270.205173492,-1.727190094,-2.202039000,-0.808878158,1.595088463,-0.031388193,-1.601088321,-0.002906267,0.031000000,-0.028327665,-0.000372167,-0.012522353,-0.012526477,3.637242502,3.330257939,0.281883775,0.000659423,-0.011379313,-0.126792588
1751352270.207449913,-1.727196001,-2.201976000,-0.808935727,1.595087706,-0.031413642,-1.601113778,-0.003000018,0.032000000,-0.029241460,-0.000384173,-0.012926299,-0.012930557,3.637428187,3.330416998,0.281884333,0.000659154,-0.011379313,-0.126805585
1751352270.209430933,-1.727202094,-2.201911000,-0.808995123,1.595086926,-0.031439898,-1.601140043,-0.003093768,0.033000000,-0.030155256,-0.000396178,-0.013330246,-0.013334637,3.637619760,3.330581097,0.281884908,0.000658877,-0.011379313,-0.126818994
1751352270.211414099,-1.727208376,-2.201844000,-0.809056348,1.595086122,-0.031466963,-1.601167116,-0.003187519,0.034000000,-0.031069052,-0.000408184,-0.013734193,-0.013738717,3.637817221,3.330750235,0.281885502,0.000658591,-0.011379313,-0.126832817
1751352270.213451624,-1.727208376,-2.201844000,-0.809056348,1.595086122,-0.031466963,-1.601167116,-0.003187519,0.034000000,-0.031069052,-0.000408184,-0.013734193,-0.013738717,3.637817221,3.330750235,0.281885502,0.000658591,-0.011379313,-0.126832817
1751352270.215100050,-1.727214844,-2.201775000,-0.809119400,1.595085293,-0.031494835,-1.601194998,-0.003281270,0.035000000,-0.031982847,-0.000420189,-0.014138140,-0.014142797,3.638020568,3.330924411,0.281886112,0.000658297,-0.011379313,-0.126847052
1751352270.217070818,-1.727221501,-2.201704000,-0.809184279,1.595084441,-0.031523515,-1.601223688,-0.003375020,0.036000000,-0.032896643,-0.000432194,-0.014542087,-0.014546877,3.638229802,3.331103624,0.281886741,0.000657994,-0.011379313,-0.126861701
1751352270.219195127,-1.727228345,-2.201631000,-0.809250986,1.595083565,-0.031553003,-1.601253185,-0.003468771,0.037000000,-0.033810439,-0.000444200,-0.014946034,-0.014950957,3.638444920,3.331287873,0.281887386,0.000657683,-0.011379313,-0.126876762
1751352270.221194506,-1.727235376,-2.201556000,-0.809319521,1.595082664,-0.031583299,-1.601283491,-0.003562521,0.038000000,-0.034724234,-0.000456205,-0.015349981,-0.015355037,3.638665924,3.331477158,0.281888050,0.000657363,-0.011379313,-0.126892237
1751352270.223225117,-1.727242595,-2.201479000,-0.809389883,1.595081740,-0.031614403,-1.601314606,-0.003656272,0.039000000,-0.035638030,-0.000468211,-0.015753927,-0.015759116,3.638892811,3.331671476,0.281888731,0.000657035,-0.011379313,-0.126908124
1751352270.230932713,-1.727250001,-2.201400000,-0.809462073,1.595080791,-0.031646315,-1.601346528,-0.003750022,0.040000000,-0.036551825,-0.000480216,-0.016157874,-0.016163196,3.639125582,3.331870827,0.281889429,0.000656698,-0.011379313,-0.126924424
1751352270.231011152,-1.727265376,-2.201236000,-0.809611936,1.595078822,-0.031712562,-1.601412797,-0.003937523,0.042000000,-0.038379417,-0.000504227,-0.016965768,-0.016971356,3.639608769,3.332284623,0.281890878,0.000655999,-0.011379313,-0.126958265
1751352270.231742859,-1.727273345,-2.201151000,-0.809689608,1.595077802,-0.031746898,-1.601447144,-0.004031274,0.043000000,-0.039293212,-0.000516232,-0.017369715,-0.017375436,3.639859185,3.332499066,0.281891629,0.000655636,-0.011379313,-0.126975804
1751352270.234155178,-1.727281501,-2.201064000,-0.809769108,1.595076758,-0.031782041,-1.601482299,-0.004125025,0.044000000,-0.040207008,-0.000528238,-0.017773662,-0.017779516,3.640115480,3.332718537,0.281892397,0.000655266,-0.011379313,-0.126993757
1751352270.235303640,-1.727289845,-2.200975000,-0.809850436,1.595075689,-0.031817992,-1.601518262,-0.004218775,0.045000000,-0.041120804,-0.000540243,-0.018177609,-0.018183596,3.640377655,3.332943035,0.281893183,0.000654886,-0.011379313,-0.127012124
1751352270.237206459,-1.727298376,-2.200884000,-0.809933592,1.595074597,-0.031854752,-1.601555033,-0.004312526,0.046000000,-0.042034599,-0.000552248,-0.018581556,-0.018587676,3.640645708,3.333172559,0.281893985,0.000654499,-0.011379313,-0.127030903
1751352270.239177704,-1.727307095,-2.200791000,-0.810018575,1.595073480,-0.031892319,-1.601592613,-0.004406276,0.047000000,-0.042948395,-0.000564254,-0.018985502,-0.018991756,3.640919638,3.333407108,0.281894806,0.000654102,-0.011379313,-0.127050096
1751352270.241203547,-1.727316001,-2.200696000,-0.810105385,1.595072340,-0.031930694,-1.601631000,-0.004500027,0.048000000,-0.043862191,-0.000576259,-0.019389449,-0.019395836,3.641199445,3.333646680,0.281895644,0.000653698,-0.011379313,-0.127069701
1751352270.243870020,-1.727325095,-2.200599000,-0.810194023,1.595071175,-0.031969876,-1.601670196,-0.004593777,0.049000000,-0.044775986,-0.000588265,-0.019793396,-0.019799916,3.641485128,3.333891273,0.281896499,0.000653285,-0.011379313,-0.127089721
1751352270.245217085,-1.727334376,-2.200500000,-0.810284489,1.595069986,-0.032009867,-1.601710200,-0.004687528,0.050000000,-0.045689782,-0.000600270,-0.020197343,-0.020203996,3.641776685,3.334140888,0.281897371,0.000652863,-0.011379313,-0.127110153
1751352270.247343302,-1.727343845,-2.200399000,-0.810376782,1.595068774,-0.032050666,-1.601751012,-0.004781278,0.051000000,-0.046603577,-0.000612275,-0.020601290,-0.020608075,3.642074116,3.334395522,0.281898261,0.000652433,-0.011379313,-0.127130999
1751352270.249234915,-1.727353502,-2.200296000,-0.810470903,1.595067537,-0.032092272,-1.601792632,-0.004875029,0.052000000,-0.047517373,-0.000624281,-0.021005237,-0.021012155,3.642377420,3.334655173,0.281899168,0.000651994,-0.011379313,-0.127152259
1751352270.251358747,-1.727363345,-2.200191000,-0.810566852,1.595066277,-0.032134687,-1.601835060,-0.004968780,0.053000000,-0.048431169,-0.000636286,-0.021409184,-0.021416235,3.642686595,3.334919841,0.281900092,0.000651547,-0.011379313,-0.127173932
1751352270.253130674,-1.727373377,-2.200084000,-0.810664628,1.595064992,-0.032177909,-1.601878297,-0.005062530,0.054000000,-0.049344964,-0.000648292,-0.021813130,-0.021820315,3.643001641,3.335189523,0.281901033,0.000651092,-0.011379313,-0.127196018
1751352270.255245686,-1.727383595,-2.199975000,-0.810764232,1.595063684,-0.032221939,-1.601922342,-0.005156281,0.055000000,-0.050258760,-0.000660297,-0.022217077,-0.022224395,3.643322556,3.335464219,0.281901992,0.000650628,-0.011379313,-0.127218518
1751352270.257076025,-1.727394002,-2.199864000,-0.810865663,1.595062351,-0.032266777,-1.601967195,-0.005250031,0.056000000,-0.051172556,-0.000672302,-0.022621024,-0.022628475,3.643649341,3.335743927,0.281902968,0.000650155,-0.011379313,-0.127241432
1751352270.259101868,-1.727404596,-2.199751000,-0.810968922,1.595060994,-0.032312423,-1.602012856,-0.005343782,0.057000000,-0.052086351,-0.000684308,-0.023024971,-0.023032555,3.643981992,3.336028645,0.281903961,0.000649674,-0.011379313,-0.127264759
1751352270.261165142,-1.727415377,-2.199636000,-0.811074009,1.595059614,-0.032358877,-1.602059325,-0.005437532,0.058000000,-0.053000147,-0.000696313,-0.023428918,-0.023436635,3.644320510,3.336318372,0.281904971,0.000649185,-0.011379313,-0.127288500
1751352270.263237715,-1.727426346,-2.199519000,-0.811180923,1.595058209,-0.032406139,-1.602106602,-0.005531283,0.059000000,-0.053913943,-0.000708319,-0.023832865,-0.023840715,3.644664893,3.336613106,0.281905998,0.000648687,-0.011379313,-0.127312655
1751352270.265138388,-1.727437502,-2.199400000,-0.811289664,1.595056781,-0.032454209,-1.602154688,-0.005625034,0.060000000,-0.054827738,-0.000720324,-0.024236812,-0.024244795,3.645015141,3.336912846,0.281907043,0.000648181,-0.011379313,-0.127337223
1751352270.267205477,-1.727448846,-2.199279000,-0.811400234,1.595055328,-0.032503086,-1.602203581,-0.005718784,0.061000000,-0.055741534,-0.000732329,-0.024640758,-0.024648875,3.645371251,3.337217589,0.281908105,0.000647667,-0.011379313,-0.127362206
1751352270.269267797,-1.727460377,-2.199156000,-0.811512630,1.595053851,-0.032552772,-1.602253283,-0.005812535,0.062000000,-0.056655330,-0.000744335,-0.025044705,-0.025052954,3.645733223,3.337527334,0.281909183,0.000647143,-0.011379313,-0.127387602
1751352270.271047592,-1.727472096,-2.199031000,-0.811626855,1.595052351,-0.032603265,-1.602303793,-0.005906285,0.063000000,-0.057569125,-0.000756340,-0.025448652,-0.025457034,3.646101056,3.337842080,0.281910279,0.000646612,-0.011379313,-0.127413411
1751352270.273091316,-1.727484002,-2.198904000,-0.811742907,1.595050826,-0.032654566,-1.602355111,-0.006000036,0.064000000,-0.058482921,-0.000768346,-0.025852599,-0.025861114,3.646474748,3.338161824,0.281911392,0.000646072,-0.011379313,-0.127439635
1751352270.275218725,-1.727496096,-2.198775000,-0.811860787,1.595049277,-0.032706675,-1.602407238,-0.006093786,0.065000000,-0.059396716,-0.000780351,-0.026256546,-0.026265194,3.646854298,3.338486565,0.281912521,0.000645524,-0.011379313,-0.127466273
1751352270.277155876,-1.727496096,-2.198775000,-0.811860787,1.595049277,-0.032706675,-1.602407238,-0.006093786,0.065000000,-0.059396716,-0.000780351,-0.026256546,-0.026265194,3.646854298,3.338486565,0.281912521,0.000645524,-0.011379313,-0.127466273
1751352270.281750441,-1.727508377,-2.198644000,-0.811980494,1.595047704,-0.032759593,-1.602460172,-0.006187537,0.066000000,-0.060310512,-0.000792356,-0.026660493,-0.026669274,3.647239705,3.338816302,0.281913668,0.000644967,-0.011379313,-0.127493325
1751352270.283818722,-1.727520846,-2.198511000,-0.812102029,1.595046108,-0.032813317,-1.602513915,-0.006281287,0.067000000,-0.061224308,-0.000804362,-0.027064440,-0.027073354,3.647630968,3.339151031,0.281914832,0.000644402,-0.011379313,-0.127520791
1751352270.286308527,-1.727520846,-2.198511000,-0.812102029,1.595046108,-0.032813317,-1.602513915,-0.006281287,0.067000000,-0.061224308,-0.000804362,-0.027064440,-0.027073354,3.647630968,3.339151031,0.281914832,0.000644402,-0.011379313,-0.127520791
1751352270.287316084,-1.727559378,-2.198100000,-0.812477599,1.595041174,-0.032979340,-1.602679992,-0.006562539,0.070000000,-0.063965695,-0.000840378,-0.028276280,-0.028285594,3.648839876,3.340185159,0.281918424,0.000642656,-0.011379313,-0.127605673
1751352270.289287329,-1.727572597,-2.197959000,-0.812606444,1.595039481,-0.033036296,-1.602736967,-0.006656290,0.071000000,-0.064879490,-0.000852384,-0.028680227,-0.028689674,3.649254548,3.340539843,0.281919655,0.000642057,-0.011379313,-0.127634796
1751352270.291227818,-1.727586003,-2.197816000,-0.812737117,1.595037764,-0.033094061,-1.602794750,-0.006750040,0.072000000,-0.065793286,-0.000864389,-0.029084174,-0.029093754,3.649675068,3.340899509,0.281920903,0.000641450,-0.011379313,-0.127664333
1751352270.294982433,-1.727599597,-2.197671000,-0.812869617,1.595036023,-0.033152633,-1.602853342,-0.006843791,0.073000000,-0.066707082,-0.000876394,-0.029488121,-0.029497833,3.650101436,3.341264158,0.281922168,0.000640834,-0.011379313,-0.127694284
1751352270.295363903,-1.727613378,-2.197524000,-0.813003945,1.595034258,-0.033212013,-1.602912742,-0.006937541,0.074000000,-0.067620877,-0.000888400,-0.029892068,-0.029901913,3.650533650,3.341633786,0.281923450,0.000640210,-0.011379313,-0.127724649
1751352270.297229767,-1.727627347,-2.197375000,-0.813140100,1.595032470,-0.033272201,-1.602972949,-0.007031292,0.075000000,-0.068534673,-0.000900405,-0.030296014,-0.030305993,3.650971709,3.342008391,0.281924748,0.000639578,-0.011379313,-0.127755429
1751352270.299281836,-1.727641503,-2.197224000,-0.813278084,1.595030657,-0.033333197,-1.603033966,-0.007125042,0.076000000,-0.069448468,-0.000912411,-0.030699961,-0.030710073,3.651415611,3.342387972,0.281926063,0.000638937,-0.011379313,-0.127786624
1751352270.301186085,-1.727655847,-2.197071000,-0.813417894,1.595028820,-0.033395001,-1.603095790,-0.007218793,0.077000000,-0.070362264,-0.000924416,-0.031103908,-0.031114153,3.651865354,3.342772526,0.281927395,0.000638288,-0.011379313,-0.127818233
1751352270.303206205,-1.727670378,-2.196916000,-0.813559533,1.595026959,-0.033457613,-1.603158422,-0.007312544,0.078000000,-0.071276060,-0.000936421,-0.031507855,-0.031518233,3.652320938,3.343162051,0.281928743,0.000637630,-0.011379313,-0.127850256
1751352270.305210829,-1.727685097,-2.196759000,-0.813702999,1.595025074,-0.033521032,-1.603221863,-0.007406294,0.079000000,-0.072189855,-0.000948427,-0.031911802,-0.031922313,3.652782360,3.343556545,0.281930108,0.000636965,-0.011379313,-0.127882694
1751352270.307383060,-1.727700004,-2.196600000,-0.813848292,1.595023165,-0.033585260,-1.603286111,-0.007500045,0.080000000,-0.073103651,-0.000960432,-0.032315749,-0.032326393,3.653249619,3.343956006,0.281931490,0.000636290,-0.011379313,-0.127915547
1751352270.309283733,-1.727715097,-2.196439000,-0.813995413,1.595021233,-0.033650295,-1.603351168,-0.007593795,0.081000000,-0.074017447,-0.000972438,-0.032719696,-0.032730473,3.653722714,3.344360431,0.281932888,0.000635608,-0.011379313,-0.127948815
1751352270.311186075,-1.727730379,-2.196276000,-0.814144362,1.595019276,-0.033716139,-1.603417033,-0.007687546,0.082000000,-0.074931242,-0.000984443,-0.033123642,-0.033134553,3.654201643,3.344769819,0.281934303,0.000634917,-0.011379313,-0.127982497
1751352270.313170910,-1.727745848,-2.196111000,-0.814295138,1.595017295,-0.033782790,-1.603483707,-0.007781296,0.083000000,-0.075845038,-0.000996448,-0.033527589,-0.033538633,3.654686404,3.345184166,0.281935734,0.000634218,-0.011379313,-0.128016595
1751352270.315176964,-1.727761504,-2.195944000,-0.814447742,1.595015290,-0.033850249,-1.603551188,-0.007875047,0.084000000,-0.076758834,-0.001008454,-0.033931536,-0.033942712,3.655176996,3.345603471,0.281937182,0.000633510,-0.011379313,-0.128051107
1751352270.317117453,-1.727777348,-2.195775000,-0.814602173,1.595013261,-0.033918516,-1.603619477,-0.007968797,0.085000000,-0.077672629,-0.001020459,-0.034335483,-0.034346792,3.655673417,3.346027732,0.281938646,0.000632794,-0.011379313,-0.128086034
1751352270.319362640,-1.727793379,-2.195604000,-0.814758433,1.595011208,-0.033987591,-1.603688575,-0.008062548,0.086000000,-0.078586425,-0.001032465,-0.034739430,-0.034750872,3.656175666,3.346456945,0.281940126,0.000632070,-0.011379313,-0.128121376
1751352270.321265697,-1.727809598,-2.195431000,-0.814916519,1.595009131,-0.034057474,-1.603758481,-0.008156299,0.087000000,-0.079500220,-0.001044470,-0.035143377,-0.035154952,3.656683740,3.346891108,0.281941623,0.000631337,-0.011379313,-0.128157133
1751352270.323219299,-1.727826004,-2.195256000,-0.815076433,1.595007030,-0.034128164,-1.603829195,-0.008250049,0.088000000,-0.080414016,-0.001056475,-0.035547324,-0.035559032,3.657197638,3.347330220,0.281943137,0.000630596,-0.011379313,-0.128193305
1751352270.333140373,-1.727859380,-2.194900000,-0.815401745,1.595002756,-0.034271970,-1.603973047,-0.008437550,0.090000000,-0.082241607,-0.001080486,-0.036355217,-0.036367192,3.658242900,3.348223278,0.281946212,0.000629089,-0.011379313,-0.128266895
1751352270.333498478,-1.727893505,-2.194536000,-0.815734366,1.594998386,-0.034419006,-1.604120132,-0.008625051,0.092000000,-0.084069199,-0.001104497,-0.037163111,-0.037175352,3.659311437,3.349136097,0.281949352,0.000627549,-0.011379313,-0.128342146
1751352270.335102320,-1.727910849,-2.194351000,-0.815903418,1.594996165,-0.034493736,-1.604194887,-0.008718802,0.093000000,-0.084982994,-0.001116502,-0.037567058,-0.037579432,3.659854429,3.349599912,0.281950947,0.000626767,-0.011379313,-0.128380394
1751352270.337155342,-1.727928380,-2.194164000,-0.816074298,1.594993920,-0.034569274,-1.604270450,-0.008812553,0.094000000,-0.085896790,-0.001128508,-0.037971005,-0.037983512,3.660403235,3.350068659,0.281952557,0.000625976,-0.011379313,-0.128419058
1751352270.339145660,-1.727946099,-2.193975000,-0.816247006,1.594991651,-0.034645620,-1.604346821,-0.008906303,0.095000000,-0.086810586,-0.001140513,-0.038374952,-0.038387591,3.660957852,3.350542336,0.281954184,0.000625177,-0.011379313,-0.128458138
1751352270.341114521,-1.727964005,-2.193784000,-0.816421541,1.594989358,-0.034722774,-1.604424000,-0.009000054,0.096000000,-0.087724381,-0.001152519,-0.038778898,-0.038791671,3.661518279,3.351020941,0.281955827,0.000624370,-0.011379313,-0.128497633
1751352270.344167948,-1.727982099,-2.193591000,-0.816597903,1.594987041,-0.034800736,-1.604501988,-0.009093804,0.097000000,-0.088638177,-0.001164524,-0.039182845,-0.039195751,3.662084513,3.351504470,0.281957485,0.000623554,-0.011379313,-0.128537543
1751352270.345282555,-1.728000380,-2.193396000,-0.816776093,1.594984700,-0.034879506,-1.604580783,-0.009187555,0.098000000,-0.089551972,-0.001176529,-0.039586792,-0.039599831,3.662656554,3.351992922,0.281959160,0.000622730,-0.011379313,-0.128577869
1751352270.347395658,-1.728018849,-2.193199000,-0.816956111,1.594982335,-0.034959083,-1.604660387,-0.009281305,0.099000000,-0.090465768,-0.001188535,-0.039990739,-0.040003911,3.663234399,3.352486293,0.281960851,0.000621898,-0.011379313,-0.128618611
1751352270.349179745,-1.728037506,-2.193000000,-0.817137956,1.594979946,-0.035039469,-1.604740799,-0.009375056,0.100000000,-0.091379564,-0.001200540,-0.040394686,-0.040407991,3.663818045,3.352984580,0.281962557,0.000621058,-0.011379313,-0.128659769
1751352270.351151705,-1.728056349,-2.192799000,-0.817321629,1.594977533,-0.035120662,-1.604822019,-0.009468806,0.101000000,-0.092293359,-0.001212546,-0.040798633,-0.040812071,3.664407492,3.353487782,0.281964280,0.000620209,-0.011379313,-0.128701342
1751352270.353090763,-1.728075381,-2.192596000,-0.817507130,1.594975096,-0.035202663,-1.604904047,-0.009562557,0.102000000,-0.093207155,-0.001224551,-0.041202580,-0.041216151,3.665002736,3.353995894,0.281966018,0.000619353,-0.011379313,-0.128743331
1751352270.355119467,-1.728094600,-2.192391000,-0.817694458,1.594972635,-0.035285472,-1.604986884,-0.009656308,0.103000000,-0.094120951,-0.001236556,-0.041606526,-0.041620231,3.665603777,3.354508914,0.281967772,0.000618487,-0.011379313,-0.128785737
1751352270.357116222,-1.728114006,-2.192184000,-0.817883614,1.594970150,-0.035369089,-1.605070528,-0.009750058,0.104000000,-0.095034746,-0.001248562,-0.042010473,-0.042024311,3.666210612,3.355026839,0.281969542,0.000617614,-0.011379313,-0.128828558
1751352270.359053850,-1.728133600,-2.191975000,-0.818074597,1.594967640,-0.035453514,-1.605154981,-0.009843809,0.105000000,-0.095948542,-0.001260567,-0.042414420,-0.042428391,3.666823238,3.355549667,0.281971328,0.000616733,-0.011379313,-0.128871795
1751352270.361107349,-1.728153381,-2.191764000,-0.818267408,1.594965107,-0.035538747,-1.605240242,-0.009937559,0.106000000,-0.096862338,-0.001272573,-0.042818367,-0.042832470,3.667441655,3.356077393,0.281973129,0.000615843,-0.011379313,-0.128915449
1751352270.363113642,-1.728173350,-2.191551000,-0.818462046,1.594962550,-0.035624788,-1.605326311,-0.010031310,0.107000000,-0.097776133,-0.001284578,-0.043222314,-0.043236550,3.668065859,3.356610016,0.281974946,0.000614945,-0.011379313,-0.128959518
1751352270.365026236,-1.728193507,-2.191336000,-0.818658512,1.594959969,-0.035711636,-1.605413188,-0.010125060,0.108000000,-0.098689929,-0.001296583,-0.043626261,-0.043640630,3.668695849,3.357147533,0.281976779,0.000614039,-0.011379313,-0.129004004
1751352270.367010832,-1.728213850,-2.191119000,-0.818856806,1.594957364,-0.035799293,-1.605500873,-0.010218811,0.109000000,-0.099603724,-0.001308589,-0.044030208,-0.044044710,3.669331623,3.357689939,0.281978627,0.000613124,-0.011379313,-0.129048906
1751352270.369019032,-1.728234382,-2.190900000,-0.819056927,1.594954735,-0.035887757,-1.605589367,-0.010312561,0.110000000,-0.100517520,-0.001320594,-0.044434154,-0.044448790,3.669973178,3.358237233,0.281980490,0.000612202,-0.011379313,-0.129094224
1751352270.371054173,-1.728255101,-2.190679000,-0.819258876,1.594952081,-0.035977029,-1.605678669,-0.010406312,0.111000000,-0.101431316,-0.001332600,-0.044838101,-0.044852870,3.670620512,3.358789410,0.281982369,0.000611271,-0.011379313,-0.129139959
1751352270.373196125,-1.728276007,-2.190456000,-0.819462652,1.594949404,-0.036067109,-1.605768778,-0.010500063,0.112000000,-0.102345111,-0.001344605,-0.045242048,-0.045256950,3.671273623,3.359346469,0.281984264,0.000610332,-0.011379313,-0.129186110
1751352270.382916451,-1.728276007,-2.190456000,-0.819462652,1.594949404,-0.036067109,-1.605768778,-0.010500063,0.112000000,-0.102345111,-0.001344605,-0.045242048,-0.045256950,3.671273623,3.359346469,0.281984264,0.000610332,-0.011379313,-0.129186110
1751352270.383028269,-1.728339851,-2.189775000,-0.820084947,1.594941229,-0.036342197,-1.606043957,-0.010781314,0.115000000,-0.105086498,-0.001380621,-0.046453889,-0.046469190,3.673267597,3.361046897,0.281990040,0.000607466,-0.011379313,-0.129327063
1751352270.383283854,-1.728361508,-2.189544000,-0.820296034,1.594938455,-0.036435509,-1.606137299,-0.010875065,0.116000000,-0.106000294,-0.001392627,-0.046857836,-0.046873270,3.673943794,3.361623447,0.281991995,0.000606495,-0.011379313,-0.129374880
1751352270.385104179,-1.728383351,-2.189311000,-0.820508948,1.594935658,-0.036529629,-1.606231450,-0.010968815,0.117000000,-0.106914090,-0.001404632,-0.047261782,-0.047277349,3.674625756,3.362204862,0.281993967,0.000605515,-0.011379313,-0.129423115
1751352270.387101889,-1.728405383,-2.189076000,-0.820723690,1.594932837,-0.036624556,-1.606326409,-0.011062566,0.118000000,-0.107827885,-0.001416637,-0.047665729,-0.047681429,3.675313482,3.362791139,0.281995953,0.000604527,-0.011379313,-0.129471766
1751352270.389079571,-1.728427602,-2.188839000,-0.820940260,1.594929992,-0.036720291,-1.606422176,-0.011156316,0.119000000,-0.108741681,-0.001428643,-0.048069676,-0.048085509,3.676006969,3.363382273,0.281997954,0.000603531,-0.011379313,-0.129520834
1751352270.391547680,-1.728450008,-2.188600000,-0.821158657,1.594927122,-0.036816835,-1.606518751,-0.011250067,0.120000000,-0.109655476,-0.001440648,-0.048473623,-0.048489589,3.676706215,3.363978262,0.281999970,0.000602527,-0.011379313,-0.129570318
1751352270.393139362,-1.728472602,-2.188359000,-0.821378882,1.594924229,-0.036914186,-1.606616134,-0.011343818,0.121000000,-0.110569272,-0.001452654,-0.048877570,-0.048893669,3.677411217,3.364579103,0.282002002,0.000601514,-0.011379313,-0.129620220
1751352270.395117760,-1.728495383,-2.188116000,-0.821600934,1.594921312,-0.037012345,-1.606714325,-0.011437568,0.122000000,-0.111483068,-0.001464659,-0.049281517,-0.049297749,3.678121973,3.365184791,0.282004048,0.000600494,-0.011379313,-0.129670539
1751352270.397127867,-1.728518352,-2.187871000,-0.821824814,1.594918370,-0.037111312,-1.606813325,-0.011531319,0.123000000,-0.112396863,-0.001476664,-0.049685464,-0.049701829,3.678838481,3.365795324,0.282006110,0.000599466,-0.011379313,-0.129721275
1751352270.399144888,-1.728518352,-2.187871000,-0.821824814,1.594918370,-0.037111312,-1.606813325,-0.011531319,0.123000000,-0.112396863,-0.001476664,-0.049685464,-0.049701829,3.678838481,3.365795324,0.282006110,0.000599466,-0.011379313,-0.129721275
1751352270.401125669,-1.728541509,-2.187624000,-0.822050522,1.594915405,-0.037211087,-1.606913133,-0.011625069,0.124000000,-0.113310659,-0.001488670,-0.050089411,-0.050105909,3.679560737,3.366410698,0.282008186,0.000598429,-0.011379313,-0.129772428
1751352270.403149605,-1.728564852,-2.187375000,-0.822278057,1.594912416,-0.037311670,-1.607013749,-0.011718820,0.125000000,-0.114224455,-0.001500675,-0.050493357,-0.050509989,3.680288740,3.367030910,0.282010277,0.000597384,-0.011379313,-0.129823998
1751352270.405124664,-1.728588384,-2.187124000,-0.822507420,1.594909402,-0.037413060,-1.607115173,-0.011812570,0.126000000,-0.115138250,-0.001512681,-0.050897304,-0.050914069,3.681022487,3.367655955,0.282012383,0.000596332,-0.011379313,-0.129875985
1751352270.407099724,-1.728612103,-2.186871000,-0.822738610,1.594906365,-0.037515259,-1.607217405,-0.011906321,0.127000000,-0.116052046,-0.001524686,-0.051301251,-0.051318149,3.681761976,3.368285831,0.282014504,0.000595271,-0.011379313,-0.129928390
1751352270.409354925,-1.728636009,-2.186616000,-0.822971628,1.594903304,-0.037618265,-1.607320445,-0.012000071,0.128000000,-0.116965842,-0.001536691,-0.051705198,-0.051722229,3.682507203,3.368920534,0.282016639,0.000594202,-0.011379313,-0.129981212
1751352270.411215305,-1.728660103,-2.186359000,-0.823206473,1.594900218,-0.037722080,-1.607424294,-0.012093822,0.129000000,-0.117879637,-0.001548697,-0.052109145,-0.052126308,3.683258167,3.369560060,0.282018789,0.000593125,-0.011379313,-0.130034451
1751352270.413193226,-1.728684384,-2.186100000,-0.823443146,1.594897109,-0.037826702,-1.607528950,-0.012187573,0.130000000,-0.118793433,-0.001560702,-0.052513092,-0.052530388,3.684014865,3.370204405,0.282020954,0.000592040,-0.011379313,-0.130088108
1751352270.415238142,-1.728708853,-2.185839000,-0.823681647,1.594893975,-0.037932132,-1.607634415,-0.012281323,0.131000000,-0.119707228,-0.001572708,-0.052917039,-0.052934468,3.684777295,3.370853566,0.282023133,0.000590947,-0.011379313,-0.130142183
1751352270.417240143,-1.728733510,-2.185576000,-0.823921975,1.594890818,-0.038038370,-1.607740688,-0.012375074,0.132000000,-0.120621024,-0.001584713,-0.053320985,-0.053338548,3.685545452,3.371507539,0.282025327,0.000589846,-0.011379313,-0.130196675
1751352270.427962303,-1.728808604,-2.184775000,-0.824653925,1.594881202,-0.038361932,-1.608064356,-0.012656325,0.135000000,-0.123362411,-0.001620729,-0.054532826,-0.054550788,3.687884271,3.373498293,0.282031994,0.000586494,-0.011379313,-0.130362656
1751352270.428056002,-1.728859604,-2.184231000,-0.825151030,1.594874671,-0.038581679,-1.608284176,-0.012843827,0.137000000,-0.125190002,-0.001644740,-0.055340720,-0.055358948,3.689472078,3.374849453,0.282036511,0.000584220,-0.011379313,-0.130475400
1751352270.429391146,-1.728885386,-2.183956000,-0.825402324,1.594871369,-0.038692764,-1.608395298,-0.012937577,0.138000000,-0.126103798,-0.001656745,-0.055744667,-0.055763028,3.690274551,3.375532219,0.282038790,0.000583071,-0.011379313,-0.130532399
1751352270.431205988,-1.728911355,-2.183679000,-0.825655446,1.594868044,-0.038804657,-1.608507228,-0.013031328,0.139000000,-0.127017594,-0.001668751,-0.056148613,-0.056167108,3.691082734,3.376219769,0.282041084,0.000581914,-0.011379313,-0.130589815
1751352270.435070038,-1.728937511,-2.183400000,-0.825910394,1.594864694,-0.038917358,-1.608619966,-0.013125078,0.140000000,-0.127931389,-0.001680756,-0.056552560,-0.056571187,3.691896624,3.376912101,0.282043392,0.000580749,-0.011379313,-0.130647650
1751352270.435207129,-1.728937511,-2.183400000,-0.825910394,1.594864694,-0.038917358,-1.608619966,-0.013125078,0.140000000,-0.127931389,-0.001680756,-0.056552560,-0.056571187,3.691896624,3.376912101,0.282043392,0.000580749,-0.011379313,-0.130647650
1751352270.437301874,-1.728963855,-2.183119000,-0.826167171,1.594861321,-0.039030868,-1.608733513,-0.013218829,0.141000000,-0.128845185,-0.001692762,-0.056956507,-0.056975267,3.692716219,3.377609211,0.282045714,0.000579576,-0.011379313,-0.130705902
1751352270.439099073,-1.728990386,-2.182836000,-0.826425775,1.594857923,-0.039145184,-1.608847867,-0.013312579,0.142000000,-0.129758980,-0.001704767,-0.057360454,-0.057379347,3.693541514,3.378311093,0.282048050,0.000578395,-0.011379313,-0.130764573
1751352270.441221237,-1.729017105,-2.182551000,-0.826686207,1.594854502,-0.039260309,-1.608963030,-0.013406330,0.143000000,-0.130672776,-0.001716772,-0.057764401,-0.057783427,3.694372508,3.379017745,0.282050400,0.000577206,-0.011379313,-0.130823662
1751352270.443236113,-1.729044012,-2.182264000,-0.826948466,1.594851056,-0.039376242,-1.609079001,-0.013500080,0.144000000,-0.131586572,-0.001728778,-0.058168348,-0.058187507,3.695209197,3.379729161,0.282052763,0.000576009,-0.011379313,-0.130883169
1751352270.445245743,-1.729071105,-2.181975000,-0.827212553,1.594847586,-0.039492983,-1.609195780,-0.013593831,0.145000000,-0.132500367,-0.001740783,-0.058572295,-0.058591587,3.696051579,3.380445339,0.282055141,0.000574804,-0.011379313,-0.130943094
1751352270.447197199,-1.729098387,-2.181684000,-0.827478468,1.594844093,-0.039610531,-1.609313367,-0.013687582,0.146000000,-0.133414163,-0.001752789,-0.058976241,-0.058995667,3.696899650,3.381166273,0.282057532,0.000573591,-0.011379313,-0.131003437
1751352270.449208498,-1.729125856,-2.181391000,-0.827746210,1.594840575,-0.039728888,-1.609431763,-0.013781332,0.147000000,-0.134327959,-0.001764794,-0.059380188,-0.059399747,3.697753409,3.381891960,0.282059937,0.000572371,-0.011379313,-0.131064199
1751352270.451192617,-1.729153512,-2.181096000,-0.828015780,1.594837034,-0.039848052,-1.609550966,-0.013875083,0.148000000,-0.135241754,-0.001776799,-0.059784135,-0.059803827,3.698612851,3.382622395,0.282062356,0.000571142,-0.011379313,-0.131125380
1751352270.453191280,-1.729181356,-2.180799000,-0.828287177,1.594833468,-0.039968024,-1.609670978,-0.013968833,0.149000000,-0.136155550,-0.001788805,-0.060188082,-0.060207907,3.699477974,3.383357575,0.282064788,0.000569906,-0.011379313,-0.131186978
1751352270.455238581,-1.729209388,-2.180500000,-0.828560402,1.594829878,-0.040088804,-1.609791798,-0.014062584,0.150000000,-0.137069346,-0.001800810,-0.060592029,-0.060611987,3.700348774,3.384097495,0.282067233,0.000568661,-0.011379313,-0.131248996
1751352270.457204342,-1.729237606,-2.180199000,-0.828835454,1.594826265,-0.040210392,-1.609913426,-0.014156334,0.151000000,-0.137983141,-0.001812816,-0.060995976,-0.061016066,3.701225249,3.384842150,0.282069693,0.000567409,-0.011379313,-0.131311431
1751352270.459239721,-1.729266013,-2.179896000,-0.829112334,1.594822627,-0.040332788,-1.610035862,-0.014250085,0.152000000,-0.138896937,-0.001824821,-0.061399923,-0.061420146,3.702107396,3.385591536,0.282072165,0.000566149,-0.011379313,-0.131374286
1751352270.461193800,-1.729294607,-2.179591000,-0.829391042,1.594818966,-0.040455992,-1.610159107,-0.014343835,0.153000000,-0.139810732,-0.001836826,-0.061803869,-0.061824226,3.702995212,3.386345650,0.282074651,0.000564881,-0.011379313,-0.131437559
1751352270.463197231,-1.729323388,-2.179284000,-0.829671577,1.594815280,-0.040580004,-1.610283159,-0.014437586,0.154000000,-0.140724528,-0.001848832,-0.062207816,-0.062228306,3.703888693,3.387104486,0.282077151,0.000563605,-0.011379313,-0.131501250
1751352270.466401100,-1.729323388,-2.179284000,-0.829671577,1.594815280,-0.040580004,-1.610283159,-0.014437586,0.154000000,-0.140724528,-0.001848832,-0.062207816,-0.062228306,3.703888693,3.387104486,0.282077151,0.000563605,-0.011379313,-0.131501250
1751352270.470036983,-1.729323388,-2.179284000,-0.829671577,1.594815280,-0.040580004,-1.610283159,-0.014437586,0.154000000,-0.140724528,-0.001848832,-0.062207816,-0.062228306,3.703888693,3.387104486,0.282077151,0.000563605,-0.011379313,-0.131501250
1751352270.470090151,-1.729410858,-2.178351000,-0.830524149,1.594804079,-0.040956886,-1.610660166,-0.014718838,0.157000000,-0.143465915,-0.001884848,-0.063419657,-0.063440546,3.706603097,3.389409285,0.282084728,0.000559731,-0.011379313,-0.131694838
1751352270.471862316,-1.729410858,-2.178351000,-0.830524149,1.594804079,-0.040956886,-1.610660166,-0.014718838,0.157000000,-0.143465915,-0.001884848,-0.063419657,-0.063440546,3.706603097,3.389409285,0.282084728,0.000559731,-0.011379313,-0.131694838
1751352270.473444939,-1.729470108,-2.177719000,-0.831101668,1.594796491,-0.041212181,-1.610915544,-0.014906339,0.159000000,-0.145293506,-0.001908859,-0.064227551,-0.064248706,3.708440970,3.390969349,0.282089844,0.000557109,-0.011379313,-0.131825990
1751352270.475119829,-1.729500014,-2.177400000,-0.831393168,1.594792662,-0.041341040,-1.611044446,-0.015000089,0.160000000,-0.146207302,-0.001920864,-0.064631497,-0.064652786,3.709368378,3.391756427,0.282092422,0.000555786,-0.011379313,-0.131892195
1751352270.477037668,-1.729530108,-2.177079000,-0.831686497,1.594788808,-0.041470707,-1.611174155,-0.015093840,0.161000000,-0.147121098,-0.001932870,-0.065035444,-0.065056866,3.710301428,3.392548195,0.282095013,0.000554456,-0.011379313,-0.131958818
1751352270.479071856,-1.729560390,-2.176756000,-0.831981653,1.594784930,-0.041601181,-1.611304673,-0.015187590,0.162000000,-0.148034893,-0.001944875,-0.065439391,-0.065460945,3.711240119,3.393344651,0.282097616,0.000553118,-0.011379313,-0.132025861
1751352270.482012749,-1.729560390,-2.176756000,-0.831981653,1.594784930,-0.041601181,-1.611304673,-0.015187590,0.162000000,-0.148034893,-0.001944875,-0.065439391,-0.065460945,3.711240119,3.393344651,0.282097616,0.000553118,-0.011379313,-0.132025861
1751352270.483165741,-1.729590859,-2.176431000,-0.832278636,1.594781028,-0.041732464,-1.611435999,-0.015281341,0.163000000,-0.148948689,-0.001956880,-0.065843338,-0.065865025,3.712184446,3.394145787,0.282100232,0.000551772,-0.011379313,-0.132093322
1751352270.485142231,-1.729621515,-2.176104000,-0.832577447,1.594777103,-0.041864555,-1.611568133,-0.015375092,0.164000000,-0.149862484,-0.001968886,-0.066247285,-0.066269105,3.713134406,3.394951601,0.282102861,0.000550418,-0.011379313,-0.132161203
1751352270.487128496,-1.729652359,-2.175775000,-0.832878086,1.594773153,-0.041997453,-1.611701076,-0.015468842,0.165000000,-0.150776280,-0.001980891,-0.066651232,-0.066673185,3.714089996,3.395762088,0.282105503,0.000549057,-0.011379313,-0.132229503
1751352270.489195585,-1.729683390,-2.175444000,-0.833180553,1.594769179,-0.042131160,-1.611834826,-0.015562593,0.166000000,-0.151690076,-0.001992897,-0.067055179,-0.067077265,3.715051213,3.396577242,0.282108157,0.000547687,-0.011379313,-0.132298222
1751352270.491140366,-1.729714609,-2.175111000,-0.833484847,1.594765181,-0.042265674,-1.611969385,-0.015656343,0.167000000,-0.152603871,-0.002004902,-0.067459125,-0.067481345,3.716018053,3.397397058,0.282110824,0.000546310,-0.011379313,-0.132367360
1751352270.493135452,-1.729746016,-2.174776000,-0.833790968,1.594761160,-0.042400996,-1.612104751,-0.015750094,0.168000000,-0.153517667,-0.002016907,-0.067863072,-0.067885425,3.716990512,3.398221533,0.282113503,0.000544926,-0.011379313,-0.132436917
1751352270.495131493,-1.729777610,-2.174439000,-0.834098917,1.594757114,-0.042537126,-1.612240926,-0.015843844,0.169000000,-0.154431463,-0.002028913,-0.068267019,-0.068289505,3.717968588,3.399050661,0.282116194,0.000543534,-0.011379313,-0.132506894
1751352270.497111082,-1.729809391,-2.174100000,-0.834408694,1.594753044,-0.042674064,-1.612377909,-0.015937595,0.170000000,-0.155345258,-0.002040918,-0.068670966,-0.068693585,3.718952277,3.399884437,0.282118898,0.000542133,-0.011379313,-0.132577289
1751352270.499597311,-1.729841360,-2.173759000,-0.834720298,1.594748950,-0.042811810,-1.612515701,-0.016031346,0.171000000,-0.156259054,-0.002052924,-0.069074913,-0.069097665,3.719941574,3.400722856,0.282121614,0.000540726,-0.011379313,-0.132648104
1751352270.501194954,-1.729873517,-2.173416000,-0.835033730,1.594744832,-0.042950364,-1.612654300,-0.016125096,0.172000000,-0.157172850,-0.002064929,-0.069478860,-0.069501745,3.720936478,3.401565914,0.282124342,0.000539310,-0.011379313,-0.132719339
1751352270.503158331,-1.729905860,-2.173071000,-0.835348990,1.594740690,-0.043089726,-1.612793708,-0.016218847,0.173000000,-0.158086645,-0.002076934,-0.069882807,-0.069905824,3.721936984,3.402413605,0.282127082,0.000537887,-0.011379313,-0.132790993
1751352270.505265474,-1.729938392,-2.172724000,-0.835666077,1.594736524,-0.043229895,-1.612933923,-0.016312597,0.174000000,-0.159000441,-0.002088940,-0.070286753,-0.070309904,3.722943089,3.403265925,0.282129834,0.000536457,-0.011379313,-0.132863066
1751352270.507232189,-1.729971111,-2.172375000,-0.835984991,1.594732335,-0.043370873,-1.613074947,-0.016406348,0.175000000,-0.159914236,-0.002100945,-0.070690700,-0.070713984,3.723954788,3.404122868,0.282132598,0.000535018,-0.011379313,-0.132935558
1751352270.514817238,-1.730004017,-2.172024000,-0.836305734,1.594728121,-0.043512658,-1.613216779,-0.016500098,0.176000000,-0.160828032,-0.002112951,-0.071094647,-0.071118064,3.724972080,3.404984429,0.282135374,0.000533573,-0.011379313,-0.133008470
1751352270.517084360,-1.730037111,-2.171671000,-0.836628304,1.594723883,-0.043655251,-1.613359420,-0.016593849,0.177000000,-0.161741828,-0.002124956,-0.071498594,-0.071522144,3.725994959,3.405850604,0.282138162,0.000532119,-0.011379313,-0.133081802
1751352270.517954588,-1.730137518,-2.170600000,-0.837606979,1.594711025,-0.044087878,-1.613792189,-0.016875101,0.180000000,-0.164483215,-0.002160972,-0.072710435,-0.072734384,3.729097087,3.408476756,0.282146596,0.000527713,-0.011379313,-0.133304313
1751352270.519270182,-1.730137518,-2.170600000,-0.837606979,1.594711025,-0.044087878,-1.613792189,-0.016875101,0.180000000,-0.164483215,-0.002160972,-0.072710435,-0.072734384,3.729097087,3.408476756,0.282146596,0.000527713,-0.011379313,-0.133304313
1751352270.521226168,-1.730171362,-2.170239000,-0.837936859,1.594706691,-0.044233703,-1.613938062,-0.016968851,0.181000000,-0.165397010,-0.002172978,-0.073114381,-0.073138464,3.730142281,3.409361332,0.282149431,0.000526229,-0.011379313,-0.133379323
1751352270.523218393,-1.730205394,-2.169876000,-0.838268567,1.594702333,-0.044380336,-1.614084743,-0.017062602,0.182000000,-0.166310806,-0.002184983,-0.073518328,-0.073542544,3.731193045,3.410250495,0.282152277,0.000524737,-0.011379313,-0.133454752
1751352270.527262926,-1.730239612,-2.169511000,-0.838602102,1.594697951,-0.044527776,-1.614232232,-0.017156352,0.183000000,-0.167224602,-0.002196988,-0.073922275,-0.073946624,3.732249374,3.411144241,0.282155134,0.000523238,-0.011379313,-0.133530600
1751352270.527312040,-1.730274019,-2.169144000,-0.838937465,1.594693545,-0.044676025,-1.614380529,-0.017250103,0.184000000,-0.168138397,-0.002208994,-0.074326222,-0.074350703,3.733311265,3.412042563,0.282158003,0.000521732,-0.011379313,-0.133606869
1751352270.529363394,-1.730308613,-2.168775000,-0.839274656,1.594689115,-0.044825081,-1.614529635,-0.017343853,0.185000000,-0.169052193,-0.002220999,-0.074730169,-0.074754783,3.734378714,3.412945456,0.282160883,0.000520218,-0.011379313,-0.133683557
1751352270.531271935,-1.730343394,-2.168404000,-0.839613674,1.594684661,-0.044974946,-1.614679549,-0.017437604,0.186000000,-0.169965989,-0.002233005,-0.075134116,-0.075158863,3.735451718,3.413852916,0.282163774,0.000518696,-0.011379313,-0.133760664
1751352270.533171892,-1.730378363,-2.168031000,-0.839954520,1.594680183,-0.045125618,-1.614830270,-0.017531354,0.187000000,-0.170879784,-0.002245010,-0.075538063,-0.075562943,3.736530272,3.414764936,0.282166677,0.000517167,-0.011379313,-0.133838191
1751352270.535289288,-1.730378363,-2.168031000,-0.839954520,1.594680183,-0.045125618,-1.614830270,-0.017531354,0.187000000,-0.170879784,-0.002245010,-0.075538063,-0.075562943,3.736530272,3.414764936,0.282166677,0.000517167,-0.011379313,-0.133838191
1751352270.537189484,-1.730413520,-2.167656000,-0.840297193,1.594675681,-0.045277098,-1.614981800,-0.017625105,0.188000000,-0.171793580,-0.002257015,-0.075942009,-0.075967023,3.737614372,3.415681511,0.282169590,0.000515630,-0.011379313,-0.133916138
1751352270.539149284,-1.730448864,-2.167279000,-0.840641694,1.594671155,-0.045429386,-1.615134138,-0.017718856,0.189000000,-0.172707375,-0.002269021,-0.076345956,-0.076371103,3.738704015,3.416602636,0.282172514,0.000514086,-0.011379313,-0.133994504
1751352270.541109324,-1.730484395,-2.166900000,-0.840988022,1.594666605,-0.045582482,-1.615287285,-0.017812606,0.190000000,-0.173621171,-0.002281026,-0.076749903,-0.076775183,3.739799196,3.417528305,0.282175450,0.000512535,-0.011379313,-0.134073290
1751352270.543098927,-1.730520114,-2.166519000,-0.841336179,1.594662031,-0.045736385,-1.615441239,-0.017906357,0.191000000,-0.174534967,-0.002293032,-0.077153850,-0.077179263,3.740899913,3.418458513,0.282178396,0.000510976,-0.011379313,-0.134152496
1751352270.545165062,-1.730556021,-2.166136000,-0.841686162,1.594657433,-0.045891097,-1.615596002,-0.018000107,0.192000000,-0.175448762,-0.002305037,-0.077557797,-0.077583343,3.742006160,3.419393254,0.282181353,0.000509409,-0.011379313,-0.134232121
1751352270.547282696,-1.730592115,-2.165751000,-0.842037974,1.594652811,-0.046046617,-1.615751573,-0.018093858,0.193000000,-0.176362558,-0.002317042,-0.077961744,-0.077987423,3.743117933,3.420332522,0.282184320,0.000507836,-0.011379313,-0.134312166
1751352270.549243450,-1.730628396,-2.165364000,-0.842391613,1.594648165,-0.046202944,-1.615907952,-0.018187608,0.194000000,-0.177276354,-0.002329048,-0.078365691,-0.078391503,3.744235230,3.421276312,0.282187298,0.000506254,-0.011379313,-0.134392631
1751352270.551218271,-1.730664865,-2.164975000,-0.842747079,1.594643495,-0.046360079,-1.616065139,-0.018281359,0.195000000,-0.178190149,-0.002341053,-0.078769637,-0.078795582,3.745358045,3.422224618,0.282190287,0.000504666,-0.011379313,-0.134473515
1751352270.553213120,-1.730701521,-2.164584000,-0.843104373,1.594638800,-0.046518023,-1.616223134,-0.018375109,0.196000000,-0.179103945,-0.002353059,-0.079173584,-0.079199662,3.746486375,3.423177435,0.282193286,0.000503070,-0.011379313,-0.134554819
1751352270.562115669,-1.730738365,-2.164191000,-0.843463495,1.594634082,-0.046676774,-1.616381937,-0.018468860,0.197000000,-0.180017741,-0.002365064,-0.079577531,-0.079603742,3.747620215,3.424134757,0.282196295,0.000501466,-0.011379313,-0.134636543
1751352270.562175512,-1.730738365,-2.164191000,-0.843463495,1.594634082,-0.046676774,-1.616381937,-0.018468860,0.197000000,-0.180017741,-0.002365064,-0.079577531,-0.079603742,3.747620215,3.424134757,0.282196295,0.000501466,-0.011379313,-0.134636543
1751352270.562193632,-1.730738365,-2.164191000,-0.843463495,1.594634082,-0.046676774,-1.616381937,-0.018468860,0.197000000,-0.180017741,-0.002365064,-0.079577531,-0.079603742,3.747620215,3.424134757,0.282196295,0.000501466,-0.011379313,-0.134636543
1751352270.562210798,-1.730738365,-2.164191000,-0.843463495,1.594634082,-0.046676774,-1.616381937,-0.018468860,0.197000000,-0.180017741,-0.002365064,-0.079577531,-0.079603742,3.747620215,3.424134757,0.282196295,0.000501466,-0.011379313,-0.134636543
1751352270.563706160,-1.730850022,-2.163000000,-0.844551825,1.594619784,-0.047157874,-1.616863196,-0.018750112,0.200000000,-0.182759127,-0.002401080,-0.080789372,-0.080815982,3.751054757,3.427033692,0.282205385,0.000496612,-0.011379313,-0.134884231
1751352270.565675974,-1.730887616,-2.162599000,-0.844918258,1.594614970,-0.047319857,-1.617025232,-0.018843862,0.201000000,-0.183672923,-0.002413086,-0.081193319,-0.081220062,3.752210597,3.428008975,0.282208436,0.000494979,-0.011379313,-0.134967634
1751352270.567156553,-1.730925398,-2.162196000,-0.845286517,1.594610132,-0.047482648,-1.617188077,-0.018937613,0.202000000,-0.184586719,-0.002425091,-0.081597265,-0.081624142,3.753371928,3.428988733,0.282211496,0.000493338,-0.011379313,-0.135051455
1751352270.569190979,-1.730963367,-2.161791000,-0.845656604,1.594605269,-0.047646246,-1.617351729,-0.019031363,0.203000000,-0.185500514,-0.002437097,-0.082001212,-0.082028222,3.754538744,3.429972961,0.282214566,0.000491691,-0.011379313,-0.135135697
1751352270.571289062,-1.731001523,-2.161384000,-0.846028519,1.594600383,-0.047810652,-1.617516190,-0.019125114,0.204000000,-0.186414310,-0.002449102,-0.082405159,-0.082432302,3.755711040,3.430961653,0.282217646,0.000490036,-0.011379313,-0.135220358
1751352270.574758768,-1.731001523,-2.161384000,-0.846028519,1.594600383,-0.047810652,-1.617516190,-0.019125114,0.204000000,-0.186414310,-0.002449102,-0.082405159,-0.082432302,3.755711040,3.430961653,0.282217646,0.000490036,-0.011379313,-0.135220358
1751352270.575086832,-1.731078399,-2.160564000,-0.846777832,1.594590539,-0.048141889,-1.617847535,-0.019312615,0.206000000,-0.188241901,-0.002473113,-0.083213053,-0.083240462,3.758072060,3.432952404,0.282223835,0.000486705,-0.011379313,-0.135390938
1751352270.577210426,-1.731117118,-2.160151000,-0.847155229,1.594585581,-0.048308719,-1.618014420,-0.019406366,0.207000000,-0.189155697,-0.002485118,-0.083617000,-0.083644541,3.759260775,3.433954451,0.282226944,0.000485028,-0.011379313,-0.135476858
1751352270.579192638,-1.731156024,-2.159736000,-0.847534454,1.594580598,-0.048476357,-1.618182113,-0.019500116,0.208000000,-0.190069493,-0.002497124,-0.084020947,-0.084048621,3.760454953,3.434960937,0.282230062,0.000483344,-0.011379313,-0.135563197
1751352270.581365824,-1.731195118,-2.159319000,-0.847915507,1.594575592,-0.048644803,-1.618350615,-0.019593867,0.209000000,-0.190983288,-0.002509129,-0.084424894,-0.084452701,3.761654591,3.435971857,0.282233190,0.000481653,-0.011379313,-0.135649955
1751352270.583337307,-1.731195118,-2.159319000,-0.847915507,1.594575592,-0.048644803,-1.618350615,-0.019593867,0.209000000,-0.190983288,-0.002509129,-0.084424894,-0.084452701,3.761654591,3.435971857,0.282233190,0.000481653,-0.011379313,-0.135649955
1751352270.585191727,-1.731234400,-2.158900000,-0.848298388,1.594570562,-0.048814056,-1.618519924,-0.019687617,0.210000000,-0.191897084,-0.002521134,-0.084828840,-0.084856781,3.762859683,3.436987205,0.282236327,0.000479955,-0.011379313,-0.135737133
1751352270.587199450,-1.731273869,-2.158479000,-0.848683096,1.594565508,-0.048984118,-1.618690042,-0.019781368,0.211000000,-0.192810879,-0.002533140,-0.085232787,-0.085260861,3.764070227,3.438006974,0.282239474,0.000478249,-0.011379313,-0.135824731
1751352270.589192152,-1.731313525,-2.158056000,-0.849069631,1.594560429,-0.049154988,-1.618860967,-0.019875118,0.212000000,-0.193724675,-0.002545145,-0.085636734,-0.085664941,3.765286216,3.439031158,0.282242629,0.000476537,-0.011379313,-0.135912747
1751352270.591138124,-1.731353369,-2.157631000,-0.849457994,1.594555327,-0.049326665,-1.619032701,-0.019968869,0.213000000,-0.194638471,-0.002557151,-0.086040681,-0.086069021,3.766507647,3.440059750,0.282245794,0.000474817,-0.011379313,-0.136001184
1751352270.593147039,-1.731393401,-2.157204000,-0.849848185,1.594550201,-0.049499150,-1.619205244,-0.020062620,0.214000000,-0.195552266,-0.002569156,-0.086444628,-0.086473101,3.767734515,3.441092745,0.282248968,0.000473090,-0.011379313,-0.136090039
1751352270.595183134,-1.731433620,-2.156775000,-0.850240203,1.594545050,-0.049672444,-1.619378594,-0.020156370,0.215000000,-0.196466062,-0.002581161,-0.086848575,-0.086877181,3.768966816,3.442130136,0.282252150,0.000471356,-0.011379313,-0.136179314
1751352270.597164869,-1.731474026,-2.156344000,-0.850634049,1.594539876,-0.049846545,-1.619552752,-0.020250121,0.216000000,-0.197379858,-0.002593167,-0.087252522,-0.087281261,3.770204545,3.443171917,0.282255342,0.000469614,-0.011379313,-0.136269008
1751352270.599209547,-1.731514620,-2.155911000,-0.851029723,1.594534678,-0.050021454,-1.619727719,-0.020343871,0.217000000,-0.198293653,-0.002605172,-0.087656468,-0.087685341,3.771447697,3.444218081,0.282258542,0.000467866,-0.011379313,-0.136359121
1751352270.601181746,-1.731555402,-2.155476000,-0.851427224,1.594529455,-0.050197171,-1.619903494,-0.020437622,0.218000000,-0.199207449,-0.002617178,-0.088060415,-0.088089420,3.772696268,3.445268623,0.282261751,0.000466110,-0.011379313,-0.136449653
1751352270.609548330,-1.731637527,-2.154600000,-0.852227709,1.594518939,-0.050551028,-1.620257468,-0.020625123,0.220000000,-0.201035040,-0.002641188,-0.088868309,-0.088897580,3.775209648,3.447382811,0.282268195,0.000462578,-0.011379313,-0.136631975
1751352270.609700441,-1.731678871,-2.154159000,-0.852630693,1.594513644,-0.050729169,-1.620435667,-0.020718873,0.221000000,-0.201948836,-0.002653194,-0.089272256,-0.089301660,3.776474448,3.448446445,0.282271429,0.000460801,-0.011379313,-0.136723765
1751352270.612650633,-1.731720403,-2.153716000,-0.853035504,1.594508326,-0.050908117,-1.620614674,-0.020812624,0.222000000,-0.202862631,-0.002665199,-0.089676203,-0.089705740,3.777744648,3.449514429,0.282274672,0.000459017,-0.011379313,-0.136815973
1751352270.613319874,-1.731762122,-2.153271000,-0.853442143,1.594502983,-0.051087873,-1.620794490,-0.020906375,0.223000000,-0.203776427,-0.002677205,-0.090080150,-0.090109820,3.779020243,3.450586759,0.282277923,0.000457226,-0.011379313,-0.136908600
1751352270.615283012,-1.731804028,-2.152824000,-0.853850610,1.594497617,-0.051268438,-1.620975114,-0.021000125,0.224000000,-0.204690223,-0.002689210,-0.090484096,-0.090513900,3.780301228,3.451663426,0.282281182,0.000455428,-0.011379313,-0.137001647
1751352270.617161512,-1.731846122,-2.152375000,-0.854260904,1.594492227,-0.051449810,-1.621156545,-0.021093876,0.225000000,-0.205604018,-0.002701215,-0.090888043,-0.090917980,3.781587600,3.452744424,0.282284449,0.000453623,-0.011379313,-0.137095112
1751352270.619348526,-1.731888404,-2.151924000,-0.854673026,1.594486812,-0.051631990,-1.621338785,-0.021187626,0.226000000,-0.206517814,-0.002713221,-0.091291990,-0.091322060,3.782879352,3.453829747,0.282287724,0.000451812,-0.011379313,-0.137188995
1751352270.621240139,-1.731930873,-2.151471000,-0.855086975,1.594481374,-0.051814978,-1.621521834,-0.021281377,0.227000000,-0.207431610,-0.002725226,-0.091695937,-0.091726140,3.784176481,3.454919388,0.282291007,0.000449993,-0.011379313,-0.137283298
1751352270.623782635,-1.731973529,-2.151016000,-0.855502752,1.594475911,-0.051998774,-1.621705690,-0.021375127,0.228000000,-0.208345405,-0.002737232,-0.092099884,-0.092130220,3.785478981,3.456013340,0.282294298,0.000448167,-0.011379313,-0.137378019
1751352270.625446081,-1.732016373,-2.150559000,-0.855920357,1.594470425,-0.052183377,-1.621890355,-0.021468878,0.229000000,-0.209259201,-0.002749237,-0.092503831,-0.092534299,3.786786848,3.457111596,0.282297596,0.000446334,-0.011379313,-0.137473158
1751352270.627226830,-1.732059405,-2.150100000,-0.856339789,1.594464914,-0.052368789,-1.622075827,-0.021562628,0.230000000,-0.210172997,-0.002761242,-0.092907778,-0.092938379,3.788100076,3.458214150,0.282300902,0.000444494,-0.011379313,-0.137568716
1751352270.629307508,-1.732102624,-2.149639000,-0.856761049,1.594459380,-0.052555008,-1.622262108,-0.021656379,0.231000000,-0.211086792,-0.002773248,-0.093311724,-0.093342459,3.789418660,3.459320995,0.282304216,0.000442647,-0.011379313,-0.137664693
1751352270.631318331,-1.732146030,-2.149176000,-0.857184136,1.594453821,-0.052742036,-1.622449197,-0.021750130,0.232000000,-0.212000588,-0.002785253,-0.093715671,-0.093746539,3.790742596,3.460432123,0.282307537,0.000440794,-0.011379313,-0.137761087
1751352270.633179903,-1.732189624,-2.148711000,-0.857609051,1.594448239,-0.052929871,-1.622637094,-0.021843880,0.233000000,-0.212914383,-0.002797259,-0.094119618,-0.094150619,3.792071879,3.461547529,0.282310865,0.000438933,-0.011379313,-0.137857900
1751352270.635254383,-1.732233406,-2.148244000,-0.858035794,1.594442632,-0.053118514,-1.622825800,-0.021937631,0.234000000,-0.213828179,-0.002809264,-0.094523565,-0.094554699,3.793406503,3.462667204,0.282314201,0.000437066,-0.011379313,-0.137955131
1751352270.637168169,-1.732277375,-2.147775000,-0.858464364,1.594437002,-0.053307965,-1.623015313,-0.022031381,0.235000000,-0.214741975,-0.002821269,-0.094927512,-0.094958779,3.794746464,3.463791143,0.282317544,0.000435192,-0.011379313,-0.138052780
1751352270.639127970,-1.732321531,-2.147304000,-0.858894762,1.594431347,-0.053498224,-1.623205635,-0.022125132,0.236000000,-0.215655770,-0.002833275,-0.095331459,-0.095362859,3.796091756,3.464919337,0.282320893,0.000433311,-0.011379313,-0.138150847
1751352270.641121626,-1.732365875,-2.146831000,-0.859326987,1.594425669,-0.053689291,-1.623396764,-0.022218882,0.237000000,-0.216569566,-0.002845280,-0.095735406,-0.095766939,3.797442374,3.466051780,0.282324250,0.000431423,-0.011379313,-0.138249332
1751352270.643095732,-1.732410407,-2.146356000,-0.859761040,1.594419966,-0.053881166,-1.623588702,-0.022312633,0.238000000,-0.217483362,-0.002857286,-0.096139352,-0.096171019,3.798798314,3.467188466,0.282327614,0.000429528,-0.011379313,-0.138348235
1751352270.645169735,-1.732455126,-2.145879000,-0.860196921,1.594414239,-0.054073849,-1.623781449,-0.022406383,0.239000000,-0.218397157,-0.002869291,-0.096543299,-0.096575099,3.800159570,3.468329386,0.282330984,0.000427627,-0.011379313,-0.138447556
1751352270.647472143,-1.732500032,-2.145400000,-0.860634629,1.594408489,-0.054267339,-1.623975003,-0.022500134,0.240000000,-0.219310953,-0.002881296,-0.096947246,-0.096979178,3.801526137,3.469474533,0.282334361,0.000425718,-0.011379313,-0.138547294
1751352270.649223089,-1.732545126,-2.144919000,-0.861074164,1.594402714,-0.054461638,-1.624169365,-0.022593885,0.241000000,-0.220224749,-0.002893302,-0.097351193,-0.097383258,3.802898009,3.470623901,0.282337745,0.000423803,-0.011379313,-0.138647449
1751352270.651282072,-1.732590408,-2.144436000,-0.861515528,1.594396916,-0.054656744,-1.624364536,-0.022687635,0.242000000,-0.221138544,-0.002905307,-0.097755140,-0.097787338,3.804275182,3.471777483,0.282341135,0.000421881,-0.011379313,-0.138748022
1751352270.659523010,-1.732590408,-2.144436000,-0.861515528,1.594396916,-0.054656744,-1.624364536,-0.022687635,0.242000000,-0.221138544,-0.002905307,-0.097755140,-0.097787338,3.804275182,3.471777483,0.282341135,0.000421881,-0.011379313,-0.138748022
1751352270.659593821,-1.732681533,-2.143464000,-0.862403737,1.594385246,-0.055049380,-1.624757302,-0.022875136,0.244000000,-0.222966135,-0.002929318,-0.098563034,-0.098595498,3.807045408,3.474097256,0.282347934,0.000418018,-0.011379313,-0.138950420
1751352270.659611940,-1.732727377,-2.142975000,-0.862850583,1.594379376,-0.055246910,-1.624954897,-0.022968887,0.245000000,-0.223879931,-0.002941323,-0.098966980,-0.098999578,3.808438451,3.475263434,0.282351343,0.000416076,-0.011379313,-0.139052245
1751352270.661487579,-1.732773409,-2.142484000,-0.863299257,1.594373481,-0.055445248,-1.625153300,-0.023062637,0.246000000,-0.224793727,-0.002953329,-0.099370927,-0.099403658,3.809836773,3.476433796,0.282354758,0.000414127,-0.011379313,-0.139154486
1751352270.663263321,-1.732819628,-2.141991000,-0.863749758,1.594367562,-0.055644394,-1.625352511,-0.023156388,0.247000000,-0.225707522,-0.002965334,-0.099774874,-0.099807738,3.811240368,3.477608334,0.282358180,0.000412172,-0.011379313,-0.139257145
1751352270.665122509,-1.732866034,-2.141496000,-0.864202087,1.594361620,-0.055844348,-1.625552531,-0.023250139,0.248000000,-0.226621318,-0.002977340,-0.100178821,-0.100211818,3.812649233,3.478787042,0.282361607,0.000410210,-0.011379313,-0.139360220
1751352270.668613672,-1.732912628,-2.140999000,-0.864656243,1.594355653,-0.056045109,-1.625753359,-0.023343889,0.249000000,-0.227535114,-0.002989345,-0.100582768,-0.100615898,3.814063360,3.479969911,0.282365039,0.000408241,-0.011379313,-0.139463711
1751352270.669140816,-1.732959410,-2.140500000,-0.865112227,1.594349662,-0.056246679,-1.625954994,-0.023437640,0.250000000,-0.228448909,-0.003001350,-0.100986715,-0.101019978,3.815482745,3.481156935,0.282368478,0.000406266,-0.011379313,-0.139567620
1751352270.671067238,-1.733006379,-2.139999000,-0.865570039,1.594343648,-0.056449056,-1.626157438,-0.023531390,0.251000000,-0.229362705,-0.003013356,-0.101390662,-0.101424057,3.816907382,3.482348105,0.282371922,0.000404284,-0.011379313,-0.139671944
1751352270.673136950,-1.733053535,-2.139496000,-0.866029678,1.594337609,-0.056652241,-1.626360691,-0.023625141,0.252000000,-0.230276501,-0.003025361,-0.101794608,-0.101828137,3.818337266,3.483543415,0.282375372,0.000402295,-0.011379313,-0.139776685
1751352270.675117731,-1.733100880,-2.138991000,-0.866491145,1.594331546,-0.056856234,-1.626564751,-0.023718891,0.253000000,-0.231190296,-0.003037367,-0.102198555,-0.102232217,3.819772392,3.484742857,0.282378827,0.000400300,-0.011379313,-0.139881842
1751352270.677131414,-1.733148411,-2.138484000,-0.866954439,1.594325460,-0.057061036,-1.626769619,-0.023812642,0.254000000,-0.232104092,-0.003049372,-0.102602502,-0.102636297,3.821212752,3.485946423,0.282382287,0.000398299,-0.011379313,-0.139987414
1751352270.679130077,-1.733196130,-2.137975000,-0.867419561,1.594319349,-0.057266644,-1.626975296,-0.023906392,0.255000000,-0.233017887,-0.003061377,-0.103006449,-0.103040377,3.822658343,3.487154105,0.282385753,0.000396290,-0.011379313,-0.140093403
1751352270.681045294,-1.733244037,-2.137464000,-0.867886511,1.594313214,-0.057473061,-1.627181781,-0.024000143,0.256000000,-0.233931683,-0.003073383,-0.103410396,-0.103444457,3.824109158,3.488365895,0.282389223,0.000394276,-0.011379313,-0.140199807
1751352270.683110952,-1.733292131,-2.136951000,-0.868355288,1.594307055,-0.057680286,-1.627389074,-0.024093894,0.257000000,-0.234845479,-0.003085388,-0.103814343,-0.103848537,3.825565192,3.489581787,0.282392699,0.000392254,-0.011379313,-0.140306627
1751352270.685092211,-1.733340412,-2.136436000,-0.868825893,1.594300872,-0.057888319,-1.627597175,-0.024187644,0.258000000,-0.235759274,-0.003097394,-0.104218290,-0.104252617,3.827026440,3.490801772,0.282396179,0.000390227,-0.011379313,-0.140413862
1751352270.687102795,-1.733388881,-2.135919000,-0.869298325,1.594294666,-0.058097159,-1.627806084,-0.024281395,0.259000000,-0.236673070,-0.003109399,-0.104622236,-0.104656697,3.828492894,3.492025842,0.282399665,0.000388193,-0.011379313,-0.140521512
1751352270.689122200,-1.733437538,-2.135400000,-0.869772585,1.594288435,-0.058306808,-1.628015802,-0.024375145,0.260000000,-0.237586866,-0.003121404,-0.105026183,-0.105060777,3.829964551,3.493253990,0.282403155,0.000386152,-0.011379313,-0.140629577
1751352270.691046000,-1.733486382,-2.134879000,-0.870248673,1.594282180,-0.058517264,-1.628226328,-0.024468896,0.261000000,-0.238500661,-0.003133410,-0.105430130,-0.105464857,3.831441403,3.494486208,0.282406649,0.000384105,-0.011379313,-0.140738057
1751352270.693115234,-1.733535413,-2.134356000,-0.870726588,1.594275901,-0.058728528,-1.628437661,-0.024562646,0.262000000,-0.239414457,-0.003145415,-0.105834077,-0.105868936,3.832923446,3.495722488,0.282410148,0.000382051,-0.011379313,-0.140846952
1751352270.701136112,-1.733535413,-2.134356000,-0.870726588,1.594275901,-0.058728528,-1.628437661,-0.024562646,0.262000000,-0.239414457,-0.003145415,-0.105834077,-0.105868936,3.832923446,3.495722488,0.282410148,0.000382051,-0.011379313,-0.140846952
1751352270.701189041,-1.733634039,-2.133304000,-0.871687901,1.594263272,-0.059153480,-1.628862753,-0.024750147,0.264000000,-0.241242048,-0.003169426,-0.106641971,-0.106677096,3.835903078,3.498207201,0.282417159,0.000377925,-0.011379313,-0.141065985
1751352270.703366518,-1.733683633,-2.132775000,-0.872171299,1.594256921,-0.059367168,-1.629076512,-0.024843898,0.265000000,-0.242155844,-0.003181431,-0.107045918,-0.107081176,3.837400657,3.499455618,0.282420671,0.000375853,-0.011379313,-0.141176123
1751352270.705530405,-1.733733415,-2.132244000,-0.872656524,1.594250546,-0.059581664,-1.629291078,-0.024937649,0.266000000,-0.243069639,-0.003193437,-0.107449864,-0.107485256,3.838903402,3.500708065,0.282424187,0.000373774,-0.011379313,-0.141286675
1751352270.707074642,-1.733783384,-2.131711000,-0.873143577,1.594244147,-0.059796968,-1.629506453,-0.025031399,0.267000000,-0.243983435,-0.003205442,-0.107853811,-0.107889336,3.840411308,3.501964534,0.282427707,0.000371688,-0.011379313,-0.141397641
1751352270.709182978,-1.733833540,-2.131176000,-0.873632458,1.594237724,-0.060013079,-1.629722635,-0.025125150,0.268000000,-0.244897231,-0.003217448,-0.108257758,-0.108293416,3.841924370,3.503225017,0.282431231,0.000369597,-0.011379313,-0.141509021
1751352270.711815357,-1.733883884,-2.130639000,-0.874123166,1.594231277,-0.060229999,-1.629939626,-0.025218900,0.269000000,-0.245811026,-0.003229453,-0.108661705,-0.108697496,3.843442580,3.504489505,0.282434758,0.000367499,-0.011379313,-0.141620813
1751352270.713153124,-1.733934416,-2.130100000,-0.874615702,1.594224806,-0.060447726,-1.630157425,-0.025312651,0.270000000,-0.246724822,-0.003241458,-0.109065652,-0.109101576,3.844965934,3.505757991,0.282438289,0.000365394,-0.011379313,-0.141733020
1751352270.715052843,-1.733985135,-2.129559000,-0.875110065,1.594218311,-0.060666261,-1.630376033,-0.025406401,0.271000000,-0.247638618,-0.003253464,-0.109469599,-0.109505656,3.846494424,3.507030466,0.282441824,0.000363284,-0.011379313,-0.141845639
1751352270.717132568,-1.734036041,-2.129016000,-0.875606256,1.594211792,-0.060885604,-1.630595448,-0.025500152,0.272000000,-0.248552413,-0.003265469,-0.109873546,-0.109909736,3.848028046,3.508306922,0.282445362,0.000361167,-0.011379313,-0.141958671
1751352270.719047785,-1.734087135,-2.128471000,-0.876104275,1.594205249,-0.061105755,-1.630815672,-0.025593902,0.273000000,-0.249466209,-0.003277475,-0.110277492,-0.110313815,3.849566792,3.509587350,0.282448903,0.000359044,-0.011379313,-0.142072116
1751352270.721134901,-1.734138417,-2.127924000,-0.876604121,1.594198682,-0.061326714,-1.631036703,-0.025687653,0.274000000,-0.250380005,-0.003289480,-0.110681439,-0.110717895,3.851110658,3.510871743,0.282452447,0.000356915,-0.011379313,-0.142185973
1751352270.723297358,-1.734189886,-2.127375000,-0.877105795,1.594192092,-0.061548481,-1.631258543,-0.025781404,0.275000000,-0.251293800,-0.003301485,-0.111085386,-0.111121975,3.852659636,3.512160091,0.282455995,0.000354779,-0.011379313,-0.142300242
1751352270.725181103,-1.734241543,-2.126824000,-0.877609296,1.594185477,-0.061771056,-1.631481191,-0.025875154,0.276000000,-0.252207596,-0.003313491,-0.111489333,-0.111526055,3.854213720,3.513452388,0.282459545,0.000352638,-0.011379313,-0.142414924
1751352270.727166414,-1.734293387,-2.126271000,-0.878114625,1.594178838,-0.061994439,-1.631704647,-0.025968905,0.277000000,-0.253121391,-0.003325496,-0.111893280,-0.111930135,3.855772905,3.514748623,0.282463099,0.000350490,-0.011379313,-0.142530017
1751352270.729080439,-1.734345418,-2.125716000,-0.878621782,1.594172175,-0.062218629,-1.631928912,-0.026062655,0.278000000,-0.254035187,-0.003337502,-0.112297227,-0.112334215,3.857337184,3.516048789,0.282466655,0.000348336,-0.011379313,-0.142645522
1751352270.731167793,-1.734397637,-2.125159000,-0.879130766,1.594165488,-0.062443627,-1.632153984,-0.026156406,0.279000000,-0.254948983,-0.003349507,-0.112701174,-0.112738295,3.858906551,3.517352877,0.282470213,0.000346176,-0.011379313,-0.142761438
1751352270.733031511,-1.734450044,-2.124600000,-0.879641578,1.594158777,-0.062669434,-1.632379865,-0.026250156,0.280000000,-0.255862778,-0.003361512,-0.113105120,-0.113142375,3.860481000,3.518660879,0.282473775,0.000344010,-0.011379313,-0.142877765
1751352270.735016346,-1.734502638,-2.124039000,-0.880154217,1.594152041,-0.062896048,-1.632606554,-0.026343907,0.281000000,-0.256776574,-0.003373518,-0.113509067,-0.113546455,3.862060523,3.519972785,0.282477338,0.000341838,-0.011379313,-0.142994503
1751352270.737055779,-1.734555419,-2.123476000,-0.880668684,1.594145282,-0.063123470,-1.632834051,-0.026437658,0.282000000,-0.257690370,-0.003385523,-0.113913014,-0.113950535,3.863645116,3.521288589,0.282480904,0.000339660,-0.011379313,-0.143111652
1751352270.739094496,-1.734608388,-2.122911000,-0.881184979,1.594138499,-0.063351700,-1.633062356,-0.026531408,0.283000000,-0.258604165,-0.003397529,-0.114316961,-0.114354615,3.865234772,3.522608280,0.282484472,0.000337476,-0.011379313,-0.143229211
1751352270.741122484,-1.734661545,-2.122344000,-0.881703101,1.594131692,-0.063580738,-1.633291469,-0.026625159,0.284000000,-0.259517961,-0.003409534,-0.114720908,-0.114758695,3.866829483,3.523931850,0.282488042,0.000335285,-0.011379313,-0.143347180
1751352270.749154568,-1.734661545,-2.122344000,-0.881703101,1.594131692,-0.063580738,-1.633291469,-0.026625159,0.284000000,-0.259517961,-0.003409534,-0.114720908,-0.114758695,3.866829483,3.523931850,0.282488042,0.000335285,-0.011379313,-0.143347180
1751352270.749490738,-1.734714889,-2.121775000,-0.882223051,1.594124861,-0.063810584,-1.633521391,-0.026718909,0.285000000,-0.260431757,-0.003421539,-0.115124855,-0.115162774,3.868429245,3.525259290,0.282491615,0.000333089,-0.011379313,-0.143465559
1751352270.751707554,-1.734822140,-2.120631000,-0.883268433,1.594111127,-0.064272699,-1.633983658,-0.026906410,0.287000000,-0.262259348,-0.003445550,-0.115932749,-0.115970934,3.871643891,3.527925747,0.282498764,0.000328679,-0.011379313,-0.143703546
1751352270.753858805,-1.734876046,-2.120056000,-0.883793865,1.594104224,-0.064504968,-1.634216004,-0.027000161,0.288000000,-0.263173143,-0.003457556,-0.116336695,-0.116375014,3.873258763,3.529264746,0.282502341,0.000326465,-0.011379313,-0.143823154
1751352270.755148888,-1.734930140,-2.119479000,-0.884321125,1.594097297,-0.064738046,-1.634449158,-0.027093911,0.289000000,-0.264086939,-0.003469561,-0.116740642,-0.116779094,3.874878659,3.530607580,0.282505920,0.000324244,-0.011379313,-0.143943170
1751352270.757230759,-1.734984422,-2.118900000,-0.884850213,1.594090346,-0.064971931,-1.634683120,-0.027187662,0.290000000,-0.265000735,-0.003481566,-0.117144589,-0.117183174,3.876503573,3.531954241,0.282509500,0.000322018,-0.011379313,-0.144063594
1751352270.759167910,-1.735038891,-2.118319000,-0.885381128,1.594083371,-0.065206624,-1.634917891,-0.027281413,0.291000000,-0.265914530,-0.003493572,-0.117548536,-0.117587254,3.878133496,3.533304719,0.282513082,0.000319787,-0.011379313,-0.144184427
1751352270.763372898,-1.735093548,-2.117736000,-0.885913871,1.594076371,-0.065442125,-1.635153469,-0.027375163,0.292000000,-0.266828326,-0.003505577,-0.117952483,-0.117991334,3.879768424,3.534659005,0.282516664,0.000317549,-0.011379313,-0.144305668
1751352270.763762951,-1.735093548,-2.117736000,-0.885913871,1.594076371,-0.065442125,-1.635153469,-0.027375163,0.292000000,-0.266828326,-0.003505577,-0.117952483,-0.117991334,3.879768424,3.534659005,0.282516664,0.000317549,-0.011379313,-0.144305668
1751352270.765484810,-1.735203423,-2.116564000,-0.886984840,1.594062301,-0.065915551,-1.635627051,-0.027562664,0.294000000,-0.268655917,-0.003529588,-0.118760377,-0.118799494,3.883053266,3.537378966,0.282523832,0.000313056,-0.011379313,-0.144549373
1751352270.767280102,-1.735258642,-2.115975000,-0.887523065,1.594055230,-0.066153475,-1.635865054,-0.027656415,0.295000000,-0.269569713,-0.003541593,-0.119164323,-0.119203574,3.884703166,3.538744623,0.282527417,0.000310801,-0.011379313,-0.144671836
1751352270.769196510,-1.735314049,-2.115384000,-0.888063119,1.594048135,-0.066392208,-1.636103865,-0.027750165,0.296000000,-0.270483509,-0.003553599,-0.119568270,-0.119607653,3.886358043,3.540114052,0.282531003,0.000308540,-0.011379313,-0.144794706
1751352270.771166801,-1.735369643,-2.114791000,-0.888604999,1.594041016,-0.066631748,-1.636343485,-0.027843916,0.297000000,-0.271397304,-0.003565604,-0.119972217,-0.120011733,3.888017891,3.541487244,0.282534589,0.000306273,-0.011379313,-0.144917982
1751352270.773160458,-1.735425425,-2.114196000,-0.889148708,1.594033872,-0.066872097,-1.636583912,-0.027937666,0.298000000,-0.272311100,-0.003577610,-0.120376164,-0.120415813,3.889682703,3.542864190,0.282538176,0.000304000,-0.011379313,-0.145041665
1751352270.775187492,-1.735481394,-2.113599000,-0.889694244,1.594026705,-0.067113253,-1.636825148,-0.028031417,0.299000000,-0.273224895,-0.003589615,-0.120780111,-0.120819893,3.891352471,3.544244880,0.282541763,0.000301722,-0.011379313,-0.145165754
1751352270.777204514,-1.735537550,-2.113000000,-0.890241607,1.594019514,-0.067355217,-1.637067192,-0.028125168,0.300000000,-0.274138691,-0.003601620,-0.121184058,-0.121223973,3.893027189,3.545629306,0.282545350,0.000299438,-0.011379313,-0.145290248
1751352270.779228687,-1.735593894,-2.112399000,-0.890790799,1.594012299,-0.067597989,-1.637310044,-0.028218918,0.301000000,-0.275052487,-0.003613626,-0.121588005,-0.121628053,3.894706851,3.547017458,0.282548938,0.000297149,-0.011379313,-0.145415147
1751352270.781278610,-1.735650426,-2.111796000,-0.891341817,1.594005059,-0.067841569,-1.637553704,-0.028312669,0.302000000,-0.275966282,-0.003625631,-0.121991951,-0.122032133,3.896391449,3.548409326,0.282552525,0.000294853,-0.011379313,-0.145540451
1751352270.783222437,-1.735707145,-2.111191000,-0.891894664,1.593997796,-0.068085957,-1.637798172,-0.028406419,0.303000000,-0.276880078,-0.003637637,-0.122395898,-0.122436213,3.898080976,3.549804902,0.282556112,0.000292552,-0.011379313,-0.145666160
1751352270.785149813,-1.735764052,-2.110584000,-0.892449338,1.593990509,-0.068331153,-1.638043449,-0.028500170,0.304000000,-0.277793874,-0.003649642,-0.122799845,-0.122840293,3.899775425,3.551204175,0.282559698,0.000290246,-0.011379313,-0.145792273
1751352270.787191868,-1.735821146,-2.109975000,-0.893005839,1.593983198,-0.068577157,-1.638289534,-0.028593920,0.305000000,-0.278707669,-0.003661647,-0.123203792,-0.123244373,3.901474789,3.552607137,0.282563285,0.000287934,-0.011379313,-0.145918790
1751352270.789211273,-1.735878427,-2.109364000,-0.893564168,1.593975862,-0.068823968,-1.638536426,-0.028687671,0.306000000,-0.279621465,-0.003673653,-0.123607739,-0.123648453,3.903179062,3.554013777,0.282566870,0.000285616,-0.011379313,-0.146045711
1751352270.791182280,-1.735935896,-2.108751000,-0.894124325,1.593968503,-0.069071588,-1.638784127,-0.028781421,0.307000000,-0.280535261,-0.003685658,-0.124011686,-0.124052532,3.904888236,3.555424088,0.282570455,0.000283293,-0.011379313,-0.146173035
1751352270.796350479,-1.735993553,-2.108136000,-0.894686309,1.593961120,-0.069320015,-1.639032637,-0.028875172,0.308000000,-0.281449056,-0.003697664,-0.124415633,-0.124456612,3.906602304,3.556838058,0.282574039,0.000280964,-0.011379313,-0.146300761
1751352270.798092604,-1.735993553,-2.108136000,-0.894686309,1.593961120,-0.069320015,-1.639032637,-0.028875172,0.308000000,-0.281449056,-0.003697664,-0.124415633,-0.124456612,3.906602304,3.556838058,0.282574039,0.000280964,-0.011379313,-0.146300761
1751352270.799130440,-1.736109429,-2.106900000,-0.895815761,1.593946281,-0.069819293,-1.639532079,-0.029062673,0.310000000,-0.283276648,-0.003721674,-0.125223526,-0.125264772,3.910045093,3.559676938,0.282581205,0.000276290,-0.011379313,-0.146557421
1751352270.802690744,-1.736167648,-2.106279000,-0.896383228,1.593938826,-0.070070144,-1.639783013,-0.029156424,0.311000000,-0.284190443,-0.003733680,-0.125627473,-0.125668852,3.911773800,3.561101830,0.282584786,0.000273944,-0.011379313,-0.146686354
1751352270.803344727,-1.736226054,-2.105656000,-0.896952522,1.593931346,-0.070321803,-1.640034755,-0.029250174,0.312000000,-0.285104239,-0.003745685,-0.126031420,-0.126072932,3.913507372,3.562530343,0.282588365,0.000271594,-0.011379313,-0.146815688
1751352270.805587530,-1.736284648,-2.105031000,-0.897523645,1.593923843,-0.070574270,-1.640287305,-0.029343925,0.313000000,-0.286018034,-0.003757691,-0.126435367,-0.126477012,3.915245803,3.563962467,0.282591943,0.000269237,-0.011379313,-0.146945423
1751352270.807116985,-1.736343430,-2.104404000,-0.898096595,1.593916315,-0.070827544,-1.640540663,-0.029437675,0.314000000,-0.286931830,-0.003769696,-0.126839314,-0.126881092,3.916989084,3.565398193,0.282595520,0.000266876,-0.011379313,-0.147075559
1751352270.810999870,-1.736402399,-2.103775000,-0.898671372,1.593908764,-0.071081627,-1.640794829,-0.029531426,0.315000000,-0.287845626,-0.003781701,-0.127243261,-0.127285172,3.918737209,3.566837511,0.282599095,0.000264509,-0.011379313,-0.147206095
1751352270.811326265,-1.736402399,-2.103775000,-0.898671372,1.593908764,-0.071081627,-1.640794829,-0.029531426,0.315000000,-0.287845626,-0.003781701,-0.127243261,-0.127285172,3.918737209,3.566837511,0.282599095,0.000264509,-0.011379313,-0.147206095
1751352270.813273907,-1.736520900,-2.102511000,-0.899826410,1.593893589,-0.071592216,-1.641305586,-0.029718927,0.317000000,-0.289673217,-0.003805712,-0.128051154,-0.128093332,3.922247959,3.569726883,0.282606239,0.000259759,-0.011379313,-0.147468366
1751352270.815072060,-1.736580431,-2.101876000,-0.900406670,1.593885966,-0.071848722,-1.641562177,-0.029812678,0.318000000,-0.290587013,-0.003817718,-0.128455101,-0.128497411,3.924010570,3.571176917,0.282609808,0.000257376,-0.011379313,-0.147600100
1751352270.817206383,-1.736640151,-2.101239000,-0.900988758,1.593878318,-0.072106036,-1.641819576,-0.029906428,0.319000000,-0.291500808,-0.003829723,-0.128859048,-0.128901491,3.925777995,3.572630504,0.282613374,0.000254988,-0.011379313,-0.147732232
1751352270.819088459,-1.736700057,-2.100600000,-0.901572673,1.593870647,-0.072364158,-1.642077783,-0.030000179,0.320000000,-0.292414604,-0.003841728,-0.129262995,-0.129305571,3.927550226,3.574087632,0.282616939,0.000252594,-0.011379313,-0.147864763
1751352270.821178198,-1.736760151,-2.099959000,-0.902158416,1.593862951,-0.072623088,-1.642336798,-0.030093929,0.321000000,-0.293328400,-0.003853734,-0.129666942,-0.129709651,3.929327256,3.575548293,0.282620501,0.000250195,-0.011379313,-0.147997691
1751352270.823086500,-1.736820433,-2.099316000,-0.902745987,1.593855232,-0.072882826,-1.642596621,-0.030187680,0.322000000,-0.294242195,-0.003865739,-0.130070889,-0.130113731,3.931109077,3.577012475,0.282624060,0.000247791,-0.011379313,-0.148131017
1751352270.825196266,-1.736880902,-2.098671000,-0.903335385,1.593847488,-0.073143372,-1.642857253,-0.030281430,0.323000000,-0.295155991,-0.003877745,-0.130474835,-0.130517811,3.932895683,3.578480170,0.282627616,0.000245382,-0.011379313,-0.148264739
1751352270.827313662,-1.736880902,-2.098671000,-0.903335385,1.593847488,-0.073143372,-1.642857253,-0.030281430,0.323000000,-0.295155991,-0.003877745,-0.130474835,-0.130517811,3.932895683,3.578480170,0.282627616,0.000245382,-0.011379313,-0.148264739
1751352270.829188108,-1.736941559,-2.098024000,-0.903926611,1.593839721,-0.073404725,-1.643118693,-0.030375181,0.324000000,-0.296069786,-0.003889750,-0.130878782,-0.130921891,3.934687064,3.579951366,0.282631170,0.000242968,-0.011379313,-0.148398858
1751352270.831368923,-1.737002403,-2.097375000,-0.904519664,1.593831929,-0.073666887,-1.643380941,-0.030468932,0.325000000,-0.296983582,-0.003901755,-0.131282729,-0.131325971,3.936483214,3.581426054,0.282634720,0.000240548,-0.011379313,-0.148533373
1751352270.833058834,-1.737063434,-2.096724000,-0.905114545,1.593824114,-0.073929856,-1.643643997,-0.030562682,0.326000000,-0.297897378,-0.003913761,-0.131686676,-0.131730051,3.938284125,3.582904223,0.282638268,0.000238123,-0.011379313,-0.148668283
1751352270.835279942,-1.737124653,-2.096071000,-0.905711254,1.593816274,-0.074193634,-1.643907861,-0.030656433,0.327000000,-0.298811173,-0.003925766,-0.132090623,-0.132134131,3.940089789,3.584385863,0.282641812,0.000235694,-0.011379313,-0.148803588
1751352270.837157726,-1.737186060,-2.095416000,-0.906309790,1.593808411,-0.074458219,-1.644172533,-0.030750183,0.328000000,-0.299724969,-0.003937772,-0.132494570,-0.132538211,3.941900199,3.585870964,0.282645353,0.000233259,-0.011379313,-0.148939288
1751352270.842945337,-1.737371405,-2.093439000,-0.908116364,1.593784676,-0.075256822,-1.644971399,-0.031031435,0.331000000,-0.302466356,-0.003973788,-0.133706410,-0.133750450,3.947359823,3.590346927,0.282655953,0.000225924,-0.011379313,-0.149348750
1751352270.843365908,-1.737371405,-2.093439000,-0.908116364,1.593784676,-0.075256822,-1.644971399,-0.031031435,0.331000000,-0.302466356,-0.003973788,-0.133706410,-0.133750450,3.947359823,3.590346927,0.282655953,0.000225924,-0.011379313,-0.149348750
1751352270.845314741,-1.737433562,-2.092776000,-0.908722210,1.593776717,-0.075524639,-1.645239304,-0.031125185,0.332000000,-0.303380152,-0.003985793,-0.134110357,-0.134154530,3.949189136,3.591845767,0.282659479,0.000223469,-0.011379313,-0.149486023
1751352270.847439289,-1.737495906,-2.092111000,-0.909329884,1.593768733,-0.075793263,-1.645508017,-0.031218936,0.333000000,-0.304293947,-0.003997799,-0.134514304,-0.134558610,3.951023157,3.593348015,0.282663000,0.000221009,-0.011379313,-0.149623689
1751352270.850389957,-1.737558437,-2.091444000,-0.909939386,1.593760725,-0.076062696,-1.645777538,-0.031312687,0.334000000,-0.305207743,-0.004009804,-0.134918251,-0.134962690,3.952861875,3.594853661,0.282666517,0.000218544,-0.011379313,-0.149761746
1751352270.851318121,-1.737621156,-2.090775000,-0.910550715,1.593752694,-0.076332936,-1.646047868,-0.031406437,0.335000000,-0.306121538,-0.004021809,-0.135322198,-0.135366770,3.954705284,3.596362695,0.282670030,0.000216074,-0.011379313,-0.149900194
1751352270.853209257,-1.737684063,-2.090104000,-0.911163872,1.593744638,-0.076603985,-1.646319006,-0.031500188,0.336000000,-0.307035334,-0.004033815,-0.135726145,-0.135770850,3.956553376,3.597875105,0.282673539,0.000213599,-0.011379313,-0.150039033
1751352270.855211973,-1.737747157,-2.089431000,-0.911778857,1.593736559,-0.076875841,-1.646590951,-0.031593938,0.337000000,-0.307949130,-0.004045820,-0.136130091,-0.136174930,3.958406142,3.599390882,0.282677042,0.000211119,-0.011379313,-0.150178261
1751352270.858577967,-1.737810439,-2.088756000,-0.912395669,1.593728455,-0.077148505,-1.646863705,-0.031687689,0.338000000,-0.308862925,-0.004057826,-0.136534038,-0.136579010,3.960263575,3.600910014,0.282680541,0.000208635,-0.011379313,-0.150317880
1751352270.859085083,-1.737873908,-2.088079000,-0.913014308,1.593720327,-0.077421977,-1.647137267,-0.031781439,0.339000000,-0.309776721,-0.004069831,-0.136937985,-0.136983090,3.962125666,3.602432490,0.282684035,0.000206145,-0.011379313,-0.150457887
1751352270.861359835,-1.737937565,-2.087400000,-0.913634776,1.593712176,-0.077696257,-1.647411638,-0.031875190,0.340000000,-0.310690517,-0.004081837,-0.137341932,-0.137387169,3.963992407,3.603958301,0.282687524,0.000203651,-0.011379313,-0.150598283
1751352270.863313913,-1.738001409,-2.086719000,-0.914257070,1.593704000,-0.077971345,-1.647686816,-0.031968940,0.341000000,-0.311604312,-0.004093842,-0.137745879,-0.137791249,3.965863790,3.605487434,0.282691008,0.000201152,-0.011379313,-0.150739067
1751352270.865216017,-1.738065440,-2.086036000,-0.914881193,1.593695800,-0.078247240,-1.647962803,-0.032062691,0.342000000,-0.312518108,-0.004105847,-0.138149826,-0.138195329,3.967739808,3.607019880,0.282694486,0.000198649,-0.011379313,-0.150880238
1751352270.867232084,-1.738129659,-2.085351000,-0.915507143,1.593687577,-0.078523944,-1.648239597,-0.032156442,0.343000000,-0.313431904,-0.004117853,-0.138553773,-0.138599409,3.969620451,3.608555627,0.282697959,0.000196140,-0.011379313,-0.151021796
1751352270.869219542,-1.738194066,-2.084664000,-0.916134921,1.593679329,-0.078801455,-1.648517200,-0.032250192,0.344000000,-0.314345699,-0.004129858,-0.138957719,-0.139003489,3.971505712,3.610094664,0.282701427,0.000193627,-0.011379313,-0.151163740
1751352270.871162415,-1.738258660,-2.083975000,-0.916764526,1.593671057,-0.079079775,-1.648795611,-0.032343943,0.345000000,-0.315259495,-0.004141864,-0.139361666,-0.139407569,3.973395582,3.611636981,0.282704888,0.000191109,-0.011379313,-0.151306070
1751352270.873183727,-1.738323442,-2.083284000,-0.917395958,1.593662761,-0.079358902,-1.649074831,-0.032437693,0.346000000,-0.316173290,-0.004153869,-0.139765613,-0.139811649,3.975290052,3.613182566,0.282708343,0.000188587,-0.011379313,-0.151448785
1751352270.875229120,-1.738388411,-2.082591000,-0.918029219,1.593654442,-0.079638837,-1.649354858,-0.032531444,0.347000000,-0.317087086,-0.004165874,-0.140169560,-0.140215729,3.977189116,3.614731408,0.282711793,0.000186060,-0.011379313,-0.151591885
1751352270.877256870,-1.738453568,-2.081896000,-0.918664307,1.593646098,-0.079919580,-1.649635693,-0.032625194,0.348000000,-0.318000882,-0.004177880,-0.140573507,-0.140619809,3.979092763,3.616283497,0.282715236,0.000183528,-0.011379313,-0.151735369
1751352270.879349470,-1.738518912,-2.081199000,-0.919301222,1.593637730,-0.080201131,-1.649917337,-0.032718945,0.349000000,-0.318914677,-0.004189885,-0.140977454,-0.141023889,3.981000987,3.617838820,0.282718673,0.000180992,-0.011379313,-0.151879236
1751352270.881252050,-1.738584443,-2.080500000,-0.919939966,1.593629338,-0.080483490,-1.650199789,-0.032812695,0.350000000,-0.319828473,-0.004201891,-0.141381401,-0.141427969,3.982913777,3.619397368,0.282722103,0.000178451,-0.011379313,-0.152023486
1751352270.883186340,-1.738650163,-2.079799000,-0.920580536,1.593620923,-0.080766657,-1.650483049,-0.032906446,0.351000000,-0.320742269,-0.004213896,-0.141785347,-0.141832048,3.984831127,3.620959128,0.282725527,0.000175905,-0.011379313,-0.152168118
1751352270.885168791,-1.738650163,-2.079799000,-0.920580536,1.593620923,-0.080766657,-1.650483049,-0.032906446,0.351000000,-0.320742269,-0.004213896,-0.141785347,-0.141832048,3.984831127,3.620959128,0.282725527,0.000175905,-0.011379313,-0.152168118
1751352270.894234180,-1.738716069,-2.079096000,-0.921222935,1.593612483,-0.081050632,-1.650767117,-0.033000197,0.352000000,-0.321656064,-0.004225901,-0.142189294,-0.142236128,3.986753027,3.622524090,0.282728944,0.000173356,-0.011379313,-0.152313131
1751352270.894288063,-1.738848445,-2.077684000,-0.922513214,1.593595531,-0.081621005,-1.651337678,-0.033187698,0.354000000,-0.323483656,-0.004249912,-0.142997188,-0.143044288,3.990610443,3.625663572,0.282735757,0.000168242,-0.011379313,-0.152604300
1751352270.894366264,-1.738914914,-2.076975000,-0.923161095,1.593587019,-0.081907403,-1.651624171,-0.033281448,0.355000000,-0.324397451,-0.004261918,-0.143401135,-0.143448368,3.992545943,3.627238070,0.282739153,0.000165679,-0.011379313,-0.152750454
1751352270.897548199,-1.738914914,-2.076975000,-0.923161095,1.593587019,-0.081907403,-1.651624171,-0.033281448,0.355000000,-0.324397451,-0.004261918,-0.143401135,-0.143448368,3.992545943,3.627238070,0.282739153,0.000165679,-0.011379313,-0.152750454
1751352270.897692442,-1.738981571,-2.076264000,-0.923810804,1.593578483,-0.082194609,-1.651911472,-0.033375199,0.356000000,-0.325311247,-0.004273923,-0.143805082,-0.143852448,3.994485959,3.628815724,0.282742541,0.000163111,-0.011379313,-0.152896988
1751352270.899180174,-1.739048415,-2.075551000,-0.924462340,1.593569924,-0.082482623,-1.652199580,-0.033468949,0.357000000,-0.326225042,-0.004285928,-0.144209029,-0.144256528,3.996430482,3.630396522,0.282745922,0.000160539,-0.011379313,-0.153043899
1751352270.901746273,-1.739115447,-2.074836000,-0.925115704,1.593561340,-0.082771445,-1.652488498,-0.033562700,0.358000000,-0.327138838,-0.004297934,-0.144612975,-0.144660608,3.998379503,3.631980454,0.282749295,0.000157963,-0.011379313,-0.153191189
1751352270.903088570,-1.739182666,-2.074119000,-0.925770896,1.593552732,-0.083061075,-1.652778223,-0.033656451,0.359000000,-0.328052634,-0.004309939,-0.145016922,-0.145064688,4.000333014,3.633567507,0.282752660,0.000155382,-0.011379313,-0.153338855
1751352270.906378031,-1.739250072,-2.073400000,-0.926427915,1.593544100,-0.083351513,-1.653068756,-0.033750201,0.360000000,-0.328966429,-0.004321945,-0.145420869,-0.145468768,4.002291007,3.635157670,0.282756017,0.000152797,-0.011379313,-0.153486898
1751352270.907187700,-1.739317667,-2.072679000,-0.927086761,1.593535444,-0.083642759,-1.653360098,-0.033843952,0.361000000,-0.329880225,-0.004333950,-0.145824816,-0.145872848,4.004253471,3.636750931,0.282759366,0.000150208,-0.011379313,-0.153635316
1751352270.909135580,-1.739385448,-2.071956000,-0.927747435,1.593526764,-0.083934812,-1.653652248,-0.033937702,0.362000000,-0.330794021,-0.004345955,-0.146228763,-0.146276928,4.006220399,3.638347279,0.282762707,0.000147614,-0.011379313,-0.153784110
1751352270.911149502,-1.739453417,-2.071231000,-0.928409937,1.593518060,-0.084227674,-1.653945206,-0.034031453,0.363000000,-0.331707816,-0.004357961,-0.146632710,-0.146681007,4.008191782,3.639946702,0.282766040,0.000145017,-0.011379313,-0.153933278
1751352270.913228273,-1.739521574,-2.070504000,-0.929074267,1.593509332,-0.084521343,-1.654238972,-0.034125203,0.364000000,-0.332621612,-0.004369966,-0.147036657,-0.147085087,4.010167610,3.641549188,0.282769364,0.000142415,-0.011379313,-0.154082819
1751352270.915026188,-1.739589918,-2.069775000,-0.929740424,1.593500580,-0.084815820,-1.654533546,-0.034218954,0.365000000,-0.333535408,-0.004381972,-0.147440603,-0.147489167,4.012147875,3.643154726,0.282772679,0.000139809,-0.011379313,-0.154232733
1751352270.917041302,-1.739658450,-2.069044000,-0.930408408,1.593491804,-0.085111105,-1.654828928,-0.034312704,0.366000000,-0.334449203,-0.004393977,-0.147844550,-0.147893247,4.014132567,3.644763303,0.282775985,0.000137198,-0.011379313,-0.154383020
1751352270.919024706,-1.739727169,-2.068311000,-0.931078221,1.593483004,-0.085407198,-1.655125119,-0.034406455,0.367000000,-0.335362999,-0.004405982,-0.148248497,-0.148297327,4.016121678,3.646374909,0.282779282,0.000134584,-0.011379313,-0.154533678
1751352270.921229362,-1.739796076,-2.067576000,-0.931749860,1.593474181,-0.085704099,-1.655422118,-0.034500206,0.368000000,-0.336276794,-0.004417988,-0.148652444,-0.148701407,4.018115198,3.647989530,0.282782570,0.000131966,-0.011379313,-0.154684706
1751352270.923200369,-1.739865170,-2.066839000,-0.932423328,1.593465333,-0.086001808,-1.655719925,-0.034593956,0.369000000,-0.337190590,-0.004429993,-0.149056391,-0.149105487,4.020113119,3.649607155,0.282785849,0.000129343,-0.011379313,-0.154836105
1751352270.925209522,-1.739934451,-2.066100000,-0.933098623,1.593456461,-0.086300325,-1.656018540,-0.034687707,0.370000000,-0.338104386,-0.004441999,-0.149460338,-0.149509567,4.022115432,3.651227772,0.282789118,0.000126717,-0.011379313,-0.154987873
1751352270.927113295,-1.740003921,-2.065359000,-0.933775745,1.593447565,-0.086599650,-1.656317963,-0.034781457,0.371000000,-0.339018181,-0.004454004,-0.149864285,-0.149913647,4.024122126,3.652851368,0.282792378,0.000124086,-0.011379313,-0.155140010
1751352270.929301977,-1.740073577,-2.064616000,-0.934454695,1.593438645,-0.086899782,-1.656618194,-0.034875208,0.372000000,-0.339931977,-0.004466009,-0.150268232,-0.150317727,4.026133194,3.654477933,0.282795627,0.000121451,-0.011379313,-0.155292514
1751352270.931186914,-1.740143421,-2.063871000,-0.935135473,1.593429700,-0.087200723,-1.656919234,-0.034968958,0.373000000,-0.340845773,-0.004478015,-0.150672178,-0.150721807,4.028148625,3.656107454,0.282798867,0.000118813,-0.011379313,-0.155445385
1751352270.933363438,-1.740213453,-2.063124000,-0.935818079,1.593420732,-0.087502471,-1.657221082,-0.035062709,0.374000000,-0.341759568,-0.004490020,-0.151076125,-0.151125886,4.030168411,3.657739918,0.282802097,0.000116171,-0.011379313,-0.155598623
1751352270.942629099,-1.740213453,-2.063124000,-0.935818079,1.593420732,-0.087502471,-1.657221082,-0.035062709,0.374000000,-0.341759568,-0.004490020,-0.151076125,-0.151125886,4.030168411,3.657739918,0.282802097,0.000116171,-0.011379313,-0.155598623
1751352270.942691803,-1.740213453,-2.063124000,-0.935818079,1.593420732,-0.087502471,-1.657221082,-0.035062709,0.374000000,-0.341759568,-0.004490020,-0.151076125,-0.151125886,4.030168411,3.657739918,0.282802097,0.000116171,-0.011379313,-0.155598623
1751352270.942709446,-1.740213453,-2.063124000,-0.935818079,1.593420732,-0.087502471,-1.657221082,-0.035062709,0.374000000,-0.341759568,-0.004490020,-0.151076125,-0.151125886,4.030168411,3.657739918,0.282802097,0.000116171,-0.011379313,-0.155598623
1751352270.944607496,-1.740424673,-2.060871000,-0.937876860,1.593393684,-0.088412563,-1.658131474,-0.035343961,0.377000000,-0.344500955,-0.004526036,-0.152287966,-0.152338126,4.036253803,3.662654851,0.282811723,0.000108220,-0.011379313,-0.156060525
1751352270.945303202,-1.740495455,-2.060116000,-0.938566776,1.593384620,-0.088717543,-1.658436554,-0.035437711,0.378000000,-0.345414751,-0.004538042,-0.152691913,-0.152742206,4.038290913,3.664298968,0.282814911,0.000105562,-0.011379313,-0.156215219
1751352270.947182894,-1.740566424,-2.059359000,-0.939258519,1.593375532,-0.089023331,-1.658742442,-0.035531462,0.379000000,-0.346328546,-0.004550047,-0.153095860,-0.153146286,4.040332331,3.665945967,0.282818087,0.000102901,-0.011379313,-0.156370276
1751352270.949157476,-1.740637581,-2.058600000,-0.939952090,1.593366420,-0.089329926,-1.659049139,-0.035625212,0.380000000,-0.347242342,-0.004562053,-0.153499806,-0.153550366,4.042378047,3.667595836,0.282821253,0.000100236,-0.011379313,-0.156525694
1751352270.952073574,-1.740708925,-2.057839000,-0.940647488,1.593357284,-0.089637330,-1.659356644,-0.035718963,0.381000000,-0.348156138,-0.004574058,-0.153903753,-0.153954446,4.044428052,3.669248562,0.282824407,0.000097567,-0.011379313,-0.156681473
1751352270.953239918,-1.740780457,-2.057076000,-0.941344715,1.593348124,-0.089945541,-1.659664957,-0.035812713,0.382000000,-0.349069933,-0.004586063,-0.154307700,-0.154358526,4.046482336,3.670904134,0.282827550,0.000094894,-0.011379313,-0.156837611
1751352270.955344677,-1.740852176,-2.056311000,-0.942043768,1.593338940,-0.090254561,-1.659974078,-0.035906464,0.383000000,-0.349983729,-0.004598069,-0.154711647,-0.154762606,4.048540890,3.672562538,0.282830682,0.000092217,-0.011379313,-0.156994109
1751352270.957328796,-1.740852176,-2.056311000,-0.942043768,1.593338940,-0.090254561,-1.659974078,-0.035906464,0.383000000,-0.349983729,-0.004598069,-0.154711647,-0.154762606,4.048540890,3.672562538,0.282830682,0.000092217,-0.011379313,-0.156994109
1751352270.959200621,-1.740924082,-2.055544000,-0.942744649,1.593329732,-0.090564388,-1.660284007,-0.036000214,0.384000000,-0.350897525,-0.004610074,-0.155115594,-0.155166686,4.050603703,3.674223762,0.282833801,0.000089537,-0.011379313,-0.157150964
1751352270.961327314,-1.740996177,-2.054775000,-0.943447358,1.593320499,-0.090875023,-1.660594745,-0.036093965,0.385000000,-0.351811320,-0.004622080,-0.155519541,-0.155570765,4.052670767,3.675887793,0.282836909,0.000086854,-0.011379313,-0.157308177
1751352270.963339090,-1.741068458,-2.054004000,-0.944151895,1.593311243,-0.091186466,-1.660906290,-0.036187716,0.386000000,-0.352725116,-0.004634085,-0.155923488,-0.155974845,4.054742071,3.677554620,0.282840005,0.000084167,-0.011379313,-0.157465746
1751352270.965168238,-1.741140927,-2.053231000,-0.944858259,1.593301963,-0.091498717,-1.661218644,-0.036281466,0.387000000,-0.353638912,-0.004646090,-0.156327434,-0.156378925,4.056817606,3.679224228,0.282843089,0.000081476,-0.011379313,-0.157623671
1751352270.967269897,-1.741213584,-2.052456000,-0.945566450,1.593292659,-0.091811776,-1.661531806,-0.036375217,0.388000000,-0.354552707,-0.004658096,-0.156731381,-0.156783005,4.058897362,3.680896605,0.282846160,0.000078781,-0.011379313,-0.157781950
1751352270.969172478,-1.741286428,-2.051679000,-0.946276470,1.593283331,-0.092125643,-1.661845776,-0.036468967,0.389000000,-0.355466503,-0.004670101,-0.157135328,-0.157187085,4.060981329,3.682571740,0.282849219,0.000076084,-0.011379313,-0.157940583
1751352270.971228123,-1.741359460,-2.050900000,-0.946988316,1.593273978,-0.092440317,-1.662160554,-0.036562718,0.390000000,-0.356380298,-0.004682107,-0.157539275,-0.157591165,4.063069497,3.684249618,0.282852265,0.000073382,-0.011379313,-0.158099569
