mathias31415/motion_primitives_from_planned_trajectory/data/trajectory_20250701_092651_executed.csv
timestamp,shoulder_lift_joint_pos,elbow_joint_pos,wrist_1_joint_pos,wrist_2_joint_pos,wrist_3_joint_pos,shoulder_pan_joint_pos,shoulder_lift_joint_vel,elbow_joint_vel,wrist_1_joint_vel,wrist_2_joint_vel,wrist_3_joint_vel,shoulder_pan_joint_vel,shoulder_lift_joint_eff,elbow_joint_eff,wrist_1_joint_eff,wrist_2_joint_eff,wrist_3_joint_eff,shoulder_pan_joint_eff
1751354845.383285046,-1.788884490,-1.837171562,-1.078907167,1.605442939,0.992352650,-0.577682198,0.000000000,0.000000000,0.000000000,0.000000000,0.000000000,0.000000000,4.621649603,3.837421909,0.303379497,0.002859607,0.000000000,0.000000000
1751354845.389086246,-1.788884490,-1.837171562,-1.078907167,1.605442939,0.992352650,-0.577682198,0.000000000,0.000000000,0.000000000,0.000000000,0.000000000,0.000000000,4.621649603,3.837421909,0.303379497,0.002859607,0.000000000,0.000000000
1751354845.389295816,-1.788884490,-1.837171562,-1.078907167,1.605442939,0.992352650,-0.577682198,0.000000000,0.000000000,0.000000000,0.000000000,0.000000000,0.000000000,4.621649603,3.837421909,0.303379497,0.002859607,0.000000000,0.000000000
1751354845.391016245,-1.788884490,-1.837171562,-1.078907167,1.605442939,0.992352650,-0.577682198,0.000000000,0.000000000,0.000000000,0.000000000,0.000000000,0.000000000,4.621649603,3.837421909,0.303379497,0.002859607,0.000000000,0.000000000
1751354845.392893791,-1.788884490,-1.837171562,-1.078907167,1.605442939,0.992352650,-0.577682198,0.000000000,0.000000000,0.000000000,0.000000000,0.000000000,0.000000000,4.621649603,3.837421909,0.303379497,0.002859607,0.000000000,0.000000000
1751354845.395145416,-1.788884490,-1.837171562,-1.078907167,1.605442939,0.992352650,-0.577682198,0.000000000,0.000000000,0.000000000,0.000000000,0.000000000,0.000000000,4.621649603,3.837421909,0.303379497,0.002859607,0.000000000,0.000000000
1751354845.397210360,-1.788884490,-1.837171562,-1.078907167,1.605442939,0.992352650,-0.577682198,0.000000000,0.000000000,0.000000000,0.000000000,0.000000000,0.000000000,4.621649603,3.837421909,0.303379497,0.002859607,0.000000000,0.000000000
1751354845.398883581,-1.788884490,-1.837171562,-1.078907167,1.605442939,0.992352650,-0.577682198,0.000000000,0.000000000,0.000000000,0.000000000,0.000000000,0.000000000,4.621649603,3.837421909,0.303379497,0.002859607,0.000000000,0.000000000
1751354845.401015997,-1.788884490,-1.837171562,-1.078907167,1.605442939,0.992352650,-0.577682198,0.000000000,0.000000000,0.000000000,0.000000000,0.000000000,0.000000000,4.621649603,3.837421909,0.303379497,0.002859607,0.000000000,0.000000000
1751354845.403367519,-1.788884490,-1.837171562,-1.078907167,1.605442939,0.992352650,-0.577682198,0.000000000,0.000000000,0.000000000,0.000000000,0.000000000,0.000000000,4.621649603,3.837421909,0.303379497,0.002859607,0.000000000,0.000000000
1751354845.405519247,-1.788884490,-1.837171562,-1.078907167,1.605442939,0.992352650,-0.577682198,0.000000000,0.000000000,0.000000000,0.000000000,0.000000000,0.000000000,4.621649603,3.837421909,0.303379497,0.002859607,0.000000000,0.000000000
1751354845.407228708,-1.788884490,-1.837171562,-1.078907167,1.605442939,0.992352650,-0.577682198,0.000000000,0.000000000,0.000000000,0.000000000,0.000000000,0.000000000,4.621649603,3.837421909,0.303379497,0.002859607,0.000000000,0.000000000
1751354845.409981251,-1.788884490,-1.837171562,-1.078907167,1.605442939,0.992352650,-0.577682198,0.000000000,0.000000000,0.000000000,0.000000000,0.000000000,0.000000000,4.621649603,3.837421909,0.303379497,0.002859607,0.000000000,0.000000000
1751354845.413847208,-1.788884490,-1.837171562,-1.078907167,1.605442939,0.992352650,-0.577682198,0.000000000,0.000000000,0.000000000,0.000000000,0.000000000,0.000000000,4.621649603,3.837421909,0.303379497,0.002859607,0.000000000,0.000000000
1751354845.413902044,-1.788884490,-1.837171562,-1.078907167,1.605442939,0.992352650,-0.577682198,0.000000000,0.000000000,0.000000000,0.000000000,0.000000000,0.000000000,4.621649603,3.837421909,0.303379497,0.002859607,0.000000000,0.000000000
1751354845.414938927,-1.788884490,-1.837171562,-1.078907167,1.605442939,0.992352650,-0.577682198,0.000000000,0.000000000,0.000000000,0.000000000,0.000000000,0.000000000,4.621649603,3.837421909,0.303379497,0.002859607,0.000000000,0.000000000
1751354845.417665243,-1.788884490,-1.837171562,-1.078907167,1.605442939,0.992352650,-0.577682198,0.000000000,0.000000000,0.000000000,0.000000000,0.000000000,0.000000000,4.621649603,3.837421909,0.303379497,0.002859607,0.000000000,0.000000000
1751354845.419118881,-1.788884490,-1.837171562,-1.078907167,1.605442939,0.992352650,-0.577682198,0.000000000,0.000000000,0.000000000,0.000000000,0.000000000,0.000000000,4.621649603,3.837421909,0.303379497,0.002859607,0.000000000,0.000000000
1751354845.421032906,-1.788884490,-1.837171562,-1.078907167,1.605442939,0.992352650,-0.577682198,0.000000000,0.000000000,0.000000000,0.000000000,0.000000000,0.000000000,4.621649603,3.837421909,0.303379497,0.002859607,0.000000000,0.000000000
1751354845.422854424,-1.788884490,-1.837171562,-1.078907167,1.605442939,0.992352650,-0.577682198,0.000000000,0.000000000,0.000000000,0.000000000,0.000000000,0.000000000,4.621649603,3.837421909,0.303379497,0.002859607,0.000000000,0.000000000
1751354845.424935341,-1.788884490,-1.837171562,-1.078907167,1.605442939,0.992352650,-0.577682198,0.000000000,0.000000000,0.000000000,0.000000000,0.000000000,0.000000000,4.621649603,3.837421909,0.303379497,0.002859607,0.000000000,0.000000000
1751354845.427132607,-1.788884490,-1.837171562,-1.078907167,1.605442939,0.992352650,-0.577682198,0.000000000,0.000000000,0.000000000,0.000000000,0.000000000,0.000000000,4.621649603,3.837421909,0.303379497,0.002859607,0.000000000,0.000000000
1751354845.428753614,-1.788884490,-1.837171562,-1.078907167,1.605442939,0.992352650,-0.577682198,0.000000000,0.000000000,0.000000000,0.000000000,0.000000000,0.000000000,4.621649603,3.837421909,0.303379497,0.002859607,0.000000000,0.000000000
1751354845.430865765,-1.788884490,-1.837171562,-1.078907167,1.605442939,0.992352650,-0.577682198,0.000000000,0.000000000,0.000000000,0.000000000,0.000000000,0.000000000,4.621649603,3.837421909,0.303379497,0.002859607,0.000000000,0.000000000
1751354845.443912506,-1.788884490,-1.837171562,-1.078907167,1.605442939,0.992352650,-0.577682198,0.000000000,0.000000000,0.000000000,0.000000000,0.000000000,0.000000000,4.621649603,3.837421909,0.303379497,0.002859607,0.000000000,0.000000000
1751354845.443985701,-1.788884490,-1.837171562,-1.078907167,1.605442939,0.992352650,-0.577682198,0.000000000,0.000000000,0.000000000,0.000000000,0.000000000,0.000000000,4.621649603,3.837421909,0.303379497,0.002859607,0.000000000,0.000000000
1751354845.444005489,-1.788884490,-1.837171562,-1.078907167,1.605442939,0.992352650,-0.577682198,0.000000000,0.000000000,0.000000000,0.000000000,0.000000000,0.000000000,4.621649603,3.837421909,0.303379497,0.002859607,0.000000000,0.000000000
1751354845.444023371,-1.788884490,-1.837171562,-1.078907167,1.605442939,0.992352650,-0.577682198,0.000000000,0.000000000,0.000000000,0.000000000,0.000000000,0.000000000,4.621649603,3.837421909,0.303379497,0.002859607,0.000000000,0.000000000
1751354845.444040537,-1.788884490,-1.837171562,-1.078907167,1.605442939,0.992352650,-0.577682198,0.000000000,0.000000000,0.000000000,0.000000000,0.000000000,0.000000000,4.621649603,3.837421909,0.303379497,0.002859607,0.000000000,0.000000000
1751354845.445212603,-1.788884490,-1.837171562,-1.078907167,1.605442939,0.992352650,-0.577682198,0.000000000,0.000000000,0.000000000,0.000000000,0.000000000,0.000000000,4.621649603,3.837421909,0.303379497,0.002859607,0.000000000,0.000000000
1751354845.449447393,-1.788884490,-1.837171562,-1.078907167,1.605442939,0.992352650,-0.577682198,0.000000000,0.000000000,0.000000000,0.000000000,0.000000000,0.000000000,4.621649603,3.837421909,0.303379497,0.002859607,0.000000000,0.000000000
1751354845.451366186,-1.788884344,-1.837171338,-1.078907145,1.605441939,0.992353538,-0.577682379,0.000146386,0.000224082,0.000022100,-0.001000000,0.000887677,-0.000180325,4.720628166,3.902386030,0.307928128,-0.026227000,0.025022638,-0.079847596
1751354845.451427698,-1.788884344,-1.837171338,-1.078907145,1.605441939,0.992353538,-0.577682379,0.000146386,0.000224082,0.000022100,-0.001000000,0.000887677,-0.000180325,4.720628166,3.902386030,0.307928128,-0.026227000,0.025022638,-0.079847596
1751354845.457248926,-1.788883905,-1.837170665,-1.078907079,1.605438939,0.992356201,-0.577682920,0.000292772,0.000448164,0.000044201,-0.002000000,0.001775353,-0.000360651,4.720627186,3.902388194,0.307928228,-0.026227251,0.025022638,-0.079847632
1751354845.457347393,-1.788882148,-1.837167976,-1.078906813,1.605426939,0.992366853,-0.577685084,0.000585545,0.000896329,0.000088402,-0.004000000,0.003550707,-0.000721301,4.720623267,3.902396850,0.307928626,-0.026228255,0.025022638,-0.079847777
1751354845.457490921,-1.788882148,-1.837167976,-1.078906813,1.605426939,0.992366853,-0.577685084,0.000585545,0.000896329,0.000088402,-0.004000000,0.003550707,-0.000721301,4.720623267,3.902396850,0.307928626,-0.026228255,0.025022638,-0.079847777
1751354845.458723068,-1.788880830,-1.837165960,-1.078906614,1.605417939,0.992374842,-0.577686706,0.000731931,0.001120411,0.000110502,-0.005000000,0.004438384,-0.000901627,4.720620328,3.902403343,0.307928925,-0.026229008,0.025022639,-0.079847885
1751354845.460742474,-1.788879220,-1.837163495,-1.078906371,1.605406939,0.992384606,-0.577688690,0.000878317,0.001344493,0.000132603,-0.006000000,0.005326060,-0.001081952,4.720616736,3.902411278,0.307929291,-0.026229928,0.025022639,-0.079848017
1751354845.462782145,-1.788877317,-1.837160582,-1.078906084,1.605393939,0.992396146,-0.577691034,0.001024703,0.001568576,0.000154703,-0.007000000,0.006213737,-0.001262278,4.720612491,3.902420656,0.307929722,-0.026231016,0.025022639,-0.079848174
1751354845.467184782,-1.788877317,-1.837160582,-1.078906084,1.605393939,0.992396146,-0.577691034,0.001024703,0.001568576,0.000154703,-0.007000000,0.006213737,-0.001262278,4.720612491,3.902420656,0.307929722,-0.026231016,0.025022639,-0.079848174
1751354845.467267990,-1.788877317,-1.837160582,-1.078906084,1.605393939,0.992396146,-0.577691034,0.001024703,0.001568576,0.000154703,-0.007000000,0.006213737,-0.001262278,4.720612491,3.902420656,0.307929722,-0.026231016,0.025022639,-0.079848174
1751354845.469313622,-1.788872633,-1.837153411,-1.078905377,1.605361939,0.992424552,-0.577696805,0.001317476,0.002016740,0.000198904,-0.009000000,0.007989090,-0.001622928,4.720602040,3.902443739,0.307930785,-0.026233694,0.025022640,-0.079848559
1751354845.470749140,-1.788869851,-1.837149154,-1.078904957,1.605342939,0.992441418,-0.577700231,0.001463862,0.002240822,0.000221004,-0.010000000,0.008876767,-0.001803254,4.720595835,3.902457445,0.307931416,-0.026235284,0.025022640,-0.079848787
1751354845.473223209,-1.788866777,-1.837144448,-1.078904493,1.605321939,0.992460059,-0.577704018,0.001610248,0.002464904,0.000243105,-0.011000000,0.009764444,-0.001983579,4.720588977,3.902472593,0.307932114,-0.026237041,0.025022640,-0.079849040
1751354845.475843430,-1.788863410,-1.837139294,-1.078903984,1.605298939,0.992480476,-0.577708165,0.001756634,0.002688987,0.000265205,-0.012000000,0.010652120,-0.002163904,4.720581465,3.902489183,0.307932877,-0.026238965,0.025022641,-0.079849317
1751354845.477165937,-1.788863410,-1.837139294,-1.078903984,1.605298939,0.992480476,-0.577708165,0.001756634,0.002688987,0.000265205,-0.012000000,0.010652120,-0.002163904,4.720581465,3.902489183,0.307932877,-0.026238965,0.025022641,-0.079849317
1751354845.479130507,-1.788859751,-1.837133692,-1.078903432,1.605273939,0.992502667,-0.577712673,0.001903021,0.002913069,0.000287306,-0.013000000,0.011539797,-0.002344230,4.720573299,3.902507216,0.307933708,-0.026241057,0.025022641,-0.079849617
1751354845.480908871,-1.788855798,-1.837127642,-1.078902835,1.605246939,0.992526635,-0.577717542,0.002049407,0.003137151,0.000309406,-0.014000000,0.012427474,-0.002524555,4.720564480,3.902526691,0.307934604,-0.026243317,0.025022642,-0.079849942
1751354845.482766628,-1.788851553,-1.837121143,-1.078902194,1.605217939,0.992552377,-0.577722772,0.002195793,0.003361233,0.000331507,-0.015000000,0.013315151,-0.002704880,4.720555007,3.902547608,0.307935567,-0.026245743,0.025022642,-0.079850291
1751354845.484740496,-1.788847015,-1.837114197,-1.078901509,1.605186939,0.992579895,-0.577728362,0.002342179,0.003585316,0.000353607,-0.016000000,0.014202827,-0.002885206,4.720544881,3.902569967,0.307936596,-0.026248337,0.025022643,-0.079850664
1751354845.486839533,-1.788842184,-1.837106802,-1.078900780,1.605153939,0.992609189,-0.577734312,0.002488566,0.003809398,0.000375708,-0.017000000,0.015090504,-0.003065531,4.720534101,3.902593768,0.307937692,-0.026251099,0.025022644,-0.079851061
1751354845.488776684,-1.788837061,-1.837098959,-1.078900006,1.605118939,0.992640257,-0.577740624,0.002634952,0.004033480,0.000397808,-0.018000000,0.015978181,-0.003245856,4.720522667,3.902619011,0.307938854,-0.026254028,0.025022644,-0.079851481
1751354845.490796804,-1.788831645,-1.837090668,-1.078899189,1.605081939,0.992673101,-0.577747296,0.002781338,0.004257562,0.000419908,-0.019000000,0.016865857,-0.003426182,4.720510579,3.902645696,0.307940082,-0.026257124,0.025022645,-0.079851926
1751354845.492948055,-1.788825936,-1.837081929,-1.078898327,1.605042939,0.992707721,-0.577754328,0.002927724,0.004481644,0.000442009,-0.020000000,0.017753534,-0.003606507,4.720497837,3.902673822,0.307941377,-0.026260387,0.025022646,-0.079852395
1751354845.494879723,-1.788819934,-1.837072742,-1.078897421,1.605001939,0.992744116,-0.577761722,0.003074110,0.004705727,0.000464109,-0.021000000,0.018641211,-0.003786833,4.720484441,3.902703390,0.307942738,-0.026263818,0.025022646,-0.079852888
1751354845.497037172,-1.788813639,-1.837063106,-1.078896470,1.604958939,0.992782286,-0.577769476,0.003220497,0.004929809,0.000486210,-0.022000000,0.019528887,-0.003967158,4.720470390,3.902734399,0.307944165,-0.026267416,0.025022647,-0.079853405
1751354845.498763323,-1.788807052,-1.837053022,-1.078895476,1.604913939,0.992822231,-0.577777590,0.003366883,0.005153891,0.000508310,-0.023000000,0.020416564,-0.004147483,4.720455685,3.902766850,0.307945659,-0.026271182,0.025022648,-0.079853946
1751354845.500798464,-1.788800172,-1.837042490,-1.078894437,1.604866939,0.992863952,-0.577786066,0.003513269,0.005377973,0.000530411,-0.024000000,0.021304241,-0.004327809,4.720440326,3.902800741,0.307947219,-0.026275115,0.025022649,-0.079854510
1751354845.502697229,-1.788792999,-1.837031510,-1.078893354,1.604817939,0.992907448,-0.577794902,0.003659655,0.005602056,0.000552511,-0.025000000,0.022191918,-0.004508134,4.720424312,3.902836074,0.307948845,-0.026279215,0.025022650,-0.079855099
1751354845.504873276,-1.788785533,-1.837020082,-1.078892227,1.604766939,0.992952720,-0.577804098,0.003806041,0.005826138,0.000574612,-0.026000000,0.023079594,-0.004688459,4.720407643,3.902872847,0.307950537,-0.026283483,0.025022651,-0.079855712
1751354845.506815434,-1.788777775,-1.837008206,-1.078891056,1.604713939,0.992999766,-0.577813656,0.003952428,0.006050220,0.000596712,-0.027000000,0.023967271,-0.004868785,4.720390319,3.902911061,0.307952296,-0.026287918,0.025022652,-0.079856348
1751354845.508849382,-1.788769723,-1.836995881,-1.078889840,1.604658939,0.993048589,-0.577823573,0.004098814,0.006274302,0.000618812,-0.028000000,0.024854948,-0.005049110,4.720372340,3.902950716,0.307954121,-0.026292520,0.025022653,-0.079857009
1751354845.510848522,-1.788761379,-1.836983109,-1.078888580,1.604601939,0.993099186,-0.577833852,0.004245200,0.006498384,0.000640913,-0.029000000,0.025742624,-0.005229435,4.720353706,3.902991811,0.307956012,-0.026297290,0.025022654,-0.079857693
1751354845.513017654,-1.788752743,-1.836969888,-1.078887277,1.604542939,0.993151559,-0.577844491,0.004391586,0.006722467,0.000663013,-0.030000000,0.026630301,-0.005409761,4.720334417,3.903034346,0.307957969,-0.026302227,0.025022655,-0.079858402
1751354845.514939308,-1.788743813,-1.836956219,-1.078885928,1.604481939,0.993205707,-0.577855491,0.004537972,0.006946549,0.000685114,-0.031000000,0.027517978,-0.005590086,4.720314472,3.903078321,0.307959993,-0.026307331,0.025022656,-0.079859134
1751354845.517331600,-1.788734591,-1.836942102,-1.078884536,1.604418939,0.993261631,-0.577866851,0.004684359,0.007170631,0.000707214,-0.032000000,0.028405655,-0.005770411,4.720293871,3.903123735,0.307962083,-0.026312603,0.025022657,-0.079859890
1751354845.519146204,-1.788734591,-1.836942102,-1.078884536,1.604418939,0.993261631,-0.577866851,0.004684359,0.007170631,0.000707214,-0.032000000,0.028405655,-0.005770411,4.720293871,3.903123735,0.307962083,-0.026312603,0.025022657,-0.079859890
1751354845.520813227,-1.788725076,-1.836927536,-1.078883100,1.604353939,0.993319330,-0.577878573,0.004830745,0.007394713,0.000729315,-0.033000000,0.029293331,-0.005950737,4.720272615,3.903170589,0.307964238,-0.026318042,0.025022659,-0.079860670
1751354845.522789478,-1.788715268,-1.836912523,-1.078881619,1.604286939,0.993378804,-0.577890654,0.004977131,0.007618796,0.000751415,-0.034000000,0.030181008,-0.006131062,4.720250702,3.903218883,0.307966460,-0.026323649,0.025022660,-0.079861474
1751354845.528236151,-1.788705167,-1.836897061,-1.078880094,1.604217939,0.993440054,-0.577903097,0.005123517,0.007842878,0.000773516,-0.035000000,0.031068685,-0.006311388,4.720228133,3.903268615,0.307968748,-0.026329423,0.025022661,-0.079862302
1751354845.529530764,-1.788684087,-1.836864793,-1.078876911,1.604073939,0.993567879,-0.577929064,0.005416290,0.008291042,0.000817716,-0.037000000,0.032844038,-0.006672038,4.720181026,3.903372397,0.307973523,-0.026341473,0.025022664,-0.079864029
1751354845.530926704,-1.788684087,-1.836864793,-1.078876911,1.604073939,0.993567879,-0.577929064,0.005416290,0.008291042,0.000817716,-0.037000000,0.032844038,-0.006672038,4.720181026,3.903372397,0.307973523,-0.026341473,0.025022664,-0.079864029
1751354845.532883883,-1.788673108,-1.836847987,-1.078875254,1.603998939,0.993634455,-0.577942588,0.005562676,0.008515125,0.000839817,-0.038000000,0.033731715,-0.006852364,4.720156488,3.903426446,0.307976009,-0.026347749,0.025022665,-0.079864928
1751354845.534839869,-1.788661837,-1.836830733,-1.078873552,1.603921939,0.993702806,-0.577956473,0.005709062,0.008739207,0.000861917,-0.039000000,0.034619391,-0.007032689,4.720131292,3.903481932,0.307978561,-0.026354192,0.025022667,-0.079865851
1751354845.536809206,-1.788650272,-1.836813030,-1.078871806,1.603842939,0.993772933,-0.577970719,0.005855448,0.008963289,0.000884018,-0.040000000,0.035507068,-0.007213014,4.720105439,3.903538857,0.307981180,-0.026360803,0.025022668,-0.079866798
1751354845.539009571,-1.788638415,-1.836794880,-1.078870016,1.603761939,0.993844835,-0.577985325,0.006001835,0.009187371,0.000906118,-0.041000000,0.036394745,-0.007393340,4.720078929,3.903597220,0.307983864,-0.026367581,0.025022670,-0.079867768
1751354845.541379213,-1.788626265,-1.836776281,-1.078868182,1.603678939,0.993918512,-0.578000292,0.006148221,0.009411453,0.000928219,-0.042000000,0.037282422,-0.007573665,4.720051761,3.903657020,0.307986614,-0.026374527,0.025022671,-0.079868763
1751354845.543207169,-1.788613822,-1.836757234,-1.078866303,1.603593939,0.993993964,-0.578015620,0.006294607,0.009635536,0.000950319,-0.043000000,0.038170098,-0.007753990,4.720023936,3.903718257,0.307989431,-0.026381640,0.025022673,-0.079869781
1751354845.545460701,-1.788601086,-1.836737739,-1.078864380,1.603506939,0.994071192,-0.578031308,0.006440993,0.009859618,0.000972420,-0.044000000,0.039057775,-0.007934316,4.719995452,3.903780931,0.307992313,-0.026388920,0.025022675,-0.079870822
1751354845.546941757,-1.788588058,-1.836717795,-1.078862414,1.603417939,0.994150195,-0.578047357,0.006587379,0.010083700,0.000994520,-0.045000000,0.039945452,-0.008114641,4.719966310,3.903845042,0.307995261,-0.026396368,0.025022676,-0.079871888
1751354845.548720837,-1.788574737,-1.836697404,-1.078860402,1.603326939,0.994230974,-0.578063767,0.006733766,0.010307782,0.001016620,-0.046000000,0.040833128,-0.008294967,4.719936509,3.903910589,0.307998275,-0.026403983,0.025022678,-0.079872977
1751354845.550716400,-1.788561123,-1.836676564,-1.078858347,1.603233939,0.994313528,-0.578080537,0.006880152,0.010531865,0.001038721,-0.047000000,0.041720805,-0.008475292,4.719906049,3.903977572,0.308001355,-0.026411766,0.025022680,-0.079874090
1751354845.552665710,-1.788547216,-1.836655276,-1.078856248,1.603138939,0.994397857,-0.578097668,0.007026538,0.010755947,0.001060821,-0.048000000,0.042608482,-0.008655617,4.719874931,3.904045991,0.308004500,-0.026419716,0.025022682,-0.079875226
1751354845.554654837,-1.788533017,-1.836633540,-1.078854104,1.603041939,0.994483962,-0.578115160,0.007172924,0.010980029,0.001082922,-0.049000000,0.043496158,-0.008835943,4.719843153,3.904115845,0.308007712,-0.026427833,0.025022683,-0.079876386
1751354845.556688309,-1.788518525,-1.836611356,-1.078851916,1.602942939,0.994571842,-0.578133012,0.007319310,0.011204111,0.001105022,-0.050000000,0.044383835,-0.009016268,4.719810715,3.904187135,0.308010989,-0.026436117,0.025022685,-0.079877570
1751354845.558669806,-1.788503740,-1.836588724,-1.078849684,1.602841939,0.994661497,-0.578151225,0.007465697,0.011428193,0.001127123,-0.051000000,0.045271512,-0.009196593,4.719777618,3.904259859,0.308014332,-0.026444570,0.025022687,-0.079878777
1751354845.563845873,-1.788503740,-1.836588724,-1.078849684,1.602841939,0.994661497,-0.578151225,0.007465697,0.011428193,0.001127123,-0.051000000,0.045271512,-0.009196593,4.719777618,3.904259859,0.308014332,-0.026444570,0.025022687,-0.079878777
1751354845.564729929,-1.788457628,-1.836518138,-1.078842722,1.602526939,0.994941115,-0.578208027,0.007904855,0.012100440,0.001193424,-0.054000000,0.047934542,-0.009737569,4.719674364,3.904486638,0.308024755,-0.026470930,0.025022693,-0.079882541
1751354845.566924095,-1.788441672,-1.836493713,-1.078840313,1.602417939,0.995037872,-0.578227683,0.008051241,0.012324522,0.001215524,-0.055000000,0.048822219,-0.009917895,4.719638625,3.904565099,0.308028361,-0.026480052,0.025022695,-0.079883842
1751354845.568932772,-1.788425423,-1.836468840,-1.078837860,1.602306939,0.995136404,-0.578247699,0.008197628,0.012548605,0.001237625,-0.056000000,0.049709895,-0.010098220,4.719602224,3.904644993,0.308032032,-0.026489341,0.025022697,-0.079885167
1751354845.570898533,-1.788408881,-1.836443519,-1.078835363,1.602193939,0.995236712,-0.578268075,0.008344014,0.012772687,0.001259725,-0.057000000,0.050597572,-0.010278545,4.719565161,3.904726320,0.308035769,-0.026498797,0.025022699,-0.079886516
1751354845.572773695,-1.788392047,-1.836417749,-1.078832821,1.602078939,0.995338795,-0.578288813,0.008490400,0.012996769,0.001281826,-0.058000000,0.051485249,-0.010458871,4.719527437,3.904809079,0.308039571,-0.026508421,0.025022702,-0.079887888
1751354845.574686527,-1.788374920,-1.836391532,-1.078830235,1.601961939,0.995442653,-0.578309911,0.008636786,0.013220851,0.001303926,-0.059000000,0.052372926,-0.010639196,4.719489051,3.904893270,0.308043439,-0.026518212,0.025022704,-0.079889283
1751354845.576801538,-1.788357500,-1.836364866,-1.078827605,1.601842939,0.995548286,-0.578331370,0.008783172,0.013444933,0.001326027,-0.060000000,0.053260602,-0.010819522,4.719450002,3.904978893,0.308047373,-0.026528171,0.025022706,-0.079890702
1751354845.578779936,-1.788357500,-1.836364866,-1.078827605,1.601842939,0.995548286,-0.578331370,0.008783172,0.013444933,0.001326027,-0.060000000,0.053260602,-0.010819522,4.719450002,3.904978893,0.308047373,-0.026528171,0.025022706,-0.079890702
1751354845.580945492,-1.788339787,-1.836337752,-1.078824931,1.601721939,0.995655695,-0.578353189,0.008929559,0.013669016,0.001348127,-0.061000000,0.054148279,-0.010999847,4.719410290,3.905065947,0.308051372,-0.026538297,0.025022708,-0.079892144
1751354845.582858086,-1.788321782,-1.836310190,-1.078822213,1.601598939,0.995764879,-0.578375369,0.009075945,0.013893098,0.001370227,-0.062000000,0.055035956,-0.011180172,4.719369915,3.905154433,0.308055436,-0.026548590,0.025022711,-0.079893609
1751354845.584779978,-1.788303483,-1.836282179,-1.078819450,1.601473939,0.995875839,-0.578397910,0.009222331,0.014117180,0.001392328,-0.063000000,0.055923632,-0.011360498,4.719328876,3.905244349,0.308059566,-0.026559051,0.025022713,-0.079895098
1751354845.586763859,-1.788284892,-1.836253721,-1.078816644,1.601346939,0.995988574,-0.578420811,0.009368717,0.014341262,0.001414428,-0.064000000,0.056811309,-0.011540823,4.719287174,3.905335695,0.308063760,-0.026569679,0.025022715,-0.079896610
1751354845.589015722,-1.788266008,-1.836224814,-1.078813793,1.601217939,0.996103084,-0.578444073,0.009515104,0.014565345,0.001436529,-0.065000000,0.057698986,-0.011721148,4.719244808,3.905428471,0.308068021,-0.026580475,0.025022718,-0.079898146
1751354845.590797901,-1.788246832,-1.836195460,-1.078810897,1.601086939,0.996219370,-0.578467696,0.009661490,0.014789427,0.001458629,-0.066000000,0.058586662,-0.011901474,4.719201777,3.905522676,0.308072346,-0.026591438,0.025022720,-0.079899705
1751354845.592751503,-1.788227362,-1.836165657,-1.078807958,1.600953939,0.996337431,-0.578491679,0.009807876,0.015013509,0.001480730,-0.067000000,0.059474339,-0.012081799,4.719158081,3.905618310,0.308076737,-0.026602568,0.025022723,-0.079901287
1751354845.594812155,-1.788207600,-1.836135406,-1.078804974,1.600818939,0.996457267,-0.578516023,0.009954262,0.015237591,0.001502830,-0.068000000,0.060362016,-0.012262124,4.719113720,3.905715373,0.308081193,-0.026613866,0.025022725,-0.079902892
1751354845.596835375,-1.788187545,-1.836104706,-1.078801947,1.600681939,0.996578879,-0.578540727,0.010100648,0.015461673,0.001524931,-0.069000000,0.061249693,-0.012442450,4.719068693,3.905813864,0.308085714,-0.026625331,0.025022728,-0.079904520
1751354845.598831415,-1.788167198,-1.836073559,-1.078798875,1.600542939,0.996702266,-0.578565793,0.010247035,0.015685756,0.001547031,-0.070000000,0.062137369,-0.012622775,4.719023000,3.905913783,0.308090301,-0.026636964,0.025022731,-0.079906172
1751354845.600684404,-1.788146557,-1.836041963,-1.078795759,1.600401939,0.996827428,-0.578591218,0.010393421,0.015909838,0.001569131,-0.071000000,0.063025046,-0.012803100,4.718976641,3.906015129,0.308094952,-0.026648764,0.025022733,-0.079907846
1751354845.609159231,-1.788125624,-1.836009920,-1.078792598,1.600258939,0.996954366,-0.578617005,0.010539807,0.016133920,0.001591232,-0.072000000,0.063912723,-0.012983426,4.718929615,3.906117901,0.308099669,-0.026660732,0.025022736,-0.079909544
1751354845.609326601,-1.788061068,-1.835911099,-1.078782852,1.599817939,0.997345832,-0.578696528,0.010978966,0.016806167,0.001657533,-0.075000000,0.066575753,-0.013524402,4.718784534,3.906434776,0.308114208,-0.026697639,0.025022744,-0.079914776
1751354845.609346390,-1.788061068,-1.835911099,-1.078782852,1.599817939,0.997345832,-0.578696528,0.010978966,0.016806167,0.001657533,-0.075000000,0.066575753,-0.013524402,4.718784534,3.906434776,0.308114208,-0.026697639,0.025022744,-0.079914776
1751354845.609362602,-1.788061068,-1.835911099,-1.078782852,1.599817939,0.997345832,-0.578696528,0.010978966,0.016806167,0.001657533,-0.075000000,0.066575753,-0.013524402,4.718784534,3.906434776,0.308114208,-0.026697639,0.025022744,-0.079914776
1751354845.611016512,-1.788038963,-1.835877263,-1.078779515,1.599666939,0.997479871,-0.578723758,0.011125352,0.017030249,0.001679634,-0.076000000,0.067463429,-0.013704727,4.718734837,3.906543251,0.308119184,-0.026710276,0.025022747,-0.079916566
1751354845.612982750,-1.788016566,-1.835842978,-1.078776133,1.599513939,0.997615685,-0.578751347,0.011271738,0.017254331,0.001701734,-0.077000000,0.068351106,-0.013885053,4.718684472,3.906653151,0.308124225,-0.026723080,0.025022750,-0.079918379
1751354845.614842415,-1.787993876,-1.835808246,-1.078772708,1.599358939,0.997753275,-0.578779298,0.011418124,0.017478413,0.001723835,-0.078000000,0.069238783,-0.014065378,4.718633437,3.906764475,0.308129331,-0.026736052,0.025022753,-0.079920215
1751354845.617572069,-1.787970894,-1.835773065,-1.078769238,1.599201939,0.997892640,-0.578807609,0.011564510,0.017702496,0.001745935,-0.079000000,0.070126460,-0.014245703,4.718581733,3.906877222,0.308134502,-0.026749192,0.025022756,-0.079922074
1751354845.620752335,-1.787947618,-1.835737436,-1.078765724,1.599042939,0.998033781,-0.578836281,0.011710897,0.017926578,0.001768035,-0.080000000,0.071014136,-0.014426029,4.718529359,3.906991392,0.308139737,-0.026762499,0.025022759,-0.079923956
1751354845.622434378,-1.787924050,-1.835701358,-1.078762166,1.598881939,0.998176697,-0.578865313,0.011857283,0.018150660,0.001790136,-0.081000000,0.071901813,-0.014606354,4.718476314,3.907106985,0.308145037,-0.026775973,0.025022762,-0.079925860
1751354845.622550011,-1.787900189,-1.835664833,-1.078758564,1.598718939,0.998321388,-0.578894706,0.012003669,0.018374742,0.001812236,-0.082000000,0.072789490,-0.014786679,4.718422599,3.907223999,0.308150402,-0.026789615,0.025022765,-0.079927788
1751354845.624671698,-1.787876036,-1.835627859,-1.078754917,1.598553939,0.998467855,-0.578924460,0.012150055,0.018598825,0.001834337,-0.083000000,0.073677166,-0.014967005,4.718368212,3.907342435,0.308155831,-0.026803424,0.025022768,-0.079929738
1751354845.626677036,-1.787851589,-1.835590438,-1.078751226,1.598386939,0.998616097,-0.578954574,0.012296441,0.018822907,0.001856437,-0.084000000,0.074564843,-0.015147330,4.718313154,3.907462292,0.308161325,-0.026817400,0.025022771,-0.079931711
1751354845.632517338,-1.787826850,-1.835552568,-1.078747491,1.598217939,0.998766114,-0.578985049,0.012442828,0.019046989,0.001878538,-0.085000000,0.075452520,-0.015327656,4.718257423,3.907583570,0.308166883,-0.026831544,0.025022774,-0.079933707
1751354845.632800341,-1.787776493,-1.835475483,-1.078739889,1.597873939,0.999071475,-0.579047081,0.012735600,0.019495153,0.001922739,-0.087000000,0.077227873,-0.015688306,4.718143944,3.907830383,0.308178193,-0.026860335,0.025022781,-0.079937766
1751354845.634830475,-1.787750875,-1.835436269,-1.078736021,1.597698939,0.999226818,-0.579078638,0.012881986,0.019719236,0.001944839,-0.088000000,0.078115550,-0.015868632,4.718086194,3.907955919,0.308183945,-0.026874981,0.025022784,-0.079939830
1751354845.636704206,-1.787724965,-1.835396607,-1.078732109,1.597521939,0.999383937,-0.579110555,0.013028372,0.019943318,0.001966939,-0.089000000,0.079003227,-0.016048957,4.718027770,3.908082872,0.308189761,-0.026889795,0.025022787,-0.079941916
1751354845.638707876,-1.787698762,-1.835356496,-1.078728153,1.597342939,0.999542831,-0.579142834,0.013174759,0.020167400,0.001989040,-0.090000000,0.079890903,-0.016229282,4.717968671,3.908211243,0.308195641,-0.026904776,0.025022791,-0.079944025
1751354845.640727043,-1.787672266,-1.835315937,-1.078724153,1.597161939,0.999703501,-0.579175473,0.013321145,0.020391482,0.002011140,-0.091000000,0.080778580,-0.016409608,4.717908898,3.908341031,0.308201585,-0.026919925,0.025022794,-0.079946156
1751354845.642683983,-1.787645477,-1.835274930,-1.078720109,1.596978939,0.999865946,-0.579208472,0.013467531,0.020615565,0.002033241,-0.092000000,0.081666257,-0.016589933,4.717848448,3.908472236,0.308207593,-0.026935241,0.025022797,-0.079948310
1751354845.644708157,-1.787645477,-1.835274930,-1.078720109,1.596978939,0.999865946,-0.579208472,0.013467531,0.020615565,0.002033241,-0.092000000,0.081666257,-0.016589933,4.717848448,3.908472236,0.308207593,-0.026935241,0.025022797,-0.079948310
1751354845.646658897,-1.787618396,-1.835233475,-1.078716020,1.596793939,1.000030166,-0.579241832,0.013613917,0.020839647,0.002055341,-0.093000000,0.082553933,-0.016770258,4.717787323,3.908604857,0.308213666,-0.026950724,0.025022801,-0.079950487
1751354845.648675442,-1.787591022,-1.835191571,-1.078711887,1.596606939,1.000196161,-0.579275553,0.013760304,0.021063729,0.002077442,-0.094000000,0.083441610,-0.016950584,4.717725522,3.908738893,0.308219802,-0.026966375,0.025022804,-0.079952686
1751354845.650690317,-1.787563355,-1.835149220,-1.078707710,1.596417939,1.000363932,-0.579309635,0.013906690,0.021287811,0.002099542,-0.095000000,0.084329287,-0.017130909,4.717663043,3.908874343,0.308226003,-0.026982194,0.025022808,-0.079954907
1751354845.652592182,-1.787535395,-1.835106420,-1.078703489,1.596226939,1.000533479,-0.579344077,0.014053076,0.021511893,0.002121643,-0.096000000,0.085216964,-0.017311234,4.717599887,3.909011208,0.308232267,-0.026998179,0.025022812,-0.079957150
1751354845.654634953,-1.787507142,-1.835063172,-1.078699224,1.596033939,1.000704800,-0.579378880,0.014199462,0.021735976,0.002143743,-0.097000000,0.086104640,-0.017491560,4.717536052,3.909149486,0.308238596,-0.027014333,0.025022815,-0.079959416
1751354845.656646252,-1.787478597,-1.835019476,-1.078694914,1.595838939,1.000877897,-0.579414043,0.014345848,0.021960058,0.002165843,-0.098000000,0.086992317,-0.017671885,4.717471539,3.909289178,0.308244988,-0.027030653,0.025022819,-0.079961705
1751354845.658644915,-1.787449759,-1.834975332,-1.078690560,1.595641939,1.001052769,-0.579449567,0.014492235,0.022184140,0.002187944,-0.099000000,0.087879994,-0.017852211,4.717406347,3.909430281,0.308251444,-0.027047141,0.025022823,-0.079964015
1751354845.660666466,-1.787420628,-1.834930740,-1.078686162,1.595442939,1.001229417,-0.579485452,0.014638621,0.022408222,0.002210044,-0.100000000,0.088767670,-0.018032536,4.717340476,3.909572796,0.308257964,-0.027063797,0.025022826,-0.079966348
1751354845.666062117,-1.787391204,-1.834885699,-1.078681720,1.595241939,1.001407840,-0.579521697,0.014785007,0.022632305,0.002232145,-0.101000000,0.089655347,-0.018212861,4.717273924,3.909716722,0.308264547,-0.027080620,0.025022830,-0.079968702
1751354845.666131258,-1.787361488,-1.834840210,-1.078677234,1.595038939,1.001588039,-0.579558303,0.014931393,0.022856387,0.002254245,-0.102000000,0.090543024,-0.018393187,4.717206691,3.909862059,0.308271194,-0.027097611,0.025022834,-0.079971079
1751354845.667204142,-1.787331479,-1.834794273,-1.078672703,1.594833939,1.001770012,-0.579595270,0.015077779,0.023080469,0.002276346,-0.103000000,0.091430700,-0.018573512,4.717138777,3.910008805,0.308277905,-0.027114769,0.025022838,-0.079973478
1751354845.669040442,-1.787331479,-1.834794273,-1.078672703,1.594833939,1.001770012,-0.579595270,0.015077779,0.023080469,0.002276346,-0.103000000,0.091430700,-0.018573512,4.717138777,3.910008805,0.308277905,-0.027114769,0.025022838,-0.079973478
1751354845.670756578,-1.787270582,-1.834701055,-1.078663510,1.594417939,1.002139286,-0.579670285,0.015370552,0.023528633,0.002320547,-0.105000000,0.093206054,-0.018934163,4.717000903,3.910306524,0.308291517,-0.027149587,0.025022845,-0.079978343
1751354845.673038006,-1.787239695,-1.834653774,-1.078658846,1.594206939,1.002326586,-0.579708334,0.015516938,0.023752716,0.002342647,-0.106000000,0.094093731,-0.019114488,4.716930942,3.910457496,0.308298417,-0.027167247,0.025022849,-0.079980808
1751354845.675345659,-1.787239695,-1.834653774,-1.078658846,1.594206939,1.002326586,-0.579708334,0.015516938,0.023752716,0.002342647,-0.106000000,0.094093731,-0.019114488,4.716930942,3.910457496,0.308298417,-0.027167247,0.025022849,-0.079980808
1751354845.677450657,-1.787208514,-1.834606044,-1.078654139,1.593993939,1.002515661,-0.579746743,0.015663324,0.023976798,0.002364747,-0.107000000,0.094981407,-0.019294813,4.716860297,3.910609874,0.308305382,-0.027185075,0.025022853,-0.079983295
1751354845.679272890,-1.787177041,-1.834557867,-1.078649387,1.593778939,1.002706511,-0.579785513,0.015809710,0.024200880,0.002386848,-0.108000000,0.095869084,-0.019475139,4.716788969,3.910763659,0.308312409,-0.027203070,0.025022857,-0.079985804
1751354845.680700779,-1.787145276,-1.834509241,-1.078644592,1.593561939,1.002899137,-0.579824644,0.015956097,0.024424962,0.002408948,-0.109000000,0.096756761,-0.019655464,4.716716955,3.910918850,0.308319500,-0.027221232,0.025022861,-0.079988335
1751354845.682639122,-1.787113217,-1.834460167,-1.078639752,1.593342939,1.003093538,-0.579864135,0.016102483,0.024649045,0.002431049,-0.110000000,0.097644437,-0.019835790,4.716644256,3.911075445,0.308326654,-0.027239563,0.025022866,-0.079990887
1751354845.684613943,-1.787080866,-1.834410645,-1.078634867,1.593121939,1.003289715,-0.579903987,0.016248869,0.024873127,0.002453149,-0.111000000,0.098532114,-0.020016115,4.716570871,3.911233445,0.308333871,-0.027258060,0.025022870,-0.079993462
1751354845.686654806,-1.787048222,-1.834360674,-1.078629939,1.592898939,1.003487667,-0.579944200,0.016395255,0.025097209,0.002475250,-0.112000000,0.099419791,-0.020196440,4.716496800,3.911392849,0.308341151,-0.027276725,0.025022874,-0.079996058
1751354845.690766811,-1.787048222,-1.834360674,-1.078629939,1.592898939,1.003487667,-0.579944200,0.016395255,0.025097209,0.002475250,-0.112000000,0.099419791,-0.020196440,4.716496800,3.911392849,0.308341151,-0.027276725,0.025022874,-0.079996058
1751354845.692962646,-1.786982055,-1.834259389,-1.078619950,1.592446939,1.003888897,-0.580025707,0.016688028,0.025545374,0.002519451,-0.114000000,0.101195144,-0.020557091,4.716346595,3.911715864,0.308355899,-0.027314557,0.025022882,-0.080001315
1751354845.694823265,-1.786948532,-1.834208074,-1.078614889,1.592217939,1.004092174,-0.580067001,0.016834414,0.025769456,0.002541551,-0.115000000,0.102082821,-0.020737416,4.716270461,3.911879474,0.308363368,-0.027333725,0.025022887,-0.080003976
1751354845.696797848,-1.786914717,-1.834156311,-1.078609783,1.591986939,1.004297228,-0.580108656,0.016980800,0.025993538,0.002563651,-0.116000000,0.102970498,-0.020917742,4.716193637,3.912044485,0.308370899,-0.027353059,0.025022891,-0.080006659
1751354845.698616028,-1.786880609,-1.834104100,-1.078604634,1.591753939,1.004504056,-0.580150672,0.017127186,0.026217620,0.002585752,-0.117000000,0.103858174,-0.021098067,4.716116124,3.912210896,0.308378493,-0.027372561,0.025022895,-0.080009363
1751354845.700617313,-1.786846209,-1.834051441,-1.078599440,1.591518939,1.004712661,-0.580193049,0.017273573,0.026441702,0.002607852,-0.118000000,0.104745851,-0.021278392,4.716037921,3.912378706,0.308386150,-0.027392231,0.025022900,-0.080012089
1751354845.702591181,-1.786811515,-1.833998333,-1.078594203,1.591281939,1.004923040,-0.580235786,0.017419959,0.026665785,0.002629953,-0.119000000,0.105633528,-0.021458718,4.715959027,3.912547915,0.308393869,-0.027412068,0.025022904,-0.080014836
1751354845.704583883,-1.786776529,-1.833944778,-1.078588921,1.591042939,1.005135195,-0.580278883,0.017566345,0.026889867,0.002652053,-0.120000000,0.106521204,-0.021639043,4.715879441,3.912718521,0.308401651,-0.027432073,0.025022908,-0.080017604
1751354845.706562519,-1.786741250,-1.833890774,-1.078583594,1.590801939,1.005349125,-0.580322342,0.017712731,0.027113949,0.002674154,-0.121000000,0.107408881,-0.021819368,4.715799163,3.912890525,0.308409495,-0.027452245,0.025022913,-0.080020394
1751354845.708699942,-1.786705678,-1.833836322,-1.078578224,1.590558939,1.005564830,-0.580366161,0.017859117,0.027338031,0.002696254,-0.122000000,0.108296558,-0.021999694,4.715718193,3.913063924,0.308417402,-0.027472584,0.025022918,-0.080023205
1751354845.710699797,-1.786669813,-1.833781422,-1.078572809,1.590313939,1.005782311,-0.580410341,0.018005504,0.027562114,0.002718355,-0.123000000,0.109184235,-0.022180019,4.715636528,3.913238719,0.308425371,-0.027493091,0.025022922,-0.080026037
1751354845.712584019,-1.786633656,-1.833726074,-1.078567351,1.590066939,1.006001567,-0.580454881,0.018151890,0.027786196,0.002740455,-0.124000000,0.110071911,-0.022360345,4.715554170,3.913414909,0.308433402,-0.027513765,0.025022927,-0.080028891
1751354845.714586258,-1.786597206,-1.833670277,-1.078561848,1.589817939,1.006222599,-0.580499782,0.018298276,0.028010278,0.002762555,-0.125000000,0.110959588,-0.022540670,4.715471117,3.913592492,0.308441495,-0.027534607,0.025022931,-0.080031765
1751354845.716583252,-1.786560463,-1.833614032,-1.078556300,1.589566939,1.006445405,-0.580545044,0.018444662,0.028234360,0.002784656,-0.126000000,0.111847265,-0.022720995,4.715387368,3.913771469,0.308449650,-0.027555616,0.025022936,-0.080034661
1751354845.724582434,-1.786523427,-1.833557340,-1.078550709,1.589313939,1.006669988,-0.580590666,0.018591048,0.028458442,0.002806756,-0.127000000,0.112734941,-0.022901321,4.715302923,3.913951837,0.308457867,-0.027576793,0.025022941,-0.080037578
1751354845.724643230,-1.786523427,-1.833557340,-1.078550709,1.589313939,1.006669988,-0.580590666,0.018591048,0.028458442,0.002806756,-0.127000000,0.112734941,-0.022901321,4.715302923,3.913951837,0.308457867,-0.027576793,0.025022941,-0.080037578
1751354845.724659204,-1.786486098,-1.833500199,-1.078545073,1.589058939,1.006896345,-0.580636649,0.018737435,0.028682525,0.002828857,-0.128000000,0.113622618,-0.023081646,4.715217781,3.914133598,0.308466146,-0.027598137,0.025022945,-0.080040516
1751354845.725587130,-1.786410563,-1.833384572,-1.078533669,1.588542939,1.007354386,-0.580729697,0.019030207,0.029130689,0.002873058,-0.130000000,0.115397971,-0.023442297,4.715045404,3.914501289,0.308482890,-0.027641327,0.025022955,-0.080046454
1751354845.726753950,-1.786372356,-1.833326087,-1.078527901,1.588281939,1.007586070,-0.580776762,0.019176593,0.029354771,0.002895158,-0.131000000,0.116285648,-0.023622622,4.714958167,3.914687219,0.308491355,-0.027663174,0.025022960,-0.080049455
1751354845.730659008,-1.786333857,-1.833267153,-1.078522089,1.588018939,1.007819529,-0.580824187,0.019322979,0.029578854,0.002917259,-0.132000000,0.117173325,-0.023802947,4.714870231,3.914874536,0.308499881,-0.027685187,0.025022965,-0.080052476
1751354845.731300116,-1.786295064,-1.833207771,-1.078516232,1.587753939,1.008054763,-0.580871974,0.019469366,0.029802936,0.002939359,-0.133000000,0.118061002,-0.023983273,4.714781594,3.915063241,0.308508469,-0.027707369,0.025022970,-0.080055518
1751354845.734113455,-1.786255979,-1.833147941,-1.078510331,1.587486939,1.008291773,-0.580920120,0.019615752,0.030027018,0.002961459,-0.134000000,0.118948678,-0.024163598,4.714692256,3.915253333,0.308517118,-0.027729717,0.025022975,-0.080058581
1751354845.735312939,-1.786216601,-1.833087663,-1.078504386,1.587217939,1.008530558,-0.580968628,0.019762138,0.030251100,0.002983560,-0.135000000,0.119836355,-0.024343923,4.714602216,3.915444810,0.308525829,-0.027752233,0.025022980,-0.080061664
1751354845.737567902,-1.786216601,-1.833087663,-1.078504386,1.587217939,1.008530558,-0.580968628,0.019762138,0.030251100,0.002983560,-0.135000000,0.119836355,-0.024343923,4.714602216,3.915444810,0.308525829,-0.027752233,0.025022980,-0.080061664
1751354845.738627434,-1.786176931,-1.833026937,-1.078498397,1.586946939,1.008771118,-0.581017496,0.019908524,0.030475182,0.003005660,-0.136000000,0.120724032,-0.024524249,4.714511474,3.915637672,0.308534600,-0.027774917,0.025022985,-0.080064768
1751354845.740575790,-1.786136967,-1.832965763,-1.078492364,1.586673939,1.009013454,-0.581066725,0.020054910,0.030699265,0.003027761,-0.137000000,0.121611708,-0.024704574,4.714420028,3.915831917,0.308543434,-0.027797768,0.025022990,-0.080067893
1751354845.742619991,-1.786096711,-1.832904140,-1.078486286,1.586398939,1.009257565,-0.581116314,0.020201297,0.030923347,0.003049861,-0.138000000,0.122499385,-0.024884900,4.714327878,3.916027546,0.308552328,-0.027820786,0.025022995,-0.080071038
1751354845.747167349,-1.786056162,-1.832842069,-1.078480164,1.586121939,1.009503452,-0.581166265,0.020347683,0.031147429,0.003071962,-0.139000000,0.123387062,-0.025065225,4.714235023,3.916224557,0.308561283,-0.027843972,0.025023000,-0.080074203
1751354845.747216702,-1.786015320,-1.832779550,-1.078473998,1.585842939,1.009751113,-0.581216575,0.020494069,0.031371511,0.003094062,-0.140000000,0.124274739,-0.025245550,4.714141463,3.916422949,0.308570300,-0.027867325,0.025023005,-0.080077389
1751354845.749049902,-1.785974186,-1.832716583,-1.078467788,1.585561939,1.010000551,-0.581267247,0.020640455,0.031595594,0.003116163,-0.141000000,0.125162415,-0.025425876,4.714047196,3.916622721,0.308579377,-0.027890846,0.025023010,-0.080080596
1751354845.750877142,-1.785932759,-1.832653168,-1.078461534,1.585278939,1.010251763,-0.581318279,0.020786841,0.031819676,0.003138263,-0.142000000,0.126050092,-0.025606201,4.713952222,3.916823873,0.308588516,-0.027914534,0.025023016,-0.080083822
1751354845.752729654,-1.785891039,-1.832589304,-1.078455235,1.584993939,1.010504751,-0.581369672,0.020933228,0.032043758,0.003160363,-0.143000000,0.126937769,-0.025786526,4.713856540,3.917026403,0.308597715,-0.027938389,0.025023021,-0.080087069
1751354845.754686356,-1.785849026,-1.832524993,-1.078448892,1.584706939,1.010759514,-0.581421425,0.021079614,0.032267840,0.003182464,-0.144000000,0.127825445,-0.025966852,4.713760150,3.917230311,0.308606974,-0.027962412,0.025023026,-0.080090336
1751354845.756698132,-1.785806720,-1.832460233,-1.078442505,1.584417939,1.011016053,-0.581473539,0.021226000,0.032491922,0.003204564,-0.145000000,0.128713122,-0.026147177,4.713663050,3.917435595,0.308616295,-0.027986603,0.025023032,-0.080093623
1751354845.758734941,-1.785764122,-1.832395025,-1.078436074,1.584126939,1.011274367,-0.581526014,0.021372386,0.032716005,0.003226665,-0.146000000,0.129600799,-0.026327502,4.713565239,3.917642256,0.308625675,-0.028010960,0.025023037,-0.080096930
1751354845.760710001,-1.785721231,-1.832329369,-1.078429598,1.583833939,1.011534456,-0.581578849,0.021518773,0.032940087,0.003248765,-0.147000000,0.130488475,-0.026507828,4.713466718,3.917850291,0.308635117,-0.028035485,0.025023043,-0.080100257
1751354845.762706757,-1.785678047,-1.832263265,-1.078423079,1.583538939,1.011796321,-0.581632045,0.021665159,0.033164169,0.003270866,-0.148000000,0.131376152,-0.026688153,4.713367485,3.918059700,0.308644618,-0.028060178,0.025023048,-0.080103604
1751354845.764706373,-1.785634570,-1.832196712,-1.078416515,1.583241939,1.012059961,-0.581685602,0.021811545,0.033388251,0.003292966,-0.149000000,0.132263829,-0.026868479,4.713267539,3.918270481,0.308654180,-0.028085038,0.025023053,-0.080106971
1751354845.766684532,-1.785590800,-1.832129712,-1.078409907,1.582942939,1.012325376,-0.581739519,0.021957931,0.033612334,0.003315067,-0.150000000,0.133151506,-0.027048804,4.713166879,3.918482635,0.308663802,-0.028110065,0.025023059,-0.080110358
1751354845.768695354,-1.785546738,-1.832062263,-1.078403255,1.582641939,1.012592567,-0.581793797,0.022104317,0.033836416,0.003337167,-0.151000000,0.134039182,-0.027229129,4.713065506,3.918696160,0.308673484,-0.028135259,0.025023065,-0.080113765
1751354845.770693779,-1.785502383,-1.831994366,-1.078396558,1.582338939,1.012861533,-0.581848435,0.022250704,0.034060498,0.003359267,-0.152000000,0.134926859,-0.027409455,4.712963417,3.918911055,0.308683226,-0.028160621,0.025023070,-0.080117191
1751354845.772668362,-1.785457735,-1.831926021,-1.078389818,1.582033939,1.013132274,-0.581903435,0.022397090,0.034284580,0.003381368,-0.153000000,0.135814536,-0.027589780,4.712860612,3.919127319,0.308693028,-0.028186151,0.025023076,-0.080120637
1751354845.774731159,-1.785412795,-1.831857228,-1.078383033,1.581726939,1.013404791,-0.581958795,0.022543476,0.034508662,0.003403468,-0.154000000,0.136702212,-0.027770105,4.712757090,3.919344951,0.308702890,-0.028211848,0.025023081,-0.080124103
1751354845.777134418,-1.785367561,-1.831787986,-1.078376204,1.581417939,1.013679083,-0.582014515,0.022689862,0.034732745,0.003425569,-0.155000000,0.137589889,-0.027950431,4.712652851,3.919563950,0.308712811,-0.028237712,0.025023087,-0.080127588
1751354845.779604197,-1.785367561,-1.831787986,-1.078376204,1.581417939,1.013679083,-0.582014515,0.022689862,0.034732745,0.003425569,-0.155000000,0.137589889,-0.027950431,4.712652851,3.919563950,0.308712811,-0.028237712,0.025023087,-0.080127588
1751354845.781424284,-1.785322035,-1.831718297,-1.078369331,1.581106939,1.013955150,-0.582070596,0.022836248,0.034956827,0.003447669,-0.156000000,0.138477566,-0.028130756,4.712547893,3.919784315,0.308722792,-0.028263743,0.025023093,-0.080131093
1751354845.783678532,-1.785276216,-1.831648159,-1.078362413,1.580793939,1.014232993,-0.582127038,0.022982635,0.035180909,0.003469770,-0.157000000,0.139365242,-0.028311081,4.712442216,3.920006046,0.308732833,-0.028289942,0.025023099,-0.080134617
1751354845.793781996,-1.785090013,-1.831363126,-1.078334301,1.579521939,1.015362118,-0.582356412,0.023568179,0.036077238,0.003558171,-0.161000000,0.142915949,-0.029032383,4.712012296,3.920906598,0.308773589,-0.028396411,0.025023122,-0.080148906
1751354845.793899775,-1.785042730,-1.831290748,-1.078327163,1.579198939,1.015648837,-0.582414657,0.023714566,0.036301320,0.003580272,-0.162000000,0.143803626,-0.029212708,4.711903009,3.921135138,0.308783926,-0.028423447,0.025023128,-0.080152526
1751354845.794704914,-1.784995155,-1.831217921,-1.078319980,1.578873939,1.015937332,-0.582473263,0.023860952,0.036525402,0.003602372,-0.163000000,0.144691303,-0.029393034,4.711792998,3.921365038,0.308794322,-0.028450649,0.025023134,-0.080156166
1751354845.796646833,-1.784947287,-1.831144646,-1.078312753,1.578546939,1.016227603,-0.582532229,0.024007338,0.036749485,0.003624473,-0.164000000,0.145578979,-0.029573359,4.711682261,3.921596296,0.308804777,-0.028478020,0.025023140,-0.080159824
1751354845.798609495,-1.784899126,-1.831070923,-1.078305482,1.578217939,1.016519648,-0.582591556,0.024153724,0.036973567,0.003646573,-0.165000000,0.146466656,-0.029753684,4.711570798,3.921828910,0.308815291,-0.028505557,0.025023146,-0.080163501
1751354845.803260565,-1.784899126,-1.831070923,-1.078305482,1.578217939,1.016519648,-0.582591556,0.024153724,0.036973567,0.003646573,-0.165000000,0.146466656,-0.029753684,4.711570798,3.921828910,0.308815291,-0.028505557,0.025023146,-0.080163501
1751354845.804821253,-1.784801925,-1.830922133,-1.078290808,1.577553939,1.017109066,-0.582711292,0.024446497,0.037421731,0.003690774,-0.167000000,0.148242010,-0.030114335,4.711345688,3.922298205,0.308836494,-0.028561134,0.025023158,-0.080170912
1751354845.806754827,-1.784752886,-1.830847065,-1.078283404,1.577218939,1.017406437,-0.582771701,0.024592883,0.037645814,0.003712874,-0.168000000,0.149129686,-0.030294660,4.711232040,3.922534884,0.308847183,-0.028589174,0.025023165,-0.080174646
1751354845.808799028,-1.784703554,-1.830771549,-1.078275956,1.576881939,1.017705584,-0.582832471,0.024739269,0.037869896,0.003734975,-0.169000000,0.150017363,-0.030474986,4.711117662,3.922772915,0.308857931,-0.028617380,0.025023171,-0.080178399
1751354845.810813665,-1.784653929,-1.830695586,-1.078268464,1.576542939,1.018006507,-0.582893601,0.024885655,0.038093978,0.003757075,-0.170000000,0.150905040,-0.030655311,4.711002553,3.923012297,0.308868737,-0.028645754,0.025023177,-0.080182170
1751354845.812742710,-1.784604011,-1.830619173,-1.078260928,1.576201939,1.018309205,-0.582955092,0.025032042,0.038318060,0.003779176,-0.171000000,0.151792716,-0.030835636,4.710886712,3.923253030,0.308879601,-0.028674296,0.025023183,-0.080185959
1751354845.814734221,-1.784553801,-1.830542313,-1.078253347,1.575858939,1.018613678,-0.583016944,0.025178428,0.038542142,0.003801276,-0.172000000,0.152680393,-0.031015962,4.710770138,3.923495113,0.308890524,-0.028703004,0.025023190,-0.080189767
1751354845.816680193,-1.784503297,-1.830465005,-1.078245723,1.575513939,1.018919926,-0.583079156,0.025324814,0.038766225,0.003823377,-0.173000000,0.153568070,-0.031196287,4.710652831,3.923738543,0.308901504,-0.028731880,0.025023196,-0.080193594
1751354845.818687677,-1.784452501,-1.830387248,-1.078238054,1.575166939,1.019227950,-0.583141729,0.025471200,0.038990307,0.003845477,-0.174000000,0.154455746,-0.031376612,4.710534789,3.923983321,0.308912542,-0.028760923,0.025023202,-0.080197438
1751354845.820654869,-1.784401412,-1.830309044,-1.078230341,1.574817939,1.019537749,-0.583204662,0.025617586,0.039214389,0.003867578,-0.175000000,0.155343423,-0.031556938,4.710416011,3.924229444,0.308923638,-0.028790134,0.025023209,-0.080201301
1751354845.822675467,-1.784350031,-1.830230391,-1.078222584,1.574466939,1.019849324,-0.583267957,0.025763973,0.039438471,0.003889678,-0.176000000,0.156231100,-0.031737263,4.710296496,3.924476913,0.308934792,-0.028819511,0.025023215,-0.080205183
1751354845.824760914,-1.784298357,-1.830151290,-1.078214782,1.574113939,1.020162674,-0.583331611,0.025910359,0.039662554,0.003911778,-0.177000000,0.157118777,-0.031917589,4.710176244,3.924725725,0.308946003,-0.028849056,0.025023222,-0.080209082
1751354845.826933146,-1.784246389,-1.830071741,-1.078206936,1.573758939,1.020477799,-0.583395627,0.026056745,0.039886636,0.003933879,-0.178000000,0.158006453,-0.032097914,4.710055254,3.924975879,0.308957271,-0.028878768,0.025023228,-0.080213000
1751354845.828785181,-1.784194130,-1.829991743,-1.078199047,1.573401939,1.020794699,-0.583460003,0.026203131,0.040110718,0.003955979,-0.179000000,0.158894130,-0.032278239,4.709933523,3.925227375,0.308968597,-0.028908648,0.025023235,-0.080216935
1751354845.830677986,-1.784141577,-1.829911298,-1.078191113,1.573042939,1.021113375,-0.583524740,0.026349517,0.040334800,0.003978080,-0.180000000,0.159781807,-0.032458565,4.709811053,3.925480211,0.308979980,-0.028938694,0.025023241,-0.080220888
1751354845.832677603,-1.784088732,-1.829830404,-1.078183134,1.572681939,1.021433827,-0.583589837,0.026495904,0.040558883,0.004000180,-0.181000000,0.160669483,-0.032638890,4.709687840,3.925734387,0.308991421,-0.028968908,0.025023248,-0.080224860
1751354845.841352463,-1.784088732,-1.829830404,-1.078183134,1.572681939,1.021433827,-0.583589837,0.026495904,0.040558883,0.004000180,-0.181000000,0.160669483,-0.032638890,4.709687840,3.925734387,0.308991421,-0.028968908,0.025023248,-0.080224860
1751354845.842867613,-1.783928439,-1.829585034,-1.078158934,1.571586939,1.022405833,-0.583787294,0.026935062,0.041231129,0.004066482,-0.184000000,0.163332513,-0.033179866,4.709313744,3.926504935,0.309026083,-0.029060552,0.025023268,-0.080236880
1751354845.844810247,-1.783874422,-1.829502348,-1.078150779,1.571217939,1.022733385,-0.583853834,0.027081448,0.041455211,0.004088582,-0.185000000,0.164220190,-0.033360191,4.709187555,3.926764455,0.309037751,-0.029091435,0.025023275,-0.080240922
1751354845.846867085,-1.783820113,-1.829419213,-1.078142580,1.570846939,1.023062713,-0.583920734,0.027227835,0.041679294,0.004110682,-0.186000000,0.165107867,-0.033540517,4.709060620,3.927025308,0.309049475,-0.029122484,0.025023282,-0.080244982
1751354845.848896027,-1.783765511,-1.829335631,-1.078134337,1.570473939,1.023393817,-0.583987996,0.027374221,0.041903376,0.004132783,-0.187000000,0.165995544,-0.033720842,4.708932938,3.927287494,0.309061256,-0.029153701,0.025023288,-0.080249059
1751354845.850919485,-1.783710616,-1.829251600,-1.078126049,1.570098939,1.023726696,-0.584055618,0.027520607,0.042127458,0.004154883,-0.188000000,0.166883220,-0.033901168,4.708804506,3.927551009,0.309073093,-0.029185085,0.025023295,-0.080253153
1751354845.852642536,-1.783655428,-1.829167121,-1.078117717,1.569721939,1.024061350,-0.584123600,0.027666993,0.042351540,0.004176984,-0.189000000,0.167770897,-0.034081493,4.708675325,3.927815855,0.309084986,-0.029216636,0.025023302,-0.080257265
1751354845.854690552,-1.783599948,-1.829082194,-1.078109341,1.569342939,1.024397779,-0.584191944,0.027813379,0.042575623,0.004199084,-0.190000000,0.168658574,-0.034261818,4.708545394,3.928082029,0.309096936,-0.029248354,0.025023309,-0.080261394
1751354845.858046770,-1.783544175,-1.828996818,-1.078100921,1.568961939,1.024735984,-0.584260648,0.027959766,0.042799705,0.004221185,-0.191000000,0.169546250,-0.034442144,4.708414710,3.928349529,0.309108941,-0.029280239,0.025023316,-0.080265540
1751354845.860739946,-1.783488109,-1.828910995,-1.078092456,1.568578939,1.025075964,-0.584329712,0.028106152,0.043023787,0.004243285,-0.192000000,0.170433927,-0.034622469,4.708283274,3.928618356,0.309121003,-0.029312291,0.025023323,-0.080269703
1751354845.860786915,-1.783431750,-1.828824723,-1.078083948,1.568193939,1.025417720,-0.584399138,0.028252538,0.043247869,0.004265386,-0.193000000,0.171321604,-0.034802794,4.708151084,3.928888507,0.309133120,-0.029344511,0.025023330,-0.080273883
1751354845.862744570,-1.783431750,-1.828824723,-1.078083948,1.568193939,1.025417720,-0.584399138,0.028252538,0.043247869,0.004265386,-0.193000000,0.171321604,-0.034802794,4.708151084,3.928888507,0.309133120,-0.029344511,0.025023330,-0.080273883
1751354845.864978790,-1.783375099,-1.828738003,-1.078075395,1.567806939,1.025761251,-0.584468924,0.028398924,0.043471951,0.004287486,-0.194000000,0.172209281,-0.034983120,4.708018139,3.929159982,0.309145292,-0.029376897,0.025023337,-0.080278080
1751354845.866779327,-1.783318155,-1.828650835,-1.078066798,1.567417939,1.026106557,-0.584539070,0.028545311,0.043696034,0.004309586,-0.195000000,0.173096957,-0.035163445,4.707884438,3.929432779,0.309157521,-0.029409451,0.025023344,-0.080282294
1751354845.868669748,-1.783260918,-1.828563219,-1.078058156,1.567026939,1.026453638,-0.584609577,0.028691697,0.043920116,0.004331687,-0.196000000,0.173984634,-0.035343770,4.707749980,3.929706897,0.309169804,-0.029442171,0.025023351,-0.080286524
1751354845.870635748,-1.783203388,-1.828475155,-1.078049471,1.566633939,1.026802495,-0.584680445,0.028838083,0.044144198,0.004353787,-0.197000000,0.174872311,-0.035524096,4.707614764,3.929982334,0.309182143,-0.029475059,0.025023359,-0.080290772
1751354845.872628212,-1.783145565,-1.828386642,-1.078040741,1.566238939,1.027153128,-0.584751674,0.028984469,0.044368280,0.004375888,-0.198000000,0.175759987,-0.035704421,4.707478788,3.930259089,0.309194537,-0.029508114,0.025023366,-0.080295036
1751354845.874640226,-1.783087450,-1.828297682,-1.078031967,1.565841939,1.027505535,-0.584823263,0.029130855,0.044592363,0.004397988,-0.199000000,0.176647664,-0.035884746,4.707342052,3.930537162,0.309206986,-0.029541335,0.025023373,-0.080299316
1751354845.876650333,-1.783029042,-1.828208273,-1.078023149,1.565442939,1.027859718,-0.584895213,0.029277242,0.044816445,0.004420089,-0.200000000,0.177535341,-0.036065072,4.707204555,3.930816550,0.309219490,-0.029574724,0.025023380,-0.080303613
1751354845.878630877,-1.782970341,-1.828118416,-1.078014287,1.565041939,1.028215677,-0.584967523,0.029423628,0.045040527,0.004442189,-0.201000000,0.178423017,-0.036245397,4.707066295,3.931097253,0.309232049,-0.029608279,0.025023387,-0.080307926
1751354845.880640507,-1.782911347,-1.828028111,-1.078005380,1.564638939,1.028573410,-0.585040194,0.029570014,0.045264609,0.004464290,-0.202000000,0.179310694,-0.036425723,4.706927272,3.931379269,0.309244663,-0.029642002,0.025023395,-0.080312256
1751354845.882620335,-1.782852061,-1.827937357,-1.077996430,1.564233939,1.028932919,-0.585113226,0.029716400,0.045488691,0.004486390,-0.203000000,0.180198371,-0.036606048,4.706787483,3.931662597,0.309257331,-0.029675892,0.025023402,-0.080316602
1751354845.884616852,-1.782792482,-1.827846156,-1.077987435,1.563826939,1.029294204,-0.585186618,0.029862786,0.045712774,0.004508490,-0.204000000,0.181086048,-0.036786373,4.706646929,3.931947235,0.309270053,-0.029709948,0.025023410,-0.080320964
1751354845.886617184,-1.782732610,-1.827754506,-1.077978396,1.563417939,1.029657264,-0.585260372,0.030009173,0.045936856,0.004530591,-0.205000000,0.181973724,-0.036966699,4.706505608,3.932233182,0.309282830,-0.029744171,0.025023417,-0.080325342
1751354845.888613462,-1.782672445,-1.827662409,-1.077969313,1.563006939,1.030022099,-0.585334485,0.030155559,0.046160938,0.004552691,-0.206000000,0.182861401,-0.037147024,4.706363519,3.932520437,0.309295661,-0.029778562,0.025023424,-0.080329736
1751354845.896500111,-1.782672445,-1.827662409,-1.077969313,1.563006939,1.030022099,-0.585334485,0.030155559,0.046160938,0.004552691,-0.206000000,0.182861401,-0.037147024,4.706363519,3.932520437,0.309295661,-0.029778562,0.025023424,-0.080329736
1751354845.896599770,-1.782551237,-1.827476868,-1.077951013,1.562178939,1.030757095,-0.585483795,0.030448331,0.046609103,0.004596892,-0.208000000,0.184636754,-0.037507675,4.706077031,3.933098866,0.309321484,-0.029847843,0.025023439,-0.080338572
1751354845.896740913,-1.782490194,-1.827383426,-1.077941797,1.561761939,1.031127256,-0.585558990,0.030594717,0.046833185,0.004618993,-0.209000000,0.185524431,-0.037688000,4.705932630,3.933390037,0.309334477,-0.029882734,0.025023447,-0.080343013
1751354845.898829460,-1.782428858,-1.827289536,-1.077932537,1.561342939,1.031499193,-0.585634547,0.030741104,0.047057267,0.004641093,-0.210000000,0.186412108,-0.037868325,4.705787457,3.933682510,0.309347523,-0.029917792,0.025023455,-0.080347471
1751354845.900833368,-1.782367230,-1.827195197,-1.077923233,1.560921939,1.031872905,-0.585710464,0.030887490,0.047281349,0.004663194,-0.211000000,0.187299784,-0.038048651,4.705641509,3.933976284,0.309360623,-0.029953016,0.025023462,-0.080351943
1751354845.904949903,-1.782305308,-1.827100410,-1.077913885,1.560498939,1.032248392,-0.585786741,0.031033876,0.047505431,0.004685294,-0.212000000,0.188187461,-0.038228976,4.705494787,3.934271358,0.309373776,-0.029988408,0.025023470,-0.080356432
1751354845.905093193,-1.782243094,-1.827005175,-1.077904492,1.560073939,1.032625654,-0.585863380,0.031180262,0.047729514,0.004707394,-0.213000000,0.189075138,-0.038409301,4.705347288,3.934567731,0.309386982,-0.030023966,0.025023478,-0.080360935
1751354845.907640934,-1.782180587,-1.826909492,-1.077895055,1.559646939,1.033004692,-0.585940378,0.031326648,0.047953596,0.004729495,-0.214000000,0.189962815,-0.038589627,4.705199012,3.934865400,0.309400242,-0.030059691,0.025023485,-0.080365454
1751354845.908635378,-1.782117788,-1.826813361,-1.077885574,1.559217939,1.033385506,-0.586017738,0.031473035,0.048177678,0.004751595,-0.215000000,0.190850491,-0.038769952,4.705049957,3.935164365,0.309413554,-0.030095583,0.025023493,-0.080369989
1751354845.910639524,-1.782054695,-1.826716782,-1.077876049,1.558786939,1.033768094,-0.586095458,0.031619421,0.048401760,0.004773696,-0.216000000,0.191738168,-0.038950278,4.704900123,3.935464624,0.309426919,-0.030131641,0.025023501,-0.080374538
1751354845.912673473,-1.781991310,-1.826619754,-1.077866479,1.558353939,1.034152458,-0.586173539,0.031765807,0.048625843,0.004795796,-0.217000000,0.192625845,-0.039130603,4.704749507,3.935766175,0.309440337,-0.030167867,0.025023509,-0.080379103
1751354845.917582989,-1.781991310,-1.826619754,-1.077866479,1.558353939,1.034152458,-0.586173539,0.031765807,0.048625843,0.004795796,-0.217000000,0.192625845,-0.039130603,4.704749507,3.935766175,0.309440337,-0.030167867,0.025023509,-0.080379103
1751354845.917635918,-1.781927632,-1.826522278,-1.077856865,1.557918939,1.034538598,-0.586251981,0.031912193,0.048849925,0.004817897,-0.218000000,0.193513521,-0.039310928,4.704598109,3.936069018,0.309453808,-0.030204259,0.025023517,-0.080383682
1751354845.918743610,-1.781927632,-1.826522278,-1.077856865,1.557918939,1.034538598,-0.586251981,0.031912193,0.048849925,0.004817897,-0.218000000,0.193513521,-0.039310928,4.704598109,3.936069018,0.309453808,-0.030204259,0.025023517,-0.080383682
1751354845.920824528,-1.781863661,-1.826424354,-1.077847208,1.557481939,1.034926512,-0.586330783,0.032058579,0.049074007,0.004839997,-0.219000000,0.194401198,-0.039491254,4.704445928,3.936373151,0.309467331,-0.030240817,0.025023524,-0.080388277
1751354845.922716856,-1.781799398,-1.826325982,-1.077837505,1.557042939,1.035316203,-0.586409946,0.032204966,0.049298089,0.004862098,-0.220000000,0.195288875,-0.039671579,4.704292962,3.936678573,0.309480906,-0.030277543,0.025023532,-0.080392886
1751354845.924709082,-1.781734841,-1.826227162,-1.077827759,1.556601939,1.035707668,-0.586489469,0.032351352,0.049522171,0.004884198,-0.221000000,0.196176552,-0.039851904,4.704139210,3.936985281,0.309494533,-0.030314435,0.025023540,-0.080397510
1751354845.926658154,-1.781669992,-1.826127893,-1.077817969,1.556158939,1.036100909,-0.586569353,0.032497738,0.049746254,0.004906298,-0.222000000,0.197064228,-0.040032230,4.703984671,3.937293276,0.309508213,-0.030351493,0.025023548,-0.080402148
1751354845.928679705,-1.781604850,-1.826028177,-1.077808134,1.555713939,1.036495925,-0.586649598,0.032644124,0.049970336,0.004928399,-0.223000000,0.197951905,-0.040212555,4.703829343,3.937602554,0.309521944,-0.030388719,0.025023556,-0.080406802
1751354845.930659294,-1.781539416,-1.825928012,-1.077798255,1.555266939,1.036892716,-0.586730204,0.032790511,0.050194418,0.004950499,-0.224000000,0.198839582,-0.040392880,4.703673226,3.937913115,0.309535727,-0.030426111,0.025023564,-0.080411469
1751354845.932657957,-1.781473688,-1.825827399,-1.077788332,1.554817939,1.037291283,-0.586811170,0.032936897,0.050418500,0.004972600,-0.225000000,0.199727258,-0.040573206,4.703516318,3.938224957,0.309549561,-0.030463669,0.025023572,-0.080416151
1751354845.934630632,-1.781407668,-1.825726338,-1.077778365,1.554366939,1.037691625,-0.586892496,0.033083283,0.050642583,0.004994700,-0.226000000,0.200614935,-0.040753531,4.703358618,3.938538079,0.309563447,-0.030501394,0.025023581,-0.080420848
1751354845.936653614,-1.781341355,-1.825624829,-1.077768353,1.553913939,1.038093743,-0.586974184,0.033229669,0.050866665,0.005016801,-0.227000000,0.201502612,-0.040933857,4.703200125,3.938852479,0.309577385,-0.030539285,0.025023589,-0.080425558
1751354845.938663006,-1.781274749,-1.825522871,-1.077758297,1.553458939,1.038497636,-0.587056232,0.033376055,0.051090747,0.005038901,-0.228000000,0.202390288,-0.041114182,4.703040837,3.939168157,0.309591373,-0.030577343,0.025023597,-0.080430283
1751354845.940667629,-1.781207851,-1.825420466,-1.077748198,1.553001939,1.038903304,-0.587138640,0.033522442,0.051314829,0.005061002,-0.229000000,0.203277965,-0.041294507,4.702880754,3.939485109,0.309605412,-0.030615568,0.025023605,-0.080435022
1751354845.942677021,-1.781140660,-1.825317612,-1.077738053,1.552542939,1.039310748,-0.587221410,0.033668828,0.051538911,0.005083102,-0.230000000,0.204165642,-0.041474833,4.702719873,3.939803335,0.309619502,-0.030653959,0.025023613,-0.080439774
1751354845.944723606,-1.781073176,-1.825214310,-1.077727865,1.552081939,1.039719967,-0.587304540,0.033815214,0.051762994,0.005105202,-0.231000000,0.205053319,-0.041655158,4.702558193,3.940122834,0.309633643,-0.030692516,0.025023622,-0.080444541
1751354845.956039667,-1.781005399,-1.825110560,-1.077717633,1.551618939,1.040130961,-0.587388030,0.033961600,0.051987076,0.005127303,-0.232000000,0.205940995,-0.041835483,4.702395714,3.940443603,0.309647835,-0.030731240,0.025023630,-0.080449321
1751354845.956090450,-1.780937329,-1.825006362,-1.077707356,1.551153939,1.040543731,-0.587471882,0.034107986,0.052211158,0.005149403,-0.233000000,0.206828672,-0.042015809,4.702232434,3.940765642,0.309662076,-0.030770131,0.025023638,-0.080454115
1751354845.956109047,-1.780800312,-1.824796621,-1.077686670,1.550217939,1.041374596,-0.587640666,0.034400759,0.052659323,0.005193604,-0.235000000,0.208604025,-0.042376459,4.701903466,3.941413521,0.309690711,-0.030848410,0.025023655,-0.080463743
1751354845.956126690,-1.780731364,-1.824691078,-1.077676261,1.549746939,1.041792692,-0.587725600,0.034547145,0.052883405,0.005215705,-0.236000000,0.209491702,-0.042556785,4.701737775,3.941739358,0.309705103,-0.030887800,0.025023663,-0.080468578
1751354845.957502365,-1.780662123,-1.824585087,-1.077665807,1.549273939,1.042212563,-0.587810893,0.034693531,0.053107487,0.005237805,-0.237000000,0.210379379,-0.042737110,4.701571277,3.942066459,0.309719545,-0.030927355,0.025023672,-0.080473425
1751354845.959670067,-1.780592590,-1.824478648,-1.077655309,1.548798939,1.042634209,-0.587896548,0.034839917,0.053331569,0.005259906,-0.238000000,0.211267055,-0.042917435,4.701403972,3.942394821,0.309734036,-0.030967077,0.025023680,-0.080478286
1751354845.963383436,-1.780452645,-1.824264426,-1.077634181,1.547842939,1.043482828,-0.588068939,0.035132690,0.053779734,0.005304106,-0.240000000,0.213042409,-0.043278086,4.701066935,3.943055324,0.309763167,-0.031047020,0.025023698,-0.080488047
1751354845.963447094,-1.780452645,-1.824264426,-1.077634181,1.547842939,1.043482828,-0.588068939,0.035132690,0.053779734,0.005304106,-0.240000000,0.213042409,-0.043278086,4.701066935,3.943055324,0.309763167,-0.031047020,0.025023698,-0.080488047
1751354845.964757442,-1.780452645,-1.824264426,-1.077634181,1.547842939,1.043482828,-0.588068939,0.035132690,0.053779734,0.005304106,-0.240000000,0.213042409,-0.043278086,4.701066935,3.943055324,0.309763167,-0.031047020,0.025023698,-0.080488047
1751354845.966629982,-1.780382233,-1.824156642,-1.077623551,1.547361939,1.043909801,-0.588155676,0.035279076,0.054003816,0.005326207,-0.241000000,0.213930086,-0.043458412,4.700897199,3.943387461,0.309777807,-0.031087240,0.025023706,-0.080492947
1751354845.968832016,-1.780311528,-1.824048410,-1.077612877,1.546878939,1.044338549,-0.588242773,0.035425462,0.054227898,0.005348307,-0.242000000,0.214817762,-0.043638737,4.700726650,3.943720854,0.309792495,-0.031127627,0.025023715,-0.080497859
1751354845.971205950,-1.780240531,-1.823939731,-1.077602158,1.546393939,1.044769072,-0.588330230,0.035571848,0.054451980,0.005370408,-0.243000000,0.215705439,-0.043819062,4.700555288,3.944055500,0.309807232,-0.031168180,0.025023723,-0.080502785
1751354845.973820925,-1.780240531,-1.823939731,-1.077602158,1.546393939,1.044769072,-0.588330230,0.035571848,0.054451980,0.005370408,-0.243000000,0.215705439,-0.043819062,4.700555288,3.944055500,0.309807232,-0.031168180,0.025023723,-0.080502785
1751354845.974786282,-1.780097658,-1.823721026,-1.077580588,1.545417939,1.045635444,-0.588506228,0.035864621,0.054900145,0.005414609,-0.245000000,0.217480792,-0.044179713,4.700210114,3.944728548,0.309836853,-0.031249784,0.025023741,-0.080512673
1751354845.976593494,-1.780025782,-1.823611002,-1.077569737,1.544926939,1.046071293,-0.588594768,0.036011007,0.055124227,0.005436709,-0.246000000,0.218368469,-0.044360038,4.700036300,3.945066946,0.309851736,-0.031290835,0.025023750,-0.080517636
1751354845.978675365,-1.779953614,-1.823500529,-1.077558841,1.544433939,1.046508918,-0.588683668,0.036157393,0.055348309,0.005458810,-0.247000000,0.219256146,-0.044540364,4.699861666,3.945406591,0.309866667,-0.031332052,0.025023758,-0.080522612
1751354845.980617285,-1.779881153,-1.823389609,-1.077547901,1.543938939,1.046948318,-0.588772929,0.036303780,0.055572392,0.005480910,-0.248000000,0.220143823,-0.044720689,4.699686211,3.945747482,0.309881646,-0.031373436,0.025023767,-0.080527599
1751354845.982573032,-1.779808399,-1.823278240,-1.077536917,1.543441939,1.047389493,-0.588862551,0.036450166,0.055796474,0.005503010,-0.249000000,0.221031499,-0.044901014,4.699509934,3.946089617,0.309896673,-0.031414985,0.025023776,-0.080532599
1751354845.984715939,-1.779735352,-1.823166423,-1.077525889,1.542942939,1.047832444,-0.588952533,0.036596552,0.056020556,0.005525111,-0.250000000,0.221919176,-0.045081340,4.699332833,3.946432995,0.309911747,-0.031456700,0.025023785,-0.080537611
1751354845.986549139,-1.779662013,-1.823054158,-1.077514817,1.542441939,1.048277170,-0.589042876,0.036742938,0.056244638,0.005547211,-0.251000000,0.222806853,-0.045261665,4.699154906,3.946777613,0.309926870,-0.031498581,0.025023794,-0.080542634
1751354845.988644123,-1.779588380,-1.822941444,-1.077503700,1.541938939,1.048723671,-0.589133580,0.036889324,0.056468720,0.005569312,-0.252000000,0.223694529,-0.045441991,4.698976153,3.947123470,0.309942039,-0.031540628,0.025023803,-0.080547670
1751354845.990544319,-1.779514455,-1.822828283,-1.077492540,1.541433939,1.049171948,-0.589224644,0.037035711,0.056692803,0.005591412,-0.253000000,0.224582206,-0.045622316,4.698796571,3.947470565,0.309957256,-0.031582841,0.025023812,-0.080552717
1751354845.992649555,-1.779440238,-1.822714673,-1.077481335,1.540926939,1.049622000,-0.589316069,0.037182097,0.056916885,0.005613513,-0.254000000,0.225469883,-0.045802641,4.698616160,3.947818895,0.309972520,-0.031625219,0.025023821,-0.080557776
1751354845.994714737,-1.779365727,-1.822600615,-1.077470086,1.540417939,1.050073828,-0.589407855,0.037328483,0.057140967,0.005635613,-0.255000000,0.226357559,-0.045982967,4.698434918,3.948168460,0.309987830,-0.031667764,0.025023830,-0.080562846
1751354845.996597290,-1.779365727,-1.822600615,-1.077470086,1.540417939,1.050073828,-0.589407855,0.037328483,0.057140967,0.005635613,-0.255000000,0.226357559,-0.045982967,4.698434918,3.948168460,0.309987830,-0.031667764,0.025023830,-0.080562846
1751354845.998596907,-1.779290924,-1.822486109,-1.077458792,1.539906939,1.050527431,-0.589500001,0.037474869,0.057365049,0.005657713,-0.256000000,0.227245236,-0.046163292,4.698252843,3.948519257,0.310003188,-0.031710474,0.025023839,-0.080567928
1751354846.000639439,-1.779215827,-1.822371155,-1.077447455,1.539393939,1.050982809,-0.589592508,0.037621255,0.057589132,0.005679814,-0.257000000,0.228132913,-0.046343617,4.698069935,3.948871284,0.310018591,-0.031753350,0.025023848,-0.080573021
1751354846.012063265,-1.779140439,-1.822255753,-1.077436073,1.538878939,1.051439962,-0.589685376,0.037767642,0.057813214,0.005701914,-0.258000000,0.229020590,-0.046523943,4.697886191,3.949224541,0.310034042,-0.031796391,0.025023857,-0.080578126
1751354846.012185812,-1.778912515,-1.821906857,-1.077401663,1.537321939,1.052822075,-0.589966142,0.038206800,0.058485460,0.005768216,-0.261000000,0.231683620,-0.047064919,4.697329933,3.950291668,0.310080668,-0.031926510,0.025023884,-0.080593505
1751354846.012205839,-1.778835955,-1.821789662,-1.077390104,1.536798939,1.053286330,-0.590060452,0.038353186,0.058709543,0.005790316,-0.262000000,0.232571296,-0.047245244,4.697142833,3.950649824,0.310096302,-0.031970214,0.025023894,-0.080598654
1751354846.012793064,-1.778759102,-1.821672018,-1.077378501,1.536273939,1.053752360,-0.590155123,0.038499573,0.058933625,0.005812417,-0.263000000,0.233458973,-0.047425569,4.696954891,3.951009200,0.310111982,-0.032014084,0.025023903,-0.080603813
1751354846.016211033,-1.778759102,-1.821672018,-1.077378501,1.536273939,1.053752360,-0.590155123,0.038499573,0.058933625,0.005812417,-0.263000000,0.233458973,-0.047425569,4.696954891,3.951009200,0.310111982,-0.032014084,0.025023903,-0.080603813
1751354846.016819715,-1.778681957,-1.821553927,-1.077366854,1.535746939,1.054220166,-0.590250155,0.038645959,0.059157707,0.005834517,-0.264000000,0.234346650,-0.047605895,4.696766104,3.951369795,0.310127706,-0.032058119,0.025023912,-0.080608982
1751354846.018956184,-1.778604519,-1.821435388,-1.077355163,1.535217939,1.054689747,-0.590345547,0.038792345,0.059381789,0.005856617,-0.265000000,0.235234326,-0.047786220,4.696576472,3.951731606,0.310143476,-0.032102319,0.025023922,-0.080614163
1751354846.020813227,-1.778526788,-1.821316400,-1.077343428,1.534686939,1.055161103,-0.590441299,0.038938731,0.059605872,0.005878718,-0.266000000,0.236122003,-0.047966546,4.696385993,3.952094633,0.310159290,-0.032146685,0.025023931,-0.080619353
1751354846.022676945,-1.778448764,-1.821196964,-1.077331648,1.534153939,1.055634235,-0.590537413,0.039085117,0.059829954,0.005900818,-0.267000000,0.237009680,-0.048146871,4.696194665,3.952458874,0.310175150,-0.032191216,0.025023940,-0.080624554
1751354846.024792671,-1.778370447,-1.821077080,-1.077319825,1.533618939,1.056109142,-0.590633887,0.039231504,0.060054036,0.005922919,-0.268000000,0.237897357,-0.048327196,4.696002487,3.952824326,0.310191054,-0.032235913,0.025023950,-0.080629765
1751354846.030356646,-1.778291838,-1.820956748,-1.077307957,1.533081939,1.056585824,-0.590730722,0.039377890,0.060278118,0.005945019,-0.269000000,0.238785033,-0.048507522,4.695809458,3.953190988,0.310207002,-0.032280775,0.025023959,-0.080634986
1751354846.030692577,-1.778212936,-1.820835968,-1.077296045,1.532542939,1.057064282,-0.590827917,0.039524276,0.060502200,0.005967120,-0.270000000,0.239672710,-0.048687847,4.695615575,3.953558858,0.310222994,-0.032325802,0.025023969,-0.080640217
1751354846.033001184,-1.778133741,-1.820714739,-1.077284088,1.532001939,1.057544515,-0.590925473,0.039670662,0.060726283,0.005989220,-0.271000000,0.240560387,-0.048868172,4.695420838,3.953927934,0.310239031,-0.032370994,0.025023978,-0.080645458
1751354846.034837723,-1.778054253,-1.820593063,-1.077272088,1.531458939,1.058026523,-0.591023390,0.039817048,0.060950365,0.006011321,-0.272000000,0.241448063,-0.049048498,4.695225244,3.954298215,0.310255111,-0.032416352,0.025023988,-0.080650708
1751354846.036719799,-1.777974472,-1.820470938,-1.077260043,1.530913939,1.058510307,-0.591121667,0.039963435,0.061174447,0.006033421,-0.273000000,0.242335740,-0.049228823,4.695028793,3.954669699,0.310271235,-0.032461874,0.025023997,-0.080655969
1751354846.038870096,-1.777974472,-1.820470938,-1.077260043,1.530913939,1.058510307,-0.591121667,0.039963435,0.061174447,0.006033421,-0.273000000,0.242335740,-0.049228823,4.695028793,3.954669699,0.310271235,-0.032461874,0.025023997,-0.080655969
1751354846.040833712,-1.777894399,-1.820348365,-1.077247954,1.530366939,1.058995866,-0.591220305,0.040109821,0.061398529,0.006055521,-0.274000000,0.243223417,-0.049409148,4.694831483,3.955042384,0.310287403,-0.032507562,0.025024007,-0.080661239
1751354846.042865515,-1.777814033,-1.820225344,-1.077235821,1.529817939,1.059483201,-0.591319304,0.040256207,0.061622612,0.006077622,-0.275000000,0.244111094,-0.049589474,4.694633311,3.955416267,0.310303613,-0.032553415,0.025024016,-0.080666518
1751354846.044949293,-1.777733374,-1.820101874,-1.077223644,1.529266939,1.059972311,-0.591418663,0.040402593,0.061846694,0.006099722,-0.276000000,0.244998770,-0.049769799,4.694434278,3.955791348,0.310319867,-0.032599433,0.025024026,-0.080671806
1751354846.046747684,-1.777652423,-1.819977957,-1.077211422,1.528713939,1.060463196,-0.591518383,0.040548980,0.062070776,0.006121823,-0.277000000,0.245886447,-0.049950124,4.694234380,3.956167625,0.310336164,-0.032645615,0.025024036,-0.080677104
1751354846.048782587,-1.777571178,-1.819853591,-1.077199156,1.528158939,1.060955856,-0.591618463,0.040695366,0.062294858,0.006143923,-0.278000000,0.246774124,-0.050130450,4.694033617,3.956545095,0.310352503,-0.032691963,0.025024045,-0.080682411
1751354846.050749540,-1.777489641,-1.819728777,-1.077186846,1.527601939,1.061450292,-0.591718905,0.040841752,0.062518940,0.006166024,-0.279000000,0.247661800,-0.050310775,4.693831986,3.956923756,0.310368885,-0.032738476,0.025024055,-0.080687727
1751354846.052759886,-1.777407811,-1.819603515,-1.077174492,1.527042939,1.061946504,-0.591819706,0.040988138,0.062743023,0.006188124,-0.280000000,0.248549477,-0.050491101,4.693629488,3.957303608,0.310385309,-0.032785153,0.025024065,-0.080693051
1751354846.054763794,-1.777325689,-1.819477805,-1.077162094,1.526481939,1.062444490,-0.591920869,0.041134524,0.062967105,0.006210225,-0.281000000,0.249437154,-0.050671426,4.693426118,3.957684648,0.310401775,-0.032831995,0.025024075,-0.080698385
1751354846.056719065,-1.777243273,-1.819351647,-1.077149651,1.525918939,1.062944252,-0.592022392,0.041280911,0.063191187,0.006232325,-0.282000000,0.250324830,-0.050851751,4.693221877,3.958066873,0.310418283,-0.032879002,0.025024085,-0.080703727
1751354846.058797121,-1.777160565,-1.819225041,-1.077137165,1.525353939,1.063445790,-0.592124276,0.041427297,0.063415269,0.006254425,-0.283000000,0.251212507,-0.051032077,4.693016763,3.958450283,0.310434833,-0.032926174,0.025024094,-0.080709077
1751354846.060826778,-1.777077564,-1.819097986,-1.077124634,1.524786939,1.063949102,-0.592226520,0.041573683,0.063639352,0.006276526,-0.284000000,0.252100184,-0.051212402,4.692810773,3.958834876,0.310451424,-0.032973510,0.025024104,-0.080714436
1751354846.063872099,-1.776994270,-1.818970483,-1.077112058,1.524217939,1.064454190,-0.592329126,0.041720069,0.063863434,0.006298626,-0.285000000,0.252987861,-0.051392727,4.692603907,3.959220649,0.310468057,-0.033021011,0.025024114,-0.080719804
1751354846.068036079,-1.776994270,-1.818970483,-1.077112058,1.524217939,1.064454190,-0.592329126,0.041720069,0.063863434,0.006298626,-0.285000000,0.252987861,-0.051392727,4.692603907,3.959220649,0.310468057,-0.033021011,0.025024114,-0.080719804
1751354846.068084240,-1.776994270,-1.818970483,-1.077112058,1.524217939,1.064454190,-0.592329126,0.041720069,0.063863434,0.006298626,-0.285000000,0.252987861,-0.051392727,4.692603907,3.959220649,0.310468057,-0.033021011,0.025024114,-0.080719804
1751354846.068940401,-1.776742632,-1.818585286,-1.077074068,1.522498939,1.065980107,-0.592639105,0.042159228,0.064535680,0.006364928,-0.288000000,0.255650891,-0.051933703,4.691978033,3.960385032,0.310518200,-0.033164501,0.025024144,-0.080735954
1751354846.071143627,-1.776658168,-1.818455990,-1.077061316,1.521921939,1.066492296,-0.592743153,0.042305614,0.064759763,0.006387028,-0.289000000,0.256538567,-0.052114029,4.691767644,3.960775508,0.310534996,-0.033212660,0.025024154,-0.080741353
1751354846.073200464,-1.776573410,-1.818326247,-1.077048520,1.521342939,1.067006261,-0.592847561,0.042452000,0.064983845,0.006409129,-0.290000000,0.257426244,-0.052294354,4.691556370,3.961167155,0.310551832,-0.033260984,0.025024164,-0.080746760
1751354846.075446367,-1.776488360,-1.818196055,-1.077035679,1.520761939,1.067522001,-0.592952330,0.042598386,0.065207927,0.006431229,-0.291000000,0.258313921,-0.052474680,4.691344210,3.961559971,0.310568709,-0.033309471,0.025024174,-0.080752175
1751354846.077738523,-1.776403016,-1.818065415,-1.077022795,1.520178939,1.068039517,-0.593057460,0.042744773,0.065432009,0.006453329,-0.292000000,0.259201597,-0.052655005,4.691131161,3.961953954,0.310585625,-0.033358123,0.025024184,-0.080757597
1751354846.081557274,-1.776317381,-1.817934327,-1.077009866,1.519593939,1.068558807,-0.593162950,0.042891159,0.065656092,0.006475430,-0.293000000,0.260089274,-0.052835330,4.690917223,3.962349102,0.310602581,-0.033406939,0.025024194,-0.080763026
1751354846.082728624,-1.776231452,-1.817802791,-1.076996893,1.519006939,1.069079874,-0.593268801,0.043037545,0.065880174,0.006497530,-0.294000000,0.260976951,-0.053015656,4.690702394,3.962745413,0.310619576,-0.033455919,0.025024205,-0.080768463
1751354846.084720612,-1.776145230,-1.817670806,-1.076983876,1.518417939,1.069602715,-0.593375013,0.043183931,0.066104256,0.006519631,-0.295000000,0.261864628,-0.053195981,4.690486671,3.963142886,0.310636610,-0.033505064,0.025024215,-0.080773907
1751354846.086705685,-1.776058716,-1.817538374,-1.076970814,1.517826939,1.070127332,-0.593481585,0.043330317,0.066328338,0.006541731,-0.296000000,0.262752304,-0.053376306,4.690270054,3.963541517,0.310653684,-0.033554372,0.025024225,-0.080779357
1751354846.088676214,-1.775971909,-1.817405493,-1.076957709,1.517233939,1.070653724,-0.593588518,0.043476704,0.066552420,0.006563832,-0.297000000,0.263639981,-0.053556632,4.690052540,3.963941306,0.310670796,-0.033603844,0.025024235,-0.080784815
1751354846.091278315,-1.775884809,-1.817272164,-1.076944559,1.516638939,1.071181892,-0.593695812,0.043623090,0.066776503,0.006585932,-0.298000000,0.264527658,-0.053736957,4.689834128,3.964342250,0.310687947,-0.033653481,0.025024246,-0.080790280
1751354846.092846632,-1.775797417,-1.817138387,-1.076931365,1.516041939,1.071711835,-0.593803466,0.043769476,0.067000585,0.006608033,-0.299000000,0.265415334,-0.053917282,4.689614816,3.964744348,0.310705137,-0.033703281,0.025024256,-0.080795751
1751354846.094711781,-1.775709731,-1.817004162,-1.076918127,1.515442939,1.072243553,-0.593911481,0.043915862,0.067224667,0.006630133,-0.300000000,0.266303011,-0.054097608,4.689394602,3.965147596,0.310722364,-0.033753245,0.025024266,-0.080801228
1751354846.096990108,-1.775621753,-1.816869488,-1.076904845,1.514841939,1.072777047,-0.594019856,0.044062249,0.067448749,0.006652233,-0.301000000,0.267190688,-0.054277933,4.689173485,3.965551994,0.310739630,-0.033803373,0.025024276,-0.080806712
1751354846.098938227,-1.775533482,-1.816734367,-1.076891518,1.514238939,1.073312316,-0.594128592,0.044208635,0.067672832,0.006674334,-0.302000000,0.268078365,-0.054458258,4.688951463,3.965957539,0.310756933,-0.033853665,0.025024287,-0.080812202
1751354846.100728989,-1.775444919,-1.816598797,-1.076878147,1.513633939,1.073849361,-0.594237689,0.044355021,0.067896914,0.006696434,-0.303000000,0.268966041,-0.054638584,4.688728535,3.966364230,0.310774274,-0.033904120,0.025024297,-0.080817699
1751354846.102770090,-1.775356062,-1.816462779,-1.076864732,1.513026939,1.074388180,-0.594347147,0.044501407,0.068120996,0.006718535,-0.304000000,0.269853718,-0.054818909,4.688504698,3.966772063,0.310791653,-0.033954739,0.025024308,-0.080823201
1751354846.104681253,-1.775266913,-1.816326313,-1.076851273,1.512417939,1.074928775,-0.594456965,0.044647793,0.068345078,0.006740635,-0.305000000,0.270741395,-0.054999235,4.688279951,3.967181038,0.310809068,-0.034005521,0.025024318,-0.080828710
1751354846.106694221,-1.775177471,-1.816189399,-1.076837770,1.511806939,1.075471146,-0.594567144,0.044794180,0.068569160,0.006762736,-0.306000000,0.271629071,-0.055179560,4.688054292,3.967591151,0.310826520,-0.034056467,0.025024329,-0.080834224
1751354846.108733892,-1.775087736,-1.816052036,-1.076824222,1.511193939,1.076015292,-0.594677683,0.044940566,0.068793243,0.006784836,-0.307000000,0.272516748,-0.055359885,4.687827719,3.968002402,0.310844009,-0.034107576,0.025024339,-0.080839744
1751354846.110792875,-1.774997709,-1.815914226,-1.076810630,1.510578939,1.076561213,-0.594788583,0.045086952,0.069017325,0.006806937,-0.308000000,0.273404425,-0.055540211,4.687600230,3.968414788,0.310861535,-0.034158849,0.025024350,-0.080845269
1751354846.112835646,-1.774907389,-1.815775967,-1.076796995,1.509961939,1.077108909,-0.594899844,0.045233338,0.069241407,0.006829037,-0.309000000,0.274292101,-0.055720536,4.687371825,3.968828306,0.310879096,-0.034210285,0.025024360,-0.080850800
1751354846.114717722,-1.774816776,-1.815637260,-1.076783314,1.509342939,1.077658381,-0.595011465,0.045379724,0.069465489,0.006851137,-0.310000000,0.275179778,-0.055900861,4.687142501,3.969242955,0.310896694,-0.034261884,0.025024371,-0.080856336
1751354846.116742611,-1.774725870,-1.815498105,-1.076769590,1.508721939,1.078209629,-0.595123447,0.045526111,0.069689572,0.006873238,-0.311000000,0.276067455,-0.056081187,4.686912255,3.969658734,0.310914327,-0.034313647,0.025024381,-0.080861877
1751354846.118740082,-1.774634671,-1.815358502,-1.076755821,1.508098939,1.078762651,-0.595235790,0.045672497,0.069913654,0.006895338,-0.312000000,0.276955132,-0.056261512,4.686681088,3.970075638,0.310931996,-0.034365572,0.025024392,-0.080867423
1751354846.120816946,-1.774543180,-1.815218450,-1.076742009,1.507473939,1.079317449,-0.595348493,0.045818883,0.070137736,0.006917439,-0.313000000,0.277842808,-0.056441837,4.686448996,3.970493668,0.310949700,-0.034417661,0.025024403,-0.080872974
1751354846.122752666,-1.774451396,-1.815077951,-1.076728152,1.506846939,1.079874022,-0.595461557,0.045965269,0.070361818,0.006939539,-0.314000000,0.278730485,-0.056622163,4.686215977,3.970912819,0.310967439,-0.034469912,0.025024413,-0.080878530
1751354846.124804497,-1.774359319,-1.814937003,-1.076714250,1.506217939,1.080432371,-0.595574982,0.046111655,0.070585900,0.006961640,-0.315000000,0.279618162,-0.056802488,4.685982031,3.971333091,0.310985213,-0.034522327,0.025024424,-0.080884090
1751354846.131194830,-1.774359319,-1.814937003,-1.076714250,1.506217939,1.080432371,-0.595574982,0.046111655,0.070585900,0.006961640,-0.315000000,0.279618162,-0.056802488,4.685982031,3.971333091,0.310985213,-0.034522327,0.025024424,-0.080884090
1751354846.131258011,-1.774174286,-1.814653763,-1.076686315,1.504953939,1.081554394,-0.595802913,0.046404428,0.071034065,0.007005841,-0.317000000,0.281393515,-0.057163139,4.685511348,3.972176988,0.311020865,-0.034627645,0.025024446,-0.080895225
1751354846.135076761,-1.774174286,-1.814653763,-1.076686315,1.504953939,1.081554394,-0.595802913,0.046404428,0.071034065,0.007005841,-0.317000000,0.281393515,-0.057163139,4.685511348,3.972176988,0.311020865,-0.034627645,0.025024446,-0.080895225
1751354846.139514923,-1.774081331,-1.814511471,-1.076672282,1.504318939,1.082118069,-0.595917420,0.046550814,0.071258147,0.007027941,-0.318000000,0.282281192,-0.057343464,4.685274607,3.972600608,0.311038742,-0.034680548,0.025024456,-0.080900798
1751354846.139594555,-1.773894542,-1.814225542,-1.076644082,1.503042939,1.083250745,-0.596147515,0.046843586,0.071706312,0.007072142,-0.320000000,0.284056545,-0.057704115,4.684798319,3.973451182,0.311074598,-0.034786841,0.025024478,-0.080911958
1751354846.139744520,-1.773894542,-1.814225542,-1.076644082,1.503042939,1.083250745,-0.596147515,0.046843586,0.071706312,0.007072142,-0.320000000,0.284056545,-0.057704115,4.684798319,3.973451182,0.311074598,-0.034786841,0.025024478,-0.080911958
1751354846.140859842,-1.773894542,-1.814225542,-1.076644082,1.503042939,1.083250745,-0.596147515,0.046843586,0.071706312,0.007072142,-0.320000000,0.284056545,-0.057704115,4.684798319,3.973451182,0.311074598,-0.034786841,0.025024478,-0.080911958
1751354846.143079996,-1.773800709,-1.814081905,-1.076629915,1.502401939,1.083819745,-0.596263104,0.046989973,0.071930394,0.007094242,-0.321000000,0.284944222,-0.057884440,4.684558767,3.973878131,0.311092576,-0.034840232,0.025024489,-0.080917543
1751354846.145019293,-1.773706583,-1.813937821,-1.076615705,1.501758939,1.084390521,-0.596379053,0.047136359,0.072154476,0.007116343,-0.322000000,0.285831899,-0.058064766,4.684318275,3.974306185,0.311110587,-0.034893785,0.025024500,-0.080923133
1751354846.148865700,-1.773517452,-1.813648306,-1.076587151,1.500466939,1.085537400,-0.596612033,0.047429131,0.072602641,0.007160544,-0.324000000,0.287607252,-0.058425416,4.683834460,3.975165601,0.311146708,-0.035001378,0.025024522,-0.080934322
1751354846.150715113,-1.773422447,-1.813502877,-1.076572808,1.499817939,1.086113502,-0.596729064,0.047575518,0.072826723,0.007182644,-0.325000000,0.288494929,-0.058605742,4.683591134,3.975596958,0.311164818,-0.035055419,0.025024533,-0.080939922
1751354846.152687311,-1.773327149,-1.813356999,-1.076558420,1.499166939,1.086691379,-0.596846456,0.047721904,0.073050805,0.007204745,-0.326000000,0.289382605,-0.058786067,4.683346861,3.976029412,0.311182960,-0.035109621,0.025024544,-0.080945525
1751354846.157902241,-1.773231559,-1.813210674,-1.076543989,1.498513939,1.087271032,-0.596964209,0.047868290,0.073274887,0.007226845,-0.327000000,0.290270282,-0.058966392,4.683101637,3.976462960,0.311201133,-0.035163985,0.025024555,-0.080951131
1751354846.158751249,-1.773039501,-1.812916678,-1.076514993,1.497201939,1.088435664,-0.597200796,0.048161062,0.073723052,0.007271046,-0.329000000,0.292045636,-0.059327043,4.682608331,3.977333330,0.311237575,-0.035273200,0.025024577,-0.080962351
1751354846.160847425,-1.772943032,-1.812769008,-1.076500429,1.496542939,1.089020643,-0.597319630,0.048307449,0.073947134,0.007293146,-0.330000000,0.292933312,-0.059507369,4.682360246,3.977770148,0.311255843,-0.035328050,0.025024588,-0.080967966
1751354846.162888050,-1.772846271,-1.812620889,-1.076485820,1.495881939,1.089607397,-0.597438825,0.048453835,0.074171216,0.007315247,-0.331000000,0.293820989,-0.059687694,4.682111203,3.978208051,0.311274142,-0.035383062,0.025024599,-0.080973582
1751354846.164879560,-1.772749217,-1.812472323,-1.076471168,1.495218939,1.090195927,-0.597558381,0.048600221,0.074395298,0.007337347,-0.332000000,0.294708666,-0.059868019,4.681861201,3.978647038,0.311292472,-0.035438235,0.025024610,-0.080979202
1751354846.167031288,-1.772651870,-1.812323308,-1.076456471,1.494553939,1.090786232,-0.597678297,0.048746607,0.074619381,0.007359448,-0.333000000,0.295596342,-0.060048345,4.681610237,3.979087105,0.311310832,-0.035493571,0.025024621,-0.080984823
1751354846.168763638,-1.772554230,-1.812173845,-1.076441730,1.493886939,1.091378312,-0.597798574,0.048892993,0.074843463,0.007381548,-0.334000000,0.296484019,-0.060228670,4.681358310,3.979528251,0.311329223,-0.035549067,0.025024633,-0.080990447
1751354846.170743704,-1.772456298,-1.812023934,-1.076426945,1.493217939,1.091972168,-0.597919212,0.049039380,0.075067545,0.007403649,-0.335000000,0.297371696,-0.060408995,4.681105417,3.979970474,0.311347643,-0.035604726,0.025024644,-0.080996072
1751354846.172735453,-1.772358073,-1.811873575,-1.076412115,1.492546939,1.092567799,-0.598040210,0.049185766,0.075291627,0.007425749,-0.336000000,0.298259372,-0.060589321,4.680851557,3.980413771,0.311366093,-0.035660545,0.025024655,-0.081001700
1751354846.174832821,-1.772358073,-1.811873575,-1.076412115,1.492546939,1.092567799,-0.598040210,0.049185766,0.075291627,0.007425749,-0.336000000,0.298259372,-0.060589321,4.680851557,3.980413771,0.311366093,-0.035660545,0.025024655,-0.081001700
1751354846.176815271,-1.772259555,-1.811722768,-1.076397242,1.491873939,1.093165206,-0.598161569,0.049332152,0.075515709,0.007447849,-0.337000000,0.299147049,-0.060769646,4.680596729,3.980858139,0.311384573,-0.035716526,0.025024666,-0.081007329
1751354846.178886890,-1.772160744,-1.811571512,-1.076382324,1.491198939,1.093764387,-0.598283289,0.049478538,0.075739792,0.007469950,-0.338000000,0.300034726,-0.060949971,4.680340928,3.981303577,0.311403082,-0.035772669,0.025024678,-0.081012960
1751354846.180957556,-1.772061641,-1.811419809,-1.076367362,1.490521939,1.094365345,-0.598405369,0.049624924,0.075963874,0.007492050,-0.339000000,0.300922403,-0.061130297,4.680084155,3.981750083,0.311421619,-0.035828972,0.025024689,-0.081018592
1751354846.182896852,-1.771962244,-1.811267657,-1.076352356,1.489842939,1.094968077,-0.598527810,0.049771311,0.076187956,0.007514151,-0.340000000,0.301810079,-0.061310622,4.679826407,3.982197653,0.311440186,-0.035885436,0.025024700,-0.081024225
1751354846.184836626,-1.771862555,-1.811115057,-1.076337305,1.489161939,1.095572585,-0.598650611,0.049917697,0.076412038,0.007536251,-0.341000000,0.302697756,-0.061490947,4.679567682,3.982646286,0.311458781,-0.035942062,0.025024712,-0.081029860
1751354846.186697721,-1.771762574,-1.810962009,-1.076322211,1.488478939,1.096178868,-0.598773774,0.050064083,0.076636121,0.007558352,-0.342000000,0.303585433,-0.061671273,4.679307978,3.983095979,0.311477403,-0.035998848,0.025024723,-0.081035495
1751354846.188695669,-1.771662299,-1.810808512,-1.076307072,1.487793939,1.096786927,-0.598897296,0.050210469,0.076860203,0.007580452,-0.343000000,0.304473109,-0.061851598,4.679047293,3.983546731,0.311496054,-0.036055795,0.025024735,-0.081041132
1751354846.190749168,-1.771561732,-1.810654568,-1.076291889,1.487106939,1.097396760,-0.599021180,0.050356855,0.077084285,0.007602553,-0.344000000,0.305360786,-0.062031924,4.678785625,3.983998538,0.311514733,-0.036112903,0.025024746,-0.081046769
1751354846.197490931,-1.771460872,-1.810500175,-1.076276662,1.486417939,1.098008370,-0.599145424,0.050503242,0.077308367,0.007624653,-0.345000000,0.306248463,-0.062212249,4.678522972,3.984451398,0.311533439,-0.036170171,0.025024757,-0.081052406
1751354846.197554111,-1.771359719,-1.810345334,-1.076261390,1.485726939,1.098621754,-0.599270029,0.050649628,0.077532449,0.007646753,-0.346000000,0.307136139,-0.062392574,4.678259332,3.984905309,0.311552171,-0.036227600,0.025024769,-0.081058044
1751354846.198931932,-1.771359719,-1.810345334,-1.076261390,1.485726939,1.098621754,-0.599270029,0.050649628,0.077532449,0.007646753,-0.346000000,0.307136139,-0.062392574,4.678259332,3.984905309,0.311552171,-0.036227600,0.025024769,-0.081058044
1751354846.200810432,-1.771156535,-1.810034308,-1.076230715,1.484338939,1.099853850,-0.599520321,0.050942400,0.077980614,0.007690954,-0.348000000,0.308911493,-0.062753225,4.677729083,3.985816275,0.311589717,-0.036342939,0.025024792,-0.081069321
1751354846.206146955,-1.771054504,-1.809878123,-1.076215311,1.483641939,1.100472560,-0.599646007,0.051088786,0.078204696,0.007713055,-0.349000000,0.309799170,-0.062933550,4.677462470,3.986273325,0.311608530,-0.036400850,0.025024803,-0.081074960
1751354846.206220865,-1.771054504,-1.809878123,-1.076215311,1.483641939,1.100472560,-0.599646007,0.051088786,0.078204696,0.007713055,-0.349000000,0.309799170,-0.062933550,4.677462470,3.986273325,0.311608530,-0.036400850,0.025024803,-0.081074960
1751354846.207036018,-1.770849563,-1.809564408,-1.076184370,1.482241939,1.101715308,-0.599898463,0.051381559,0.078652861,0.007757256,-0.351000000,0.311574523,-0.063294201,4.676926257,3.987190548,0.311646232,-0.036517150,0.025024827,-0.081086236
1751354846.209543228,-1.770849563,-1.809564408,-1.076184370,1.482241939,1.101715308,-0.599898463,0.051381559,0.078652861,0.007757256,-0.351000000,0.311574523,-0.063294201,4.676926257,3.987190548,0.311646232,-0.036517150,0.025024827,-0.081086236
1751354846.211439848,-1.770746653,-1.809406878,-1.076168834,1.481538939,1.102339344,-0.600025232,0.051527945,0.078876943,0.007779356,-0.352000000,0.312462200,-0.063474526,4.676656653,3.987650715,0.311665122,-0.036575540,0.025024838,-0.081091874
1751354846.212674856,-1.770643451,-1.809248900,-1.076153253,1.480833939,1.102965156,-0.600152361,0.051674331,0.079101025,0.007801456,-0.353000000,0.313349876,-0.063654852,4.676386048,3.988111916,0.311684037,-0.036634091,0.025024850,-0.081097511
1751354846.214830637,-1.770539956,-1.809090474,-1.076137628,1.480126939,1.103592744,-0.600279851,0.051820718,0.079325107,0.007823557,-0.354000000,0.314237553,-0.063835177,4.676114439,3.988574150,0.311702977,-0.036692801,0.025024862,-0.081103147
1751354846.216757774,-1.770436168,-1.808931600,-1.076121959,1.479417939,1.104222107,-0.600407702,0.051967104,0.079549189,0.007845657,-0.355000000,0.315125230,-0.064015502,4.675841825,3.989037413,0.311721941,-0.036751670,0.025024873,-0.081108782
1751354846.218708754,-1.770332088,-1.808772277,-1.076106245,1.478706939,1.104853245,-0.600535913,0.052113490,0.079773272,0.007867758,-0.356000000,0.316012907,-0.064195828,4.675568204,3.989501703,0.311740930,-0.036810700,0.025024885,-0.081114417
1751354846.220597506,-1.770227714,-1.808612506,-1.076090488,1.477993939,1.105486158,-0.600664485,0.052259876,0.079997354,0.007889858,-0.357000000,0.316900583,-0.064376153,4.675293573,3.989967017,0.311759942,-0.036869888,0.025024897,-0.081120050
1751354846.225506544,-1.770123048,-1.808452288,-1.076074686,1.477278939,1.106120847,-0.600793418,0.052406262,0.080221436,0.007911959,-0.358000000,0.317788260,-0.064556479,4.675017931,3.990433354,0.311778979,-0.036929237,0.025024908,-0.081125682
1751354846.226875544,-1.769912838,-1.808130506,-1.076042949,1.475842939,1.107395551,-0.601052365,0.052699035,0.080669601,0.007956160,-0.360000000,0.319563613,-0.064917129,4.674463604,3.991369084,0.311817122,-0.037048411,0.025024932,-0.081136941
1751354846.228963375,-1.769807293,-1.807968942,-1.076027015,1.475121939,1.108035566,-0.601182379,0.052845421,0.080893683,0.007978260,-0.361000000,0.320451290,-0.065097455,4.674184915,3.991838472,0.311836228,-0.037108237,0.025024944,-0.081142568
1751354846.230859756,-1.769701456,-1.807806931,-1.076011036,1.474398939,1.108677356,-0.601312755,0.052991807,0.081117765,0.008000360,-0.362000000,0.321338967,-0.065277780,4.673905206,3.992308872,0.311855357,-0.037168222,0.025024956,-0.081148193
1751354846.232720852,-1.769595326,-1.807644471,-1.075995014,1.473673939,1.109320922,-0.601443491,0.053138193,0.081341847,0.008022461,-0.363000000,0.322226643,-0.065458105,4.673624475,3.992780283,0.311874508,-0.037228366,0.025024967,-0.081153816
1751354846.234835148,-1.769488903,-1.807481563,-1.075978947,1.472946939,1.109966263,-0.601574587,0.053284580,0.081565929,0.008044561,-0.364000000,0.323114320,-0.065638431,4.673342719,3.993252700,0.311893681,-0.037288668,0.025024979,-0.081159437
1751354846.236739397,-1.769382188,-1.807318208,-1.075962835,1.472217939,1.110613379,-0.601706044,0.053430966,0.081790012,0.008066662,-0.365000000,0.324001997,-0.065818756,4.673059938,3.993726123,0.311912876,-0.037349129,0.025024991,-0.081165055
1751354846.238646269,-1.769275179,-1.807154403,-1.075946680,1.471486939,1.111262271,-0.601837862,0.053577352,0.082014094,0.008088762,-0.366000000,0.324889674,-0.065999081,4.672776128,3.994200547,0.311932092,-0.037409749,0.025025003,-0.081170671
1751354846.240771294,-1.769167878,-1.806990151,-1.075930480,1.470753939,1.111912938,-0.601970041,0.053723738,0.082238176,0.008110863,-0.367000000,0.325777350,-0.066179407,4.672491287,3.994675972,0.311951329,-0.037470528,0.025025015,-0.081176284
1751354846.242709398,-1.769060284,-1.806825451,-1.075914236,1.470018939,1.112565380,-0.602102580,0.053870124,0.082462258,0.008132963,-0.368000000,0.326665027,-0.066359732,4.672205414,3.995152393,0.311970587,-0.037531464,0.025025027,-0.081181894
