mathias31415/motion_primitives_from_planned_trajectory/data/trajectory_20250626_121048_executed.csv
timestamp,shoulder_lift_joint_pos,elbow_joint_pos,wrist_1_joint_pos,wrist_2_joint_pos,wrist_3_joint_pos,shoulder_pan_joint_pos,shoulder_lift_joint_vel,elbow_joint_vel,wrist_1_joint_vel,wrist_2_joint_vel,wrist_3_joint_vel,shoulder_pan_joint_vel,shoulder_lift_joint_eff,elbow_joint_eff,wrist_1_joint_eff,wrist_2_joint_eff,wrist_3_joint_eff,shoulder_pan_joint_eff
1750932670.917883396,-1.692079000,-1.801576000,-1.217846000,1.588042000,0.980191000,-0.589523000,0.000000000,0.000000000,0.000000000,0.000000000,0.000000000,0.000000000,4.148470649,4.049720527,0.302848360,0.001423649,0.000000000,0.000000000
1750932670.919879198,-1.692079000,-1.801576000,-1.217846000,1.588042000,0.980191000,-0.589523000,0.000000000,0.000000000,0.000000000,0.000000000,0.000000000,0.000000000,4.148470649,4.049720527,0.302848360,0.001423649,0.000000000,0.000000000
1750932670.921945095,-1.692079000,-1.801576000,-1.217846000,1.588042000,0.980191000,-0.589523000,0.000000000,0.000000000,0.000000000,0.000000000,0.000000000,0.000000000,4.148470649,4.049720527,0.302848360,0.001423649,0.000000000,0.000000000
1750932670.923912525,-1.692079000,-1.801576000,-1.217846000,1.588042000,0.980191000,-0.589523000,0.000000000,0.000000000,0.000000000,0.000000000,0.000000000,0.000000000,4.148470649,4.049720527,0.302848360,0.001423649,0.000000000,0.000000000
1750932670.925774336,-1.692079000,-1.801576000,-1.217846000,1.588042000,0.980191000,-0.589523000,0.000000000,0.000000000,0.000000000,0.000000000,0.000000000,0.000000000,4.148470649,4.049720527,0.302848360,0.001423649,0.000000000,0.000000000
1750932670.928175449,-1.692079000,-1.801576000,-1.217846000,1.588042000,0.980191000,-0.589523000,0.000000000,0.000000000,0.000000000,0.000000000,0.000000000,0.000000000,4.148470649,4.049720527,0.302848360,0.001423649,0.000000000,0.000000000
1750932670.929915190,-1.692079000,-1.801576000,-1.217846000,1.588042000,0.980191000,-0.589523000,0.000000000,0.000000000,0.000000000,0.000000000,0.000000000,0.000000000,4.148470649,4.049720527,0.302848360,0.001423649,0.000000000,0.000000000
1750932670.932356596,-1.692079000,-1.801576000,-1.217846000,1.588042000,0.980191000,-0.589523000,0.000000000,0.000000000,0.000000000,0.000000000,0.000000000,0.000000000,4.148470649,4.049720527,0.302848360,0.001423649,0.000000000,0.000000000
1750932670.933751822,-1.692079000,-1.801576000,-1.217846000,1.588042000,0.980191000,-0.589523000,0.000000000,0.000000000,0.000000000,0.000000000,0.000000000,0.000000000,4.148470649,4.049720527,0.302848360,0.001423649,0.000000000,0.000000000
1750932670.935738802,-1.692079000,-1.801576000,-1.217846000,1.588042000,0.980191000,-0.589523000,0.000000000,0.000000000,0.000000000,0.000000000,0.000000000,0.000000000,4.148470649,4.049720527,0.302848360,0.001423649,0.000000000,0.000000000
1750932670.937633991,-1.692079000,-1.801576000,-1.217846000,1.588042000,0.980191000,-0.589523000,0.000000000,0.000000000,0.000000000,0.000000000,0.000000000,0.000000000,4.148470649,4.049720527,0.302848360,0.001423649,0.000000000,0.000000000
1750932670.939657688,-1.692079000,-1.801576000,-1.217846000,1.588042000,0.980191000,-0.589523000,0.000000000,0.000000000,0.000000000,0.000000000,0.000000000,0.000000000,4.148470649,4.049720527,0.302848360,0.001423649,0.000000000,0.000000000
1750932670.941858530,-1.692079000,-1.801576000,-1.217846000,1.588042000,0.980191000,-0.589523000,0.000000000,0.000000000,0.000000000,0.000000000,0.000000000,0.000000000,4.148470649,4.049720527,0.302848360,0.001423649,0.000000000,0.000000000
1750932670.943948030,-1.692079000,-1.801576000,-1.217846000,1.588042000,0.980191000,-0.589523000,0.000000000,0.000000000,0.000000000,0.000000000,0.000000000,0.000000000,4.148470649,4.049720527,0.302848360,0.001423649,0.000000000,0.000000000
1750932670.945781708,-1.692079000,-1.801576000,-1.217846000,1.588042000,0.980191000,-0.589523000,0.000000000,0.000000000,0.000000000,0.000000000,0.000000000,0.000000000,4.148470649,4.049720527,0.302848360,0.001423649,0.000000000,0.000000000
1750932670.952784300,-1.692079000,-1.801576000,-1.217846000,1.588042000,0.980191000,-0.589523000,0.000000000,0.000000000,0.000000000,0.000000000,0.000000000,0.000000000,4.148470649,4.049720527,0.302848360,0.001423649,0.000000000,0.000000000
1750932670.953997135,-1.692079000,-1.801576000,-1.217846000,1.588042000,0.980191000,-0.589523000,0.000000000,0.000000000,0.000000000,0.000000000,0.000000000,0.000000000,4.148470649,4.049720527,0.302848360,0.001423649,0.000000000,0.000000000
1750932670.956200361,-1.692079000,-1.801576000,-1.217846000,1.588042000,0.980191000,-0.589523000,0.000000000,0.000000000,0.000000000,0.000000000,0.000000000,0.000000000,4.148470649,4.049720527,0.302848360,0.001423649,0.000000000,0.000000000
1750932670.958101749,-1.692079000,-1.801576000,-1.217846000,1.588042000,0.980191000,-0.589523000,0.000000000,0.000000000,0.000000000,0.000000000,0.000000000,0.000000000,4.148470649,4.049720527,0.302848360,0.001423649,0.000000000,0.000000000
1750932670.959812880,-1.692079000,-1.801576000,-1.217846000,1.588042000,0.980191000,-0.589523000,0.000000000,0.000000000,0.000000000,0.000000000,0.000000000,0.000000000,4.148470649,4.049720527,0.302848360,0.001423649,0.000000000,0.000000000
1750932670.961688995,-1.692079000,-1.801576000,-1.217846000,1.588042000,0.980191000,-0.589523000,0.000000000,0.000000000,0.000000000,0.000000000,0.000000000,0.000000000,4.148470649,4.049720527,0.302848360,0.001423649,0.000000000,0.000000000
1750932670.963931084,-1.692079000,-1.801576000,-1.217846000,1.588042000,0.980191000,-0.589523000,0.000000000,0.000000000,0.000000000,0.000000000,0.000000000,0.000000000,4.148470649,4.049720527,0.302848360,0.001423649,0.000000000,0.000000000
1750932670.965807438,-1.692079000,-1.801576000,-1.217846000,1.588042000,0.980191000,-0.589523000,0.000000000,0.000000000,0.000000000,0.000000000,0.000000000,0.000000000,4.148470649,4.049720527,0.302848360,0.001423649,0.000000000,0.000000000
1750932670.968789577,-1.692079000,-1.801576000,-1.217846000,1.588042000,0.980191000,-0.589523000,0.000000000,0.000000000,0.000000000,0.000000000,0.000000000,0.000000000,4.148470649,4.049720527,0.302848360,0.001423649,0.000000000,0.000000000
1750932670.969613791,-1.692079000,-1.801576000,-1.217846000,1.588042000,0.980191000,-0.589523000,0.000000000,0.000000000,0.000000000,0.000000000,0.000000000,0.000000000,4.148470649,4.049720527,0.302848360,0.001423649,0.000000000,0.000000000
1750932670.971570969,-1.692079000,-1.801576000,-1.217846000,1.588042000,0.980191000,-0.589523000,0.000000000,0.000000000,0.000000000,0.000000000,0.000000000,0.000000000,4.148470649,4.049720527,0.302848360,0.001423649,0.000000000,0.000000000
1750932670.974508286,-1.692079000,-1.801576000,-1.217846000,1.588042000,0.980191000,-0.589523000,0.000000000,0.000000000,0.000000000,0.000000000,0.000000000,0.000000000,4.148470649,4.049720527,0.302848360,0.001423649,0.000000000,0.000000000
1750932670.975735664,-1.692079000,-1.801576000,-1.217846000,1.588042000,0.980191000,-0.589523000,0.000000000,0.000000000,0.000000000,0.000000000,0.000000000,0.000000000,4.148470649,4.049720527,0.302848360,0.001423649,0.000000000,0.000000000
1750932670.977582693,-1.692079000,-1.801576000,-1.217846000,1.588042000,0.980191000,-0.589523000,0.000000000,0.000000000,0.000000000,0.000000000,0.000000000,0.000000000,4.148470649,4.049720527,0.302848360,0.001423649,0.000000000,0.000000000
1750932670.979704857,-1.692079000,-1.801576000,-1.217846000,1.588042000,0.980191000,-0.589523000,0.000000000,0.000000000,0.000000000,0.000000000,0.000000000,0.000000000,4.148470649,4.049720527,0.302848360,0.001423649,0.000000000,0.000000000
1750932670.981662512,-1.692078415,-1.801575553,-1.217845000,1.588042043,0.980191500,-0.589522741,0.000585118,0.000447200,0.001000000,0.000043259,0.000500336,0.000259155,4.484321561,4.231842841,0.344079884,0.003510205,0.014097863,0.086176616
1750932670.983898640,-1.692076660,-1.801574211,-1.217842000,1.588042173,0.980193001,-0.589521963,0.001170237,0.000894400,0.002000000,0.000086518,0.001000673,0.000518309,4.484314587,4.231847403,0.344080388,0.003510217,0.014097863,0.086176156
1750932670.985908508,-1.692073734,-1.801571975,-1.217837000,1.588042389,0.980195503,-0.589520668,0.001755355,0.001341600,0.003000000,0.000129777,0.001501009,0.000777464,4.484302965,4.231855005,0.344081227,0.003510237,0.014097863,0.086175388
1750932670.987873316,-1.692069638,-1.801568845,-1.217830000,1.588042692,0.980199005,-0.589518854,0.002340473,0.001788799,0.004000000,0.000173036,0.002001345,0.001036619,4.484286695,4.231865648,0.344082401,0.003510264,0.014097862,0.086174313
1750932670.989785910,-1.692064372,-1.801564820,-1.217821000,1.588043081,0.980203508,-0.589516521,0.002925592,0.002235999,0.005000000,0.000216296,0.002501682,0.001295774,4.484265774,4.231879332,0.344083911,0.003510300,0.014097862,0.086172930
1750932670.991867304,-1.692057936,-1.801559901,-1.217810000,1.588043557,0.980209012,-0.589513670,0.003510710,0.002683199,0.006000000,0.000259555,0.003002018,0.001554928,4.484240205,4.231896056,0.344085757,0.003510344,0.014097862,0.086171241
1750932670.994042158,-1.692050329,-1.801554087,-1.217797000,1.588044120,0.980215516,-0.589510301,0.004095829,0.003130399,0.007000000,0.000302814,0.003502354,0.001814083,4.484209986,4.231915819,0.344087937,0.003510395,0.014097862,0.086169244
1750932670.995880365,-1.692050329,-1.801554087,-1.217797000,1.588044120,0.980215516,-0.589510301,0.004095829,0.003130399,0.007000000,0.000302814,0.003502354,0.001814083,4.484209986,4.231915819,0.344087937,0.003510395,0.014097862,0.086169244
1750932671.001337290,-1.692041552,-1.801547379,-1.217782000,1.588044769,0.980223022,-0.589506414,0.004680947,0.003577599,0.008000000,0.000346073,0.004002691,0.002073238,4.484175116,4.231938622,0.344090453,0.003510455,0.014097862,0.086166940
1750932671.003496647,-1.692031605,-1.801539777,-1.217765000,1.588045504,0.980231527,-0.589502008,0.005266065,0.004024799,0.009000000,0.000389332,0.004503027,0.002332393,4.484135596,4.231964464,0.344093304,0.003510523,0.014097862,0.086164329
1750932671.003634214,-1.692020488,-1.801531280,-1.217746000,1.588046326,0.980241034,-0.589497085,0.005851184,0.004471998,0.010000000,0.000432591,0.005003363,0.002591547,4.484091425,4.231993345,0.344096490,0.003510598,0.014097862,0.086161410
1750932671.005759954,-1.692008201,-1.801521889,-1.217725000,1.588047234,0.980251541,-0.589491642,0.006436302,0.004919198,0.011000000,0.000475850,0.005503700,0.002850702,4.484042603,4.232025263,0.344100011,0.003510681,0.014097862,0.086158184
1750932671.007690668,-1.691994743,-1.801511603,-1.217702000,1.588048229,0.980263048,-0.589485682,0.007021420,0.005366398,0.012000000,0.000519109,0.006004036,0.003109857,4.483989128,4.232060218,0.344103867,0.003510773,0.014097862,0.086154651
1750932671.010709286,-1.691980115,-1.801500423,-1.217677000,1.588049311,0.980275557,-0.589479203,0.007606539,0.005813598,0.013000000,0.000562368,0.006504372,0.003369011,4.483931001,4.232098210,0.344108057,0.003510872,0.014097862,0.086150810
1750932671.017334938,-1.691964317,-1.801488349,-1.217650000,1.588050479,0.980289066,-0.589472206,0.008191657,0.006260798,0.014000000,0.000605628,0.007004709,0.003628166,4.483868220,4.232139237,0.344112582,0.003510979,0.014097861,0.086146662
1750932671.017445087,-1.691964317,-1.801488349,-1.217650000,1.588050479,0.980289066,-0.589472206,0.008191657,0.006260798,0.014000000,0.000605628,0.007004709,0.003628166,4.483868220,4.232139237,0.344112582,0.003510979,0.014097861,0.086146662
1750932671.017459869,-1.691964317,-1.801488349,-1.217650000,1.588050479,0.980289066,-0.589472206,0.008191657,0.006260798,0.014000000,0.000605628,0.007004709,0.003628166,4.483868220,4.232139237,0.344112582,0.003510979,0.014097861,0.086146662
1750932671.017871857,-1.691909901,-1.801446759,-1.217557000,1.588054502,0.980335597,-0.589448104,0.009947012,0.007602397,0.017000000,0.000735405,0.008505718,0.004405630,4.483651949,4.232280521,0.344128160,0.003511349,0.014097861,0.086132371
1750932671.019828796,-1.691909901,-1.801446759,-1.217557000,1.588054502,0.980335597,-0.589448104,0.009947012,0.007602397,0.017000000,0.000735405,0.008505718,0.004405630,4.483651949,4.232280521,0.344128160,0.003511349,0.014097861,0.086132371
1750932671.021722317,-1.691889422,-1.801431107,-1.217522000,1.588056016,0.980353109,-0.589439034,0.010532131,0.008049597,0.018000000,0.000778664,0.009006054,0.004664785,4.483570546,4.232333681,0.344134020,0.003511487,0.014097861,0.086126992
1750932671.025375605,-1.691867772,-1.801414561,-1.217485000,1.588057617,0.980371621,-0.589429445,0.011117249,0.008496797,0.019000000,0.000821923,0.009506390,0.004923940,4.483484485,4.232389871,0.344140213,0.003511634,0.014097860,0.086121306
1750932671.025703192,-1.691844953,-1.801397120,-1.217446000,1.588059304,0.980391135,-0.589419338,0.011702367,0.008943997,0.020000000,0.000865182,0.010006727,0.005183094,4.483393766,4.232449090,0.344146739,0.003511789,0.014097860,0.086115311
1750932671.027790785,-1.691820963,-1.801378785,-1.217405000,1.588061077,0.980411648,-0.589408713,0.012287486,0.009391197,0.021000000,0.000908441,0.010507063,0.005442249,4.483298386,4.232511337,0.344153598,0.003511952,0.014097860,0.086109008
1750932671.029846191,-1.691820963,-1.801378785,-1.217405000,1.588061077,0.980411648,-0.589408713,0.012287486,0.009391197,0.021000000,0.000908441,0.010507063,0.005442249,4.483298386,4.232511337,0.344153598,0.003511952,0.014097860,0.086109008
1750932671.032857656,-1.691820963,-1.801378785,-1.217405000,1.588061077,0.980411648,-0.589408713,0.012287486,0.009391197,0.021000000,0.000908441,0.010507063,0.005442249,4.483298386,4.232511337,0.344153598,0.003511952,0.014097860,0.086109008
1750932671.033743620,-1.691795803,-1.801359555,-1.217362000,1.588062937,0.980433163,-0.589397569,0.012872604,0.009838396,0.022000000,0.000951701,0.011007399,0.005701404,4.483198345,4.232576610,0.344160789,0.003512122,0.014097860,0.086102398
1750932671.035860777,-1.691769472,-1.801339431,-1.217317000,1.588064884,0.980455678,-0.589385907,0.013457723,0.010285596,0.023000000,0.000994960,0.011507736,0.005960559,4.483093642,4.232644909,0.344168312,0.003512301,0.014097860,0.086095479
1750932671.037931681,-1.691741972,-1.801318413,-1.217270000,1.588066917,0.980479194,-0.589373727,0.014042841,0.010732796,0.024000000,0.001038219,0.012008072,0.006219713,4.482984275,4.232716232,0.344176167,0.003512487,0.014097859,0.086088252
1750932671.039880991,-1.691713301,-1.801296500,-1.217221000,1.588069037,0.980503710,-0.589361028,0.014627959,0.011179996,0.025000000,0.001081478,0.012508408,0.006478868,4.482870244,4.232790576,0.344184354,0.003512681,0.014097859,0.086080717
1750932671.041823626,-1.691683460,-1.801273693,-1.217170000,1.588071243,0.980529227,-0.589347811,0.015213078,0.011627196,0.026000000,0.001124737,0.013008745,0.006738023,4.482751546,4.232867941,0.344192871,0.003512883,0.014097859,0.086072873
1750932671.043906927,-1.691652449,-1.801249991,-1.217117000,1.588073536,0.980555745,-0.589334076,0.015798196,0.012074396,0.027000000,0.001167996,0.013509081,0.006997178,4.482628180,4.232948325,0.344201719,0.003513093,0.014097858,0.086064720
1750932671.046514034,-1.691620267,-1.801225395,-1.217062000,1.588075915,0.980583264,-0.589319823,0.016383314,0.012521595,0.028000000,0.001211255,0.014009417,0.007256332,4.482500145,4.233031726,0.344210898,0.003513311,0.014097858,0.086056260
1750932671.047727823,-1.691586915,-1.801199905,-1.217005000,1.588078381,0.980611783,-0.589305051,0.016968433,0.012968795,0.029000000,0.001254514,0.014509754,0.007515487,4.482367439,4.233118143,0.344220406,0.003513537,0.014097858,0.086047490
1750932671.049857140,-1.691586915,-1.801199905,-1.217005000,1.588078381,0.980611783,-0.589305051,0.016968433,0.012968795,0.029000000,0.001254514,0.014509754,0.007515487,4.482367439,4.233118143,0.344220406,0.003513537,0.014097858,0.086047490
1750932671.052059412,-1.691516701,-1.801146241,-1.216885000,1.588083572,0.980671823,-0.589273952,0.018138670,0.013863195,0.031000000,0.001341033,0.015510426,0.008033796,4.482088008,4.233300014,0.344240410,0.003514012,0.014097857,0.086029024
1750932671.054646969,-1.691516701,-1.801146241,-1.216885000,1.588083572,0.980671823,-0.589273952,0.018138670,0.013863195,0.031000000,0.001341033,0.015510426,0.008033796,4.482088008,4.233300014,0.344240410,0.003514012,0.014097857,0.086029024
1750932671.055715322,-1.691479839,-1.801118067,-1.216822000,1.588086297,0.980703344,-0.589257626,0.018723788,0.014310395,0.032000000,0.001384292,0.016010763,0.008292951,4.481941280,4.233395465,0.344250905,0.003514262,0.014097857,0.086019327
1750932671.058778763,-1.691441806,-1.801088999,-1.216757000,1.588089109,0.980735866,-0.589240781,0.019308906,0.014757595,0.033000000,0.001427551,0.016511099,0.008552106,4.481789874,4.233493924,0.344261729,0.003514519,0.014097856,0.086009322
1750932671.060790539,-1.691402603,-1.801059037,-1.216690000,1.588092008,0.980769389,-0.589223417,0.019894025,0.015204794,0.034000000,0.001470810,0.017011435,0.008811261,4.481633789,4.233595388,0.344272880,0.003514784,0.014097856,0.085999006
1750932671.061734915,-1.691362230,-1.801028180,-1.216621000,1.588094992,0.980803912,-0.589205535,0.020479143,0.015651994,0.035000000,0.001514069,0.017511771,0.009070415,4.481473023,4.233699855,0.344284358,0.003515057,0.014097856,0.085988382
1750932671.063726902,-1.691362230,-1.801028180,-1.216621000,1.588094992,0.980803912,-0.589205535,0.020479143,0.015651994,0.035000000,0.001514069,0.017511771,0.009070415,4.481473023,4.233699855,0.344284358,0.003515057,0.014097856,0.085988382
1750932671.065806389,-1.691320687,-1.800996429,-1.216550000,1.588098064,0.980839436,-0.589187135,0.021064261,0.016099194,0.036000000,0.001557328,0.018012108,0.009329570,4.481307573,4.233807323,0.344296163,0.003515337,0.014097855,0.085977447
1750932671.067776203,-1.691320687,-1.800996429,-1.216550000,1.588098064,0.980839436,-0.589187135,0.021064261,0.016099194,0.036000000,0.001557328,0.018012108,0.009329570,4.481307573,4.233807323,0.344296163,0.003515337,0.014097855,0.085977447
1750932671.069730997,-1.691277973,-1.800963783,-1.216477000,1.588101222,0.980875960,-0.589168217,0.021649380,0.016546394,0.037000000,0.001600587,0.018512444,0.009588725,4.481137438,4.233917789,0.344308294,0.003515626,0.014097855,0.085966203
1750932671.071775913,-1.691234089,-1.800930243,-1.216402000,1.588104466,0.980913486,-0.589148781,0.022234498,0.016993594,0.038000000,0.001643846,0.019012780,0.009847880,4.480962616,4.234031252,0.344320750,0.003515922,0.014097854,0.085954649
1750932671.073659897,-1.691189035,-1.800895809,-1.216325000,1.588107797,0.980952012,-0.589128826,0.022819617,0.017440794,0.039000000,0.001687105,0.019513117,0.010107034,4.480783104,4.234147708,0.344333532,0.003516226,0.014097854,0.085942785
1750932671.075667858,-1.691142811,-1.800860480,-1.216246000,1.588111215,0.980991538,-0.589108352,0.023404735,0.017887994,0.040000000,0.001730365,0.020013453,0.010366189,4.480598901,4.234267155,0.344346638,0.003516538,0.014097853,0.085930611
1750932671.077837467,-1.691095416,-1.800824257,-1.216165000,1.588114719,0.981032065,-0.589087361,0.023989853,0.018335193,0.041000000,0.001773624,0.020513789,0.010625344,4.480410004,4.234389592,0.344360068,0.003516858,0.014097853,0.085918126
1750932671.079827785,-1.691046851,-1.800787139,-1.216082000,1.588118309,0.981073593,-0.589065851,0.024574972,0.018782393,0.042000000,0.001816883,0.021014126,0.010884498,4.480216411,4.234515014,0.344373821,0.003517186,0.014097852,0.085905331
1750932671.083235264,-1.690946211,-1.800710221,-1.215910000,1.588125750,0.981159651,-0.589021276,0.025745208,0.019676793,0.044000000,0.001903401,0.022014798,0.011402808,4.479815128,4.234774804,0.344402295,0.003517864,0.014097851,0.085878808
1750932671.083577394,-1.690946211,-1.800710221,-1.215910000,1.588125750,0.981159651,-0.589021276,0.025745208,0.019676793,0.044000000,0.001903401,0.022014798,0.011402808,4.479815128,4.234774804,0.344402295,0.003517864,0.014097851,0.085878808
1750932671.085535526,-1.690894135,-1.800670420,-1.215821000,1.588129600,0.981204181,-0.588998212,0.026330327,0.020123993,0.045000000,0.001946660,0.022515135,0.011661963,4.479607432,4.234909168,0.344417015,0.003518215,0.014097851,0.085865081
1750932671.087570190,-1.690840890,-1.800629725,-1.215730000,1.588133536,0.981249712,-0.588974629,0.026915445,0.020571193,0.046000000,0.001989919,0.023015471,0.011921117,4.479395031,4.235046506,0.344432055,0.003518574,0.014097850,0.085851041
1750932671.089590073,-1.690786474,-1.800588136,-1.215637000,1.588137559,0.981296243,-0.588950527,0.027500564,0.021018392,0.047000000,0.002033178,0.023515807,0.012180272,4.479177921,4.235186815,0.344447415,0.003518940,0.014097850,0.085836691
1750932671.091607094,-1.690730887,-1.800545652,-1.215542000,1.588141669,0.981343775,-0.588925908,0.028085682,0.021465592,0.048000000,0.002076437,0.024016144,0.012439427,4.478956100,4.235330093,0.344463095,0.003519314,0.014097849,0.085822029
1750932671.093789577,-1.690674131,-1.800502273,-1.215445000,1.588145865,0.981392308,-0.588900770,0.028670800,0.021912792,0.049000000,0.002119697,0.024516480,0.012698582,4.478729566,4.235476337,0.344479094,0.003519696,0.014097849,0.085807055
1750932671.095633507,-1.690616204,-1.800458000,-1.215346000,1.588150148,0.981441841,-0.588875113,0.029255919,0.022359992,0.050000000,0.002162956,0.025016816,0.012957736,4.478498316,4.235625543,0.344495410,0.003520085,0.014097848,0.085791769
1750932671.102762222,-1.690616204,-1.800458000,-1.215346000,1.588150148,0.981441841,-0.588875113,0.029255919,0.022359992,0.050000000,0.002162956,0.025016816,0.012957736,4.478498316,4.235625543,0.344495410,0.003520085,0.014097848,0.085791769
1750932671.102808714,-1.690616204,-1.800458000,-1.215346000,1.588150148,0.981441841,-0.588875113,0.029255919,0.022359992,0.050000000,0.002162956,0.025016816,0.012957736,4.478498316,4.235625543,0.344495410,0.003520085,0.014097848,0.085791769
1750932671.102825165,-1.690496840,-1.800366772,-1.215142000,1.588158973,0.981543909,-0.588822246,0.030426155,0.023254392,0.052000000,0.002249474,0.026017489,0.013476046,4.478021654,4.235932829,0.344528995,0.003520887,0.014097847,0.085760260
1750932671.109815359,-1.690496840,-1.800366772,-1.215142000,1.588158973,0.981543909,-0.588822246,0.030426155,0.023254392,0.052000000,0.002249474,0.026017489,0.013476046,4.478021654,4.235932829,0.344528995,0.003520887,0.014097847,0.085760260
1750932671.109860182,-1.690435402,-1.800319816,-1.215037000,1.588163515,0.981596445,-0.588795034,0.031011274,0.023701591,0.053000000,0.002292733,0.026517825,0.013735200,4.477776237,4.236090902,0.344546261,0.003521300,0.014097847,0.085744037
1750932671.109877586,-1.690372795,-1.800271965,-1.214930000,1.588168144,0.981649981,-0.588767305,0.031596392,0.024148791,0.054000000,0.002335992,0.027018162,0.013994355,4.477526093,4.236251924,0.344563843,0.003521720,0.014097846,0.085727501
1750932671.112305164,-1.690309017,-1.800223220,-1.214821000,1.588172859,0.981704517,-0.588739057,0.032181511,0.024595991,0.055000000,0.002379251,0.027518498,0.014253510,4.477271217,4.236415892,0.344581739,0.003522148,0.014097845,0.085710652
1750932671.116765499,-1.690177950,-1.800123048,-1.214597000,1.588182549,0.981816593,-0.588681006,0.033351747,0.025490391,0.057000000,0.002465769,0.028519171,0.014771819,4.476747261,4.236752649,0.344618470,0.003523027,0.014097844,0.085676015
1750932671.117727757,-1.690110662,-1.800071620,-1.214482000,1.588187524,0.981874131,-0.588651204,0.033936866,0.025937591,0.058000000,0.002509029,0.029019507,0.015030974,4.476478174,4.236925431,0.344637303,0.003523478,0.014097844,0.085658225
1750932671.122767448,-1.689972574,-1.799966081,-1.214246000,1.588197733,0.981992211,-0.588590043,0.035107102,0.026831990,0.060000000,0.002595547,0.030020180,0.015549283,4.475925767,4.237279784,0.344675903,0.003524403,0.014097842,0.085621705
1750932671.122810841,-1.689972574,-1.799966081,-1.214246000,1.588197733,0.981992211,-0.588590043,0.035107102,0.026831990,0.060000000,0.002595547,0.030020180,0.015549283,4.475925767,4.237279784,0.344675903,0.003524403,0.014097842,0.085621705
1750932671.123637199,-1.689901775,-1.799911969,-1.214125000,1.588202967,0.982052751,-0.588558685,0.035692221,0.027279190,0.061000000,0.002638806,0.030520516,0.015808438,4.475642439,4.237461346,0.344695667,0.003524876,0.014097842,0.085602973
1750932671.125589132,-1.689829805,-1.799856964,-1.214002000,1.588208288,0.982114293,-0.588526809,0.036277339,0.027726390,0.062000000,0.002682065,0.031020852,0.016067593,4.475354358,4.237645828,0.344715739,0.003525358,0.014097841,0.085583926
1750932671.127966642,-1.689756665,-1.799801064,-1.213877000,1.588213695,0.982176835,-0.588494415,0.036862458,0.028173590,0.063000000,0.002725324,0.031521189,0.016326748,4.475061520,4.237833225,0.344736119,0.003525847,0.014097840,0.085564565
1750932671.129752159,-1.689682355,-1.799744269,-1.213750000,1.588219189,0.982240378,-0.588461502,0.037447576,0.028620790,0.064000000,0.002768583,0.032021525,0.016585902,4.474763921,4.238023532,0.344756806,0.003526343,0.014097839,0.085544889
1750932671.131652832,-1.689606875,-1.799686581,-1.213621000,1.588224770,0.982304921,-0.588428071,0.038032694,0.029067989,0.065000000,0.002811842,0.032521861,0.016845057,4.474461559,4.238216746,0.344777798,0.003526847,0.014097839,0.085524897
1750932671.133649588,-1.689530224,-1.799627998,-1.213490000,1.588230437,0.982370465,-0.588394122,0.038617813,0.029515189,0.066000000,0.002855102,0.033022198,0.017104212,4.474154428,4.238412863,0.344799094,0.003527359,0.014097838,0.085504590
1750932671.135868311,-1.689452404,-1.799568520,-1.213357000,1.588236190,0.982437010,-0.588359654,0.039202931,0.029962389,0.067000000,0.002898361,0.033522534,0.017363367,4.473842526,4.238611878,0.344820695,0.003527878,0.014097837,0.085483966
1750932671.137539864,-1.689373413,-1.799508148,-1.213222000,1.588242030,0.982504555,-0.588324669,0.039788049,0.030409589,0.068000000,0.002941620,0.034022870,0.017622521,4.473525848,4.238813786,0.344842598,0.003528404,0.014097837,0.085463027
1750932671.139672279,-1.689293251,-1.799446882,-1.213085000,1.588247957,0.982573101,-0.588289164,0.040373168,0.030856789,0.069000000,0.002984879,0.034523207,0.017881676,4.473204392,4.239018584,0.344864803,0.003528938,0.014097836,0.085441771
1750932671.141760826,-1.689211920,-1.799384721,-1.212946000,1.588253970,0.982642648,-0.588253142,0.040958286,0.031303989,0.070000000,0.003028138,0.035023543,0.018140831,4.472878153,4.239226267,0.344887309,0.003529480,0.014097835,0.085420198
1750932671.143800974,-1.689129418,-1.799321666,-1.212805000,1.588260069,0.982713195,-0.588216601,0.041543405,0.031751189,0.071000000,0.003071397,0.035523879,0.018399985,4.472547126,4.239436830,0.344910114,0.003530029,0.014097834,0.085398309
1750932671.149145126,-1.689045746,-1.799257716,-1.212662000,1.588266255,0.982784744,-0.588179542,0.042128523,0.032198388,0.072000000,0.003114656,0.036024216,0.018659140,4.472211309,4.239650269,0.344933218,0.003530585,0.014097834,0.085376102
1750932671.149182796,-1.689045746,-1.799257716,-1.212662000,1.588266255,0.982784744,-0.588179542,0.042128523,0.032198388,0.072000000,0.003114656,0.036024216,0.018659140,4.472211309,4.239650269,0.344933218,0.003530585,0.014097834,0.085376102
1750932671.151551247,-1.688960904,-1.799192872,-1.212517000,1.588272528,0.982857292,-0.588141964,0.042713641,0.032645588,0.073000000,0.003157915,0.036524552,0.018918295,4.471870697,4.239866578,0.344956620,0.003531149,0.014097833,0.085353577
1750932671.153560162,-1.688787709,-1.799060501,-1.212221000,1.588285333,0.983005392,-0.588065255,0.043883878,0.033539988,0.075000000,0.003244434,0.037525225,0.019436604,4.471175072,4.240307791,0.345004312,0.003532299,0.014097831,0.085307575
1750932671.155713558,-1.688699356,-1.798992974,-1.212070000,1.588291865,0.983080943,-0.588026122,0.044468996,0.033987188,0.076000000,0.003287693,0.038025561,0.019695759,4.470820051,4.240532685,0.345028601,0.003532886,0.014097830,0.085284096
1750932671.158046961,-1.688699356,-1.798992974,-1.212070000,1.588291865,0.983080943,-0.588026122,0.044468996,0.033987188,0.076000000,0.003287693,0.038025561,0.019695759,4.470820051,4.240532685,0.345028601,0.003532886,0.014097830,0.085284096
1750932671.159689903,-1.688519140,-1.798855236,-1.211762000,1.588305188,0.983235046,-0.587946303,0.045639233,0.034881587,0.078000000,0.003374211,0.039026234,0.020214069,4.470095569,4.240991022,0.345078056,0.003534080,0.014097829,0.085236182
1750932671.161622286,-1.688427276,-1.798785026,-1.211605000,1.588311980,0.983313599,-0.587905615,0.046224352,0.035328787,0.079000000,0.003417470,0.039526570,0.020473223,4.469726100,4.241224455,0.345103221,0.003534688,0.014097828,0.085211746
1750932671.169402122,-1.688427276,-1.798785026,-1.211605000,1.588311980,0.983313599,-0.587905615,0.046224352,0.035328787,0.079000000,0.003417470,0.039526570,0.020473223,4.469726100,4.241224455,0.345103221,0.003534688,0.014097828,0.085211746
1750932671.169907093,-1.688144664,-1.798569028,-1.211122000,1.588332874,0.983555261,-0.587780444,0.047979707,0.036670387,0.082000000,0.003547247,0.041027579,0.021250687,4.468588726,4.241941750,0.345180450,0.003536557,0.014097825,0.085136520
1750932671.171603918,-1.688048120,-1.798495240,-1.210957000,1.588340012,0.983637817,-0.587737683,0.048564825,0.037117587,0.083000000,0.003590506,0.041527915,0.021509842,4.468199931,4.242186496,0.345206767,0.003537195,0.014097825,0.085110803
1750932671.173970699,-1.687950405,-1.798420558,-1.210790000,1.588347236,0.983721373,-0.587694404,0.049149943,0.037564786,0.084000000,0.003633766,0.042028252,0.021768997,4.467806293,4.242434057,0.345233370,0.003537840,0.014097824,0.085084766
1750932671.176039457,-1.687851520,-1.798344981,-1.210621000,1.588354547,0.983805930,-0.587650607,0.049735062,0.038011986,0.085000000,0.003677025,0.042528588,0.022028152,4.467407807,4.242684427,0.345260256,0.003538492,0.014097823,0.085058408
1750932671.180371046,-1.687751465,-1.798268510,-1.210450000,1.588361944,0.983891487,-0.587606292,0.050320180,0.038459186,0.086000000,0.003720284,0.043028924,0.022287306,4.467004469,4.242937601,0.345287425,0.003539151,0.014097822,0.085031728
1750932671.181699991,-1.687547843,-1.798112884,-1.210102000,1.588376999,0.984065605,-0.587516106,0.051490417,0.039353586,0.088000000,0.003806802,0.044029597,0.022805616,4.466183215,4.243452338,0.345342606,0.003540491,0.014097820,0.084977402
1750932671.184186220,-1.687444277,-1.798033730,-1.209925000,1.588384655,0.984154164,-0.587470235,0.052075535,0.039800786,0.089000000,0.003850061,0.044529933,0.023064771,4.465765290,4.243713890,0.345370615,0.003541172,0.014097819,0.084949755
1750932671.185674429,-1.687339541,-1.797953681,-1.209746000,1.588392399,0.984243724,-0.587423847,0.052660654,0.040247985,0.090000000,0.003893320,0.045030270,0.023323925,4.465342493,4.243978223,0.345398902,0.003541860,0.014097818,0.084921785
1750932671.187566996,-1.687233635,-1.797872738,-1.209565000,1.588400229,0.984334285,-0.587376940,0.053245772,0.040695185,0.091000000,0.003936579,0.045530606,0.023583080,4.464914819,4.244245330,0.345427465,0.003542556,0.014097817,0.084893492
1750932671.189612627,-1.687126558,-1.797790901,-1.209382000,1.588408145,0.984425847,-0.587329514,0.053830890,0.041142385,0.092000000,0.003979838,0.046030942,0.023842235,4.464482262,4.244515207,0.345456303,0.003543258,0.014097816,0.084864875
1750932671.191504240,-1.687018311,-1.797708169,-1.209197000,1.588416148,0.984518409,-0.587281571,0.054416009,0.041589585,0.093000000,0.004023098,0.046531279,0.024101389,4.464044818,4.244787847,0.345485415,0.003543968,0.014097816,0.084835934
1750932671.193580389,-1.686908894,-1.797624542,-1.209010000,1.588424238,0.984611972,-0.587233109,0.055001127,0.042036785,0.094000000,0.004066357,0.047031615,0.024360544,4.463602481,4.245063243,0.345514798,0.003544684,0.014097815,0.084806669
1750932671.195767641,-1.686798307,-1.797540021,-1.208821000,1.588432414,0.984706535,-0.587184129,0.055586246,0.042483985,0.095000000,0.004109616,0.047531951,0.024619699,4.463155246,4.245341391,0.345544453,0.003545408,0.014097814,0.084777079
1750932671.197783709,-1.686686549,-1.797454606,-1.208630000,1.588440676,0.984802100,-0.587134630,0.056171364,0.042931184,0.096000000,0.004152875,0.048032288,0.024878854,4.462703108,4.245622283,0.345574377,0.003546139,0.014097813,0.084747165
1750932671.199642658,-1.686573621,-1.797368297,-1.208437000,1.588449025,0.984898665,-0.587084613,0.056756482,0.043378384,0.097000000,0.004196134,0.048532624,0.025138008,4.462246061,4.245905913,0.345604569,0.003546877,0.014097812,0.084716924
1750932671.201635122,-1.686459523,-1.797281093,-1.208242000,1.588457461,0.984996230,-0.587034078,0.057341601,0.043825584,0.098000000,0.004239393,0.049032960,0.025397163,4.461784100,4.246192276,0.345635027,0.003547621,0.014097811,0.084686358
1750932671.203567266,-1.686344255,-1.797192994,-1.208045000,1.588465983,0.985094796,-0.586983025,0.057926719,0.044272784,0.099000000,0.004282652,0.049533297,0.025656318,4.461317219,4.246481363,0.345665751,0.003548373,0.014097810,0.084655465
1750932671.205741405,-1.686227816,-1.797104002,-1.207846000,1.588474591,0.985194363,-0.586931453,0.058511837,0.044719984,0.100000000,0.004325911,0.050033633,0.025915472,4.460845413,4.246773170,0.345696738,0.003549132,0.014097809,0.084624246
1750932671.207719088,-1.686110207,-1.797014114,-1.207645000,1.588483286,0.985294931,-0.586879363,0.059096956,0.045167184,0.101000000,0.004369170,0.050533969,0.026174627,4.460368675,4.247067689,0.345727988,0.003549898,0.014097808,0.084592700
1750932671.209761620,-1.685991428,-1.796923333,-1.207442000,1.588492068,0.985396499,-0.586826754,0.059682074,0.045614383,0.102000000,0.004412430,0.051034306,0.026433782,4.459887002,4.247364914,0.345759498,0.003550671,0.014097807,0.084560826
1750932671.212808609,-1.685871479,-1.796831657,-1.207237000,1.588500936,0.985499068,-0.586773628,0.060267193,0.046061583,0.103000000,0.004455689,0.051534642,0.026692937,4.459400386,4.247664838,0.345791268,0.003551450,0.014097806,0.084528625
1750932671.219841003,-1.685871479,-1.796831657,-1.207237000,1.588500936,0.985499068,-0.586773628,0.060267193,0.046061583,0.103000000,0.004455689,0.051534642,0.026692937,4.459400386,4.247664838,0.345791268,0.003551450,0.014097806,0.084528625
1750932671.219892740,-1.685750360,-1.796739087,-1.207030000,1.588509891,0.985602638,-0.586719982,0.060852311,0.046508783,0.104000000,0.004498948,0.052034978,0.026952091,4.458908822,4.247967455,0.345823295,0.003552237,0.014097805,0.084496095
1750932671.219913721,-1.685628070,-1.796645622,-1.206821000,1.588518932,0.985707208,-0.586665819,0.061437429,0.046955983,0.105000000,0.004542207,0.052535314,0.027211246,4.458412304,4.248272757,0.345855579,0.003553030,0.014097804,0.084463237
1750932671.222062111,-1.685628070,-1.796645622,-1.206821000,1.588518932,0.985707208,-0.586665819,0.061437429,0.046955983,0.105000000,0.004542207,0.052535314,0.027211246,4.458412304,4.248272757,0.345855579,0.003553030,0.014097804,0.084463237
1750932671.223748446,-1.685379980,-1.796456009,-1.206397000,1.588537274,0.985919351,-0.586555938,0.062607666,0.047850383,0.107000000,0.004628725,0.053535987,0.027729556,4.457404382,4.248891390,0.345920908,0.003554638,0.014097802,0.084396532
1750932671.225634336,-1.685254179,-1.796359861,-1.206182000,1.588546574,0.986026923,-0.586500219,0.063192784,0.048297583,0.108000000,0.004671984,0.054036323,0.027988710,4.456892966,4.249204707,0.345953951,0.003555452,0.014097801,0.084362686
1750932671.227671623,-1.685127209,-1.796262819,-1.205965000,1.588555962,0.986135496,-0.586443983,0.063777903,0.048744782,0.109000000,0.004715243,0.054536660,0.028247865,4.456376573,4.249520682,0.345987244,0.003556273,0.014097800,0.084328509
1750932671.229670763,-1.684999068,-1.796164882,-1.205746000,1.588565435,0.986245070,-0.586387228,0.064363021,0.049191982,0.110000000,0.004758503,0.055036996,0.028507020,4.455855195,4.249839307,0.346020786,0.003557100,0.014097799,0.084294002
1750932671.231659174,-1.684869757,-1.796066051,-1.205525000,1.588574996,0.986355644,-0.586329955,0.064948140,0.049639182,0.111000000,0.004801762,0.055537332,0.028766174,4.455328827,4.250160575,0.346054574,0.003557934,0.014097797,0.084259163
1750932671.234557390,-1.684739275,-1.795966325,-1.205302000,1.588584642,0.986467219,-0.586272163,0.065533258,0.050086382,0.112000000,0.004845021,0.056037669,0.029025329,4.454797462,4.250484479,0.346088607,0.003558775,0.014097796,0.084223993
1750932671.235744238,-1.684607623,-1.795865705,-1.205077000,1.588594376,0.986579795,-0.586213853,0.066118376,0.050533582,0.113000000,0.004888280,0.056538005,0.029284484,4.454261095,4.250811012,0.346122884,0.003559623,0.014097795,0.084188491
1750932671.237563133,-1.684474802,-1.795764191,-1.204850000,1.588604195,0.986693371,-0.586155025,0.066703495,0.050980782,0.114000000,0.004931539,0.057038341,0.029543639,4.453719718,4.251140165,0.346157402,0.003560477,0.014097794,0.084152656
1750932671.239603996,-1.684340810,-1.795661782,-1.204621000,1.588614102,0.986807948,-0.586095679,0.067288613,0.051427981,0.115000000,0.004974798,0.057538678,0.029802793,4.453173326,4.251471933,0.346192161,0.003561339,0.014097793,0.084116489
1750932671.241772890,-1.684205647,-1.795558479,-1.204390000,1.588624095,0.986923526,-0.586035814,0.067873731,0.051875181,0.116000000,0.005018057,0.058039014,0.030061948,4.452621911,4.251806306,0.346227158,0.003562206,0.014097792,0.084079988
1750932671.244001389,-1.684069315,-1.795454281,-1.204157000,1.588634174,0.987040104,-0.585975431,0.068458850,0.052322381,0.117000000,0.005061316,0.058539350,0.030321103,4.452065468,4.252143278,0.346262391,0.003563080,0.014097791,0.084043154
1750932671.246229172,-1.683931812,-1.795349189,-1.203922000,1.588644340,0.987157683,-0.585914530,0.069043968,0.052769581,0.118000000,0.005104575,0.059039687,0.030580258,4.451503990,4.252482841,0.346297860,0.003563961,0.014097790,0.084005985
1750932671.247993231,-1.683793139,-1.795243203,-1.203685000,1.588654592,0.987276263,-0.585853110,0.069629087,0.053216781,0.119000000,0.005147835,0.059540023,0.030839412,4.450937470,4.252824986,0.346333562,0.003564849,0.014097789,0.083968482
1750932671.249898195,-1.683653295,-1.795136322,-1.203446000,1.588664931,0.987395843,-0.585791172,0.070214205,0.053663981,0.120000000,0.005191094,0.060040359,0.031098567,4.450365901,4.253169707,0.346369496,0.003565743,0.014097788,0.083930644
1750932671.251793623,-1.683512282,-1.795028547,-1.203205000,1.588675357,0.987516424,-0.585728716,0.070799323,0.054111180,0.121000000,0.005234353,0.060540696,0.031357722,4.449789277,4.253516995,0.346405659,0.003566643,0.014097787,0.083892470
1750932671.253913879,-1.683370098,-1.794919878,-1.202962000,1.588685869,0.987638006,-0.585665741,0.071384442,0.054558380,0.122000000,0.005277612,0.061041032,0.031616876,4.449207590,4.253866842,0.346442051,0.003567550,0.014097786,0.083853960
1750932671.255923510,-1.683226744,-1.794810314,-1.202717000,1.588696467,0.987760588,-0.585602248,0.071969560,0.055005580,0.123000000,0.005320871,0.061541368,0.031876031,4.448620835,4.254219240,0.346478668,0.003568464,0.014097784,0.083815114
1750932671.258800030,-1.683082220,-1.794699855,-1.202470000,1.588707152,0.987884171,-0.585538237,0.072554678,0.055452780,0.124000000,0.005364130,0.062041705,0.032135186,4.448029003,4.254574182,0.346515510,0.003569384,0.014097783,0.083775930
1750932671.263406992,-1.682936525,-1.794588503,-1.202221000,1.588717924,0.988008755,-0.585473707,0.073139797,0.055899980,0.125000000,0.005407389,0.062542041,0.032394341,4.447432088,4.254931658,0.346552575,0.003570310,0.014097782,0.083736410
1750932671.263641596,-1.682641626,-1.794363114,-1.201717000,1.588739726,0.988260925,-0.585343093,0.074310033,0.056794379,0.127000000,0.005493907,0.063542714,0.032912650,4.446222982,4.255654183,0.346627364,0.003572182,0.014097780,0.083656354
1750932671.271960974,-1.682492421,-1.794249078,-1.201462000,1.588750757,0.988388510,-0.585277009,0.074895152,0.057241579,0.128000000,0.005537167,0.064043050,0.033171805,4.445610776,4.256019214,0.346665085,0.003573127,0.014097779,0.083615819
1750932671.272011995,-1.682492421,-1.794249078,-1.201462000,1.588750757,0.988388510,-0.585277009,0.074895152,0.057241579,0.128000000,0.005537167,0.064043050,0.033171805,4.445610776,4.256019214,0.346665085,0.003573127,0.014097779,0.083615819
1750932671.272634983,-1.682190499,-1.794018323,-1.200946000,1.588773079,0.988646684,-0.585143285,0.076065389,0.058135979,0.130000000,0.005623685,0.065043723,0.033690114,4.444371021,4.256756774,0.346741170,0.003575037,0.014097777,0.083533729
1750932671.276224852,-1.681883897,-1.793783990,-1.200422000,1.588795747,0.988908860,-0.585007488,0.077235625,0.059030379,0.132000000,0.005710203,0.066044395,0.034208424,4.443110762,4.257504272,0.346818101,0.003576971,0.014097774,0.083450277
1750932671.277523756,-1.681883897,-1.793783990,-1.200422000,1.588795747,0.988908860,-0.585007488,0.077235625,0.059030379,0.132000000,0.005710203,0.066044395,0.034208424,4.443110762,4.257504272,0.346818101,0.003576971,0.014097774,0.083450277
1750932671.277690649,-1.681728841,-1.793665482,-1.200157000,1.588807210,0.989041449,-0.584938812,0.077820744,0.059477578,0.133000000,0.005753462,0.066544732,0.034467578,4.442472924,4.257881726,0.346856878,0.003577948,0.014097773,0.083408040
1750932671.280224085,-1.681572614,-1.793546080,-1.199890000,1.588818761,0.989175039,-0.584869618,0.078405862,0.059924778,0.134000000,0.005796721,0.067045068,0.034726733,4.441829938,4.258261639,0.346895861,0.003578931,0.014097772,0.083365461
1750932671.281863689,-1.681415218,-1.793425783,-1.199621000,1.588830397,0.989309630,-0.584799905,0.078990980,0.060371978,0.135000000,0.005839980,0.067545404,0.034985888,4.441181796,4.258644001,0.346935047,0.003579920,0.014097771,0.083322539
1750932671.283801556,-1.681256651,-1.793304592,-1.199350000,1.588842121,0.989445221,-0.584729674,0.079576099,0.060819178,0.136000000,0.005883239,0.068045741,0.035245043,4.440528490,4.259028804,0.346974434,0.003580915,0.014097770,0.083279275
1750932671.285665989,-1.681096913,-1.793182506,-1.199077000,1.588853930,0.989581813,-0.584658925,0.080161217,0.061266378,0.137000000,0.005926499,0.068546077,0.035504197,4.439870013,4.259416038,0.347014021,0.003581916,0.014097769,0.083235667
1750932671.287570000,-1.680936006,-1.793059526,-1.198802000,1.588865827,0.989719405,-0.584587657,0.080746336,0.061713578,0.138000000,0.005969758,0.069046413,0.035763352,4.439206356,4.259805695,0.347053806,0.003582923,0.014097767,0.083191716
1750932671.289555311,-1.680773928,-1.792935652,-1.198525000,1.588877809,0.989857998,-0.584515872,0.081331454,0.062160778,0.139000000,0.006013017,0.069546750,0.036022507,4.438537512,4.260197766,0.347093785,0.003583937,0.014097766,0.083147420
1750932671.291555882,-1.680610680,-1.792810883,-1.198246000,1.588889879,0.989997592,-0.584443567,0.081916572,0.062607977,0.140000000,0.006056276,0.070047086,0.036281661,4.437863474,4.260592241,0.347133959,0.003584956,0.014097765,0.083102779
1750932671.293666124,-1.680446262,-1.792685220,-1.197965000,1.588902034,0.990138187,-0.584370745,0.082501691,0.063055177,0.141000000,0.006099535,0.070547422,0.036540816,4.437184233,4.260989112,0.347174323,0.003585981,0.014097764,0.083057793
1750932671.295642138,-1.680280673,-1.792558662,-1.197682000,1.588914277,0.990279782,-0.584297404,0.083086809,0.063502377,0.142000000,0.006142794,0.071047759,0.036799971,4.436499781,4.261388368,0.347214877,0.003587012,0.014097763,0.083012461
1750932671.297657967,-1.680113914,-1.792431211,-1.197397000,1.588926606,0.990422378,-0.584223545,0.083671927,0.063949577,0.143000000,0.006186053,0.071548095,0.037059126,4.435810110,4.261790000,0.347255617,0.003588049,0.014097762,0.082966782
1750932671.299848557,-1.680113914,-1.792431211,-1.197397000,1.588926606,0.990422378,-0.584223545,0.083671927,0.063949577,0.143000000,0.006186053,0.071548095,0.037059126,4.435810110,4.261790000,0.347255617,0.003588049,0.014097762,0.082966782
1750932671.301687002,-1.679945985,-1.792302864,-1.197110000,1.588939021,0.990565974,-0.584149168,0.084257046,0.064396777,0.144000000,0.006229312,0.072048431,0.037318280,4.435115213,4.262194000,0.347296543,0.003589092,0.014097761,0.082920756
1750932671.303660393,-1.679776886,-1.792173623,-1.196821000,1.588951523,0.990710571,-0.584074272,0.084842164,0.064843977,0.145000000,0.006272572,0.072548768,0.037577435,4.434415081,4.262600357,0.347337651,0.003590141,0.014097759,0.082874383
1750932671.305589676,-1.679606617,-1.792043488,-1.196530000,1.588964111,0.990856169,-0.583998858,0.085427283,0.065291176,0.146000000,0.006315831,0.073049104,0.037836590,4.433709705,4.263009062,0.347378940,0.003591196,0.014097758,0.082827662
1750932671.307647943,-1.679435177,-1.791912459,-1.196237000,1.588976786,0.991002768,-0.583922926,0.086012401,0.065738376,0.147000000,0.006359090,0.073549440,0.038095745,4.432999078,4.263420105,0.347420408,0.003592256,0.014097757,0.082780592
1750932671.309586763,-1.679262567,-1.791780535,-1.195942000,1.588989548,0.991150367,-0.583846475,0.086597519,0.066185576,0.148000000,0.006402349,0.074049777,0.038354899,4.432283191,4.263833476,0.347462052,0.003593322,0.014097756,0.082733173
1750932671.311766863,-1.679088787,-1.791647716,-1.195645000,1.589002396,0.991298967,-0.583769506,0.087182638,0.066632776,0.149000000,0.006445608,0.074550113,0.038614054,4.431562036,4.264249167,0.347503870,0.003594394,0.014097755,0.082685404
1750932671.314207554,-1.678913837,-1.791514004,-1.195346000,1.589015330,0.991448567,-0.583692019,0.087767756,0.067079976,0.150000000,0.006488867,0.075050449,0.038873209,4.430835605,4.264667166,0.347545860,0.003595472,0.014097754,0.082637285
1750932671.315873861,-1.678737716,-1.791379396,-1.195045000,1.589028351,0.991599169,-0.583614013,0.088352874,0.067527176,0.151000000,0.006532126,0.075550786,0.039132363,4.430103889,4.265087464,0.347588019,0.003596555,0.014097752,0.082588815
1750932671.317805529,-1.678560425,-1.791243895,-1.194742000,1.589041459,0.991750771,-0.583535489,0.088937993,0.067974375,0.152000000,0.006575385,0.076051122,0.039391518,4.429366879,4.265510051,0.347630346,0.003597644,0.014097751,0.082539993
1750932671.319673777,-1.678381964,-1.791107499,-1.194437000,1.589054653,0.991903373,-0.583456447,0.089523111,0.068421575,0.153000000,0.006618644,0.076551458,0.039650673,4.428624566,4.265934917,0.347672839,0.003598738,0.014097750,0.082490820
1750932671.321707964,-1.678202333,-1.790970209,-1.194130000,1.589067933,0.992056976,-0.583376887,0.090108230,0.068868775,0.154000000,0.006661904,0.077051795,0.039909828,4.427876943,4.266362051,0.347715494,0.003599838,0.014097749,0.082441294
1750932671.328800440,-1.678021531,-1.790832024,-1.193821000,1.589081300,0.992211580,-0.583296808,0.090693348,0.069315975,0.155000000,0.006705163,0.077552131,0.040168982,4.427124001,4.266791445,0.347758310,0.003600944,0.014097748,0.082391415
1750932671.329585075,-1.677656417,-1.790552971,-1.193197000,1.589108294,0.992523790,-0.583135095,0.091863585,0.070210375,0.157000000,0.006791681,0.078552804,0.040687292,4.425602122,4.267656965,0.347844415,0.003603171,0.014097745,0.082290595
1750932671.329950094,-1.677472105,-1.790412103,-1.192882000,1.589121921,0.992681396,-0.583053461,0.092448703,0.070657574,0.158000000,0.006834940,0.079053140,0.040946447,4.424833168,4.268093072,0.347887699,0.003604293,0.014097744,0.082239653
1750932671.331767082,-1.677286622,-1.790270341,-1.192565000,1.589135634,0.992840003,-0.582971309,0.093033821,0.071104774,0.159000000,0.006878199,0.079553476,0.041205601,4.424058859,4.268531397,0.347931134,0.003605421,0.014097743,0.082188356
1750932671.333806038,-1.677286622,-1.790270341,-1.192565000,1.589135634,0.992840003,-0.582971309,0.093033821,0.071104774,0.159000000,0.006878199,0.079553476,0.041205601,4.424058859,4.268531397,0.347931134,0.003605421,0.014097743,0.082188356
1750932671.335671186,-1.677099970,-1.790127684,-1.192246000,1.589149433,0.992999610,-0.582888639,0.093618940,0.071551974,0.160000000,0.006921458,0.080053813,0.041464756,4.423279185,4.268971927,0.347974719,0.003606553,0.014097742,0.082136703
1750932671.337722063,-1.676912147,-1.789984133,-1.191925000,1.589163319,0.993160218,-0.582805450,0.094204058,0.071999174,0.161000000,0.006964717,0.080554149,0.041723911,4.422494139,4.269414654,0.348018450,0.003607691,0.014097741,0.082084693
1750932671.339733601,-1.676723153,-1.789839687,-1.191602000,1.589177292,0.993321827,-0.582721743,0.094789177,0.072446374,0.162000000,0.007007976,0.081054485,0.041983065,4.421703711,4.269859565,0.348062325,0.003608835,0.014097740,0.082032326
1750932671.342715979,-1.676532990,-1.789694347,-1.191277000,1.589191351,0.993484436,-0.582637518,0.095374295,0.072893574,0.163000000,0.007051236,0.081554822,0.042242220,4.420907891,4.270306652,0.348106342,0.003609983,0.014097739,0.081979602
1750932671.343898535,-1.676341656,-1.789548113,-1.190950000,1.589205497,0.993648046,-0.582552775,0.095959413,0.073340773,0.164000000,0.007094495,0.082055158,0.042501375,4.420106671,4.270755902,0.348150499,0.003611137,0.014097737,0.081926519
1750932671.346105337,-1.676149152,-1.789400984,-1.190621000,1.589219729,0.993812657,-0.582467513,0.096544532,0.073787973,0.165000000,0.007137754,0.082555494,0.042760530,4.419300040,4.271207305,0.348194793,0.003612296,0.014097736,0.081873077
1750932671.348057032,-1.675955478,-1.789252961,-1.190290000,1.589234048,0.993978268,-0.582381732,0.097129650,0.074235173,0.166000000,0.007181013,0.083055831,0.043019684,4.418487991,4.271660849,0.348239221,0.003613460,0.014097735,0.081819275
1750932671.354382753,-1.675955478,-1.789252961,-1.190290000,1.589234048,0.993978268,-0.582381732,0.097129650,0.074235173,0.166000000,0.007181013,0.083055831,0.043019684,4.418487991,4.271660849,0.348239221,0.003613460,0.014097735,0.081819275
1750932671.354430676,-1.675564619,-1.788954232,-1.189622000,1.589262945,0.994312493,-0.582208617,0.098299887,0.075129573,0.168000000,0.007267531,0.084056503,0.043537994,4.416847596,4.272574320,0.348328471,0.003615803,0.014097733,0.081710591
1750932671.355717182,-1.675367434,-1.788803525,-1.189285000,1.589277524,0.994481106,-0.582121282,0.098885005,0.075576773,0.169000000,0.007310790,0.084556840,0.043797148,4.416019232,4.273034224,0.348373288,0.003616983,0.014097732,0.081655708
1750932671.357763529,-1.675169079,-1.788651925,-1.188946000,1.589292188,0.994650720,-0.582033428,0.099470124,0.076023972,0.170000000,0.007354049,0.085057176,0.044056303,4.415185411,4.273496225,0.348418229,0.003618167,0.014097731,0.081600462
1750932671.359662294,-1.674969554,-1.788499430,-1.188605000,1.589306940,0.994821335,-0.581945057,0.100055242,0.076471172,0.171000000,0.007397308,0.085557512,0.044315458,4.414346123,4.273960313,0.348463292,0.003619356,0.014097729,0.081544854
1750932671.361842871,-1.674768858,-1.788346040,-1.188262000,1.589321778,0.994992950,-0.581856167,0.100640360,0.076918372,0.172000000,0.007440568,0.086057848,0.044574613,4.413501358,4.274426475,0.348508475,0.003620550,0.014097728,0.081488882
1750932671.363762856,-1.674566992,-1.788191756,-1.187917000,1.589336702,0.995165566,-0.581766758,0.101225479,0.077365572,0.173000000,0.007483827,0.086558185,0.044833767,4.412651107,4.274894700,0.348553775,0.003621750,0.014097727,0.081432547
1750932671.365689516,-1.674363956,-1.788036578,-1.187570000,1.589351713,0.995339183,-0.581676832,0.101810597,0.077812772,0.174000000,0.007527086,0.087058521,0.045092922,4.411795360,4.275364977,0.348599189,0.003622953,0.014097726,0.081375847
1750932671.367669821,-1.674159750,-1.787880505,-1.187221000,1.589366810,0.995513800,-0.581586387,0.102395715,0.078259972,0.175000000,0.007570345,0.087558857,0.045352077,4.410934106,4.275837295,0.348644715,0.003624162,0.014097725,0.081318783
1750932671.369655132,-1.673954373,-1.787723538,-1.186870000,1.589381994,0.995689418,-0.581495423,0.102980834,0.078707172,0.176000000,0.007613604,0.088059194,0.045611232,4.410067337,4.276311641,0.348690350,0.003625376,0.014097724,0.081261352
1750932671.371756077,-1.673954373,-1.787723538,-1.186870000,1.589381994,0.995689418,-0.581495423,0.102980834,0.078707172,0.176000000,0.007613604,0.088059194,0.045611232,4.410067337,4.276311641,0.348690350,0.003625376,0.014097724,0.081261352
1750932671.373716831,-1.673747826,-1.787565676,-1.186517000,1.589397265,0.995866037,-0.581403942,0.103565952,0.079154371,0.177000000,0.007656863,0.088559530,0.045870386,4.409195042,4.276788004,0.348736092,0.003626594,0.014097723,0.081203556
1750932671.375828981,-1.673540109,-1.787406920,-1.186162000,1.589412622,0.996043656,-0.581311942,0.104151071,0.079601571,0.178000000,0.007700122,0.089059866,0.046129541,4.408317211,4.277266372,0.348781937,0.003627817,0.014097722,0.081145392
1750932671.380797863,-1.673331222,-1.787247270,-1.185805000,1.589428065,0.996222276,-0.581219423,0.104736189,0.080048771,0.179000000,0.007743381,0.089560203,0.046388696,4.407433834,4.277746733,0.348827884,0.003629044,0.014097721,0.081086861
1750932671.381649494,-1.673121165,-1.787086725,-1.185446000,1.589443595,0.996401897,-0.581126387,0.105321307,0.080495971,0.180000000,0.007786640,0.090060539,0.046647850,4.406544900,4.278229076,0.348873929,0.003630277,0.014097719,0.081027961
1750932671.383948803,-1.672909937,-1.786925286,-1.185085000,1.589459212,0.996582518,-0.581032832,0.105906426,0.080943171,0.181000000,0.007829900,0.090560875,0.046907005,4.405650400,4.278713388,0.348920070,0.003631513,0.014097718,0.080968693
1750932671.385769129,-1.672697539,-1.786762953,-1.184722000,1.589474915,0.996764141,-0.580938759,0.106491544,0.081390371,0.182000000,0.007873159,0.091061212,0.047166160,4.404750324,4.279199658,0.348966304,0.003632755,0.014097717,0.080909055
1750932671.389621496,-1.672483971,-1.786599725,-1.184357000,1.589490704,0.996946763,-0.580844167,0.107076662,0.081837570,0.183000000,0.007916418,0.091561548,0.047425315,4.403844660,4.279687873,0.349012629,0.003634000,0.014097716,0.080849047
1750932671.391572714,-1.672053324,-1.786270586,-1.183621000,1.589522543,0.997315011,-0.580653430,0.108246899,0.082731970,0.185000000,0.008002936,0.092562221,0.047943624,4.402016529,4.280670089,0.349105539,0.003636505,0.014097714,0.080727918
1750932671.393996954,-1.672053324,-1.786270586,-1.183621000,1.589522543,0.997315011,-0.580653430,0.108246899,0.082731970,0.185000000,0.008002936,0.092562221,0.047943624,4.402016529,4.280670089,0.349105539,0.003636505,0.014097714,0.080727918
1750932671.395711899,-1.671836245,-1.786104674,-1.183250000,1.589538592,0.997500636,-0.580557283,0.108832018,0.083179170,0.186000000,0.008046195,0.093062557,0.048202779,4.401094042,4.281164066,0.349152118,0.003637764,0.014097713,0.080666796
1750932671.398088217,-1.671617996,-1.785937869,-1.182877000,1.589554728,0.997687261,-0.580460618,0.109417136,0.083626370,0.187000000,0.008089454,0.093562893,0.048461934,4.400165925,4.281659939,0.349198777,0.003639027,0.014097712,0.080605301
1750932671.399790525,-1.671398576,-1.785770169,-1.182502000,1.589570950,0.997874887,-0.580363435,0.110002254,0.084073570,0.188000000,0.008132713,0.094063230,0.048721088,4.399232169,4.282157696,0.349245513,0.003640295,0.014097711,0.080543433
1750932671.401718855,-1.671177987,-1.785601575,-1.182125000,1.589587259,0.998063514,-0.580265734,0.110587373,0.084520769,0.189000000,0.008175973,0.094563566,0.048980243,4.398292762,4.282657324,0.349292322,0.003641567,0.014097710,0.080481190
1750932671.403931618,-1.670956227,-1.785432086,-1.181746000,1.589603654,0.998253141,-0.580167514,0.111172491,0.084967969,0.190000000,0.008219232,0.095063902,0.049239398,4.397347694,4.283158810,0.349339203,0.003642843,0.014097709,0.080418573
1750932671.405867338,-1.670733297,-1.785261703,-1.181365000,1.589620136,0.998443770,-0.580068776,0.111757609,0.085415169,0.191000000,0.008262491,0.095564239,0.049498552,4.396396955,4.283662142,0.349386151,0.003644123,0.014097708,0.080355581
1750932671.407999992,-1.670509196,-1.785090425,-1.180982000,1.589636704,0.998635398,-0.579969520,0.112342728,0.085862369,0.192000000,0.008305750,0.096064575,0.049757707,4.395440533,4.284167308,0.349433165,0.003645407,0.014097707,0.080292212
1750932671.409785271,-1.670283926,-1.784918253,-1.180597000,1.589653359,0.998828028,-0.579869746,0.112927846,0.086309569,0.193000000,0.008349009,0.096564911,0.050016862,4.394478417,4.284674293,0.349480242,0.003646696,0.014097706,0.080228467
1750932671.412137747,-1.670057485,-1.784745187,-1.180210000,1.589670100,0.999021658,-0.579769453,0.113512965,0.086756769,0.194000000,0.008392268,0.097065248,0.050276017,4.393510596,4.285183086,0.349527377,0.003647988,0.014097705,0.080164345
1750932671.413803816,-1.669829874,-1.784571226,-1.179821000,1.589686928,0.999216289,-0.579668642,0.114098083,0.087203968,0.195000000,0.008435527,0.097565584,0.050535171,4.392537060,4.285693673,0.349574570,0.003649284,0.014097704,0.080099844
1750932671.417058706,-1.669601093,-1.784396371,-1.179430000,1.589703842,0.999411920,-0.579567312,0.114683201,0.087651168,0.196000000,0.008478786,0.098065920,0.050794326,4.391557797,4.286206042,0.349621816,0.003650585,0.014097703,0.080034965
1750932671.417654753,-1.669371141,-1.784220621,-1.179037000,1.589720843,0.999608553,-0.579465464,0.115268320,0.088098368,0.197000000,0.008522045,0.098566257,0.051053481,4.390572797,4.286720179,0.349669113,0.003651889,0.014097702,0.079969706
1750932671.419798374,-1.669140019,-1.784043978,-1.178642000,1.589737930,0.999806185,-0.579363098,0.115853438,0.088545568,0.198000000,0.008565305,0.099066593,0.051312635,4.389582047,4.287236071,0.349716458,0.003653197,0.014097701,0.079904067
1750932671.421828032,-1.668907727,-1.783866439,-1.178245000,1.589755104,1.000004819,-0.579260214,0.116438556,0.088992768,0.199000000,0.008608564,0.099566929,0.051571790,4.388585537,4.287753705,0.349763848,0.003654508,0.014097700,0.079838047
1750932671.423694611,-1.668674265,-1.783688006,-1.177846000,1.589772365,1.000204453,-0.579156811,0.117023675,0.089439968,0.200000000,0.008651823,0.100067266,0.051830945,4.387583255,4.288273068,0.349811279,0.003655824,0.014097699,0.079771646
1750932671.425650597,-1.668439633,-1.783508679,-1.177445000,1.589789711,1.000405088,-0.579052890,0.117608793,0.089887167,0.201000000,0.008695082,0.100567602,0.052090100,4.386575190,4.288794146,0.349858750,0.003657143,0.014097698,0.079704863
1750932671.427659750,-1.668203830,-1.783328458,-1.177042000,1.589807145,1.000606724,-0.578948451,0.118193912,0.090334367,0.202000000,0.008738341,0.101067938,0.052349254,4.385561331,4.289316926,0.349906256,0.003658466,0.014097697,0.079637697
1750932671.429643869,-1.667966857,-1.783147342,-1.176637000,1.589824665,1.000809360,-0.578843493,0.118779030,0.090781567,0.203000000,0.008781600,0.101568275,0.052608409,4.384541666,4.289841394,0.349953795,0.003659792,0.014097696,0.079570148
1750932671.434795618,-1.667728714,-1.782965332,-1.176230000,1.589842271,1.001012997,-0.578738017,0.119364148,0.091228767,0.204000000,0.008824859,0.102068611,0.052867564,4.383516183,4.290367537,0.350001364,0.003661122,0.014097695,0.079502215
1750932671.436213255,-1.667728714,-1.782965332,-1.176230000,1.589842271,1.001012997,-0.578738017,0.119364148,0.091228767,0.204000000,0.008824859,0.102068611,0.052867564,4.383516183,4.290367537,0.350001364,0.003661122,0.014097695,0.079502215
1750932671.437856436,-1.667728714,-1.782965332,-1.176230000,1.589842271,1.001012997,-0.578738017,0.119364148,0.091228767,0.204000000,0.008824859,0.102068611,0.052867564,4.383516183,4.290367537,0.350001364,0.003661122,0.014097695,0.079502215
1750932671.439826250,-1.667248917,-1.782598628,-1.175410000,1.589877744,1.001423272,-0.578525510,0.120534385,0.092123167,0.206000000,0.008911377,0.103069284,0.053385873,4.381447718,4.291424793,0.350096580,0.003663793,0.014097694,0.079365192
1750932671.441783905,-1.667007263,-1.782413934,-1.174997000,1.589895610,1.001629911,-0.578418479,0.121119503,0.092570367,0.207000000,0.008954637,0.103569620,0.053645028,4.380404713,4.291955879,0.350144220,0.003665133,0.014097693,0.079296102
1750932671.443718195,-1.666764439,-1.782228346,-1.174582000,1.589913562,1.001837551,-0.578310930,0.121704622,0.093017566,0.208000000,0.008997896,0.104069956,0.053904183,4.379355843,4.292488584,0.350191877,0.003666477,0.014097692,0.079226625
1750932671.445728302,-1.666520444,-1.782041864,-1.174165000,1.589931601,1.002046191,-0.578202862,0.122289740,0.093464766,0.209000000,0.009041155,0.104570293,0.054163337,4.378301097,4.293022895,0.350239549,0.003667824,0.014097691,0.079156760
1750932671.447719097,-1.666275280,-1.781854487,-1.173746000,1.589949727,1.002255832,-0.578094277,0.122874859,0.093911966,0.210000000,0.009084414,0.105070629,0.054422492,4.377240463,4.293558798,0.350287232,0.003669175,0.014097690,0.079086506
1750932671.451055288,-1.666028945,-1.781666216,-1.173325000,1.589967939,1.002466474,-0.577985173,0.123459977,0.094359166,0.211000000,0.009127673,0.105570965,0.054681647,4.376173930,4.294096278,0.350334923,0.003670528,0.014097689,0.079015864
1750932671.453126907,-1.665781440,-1.781477050,-1.172902000,1.589986238,1.002678116,-0.577875550,0.124045095,0.094806366,0.212000000,0.009170932,0.106071302,0.054940802,4.375101484,4.294635323,0.350382619,0.003671885,0.014097688,0.078944832
1750932671.453623295,-1.665532764,-1.781286991,-1.172477000,1.590004623,1.002890759,-0.577765409,0.124630214,0.095253566,0.213000000,0.009214191,0.106571638,0.055199956,4.374023113,4.295175917,0.350430317,0.003673245,0.014097688,0.078873410
1750932671.455794334,-1.665282919,-1.781096036,-1.172050000,1.590023094,1.003104402,-0.577654750,0.125215332,0.095700765,0.214000000,0.009257450,0.107071974,0.055459111,4.372938807,4.295718046,0.350478013,0.003674608,0.014097687,0.078801596
1750932671.457959175,-1.665031903,-1.780904187,-1.171621000,1.590041653,1.003319047,-0.577543573,0.125800450,0.096147965,0.215000000,0.009300709,0.107572311,0.055718266,4.371848552,4.296261696,0.350525704,0.003675974,0.014097686,0.078729390
1750932671.459799528,-1.664779717,-1.780711444,-1.171190000,1.590060297,1.003534692,-0.577431877,0.126385569,0.096595165,0.216000000,0.009343969,0.108072647,0.055977421,4.370752337,4.296806852,0.350573388,0.003677343,0.014097685,0.078656792
1750932671.461769104,-1.664526361,-1.780517807,-1.170757000,1.590079028,1.003751337,-0.577319663,0.126970687,0.097042365,0.217000000,0.009387228,0.108572983,0.056236575,4.369650148,4.297353501,0.350621060,0.003678714,0.014097684,0.078583801
1750932671.463773012,-1.664526361,-1.780517807,-1.170757000,1.590079028,1.003751337,-0.577319663,0.126970687,0.097042365,0.217000000,0.009387228,0.108572983,0.056236575,4.369650148,4.297353501,0.350621060,0.003678714,0.014097684,0.078583801
1750932671.465732336,-1.664271834,-1.780323275,-1.170322000,1.590097846,1.003968984,-0.577206931,0.127555806,0.097489565,0.218000000,0.009430487,0.109073320,0.056495730,4.368541974,4.297901627,0.350668718,0.003680089,0.014097684,0.078510415
1750932671.467721224,-1.664016138,-1.780127849,-1.169885000,1.590116750,1.004187631,-0.577093680,0.128140924,0.097936765,0.219000000,0.009473746,0.109573656,0.056754885,4.367427802,4.298451216,0.350716358,0.003681467,0.014097683,0.078436635
1750932671.469767570,-1.663759271,-1.779931528,-1.169446000,1.590135741,1.004407278,-0.576979911,0.128726042,0.098383964,0.220000000,0.009517005,0.110073992,0.057014039,4.366307620,4.299002253,0.350763977,0.003682847,0.014097682,0.078362459
1750932671.471670866,-1.663501233,-1.779734313,-1.169005000,1.590154818,1.004627927,-0.576865624,0.129311161,0.098831164,0.221000000,0.009560264,0.110574329,0.057273194,4.365181415,4.299554723,0.350811572,0.003684230,0.014097681,0.078287887
1750932671.473854780,-1.663242026,-1.779536203,-1.168562000,1.590173982,1.004849576,-0.576750819,0.129896279,0.099278364,0.222000000,0.009603523,0.111074665,0.057532349,4.364049175,4.300108612,0.350859139,0.003685616,0.014097681,0.078212918
1750932671.475760698,-1.662981648,-1.779337199,-1.168117000,1.590193232,1.005072225,-0.576635495,0.130481397,0.099725564,0.223000000,0.009646782,0.111575001,0.057791504,4.362910886,4.300663904,0.350906675,0.003687004,0.014097680,0.078137552
1750932671.477699041,-1.662720100,-1.779137301,-1.167670000,1.590212569,1.005295876,-0.576519653,0.131066516,0.100172764,0.224000000,0.009690041,0.112075338,0.058050658,4.361766537,4.301220586,0.350954177,0.003688395,0.014097679,0.078061787
1750932671.479802370,-1.662457382,-1.778936508,-1.167221000,1.590231993,1.005520527,-0.576403292,0.131651634,0.100619964,0.225000000,0.009733301,0.112575674,0.058309813,4.360616114,4.301778641,0.351001641,0.003689788,0.014097679,0.077985623
1750932671.481855154,-1.662193494,-1.778734821,-1.166770000,1.590251502,1.005746178,-0.576286413,0.132236753,0.101067163,0.226000000,0.009776560,0.113076010,0.058568968,4.359459605,4.302338054,0.351049064,0.003691183,0.014097678,0.077909060
1750932671.488785744,-1.661928435,-1.778532240,-1.166317000,1.590271099,1.005972831,-0.576169016,0.132821871,0.101514363,0.227000000,0.009819819,0.113576347,0.058828123,4.358296996,4.302898811,0.351096442,0.003692582,0.014097677,0.077832096
1750932671.488835335,-1.661928435,-1.778532240,-1.166317000,1.590271099,1.005972831,-0.576169016,0.132821871,0.101514363,0.227000000,0.009819819,0.113576347,0.058828123,4.358296996,4.302898811,0.351096442,0.003692582,0.014097677,0.077832096
1750932671.490620375,-1.661928435,-1.778532240,-1.166317000,1.590271099,1.005972831,-0.576169016,0.132821871,0.101514363,0.227000000,0.009819819,0.113576347,0.058828123,4.358296996,4.302898811,0.351096442,0.003692582,0.014097677,0.077832096
1750932671.492658377,-1.661662206,-1.778328764,-1.165862000,1.590290782,1.006200484,-0.576051101,0.133406989,0.101961563,0.228000000,0.009863078,0.114076683,0.059087277,4.357128275,4.303460896,0.351143773,0.003693982,0.014097677,0.077754730
1750932671.497894287,-1.660585589,-1.777505916,-1.164022000,1.590370379,1.007121103,-0.575574256,0.135747463,0.103750362,0.232000000,0.010036114,0.116078028,0.060123896,4.352392007,4.305722209,0.351332546,0.003699606,0.014097675,0.077441241
1750932671.498200178,-1.660585589,-1.777505916,-1.164022000,1.590370379,1.007121103,-0.575574256,0.135747463,0.103750362,0.232000000,0.010036114,0.116078028,0.060123896,4.352392007,4.305722209,0.351332546,0.003699606,0.014097675,0.077441241
1750932671.498246670,-1.660585589,-1.777505916,-1.164022000,1.590370379,1.007121103,-0.575574256,0.135747463,0.103750362,0.232000000,0.010036114,0.116078028,0.060123896,4.352392007,4.305722209,0.351332546,0.003699606,0.014097675,0.077441241
1750932671.502160072,-1.659490247,-1.776668758,-1.162150000,1.590451360,1.008057732,-0.575089118,0.138087936,0.105539162,0.236000000,0.010209151,0.118079374,0.061160515,4.347556891,4.308003533,0.351520274,0.003705262,0.014097672,0.077121274
1750932671.502737761,-1.659490247,-1.776668758,-1.162150000,1.590451360,1.008057732,-0.575089118,0.138087936,0.105539162,0.236000000,0.010209151,0.118079374,0.061160515,4.347556891,4.308003533,0.351520274,0.003705262,0.014097672,0.077121274
1750932671.503802776,-1.659213486,-1.776457232,-1.161677000,1.590471821,1.008294391,-0.574966538,0.138673055,0.105986362,0.237000000,0.010252410,0.118579710,0.061419670,4.346332567,4.308576873,0.351567016,0.003706681,0.014097672,0.077040265
1750932671.505856514,-1.658935555,-1.776244812,-1.161202000,1.590492369,1.008532051,-0.574843440,0.139258173,0.106433561,0.238000000,0.010295669,0.119080046,0.061678824,4.345101998,4.309151385,0.351613675,0.003708101,0.014097672,0.076958846
1750932671.509136677,-1.658656453,-1.776031498,-1.160725000,1.590513004,1.008770711,-0.574719823,0.139843291,0.106880761,0.239000000,0.010338928,0.119580383,0.061937979,4.343865171,4.309727052,0.351660248,0.003709524,0.014097671,0.076877019
1750932671.509907484,-1.658376182,-1.775817289,-1.160246000,1.590533725,1.009010373,-0.574595688,0.140428410,0.107327961,0.240000000,0.010382187,0.120080719,0.062197134,4.342622071,4.310303859,0.351706731,0.003710948,0.014097671,0.076794781
1750932671.512451649,-1.658094740,-1.775602186,-1.159765000,1.590554533,1.009251034,-0.574471034,0.141013528,0.107775161,0.241000000,0.010425446,0.120581055,0.062456289,4.341372685,4.310881789,0.351753119,0.003712373,0.014097670,0.076712133
1750932671.515328169,-1.658094740,-1.775602186,-1.159765000,1.590554533,1.009251034,-0.574471034,0.141013528,0.107775161,0.241000000,0.010425446,0.120581055,0.062456289,4.341372685,4.310881789,0.351753119,0.003712373,0.014097670,0.076712133
1750932671.515708208,-1.657812128,-1.775386189,-1.159282000,1.590575427,1.009492697,-0.574345863,0.141598647,0.108222361,0.242000000,0.010468706,0.121081391,0.062715443,4.340116999,4.311460827,0.351799410,0.003713800,0.014097670,0.076629073
1750932671.517879725,-1.657528345,-1.775169297,-1.158797000,1.590596407,1.009735360,-0.574220173,0.142183765,0.108669561,0.243000000,0.010511965,0.121581728,0.062974598,4.338855000,4.312040956,0.351845600,0.003715228,0.014097670,0.076545600
1750932671.520437717,-1.657243392,-1.774951510,-1.158310000,1.590617475,1.009979024,-0.574093964,0.142768883,0.109116761,0.244000000,0.010555224,0.122082064,0.063233753,4.337586674,4.312622159,0.351891686,0.003716658,0.014097669,0.076461715
1750932671.521748781,-1.656957270,-1.774732830,-1.157821000,1.590638628,1.010223688,-0.573967238,0.143354002,0.109563960,0.245000000,0.010598483,0.122582400,0.063492908,4.336312006,4.313204420,0.351937662,0.003718089,0.014097669,0.076377416
1750932671.523756027,-1.656669976,-1.774513255,-1.157330000,1.590659869,1.010469353,-0.573839993,0.143939120,0.110011160,0.246000000,0.010641742,0.123082737,0.063752062,4.335030982,4.313787722,0.351983527,0.003719522,0.014097669,0.076292702
1750932671.525820017,-1.656381513,-1.774292785,-1.156837000,1.590681195,1.010716019,-0.573712229,0.144524238,0.110458360,0.247000000,0.010685001,0.123583073,0.064011217,4.333743590,4.314372050,0.352029275,0.003720955,0.014097668,0.076207573
1750932671.527553558,-1.656091880,-1.774071421,-1.156342000,1.590702609,1.010963686,-0.573583948,0.145109357,0.110905560,0.248000000,0.010728260,0.124083409,0.064270372,4.332449813,4.314957386,0.352074904,0.003722390,0.014097668,0.076122028
1750932671.529774904,-1.656091880,-1.774071421,-1.156342000,1.590702609,1.010963686,-0.573583948,0.145109357,0.110905560,0.248000000,0.010728260,0.124083409,0.064270372,4.332449813,4.314957386,0.352074904,0.003722390,0.014097668,0.076122028
1750932671.531663418,-1.655801076,-1.773849163,-1.155845000,1.590724108,1.011212353,-0.573455148,0.145694475,0.111352760,0.249000000,0.010771519,0.124583746,0.064529526,4.331149639,4.315543713,0.352120410,0.003723826,0.014097668,0.076036066
1750932671.533658981,-1.655509102,-1.773626010,-1.155346000,1.590745695,1.011462021,-0.573325830,0.146279593,0.111799960,0.250000000,0.010814778,0.125084082,0.064788681,4.329843053,4.316131016,0.352165788,0.003725263,0.014097668,0.075949687
1750932671.535660982,-1.655215957,-1.773401963,-1.154845000,1.590767367,1.011712689,-0.573195993,0.146864712,0.112247159,0.251000000,0.010858038,0.125584418,0.065047836,4.328530041,4.316719276,0.352211036,0.003726701,0.014097667,0.075862889
1750932671.537742138,-1.654921643,-1.773177021,-1.154342000,1.590789127,1.011964358,-0.573065638,0.147449830,0.112694359,0.252000000,0.010901297,0.126084755,0.065306991,4.327210588,4.317308477,0.352256148,0.003728139,0.014097667,0.075775672
1750932671.539819241,-1.654626158,-1.772951186,-1.153837000,1.590810973,1.012217028,-0.572934765,0.148034949,0.113141559,0.253000000,0.010944556,0.126585091,0.065566145,4.325884680,4.317898602,0.352301122,0.003729579,0.014097667,0.075688036
1750932671.541923523,-1.654329503,-1.772724455,-1.153330000,1.590832905,1.012470699,-0.572803374,0.148620067,0.113588759,0.254000000,0.010987815,0.127085427,0.065825300,4.324552303,4.318489634,0.352345954,0.003731019,0.014097667,0.075599979
1750932671.550790548,-1.654031678,-1.772496831,-1.152821000,1.590854924,1.012725370,-0.572671464,0.149205185,0.114035959,0.255000000,0.011031074,0.127585764,0.066084455,4.323213441,4.319081556,0.352390640,0.003732460,0.014097667,0.075511501
1750932671.550863266,-1.654031678,-1.772496831,-1.152821000,1.590854924,1.012725370,-0.572671464,0.149205185,0.114035959,0.255000000,0.011031074,0.127585764,0.066084455,4.323213441,4.319081556,0.352390640,0.003732460,0.014097667,0.075511501
1750932671.550882339,-1.653131181,-1.771808590,-1.151282000,1.590921500,1.013495387,-0.572272625,0.150960540,0.115377558,0.258000000,0.011160851,0.129086773,0.066861919,4.319157807,4.320862486,0.352523780,0.003736787,0.014097667,0.075243531
1750932671.552550554,-1.652828674,-1.771577388,-1.150765000,1.590943865,1.013754061,-0.572138642,0.151545659,0.115824758,0.259000000,0.011204110,0.129587109,0.067121074,4.317792863,4.321457794,0.352567842,0.003738230,0.014097666,0.075153360
1750932671.553840160,-1.652524998,-1.771345291,-1.150246000,1.590966316,1.014013736,-0.572004141,0.152130777,0.116271958,0.260000000,0.011247370,0.130087445,0.067380228,4.316421361,4.322053904,0.352611738,0.003739674,0.014097666,0.075062764
1750932671.557772636,-1.652220151,-1.771112300,-1.149725000,1.590988854,1.014274411,-0.571869121,0.152715896,0.116719158,0.261000000,0.011290629,0.130587782,0.067639383,4.315043287,4.322650800,0.352655464,0.003741118,0.014097666,0.074971742
1750932671.557817698,-1.651914134,-1.770878414,-1.149202000,1.591011479,1.014536087,-0.571733583,0.153301014,0.117166358,0.262000000,0.011333888,0.131088118,0.067898538,4.313658626,4.323248463,0.352699017,0.003742562,0.014097667,0.074880294
1750932671.562769175,-1.651606947,-1.770643634,-1.148677000,1.591034190,1.014798764,-0.571597527,0.153886132,0.117613557,0.263000000,0.011377147,0.131588454,0.068157693,4.312267363,4.323846876,0.352742392,0.003744006,0.014097667,0.074788418
1750932671.562842131,-1.651298590,-1.770407960,-1.148150000,1.591056987,1.015062441,-0.571460952,0.154471251,0.118060757,0.264000000,0.011420406,0.132088791,0.068416847,4.310869482,4.324446021,0.352785586,0.003745451,0.014097667,0.074696115
1750932671.563621998,-1.650989062,-1.770171391,-1.147621000,1.591079871,1.015327119,-0.571323859,0.155056369,0.118507957,0.265000000,0.011463665,0.132589127,0.068676002,4.309464969,4.325045881,0.352828594,0.003746895,0.014097667,0.074603382
1750932671.565871000,-1.650989062,-1.770171391,-1.147621000,1.591079871,1.015327119,-0.571323859,0.155056369,0.118507957,0.265000000,0.011463665,0.132589127,0.068676002,4.309464969,4.325045881,0.352828594,0.003746895,0.014097667,0.074603382
1750932671.567715168,-1.650678364,-1.769933928,-1.147090000,1.591102842,1.015592797,-0.571186248,0.155641487,0.118955157,0.266000000,0.011506924,0.133089463,0.068935157,4.308053808,4.325646436,0.352871413,0.003748339,0.014097667,0.074510220
1750932671.570062637,-1.650366496,-1.769695571,-1.146557000,1.591125899,1.015859477,-0.571048119,0.156226606,0.119402357,0.267000000,0.011550183,0.133589800,0.069194312,4.306635984,4.326247670,0.352914038,0.003749784,0.014097667,0.074416628
1750932671.571776628,-1.650053458,-1.769456319,-1.146022000,1.591149043,1.016127156,-0.570909471,0.156811724,0.119849557,0.268000000,0.011593443,0.134090136,0.069453466,4.305211482,4.326849565,0.352956466,0.003751228,0.014097667,0.074322605
1750932671.573800802,-1.649739249,-1.769216173,-1.145485000,1.591172273,1.016395837,-0.570770305,0.157396843,0.120296756,0.269000000,0.011636702,0.134590472,0.069712621,4.303780286,4.327452101,0.352998691,0.003752672,0.014097667,0.074228150
1750932671.575686693,-1.649423871,-1.768975132,-1.144946000,1.591195589,1.016665518,-0.570630621,0.157981961,0.120743956,0.270000000,0.011679961,0.135090809,0.069971776,4.302342382,4.328055261,0.353040711,0.003754115,0.014097668,0.074133262
1750932671.577714682,-1.649107321,-1.768733197,-1.144405000,1.591218993,1.016936200,-0.570490418,0.158567079,0.121191156,0.271000000,0.011723220,0.135591145,0.070230930,4.300897753,4.328659027,0.353082521,0.003755558,0.014097668,0.074037941
1750932671.579712629,-1.648789602,-1.768490367,-1.143862000,1.591242482,1.017207883,-0.570349697,0.159152198,0.121638356,0.272000000,0.011766479,0.136091481,0.070490085,4.299446385,4.329263380,0.353124118,0.003757001,0.014097668,0.073942186
1750932671.581610441,-1.648470713,-1.768246643,-1.143317000,1.591266058,1.017480566,-0.570208458,0.159737316,0.122085556,0.273000000,0.011809738,0.136591818,0.070749240,4.297988261,4.329868301,0.353165496,0.003758443,0.014097669,0.073845996
1750932671.583799839,-1.648150653,-1.768002025,-1.142770000,1.591289721,1.017754250,-0.570066700,0.160322434,0.122532756,0.274000000,0.011852997,0.137092154,0.071008395,4.296523365,4.330473773,0.353206651,0.003759885,0.014097669,0.073749371
1750932671.586549520,-1.648150653,-1.768002025,-1.142770000,1.591289721,1.017754250,-0.570066700,0.160322434,0.122532756,0.274000000,0.011852997,0.137092154,0.071008395,4.296523365,4.330473773,0.353206651,0.003759885,0.014097669,0.073749371
1750932671.587559938,-1.647829423,-1.767756512,-1.142221000,1.591313470,1.018028935,-0.569924424,0.160907553,0.122979956,0.275000000,0.011896256,0.137592490,0.071267549,4.295051684,4.331079777,0.353247581,0.003761325,0.014097669,0.073652309
1750932671.589707375,-1.647507023,-1.767510105,-1.141670000,1.591337306,1.018304620,-0.569781630,0.161492671,0.123427155,0.276000000,0.011939515,0.138092827,0.071526704,4.293573199,4.331686293,0.353288279,0.003762766,0.014097670,0.073554811
1750932671.591785908,-1.647183452,-1.767262804,-1.141117000,1.591361229,1.018581306,-0.569638317,0.162077790,0.123874355,0.277000000,0.011982775,0.138593163,0.071785859,4.292087896,4.332293304,0.353328743,0.003764205,0.014097670,0.073456874
1750932671.593641758,-1.646858712,-1.767014608,-1.140562000,1.591385237,1.018858993,-0.569494486,0.162662908,0.124321555,0.278000000,0.012026034,0.139093499,0.072045013,4.290595759,4.332900791,0.353368968,0.003765643,0.014097671,0.073358499
1750932671.595665455,-1.646532801,-1.766765517,-1.140005000,1.591409333,1.019137680,-0.569350137,0.163248026,0.124768755,0.279000000,0.012069293,0.139593836,0.072304168,4.289096772,4.333508734,0.353408950,0.003767081,0.014097671,0.073259685
1750932671.597642660,-1.646205719,-1.766515533,-1.139446000,1.591433515,1.019417368,-0.569205270,0.163833145,0.125215955,0.280000000,0.012112552,0.140094172,0.072563323,4.287590919,4.334117115,0.353448685,0.003768517,0.014097671,0.073160431
1750932671.601303816,-1.645877468,-1.766264654,-1.138885000,1.591457783,1.019698057,-0.569059884,0.164418263,0.125663155,0.281000000,0.012155811,0.140594508,0.072822478,4.286078184,4.334725914,0.353488167,0.003769952,0.014097672,0.073060736
1750932671.601801395,-1.645877468,-1.766264654,-1.138885000,1.591457783,1.019698057,-0.569059884,0.164418263,0.125663155,0.281000000,0.012155811,0.140594508,0.072822478,4.286078184,4.334725914,0.353488167,0.003769952,0.014097672,0.073060736
1750932671.603924274,-1.645217455,-1.765760212,-1.137757000,1.591506579,1.020262436,-0.568767557,0.165588500,0.126557554,0.283000000,0.012242329,0.141595181,0.073340787,4.283032003,4.335944693,0.353566361,0.003772819,0.014097673,0.072860020
1750932671.605893373,-1.644885692,-1.765506650,-1.137190000,1.591531107,1.020546127,-0.568620617,0.166173618,0.127004754,0.284000000,0.012285588,0.142095517,0.073599942,4.281498524,4.336554634,0.353605063,0.003774251,0.014097674,0.072758999
1750932671.607822180,-1.644552760,-1.765252193,-1.136621000,1.591555722,1.020830818,-0.568473157,0.166758737,0.127451954,0.285000000,0.012328847,0.142595854,0.073859097,4.279958099,4.337164917,0.353643496,0.003775681,0.014097674,0.072657533
1750932671.609964371,-1.644218657,-1.764996842,-1.136050000,1.591580422,1.021116510,-0.568325180,0.167343855,0.127899154,0.286000000,0.012372107,0.143096190,0.074118251,4.278410710,4.337775522,0.353681656,0.003777109,0.014097675,0.072555623
1750932671.611664295,-1.643883385,-1.764740597,-1.135477000,1.591605210,1.021403203,-0.568176684,0.167928973,0.128346354,0.287000000,0.012415366,0.143596526,0.074377406,4.276856342,4.338386431,0.353719539,0.003778536,0.014097676,0.072453268
1750932671.613643408,-1.643546942,-1.764483457,-1.134902000,1.591630084,1.021690896,-0.568027671,0.168514092,0.128793553,0.288000000,0.012458625,0.144096863,0.074636561,4.275294978,4.338997623,0.353757139,0.003779962,0.014097677,0.072350466
1750932671.615790606,-1.643209328,-1.764225422,-1.134325000,1.591655044,1.021979590,-0.567878138,0.169099210,0.129240753,0.289000000,0.012501884,0.144597199,0.074895715,4.273726601,4.339609080,0.353794454,0.003781385,0.014097677,0.072247219
1750932671.617801905,-1.642870545,-1.763966494,-1.133746000,1.591680091,1.022269285,-0.567728088,0.169684328,0.129687953,0.290000000,0.012545143,0.145097535,0.075154870,4.272151195,4.340220781,0.353831478,0.003782807,0.014097678,0.072143523
1750932671.620956421,-1.642530591,-1.763706671,-1.133165000,1.591705225,1.022559981,-0.567577519,0.170269447,0.130135153,0.291000000,0.012588402,0.145597872,0.075414025,4.270568744,4.340832706,0.353868206,0.003784227,0.014097679,0.072039380
1750932671.621791840,-1.642530591,-1.763706671,-1.133165000,1.591705225,1.022559981,-0.567577519,0.170269447,0.130135153,0.291000000,0.012588402,0.145597872,0.075414025,4.270568744,4.340832706,0.353868206,0.003784227,0.014097679,0.072039380
1750932671.623724461,-1.642189467,-1.763445953,-1.132582000,1.591730445,1.022851677,-0.567426432,0.170854565,0.130582353,0.292000000,0.012631661,0.146098208,0.075673180,4.268979230,4.341444837,0.353904636,0.003785645,0.014097680,0.071934787
1750932671.626015186,-1.641847173,-1.763184341,-1.131997000,1.591755752,1.023144373,-0.567274826,0.171439684,0.131029553,0.293000000,0.012674920,0.146598544,0.075932334,4.267382637,4.342057153,0.353940761,0.003787060,0.014097681,0.071829745
1750932671.627753496,-1.641503708,-1.762921835,-1.131410000,1.591781145,1.023438071,-0.567122702,0.172024802,0.131476752,0.294000000,0.012718179,0.147098881,0.076191489,4.265778948,4.342669634,0.353976578,0.003788474,0.014097682,0.071724253
1750932671.629827738,-1.641159074,-1.762658434,-1.130821000,1.591806624,1.023732769,-0.566970060,0.172609920,0.131923952,0.295000000,0.012761439,0.147599217,0.076450644,4.264168146,4.343282260,0.354012083,0.003789886,0.014097683,0.071618309
1750932671.631762743,-1.640813269,-1.762394139,-1.130230000,1.591832191,1.024028468,-0.566816900,0.173195039,0.132371152,0.296000000,0.012804698,0.148099553,0.076709799,4.262550215,4.343895011,0.354047270,0.003791295,0.014097684,0.071511914
1750932671.633745432,-1.640466293,-1.762128949,-1.129637000,1.591857843,1.024325167,-0.566663221,0.173780157,0.132818352,0.297000000,0.012847957,0.148599890,0.076968953,4.260925136,4.344507867,0.354082135,0.003792702,0.014097685,0.071405066
1750932671.635652542,-1.640118148,-1.761862866,-1.129042000,1.591883582,1.024622867,-0.566509024,0.174365275,0.133265552,0.298000000,0.012891216,0.149100226,0.077228108,4.259292895,4.345120808,0.354116674,0.003794106,0.014097686,0.071297765
1750932671.637687206,-1.639768832,-1.761595887,-1.128445000,1.591909408,1.024921568,-0.566354308,0.174950394,0.133712752,0.299000000,0.012934475,0.149600562,0.077487263,4.257653472,4.345733813,0.354150882,0.003795508,0.014097687,0.071190010
1750932671.639654636,-1.639418346,-1.761328015,-1.127846000,1.591935320,1.025221270,-0.566199075,0.175535512,0.134159951,0.300000000,0.012977734,0.150100899,0.077746417,4.256006852,4.346346862,0.354184755,0.003796907,0.014097688,0.071081800
1750932671.641744852,-1.639066690,-1.761059247,-1.127245000,1.591961319,1.025521972,-0.566043323,0.176120631,0.134607151,0.301000000,0.013020993,0.150601235,0.078005572,4.254353016,4.346959935,0.354218288,0.003798304,0.014097689,0.070973135
1750932671.643852711,-1.638713864,-1.760789586,-1.126642000,1.591987404,1.025823675,-0.565887052,0.176705749,0.135054351,0.302000000,0.013064252,0.151101571,0.078264727,4.252691948,4.347573012,0.354251476,0.003799697,0.014097690,0.070864014
1750932671.645719767,-1.638359867,-1.760519030,-1.126037000,1.592013576,1.026126378,-0.565730264,0.177290867,0.135501551,0.303000000,0.013107511,0.151601908,0.078523882,4.251023631,4.348186070,0.354284315,0.003801088,0.014097692,0.070754436
1750932671.650930166,-1.638004700,-1.760247580,-1.125430000,1.592039834,1.026430082,-0.565572957,0.177875986,0.135948751,0.304000000,0.013150771,0.152102244,0.078783036,4.249348046,4.348799091,0.354316801,0.003802476,0.014097693,0.070644400
1750932671.655949354,-1.638004700,-1.760247580,-1.125430000,1.592039834,1.026430082,-0.565572957,0.177875986,0.135948751,0.304000000,0.013150771,0.152102244,0.078783036,4.249348046,4.348799091,0.354316801,0.003802476,0.014097693,0.070644400
1750932671.656036377,-1.636572331,-1.759152835,-1.122982000,1.592145733,1.027654905,-0.564938546,0.180216459,0.137737550,0.308000000,0.013323807,0.154103589,0.079819655,4.242572687,4.351250377,0.354443113,0.003807996,0.014097698,0.070199667
1750932671.669554710,-1.635849124,-1.758600096,-1.121746000,1.592199201,1.028273321,-0.564618231,0.181386696,0.138631950,0.310000000,0.013410325,0.155104262,0.080337965,4.239140950,4.352475250,0.354504026,0.003810736,0.014097701,0.069974537
1750932671.669602633,-1.635849124,-1.758600096,-1.121746000,1.592199201,1.028273321,-0.564618231,0.181386696,0.138631950,0.310000000,0.013410325,0.155104262,0.080337965,4.239140950,4.352475250,0.354504026,0.003810736,0.014097701,0.069974537
1750932671.669618607,-1.635849124,-1.758600096,-1.121746000,1.592199201,1.028273321,-0.564618231,0.181386696,0.138631950,0.310000000,0.013410325,0.155104262,0.080337965,4.239140950,4.352475250,0.354504026,0.003810736,0.014097701,0.069974537
1750932671.669632912,-1.635849124,-1.758600096,-1.121746000,1.592199201,1.028273321,-0.564618231,0.181386696,0.138631950,0.310000000,0.013410325,0.155104262,0.080337965,4.239140950,4.352475250,0.354504026,0.003810736,0.014097701,0.069974537
1750932671.669647217,-1.635849124,-1.758600096,-1.121746000,1.592199201,1.028273321,-0.564618231,0.181386696,0.138631950,0.310000000,0.013410325,0.155104262,0.080337965,4.239140950,4.352475250,0.354504026,0.003810736,0.014097701,0.069974537
1750932671.669987440,-1.634020629,-1.757202596,-1.118621000,1.592334386,1.029836872,-0.563808372,0.184312288,0.140867949,0.315000000,0.013626621,0.157605943,0.081633738,4.230431964,4.355533829,0.354649466,0.003817523,0.014097709,0.069403606
1750932671.671932697,-1.633651420,-1.756920413,-1.117990000,1.592361682,1.030152584,-0.563644846,0.184897406,0.141315149,0.316000000,0.013669880,0.158106280,0.081892893,4.228667799,4.356144757,0.354677342,0.003818868,0.014097711,0.069288024
1750932671.673829556,-1.633281040,-1.756637335,-1.117357000,1.592389065,1.030469297,-0.563480801,0.185482525,0.141762349,0.317000000,0.013713139,0.158606616,0.082152048,4.226896136,4.356755371,0.354704804,0.003820210,0.014097713,0.069171976
1750932671.675817490,-1.632909490,-1.756353364,-1.116722000,1.592416535,1.030787011,-0.563316238,0.186067643,0.142209549,0.318000000,0.013756398,0.159106952,0.082411202,4.225116956,4.357365651,0.354731845,0.003821547,0.014097714,0.069055461
1750932671.677983522,-1.632909490,-1.756353364,-1.116722000,1.592416535,1.030787011,-0.563316238,0.186067643,0.142209549,0.318000000,0.013756398,0.159106952,0.082411202,4.225116956,4.357365651,0.354731845,0.003821547,0.014097714,0.069055461
1750932671.679761648,-1.632536769,-1.756068497,-1.116085000,1.592444091,1.031105725,-0.563151156,0.186652761,0.142656748,0.319000000,0.013799657,0.159607289,0.082670357,4.223330242,4.357975574,0.354758463,0.003822880,0.014097716,0.068938478
1750932671.681885481,-1.632162879,-1.755782737,-1.115446000,1.592471733,1.031425440,-0.562985556,0.187237880,0.143103948,0.320000000,0.013842916,0.160107625,0.082929512,4.221535975,4.358585120,0.354784651,0.003824209,0.014097718,0.068821026
1750932671.683917761,-1.631787818,-1.755496081,-1.114805000,1.592499462,1.031746156,-0.562819438,0.187822998,0.143551148,0.321000000,0.013886176,0.160607961,0.083188667,4.219734137,4.359194265,0.354810404,0.003825533,0.014097720,0.068703104
1750932671.685669184,-1.631411587,-1.755208532,-1.114162000,1.592527278,1.032067872,-0.562652802,0.188408116,0.143998348,0.322000000,0.013929435,0.161108298,0.083447821,4.217924710,4.359802989,0.354835719,0.003826853,0.014097722,0.068584713
1750932671.688287973,-1.631034185,-1.754920088,-1.113517000,1.592555180,1.032390589,-0.562485647,0.188993235,0.144445548,0.323000000,0.013972694,0.161608634,0.083706976,4.216107674,4.360411268,0.354860589,0.003828167,0.014097724,0.068465851
1750932671.689699411,-1.630655614,-1.754630750,-1.112870000,1.592583169,1.032714306,-0.562317974,0.189578353,0.144892748,0.324000000,0.014015953,0.162108970,0.083966131,4.214283012,4.361019082,0.354885010,0.003829478,0.014097726,0.068346518
1750932671.691640377,-1.630275872,-1.754340517,-1.112221000,1.592611244,1.033039025,-0.562149782,0.190163472,0.145339947,0.325000000,0.014059212,0.162609307,0.084225286,4.212450705,4.361626408,0.354908978,0.003830783,0.014097728,0.068226712
1750932671.693702936,-1.629894960,-1.754049390,-1.111570000,1.592639406,1.033364744,-0.561981072,0.190748590,0.145787147,0.326000000,0.014102471,0.163109643,0.084484440,4.210610734,4.362233223,0.354932486,0.003832084,0.014097730,0.068106434
1750932671.695661545,-1.629512877,-1.753757369,-1.110917000,1.592667654,1.033691463,-0.561811844,0.191333708,0.146234347,0.327000000,0.014145730,0.163609979,0.084743595,4.208763080,4.362839506,0.354955531,0.003833379,0.014097732,0.067985683
1750932671.697819471,-1.629129625,-1.753464453,-1.110262000,1.592695989,1.034019184,-0.561642098,0.191918827,0.146681547,0.328000000,0.014188989,0.164110316,0.085002750,4.206907725,4.363445233,0.354978108,0.003834669,0.014097735,0.067864458
1750932671.699630022,-1.628745202,-1.753170642,-1.109605000,1.592724410,1.034347905,-0.561471833,0.192503945,0.147128747,0.329000000,0.014232248,0.164610652,0.085261904,4.205044651,4.364050383,0.355000210,0.003835954,0.014097737,0.067742758
1750932671.707864523,-1.628359609,-1.752875938,-1.108946000,1.592752917,1.034677626,-0.561301050,0.193089063,0.147575947,0.330000000,0.014275508,0.165110988,0.085521059,4.203173837,4.364654934,0.355021834,0.003837234,0.014097739,0.067620583
1750932671.707940340,-1.627584912,-1.752283845,-1.107622000,1.592810193,1.035340071,-0.560957930,0.194259300,0.148470346,0.332000000,0.014362026,0.166111661,0.086039369,4.199408918,4.365862144,0.355063625,0.003839777,0.014097744,0.067374805
1750932671.707979679,-1.627195809,-1.751986457,-1.106957000,1.592838960,1.035672795,-0.560785592,0.194844419,0.148917546,0.333000000,0.014405285,0.166611997,0.086298523,4.197514774,4.366464759,0.355083783,0.003841041,0.014097746,0.067251200
1750932671.709862709,-1.626805535,-1.751688175,-1.106290000,1.592867814,1.036006519,-0.560612736,0.195429537,0.149364746,0.334000000,0.014448544,0.167112334,0.086557678,4.195612815,4.367066684,0.355103442,0.003842298,0.014097749,0.067127118
1750932671.711880922,-1.626414090,-1.751388998,-1.105621000,1.592896754,1.036341244,-0.560439361,0.196014655,0.149811946,0.335000000,0.014491803,0.167612670,0.086816833,4.193703022,4.367667894,0.355122596,0.003843550,0.014097751,0.067002558
1750932671.713654041,-1.626021476,-1.751088927,-1.104950000,1.592925781,1.036676970,-0.560265468,0.196599774,0.150259146,0.336000000,0.014535062,0.168113006,0.087075988,4.191785376,4.368268369,0.355141242,0.003844796,0.014097754,0.066877518
1750932671.715781450,-1.625627691,-1.750787962,-1.104277000,1.592954894,1.037013696,-0.560091057,0.197184892,0.150706345,0.337000000,0.014578321,0.168613343,0.087335142,4.189859857,4.368868084,0.355159374,0.003846036,0.014097756,0.066751999
1750932671.717714787,-1.625232736,-1.750486102,-1.103602000,1.592984094,1.037351424,-0.559916128,0.197770010,0.151153545,0.338000000,0.014621580,0.169113679,0.087594297,4.187926447,4.369467016,0.355176987,0.003847269,0.014097759,0.066625999
1750932671.720257521,-1.625232736,-1.750486102,-1.103602000,1.592984094,1.037351424,-0.559916128,0.197770010,0.151153545,0.338000000,0.014621580,0.169113679,0.087594297,4.187926447,4.369467016,0.355176987,0.003847269,0.014097759,0.066625999
1750932671.722036123,-1.624836611,-1.750183347,-1.102925000,1.593013381,1.037690151,-0.559740680,0.198355129,0.151600745,0.339000000,0.014664840,0.169614015,0.087853452,4.185985125,4.370065143,0.355194075,0.003848497,0.014097762,0.066499519
1750932671.723756075,-1.624439316,-1.749879699,-1.102246000,1.593042754,1.038029880,-0.559564714,0.198940247,0.152047945,0.340000000,0.014708099,0.170114352,0.088112606,4.184035873,4.370662441,0.355210634,0.003849718,0.014097764,0.066372557
1750932671.725701571,-1.624040850,-1.749575156,-1.101565000,1.593072213,1.038370609,-0.559388229,0.199525366,0.152495145,0.341000000,0.014751358,0.170614688,0.088371761,4.182078671,4.371258887,0.355226658,0.003850933,0.014097767,0.066245113
1750932671.727624178,-1.623641215,-1.749269718,-1.100882000,1.593101759,1.038712338,-0.559211227,0.200110484,0.152942345,0.342000000,0.014794617,0.171115024,0.088630916,4.180113499,4.371854458,0.355242143,0.003852141,0.014097770,0.066117187
1750932671.729665756,-1.623240408,-1.748963386,-1.100197000,1.593131391,1.039055069,-0.559033706,0.200695602,0.153389545,0.343000000,0.014837876,0.171615361,0.088890071,4.178140338,4.372449130,0.355257082,0.003853343,0.014097773,0.065988777
1750932671.731614113,-1.622838432,-1.748656160,-1.099510000,1.593161110,1.039398800,-0.558855666,0.201280721,0.153836744,0.344000000,0.014881135,0.172115697,0.089149225,4.176159168,4.373042879,0.355271471,0.003854538,0.014097776,0.065859883
1750932671.733597994,-1.622435286,-1.748348039,-1.098821000,1.593190916,1.039743531,-0.558677109,0.201865839,0.154283944,0.345000000,0.014924394,0.172616033,0.089408380,4.174169970,4.373635682,0.355285306,0.003855726,0.014097779,0.065730505
1750932671.735613346,-1.622030969,-1.748039024,-1.098130000,1.593220808,1.040089264,-0.558498033,0.202450957,0.154731144,0.346000000,0.014967653,0.173116370,0.089667535,4.172172723,4.374227516,0.355298579,0.003856907,0.014097782,0.065600642
1750932671.737536907,-1.621625482,-1.747729115,-1.097437000,1.593250787,1.040435997,-0.558318439,0.203036076,0.155178344,0.347000000,0.015010912,0.173616706,0.089926689,4.170167408,4.374818357,0.355311287,0.003858081,0.014097785,0.065470294
1750932671.739562273,-1.621218824,-1.747418311,-1.096742000,1.593280852,1.040783731,-0.558138326,0.203621194,0.155625544,0.348000000,0.015054172,0.174117042,0.090185844,4.168154004,4.375408180,0.355323423,0.003859248,0.014097788,0.065339459
1750932671.741719961,-1.620810997,-1.747106613,-1.096045000,1.593311003,1.041132465,-0.557957695,0.204206313,0.156072744,0.349000000,0.015097431,0.174617379,0.090444999,4.166132493,4.375996963,0.355334983,0.003860408,0.014097791,0.065208138
1750932671.743720293,-1.620401999,-1.746794020,-1.095346000,1.593341241,1.041482200,-0.557776546,0.204791431,0.156519943,0.350000000,0.015140690,0.175117715,0.090704154,4.164102854,4.376584680,0.355345962,0.003861561,0.014097794,0.065076330
1750932671.745899677,-1.619991831,-1.746480533,-1.094645000,1.593371566,1.041832936,-0.557594879,0.205376549,0.156967143,0.351000000,0.015183949,0.175618051,0.090963308,4.162065067,4.377171309,0.355356353,0.003862706,0.014097798,0.064944034
1750932671.747808695,-1.619580493,-1.746166151,-1.093942000,1.593401977,1.042184672,-0.557412693,0.205961668,0.157414343,0.352000000,0.015227208,0.176118388,0.091222463,4.160019111,4.377756825,0.355366153,0.003863843,0.014097801,0.064811249
1750932671.753403664,-1.619167985,-1.745850875,-1.093237000,1.593432475,1.042537410,-0.557229989,0.206546786,0.157861543,0.353000000,0.015270467,0.176618724,0.091481618,4.157964968,4.378341204,0.355375354,0.003864973,0.014097804,0.064677976
1750932671.754884243,-1.618754306,-1.745534705,-1.092530000,1.593463059,1.042891147,-0.557046767,0.207131904,0.158308743,0.354000000,0.015313726,0.177119060,0.091740773,4.155902616,4.378924422,0.355383953,0.003866095,0.014097808,0.064544213
1750932671.755927324,-1.618339457,-1.745217640,-1.091821000,1.593493730,1.043245886,-0.556863026,0.207717023,0.158755943,0.355000000,0.015356985,0.177619397,0.091999927,4.153832035,4.379506454,0.355391944,0.003867209,0.014097811,0.064409960
1750932671.767565727,-1.617923438,-1.744899681,-1.091110000,1.593524487,1.043601625,-0.556678767,0.208302141,0.159203142,0.356000000,0.015400245,0.178119733,0.092259082,4.151753205,4.380087277,0.355399321,0.003868316,0.014097815,0.064275217
1750932671.767647266,-1.617506248,-1.744580828,-1.090397000,1.593555331,1.043958365,-0.556493989,0.208887260,0.159650342,0.357000000,0.015443504,0.178620069,0.092518237,4.149666105,4.380666865,0.355406079,0.003869414,0.014097818,0.064139982
1750932671.767667055,-1.617087889,-1.744261080,-1.089682000,1.593586261,1.044316105,-0.556308694,0.209472378,0.160097542,0.358000000,0.015486763,0.179120406,0.092777391,4.147570716,4.381245194,0.355412212,0.003870504,0.014097822,0.064004257
1750932671.767916441,-1.615825788,-1.743296470,-1.087525000,1.593679571,1.045395331,-0.555749697,0.211227733,0.161439142,0.361000000,0.015616540,0.180621415,0.093554856,4.141234602,4.382972384,0.355426813,0.003873723,0.014097833,0.063594125
1750932671.768124342,-1.615825788,-1.743296470,-1.087525000,1.593679571,1.045395331,-0.555749697,0.211227733,0.161439142,0.361000000,0.015616540,0.180621415,0.093554856,4.141234602,4.382972384,0.355426813,0.003873723,0.014097833,0.063594125
1750932671.768294334,-1.615825788,-1.743296470,-1.087525000,1.593679571,1.045395331,-0.555749697,0.211227733,0.161439142,0.361000000,0.015616540,0.180621415,0.093554856,4.141234602,4.382972384,0.355426813,0.003873723,0.014097833,0.063594125
1750932671.769637346,-1.615402748,-1.742973144,-1.086802000,1.593710847,1.045757074,-0.555562328,0.211812851,0.161886341,0.362000000,0.015659799,0.181121751,0.093814010,4.139105848,4.383545432,0.355430394,0.003874779,0.014097837,0.063456429
1750932671.771634579,-1.614978537,-1.742648925,-1.086077000,1.593742210,1.046119818,-0.555374441,0.212397970,0.162333541,0.363000000,0.015703058,0.181622087,0.094073165,4.136968700,4.384117098,0.355433325,0.003875826,0.014097841,0.063318238
1750932671.773653507,-1.614553156,-1.742323810,-1.085350000,1.593773660,1.046483562,-0.555186036,0.212983088,0.162780741,0.364000000,0.015746317,0.182122424,0.094332320,4.134823139,4.384687357,0.355435598,0.003876865,0.014097845,0.063179553
1750932671.776757956,-1.614126605,-1.741997802,-1.084621000,1.593805195,1.046848307,-0.554997112,0.213568207,0.163227941,0.365000000,0.015789577,0.182622760,0.094591475,4.132669143,4.385256184,0.355437208,0.003877894,0.014097849,0.063040372
1750932671.777714014,-1.613698883,-1.741670898,-1.083890000,1.593836818,1.047214053,-0.554807670,0.214153325,0.163675141,0.366000000,0.015832836,0.183123096,0.094850629,4.130506692,4.385823553,0.355438151,0.003878914,0.014097853,0.062900697
1750932671.779652119,-1.613269991,-1.741343101,-1.083157000,1.593868527,1.047580800,-0.554617709,0.214738443,0.164122341,0.367000000,0.015876095,0.183623433,0.095109784,4.128335764,4.386389441,0.355438420,0.003879925,0.014097857,0.062760525
1750932671.781707048,-1.612839929,-1.741014409,-1.082422000,1.593900322,1.047948547,-0.554427231,0.215323562,0.164569540,0.368000000,0.015919354,0.184123769,0.095368939,4.126156339,4.386953820,0.355438009,0.003880927,0.014097861,0.062619857
1750932671.783624887,-1.612408697,-1.740684823,-1.081685000,1.593932204,1.048317295,-0.554236234,0.215908680,0.165016740,0.369000000,0.015962613,0.184624105,0.095628093,4.123968396,4.387516668,0.355436914,0.003881919,0.014097865,0.062478693
1750932671.785644293,-1.611976295,-1.740354342,-1.080946000,1.593964173,1.048687043,-0.554044718,0.216493798,0.165463940,0.370000000,0.016005872,0.185124442,0.095887248,4.121771913,4.388077957,0.355435129,0.003882902,0.014097870,0.062337031
1750932671.787713528,-1.611542722,-1.740022967,-1.080205000,1.593996228,1.049057793,-0.553852685,0.217078917,0.165911140,0.371000000,0.016049131,0.185624778,0.096146403,4.119566869,4.388637662,0.355432649,0.003883875,0.014097874,0.062194871
1750932671.789960623,-1.611107979,-1.739690698,-1.079462000,1.594028369,1.049429542,-0.553660133,0.217664035,0.166358340,0.372000000,0.016092390,0.186125114,0.096405558,4.117353244,4.389195759,0.355429466,0.003884838,0.014097878,0.062052214
