mathias31415/motion_primitives_from_planned_trajectory/data/trajectory_20250626_094459_planned.csv
time_from_start,shoulder_pan_joint_pos,shoulder_lift_joint_pos,elbow_joint_pos,wrist_1_joint_pos,wrist_2_joint_pos,wrist_3_joint_pos,shoulder_pan_joint_vel,shoulder_lift_joint_vel,elbow_joint_vel,wrist_1_joint_vel,wrist_2_joint_vel,wrist_3_joint_vel,shoulder_pan_joint_acc,shoulder_lift_joint_acc,elbow_joint_acc,wrist_1_joint_acc,wrist_2_joint_acc,wrist_3_joint_acc,pose_x,pose_y,pose_z,pose_qx,pose_qy,pose_qz,pose_qw
0.000000,-2.365065,-1.547784,-1.787456,-1.412468,1.570382,-0.795069,-0.000500,0.000020,0.000070,-0.000077,-0.000005,-0.000500,-0.499987,0.020131,0.069844,-0.077131,-0.004624,-0.500000,-0.594623,-0.339970,0.562540,-0.000404,0.999844,0.012518,0.012457
0.100000,-2.367565,-1.547683,-1.787107,-1.412854,1.570359,-0.797569,-0.049999,0.002013,0.006984,-0.007713,-0.000462,-0.050000,-0.499987,0.020131,0.069844,-0.077131,-0.004624,-0.500000,-0.595470,-0.338477,0.562798,-0.000404,0.999845,0.012473,0.012457
0.200000,-2.375065,-1.547381,-1.786059,-1.414011,1.570290,-0.805069,-0.099997,0.004026,0.013969,-0.015426,-0.000925,-0.100000,-0.499987,0.020131,0.069844,-0.077131,-0.004624,-0.500000,-0.597987,-0.333986,0.563573,-0.000405,0.999846,0.012337,0.012457
0.300000,-2.387564,-1.546878,-1.784313,-1.415939,1.570174,-0.817569,-0.149996,0.006039,0.020953,-0.023139,-0.001387,-0.150000,-0.499987,0.020131,0.069844,-0.077131,-0.004624,-0.500000,-0.602106,-0.326458,0.564865,-0.000406,0.999849,0.012113,0.012453
0.400000,-2.405064,-1.546174,-1.781868,-1.418638,1.570012,-0.835069,-0.199995,0.008052,0.027938,-0.030852,-0.001850,-0.200000,-0.499987,0.020131,0.069844,-0.077131,-0.004624,-0.500000,-0.607708,-0.315830,0.566675,-0.000407,0.999853,0.011802,0.012442
0.500000,-2.425919,-1.545334,-1.778955,-1.421856,1.569819,-0.855924,-0.209440,0.008433,0.029257,-0.032309,-0.001937,-0.209445,-0.000000,0.000000,0.000000,-0.000000,-0.000000,-0.000000,-0.614135,-0.303035,0.568833,-0.000409,0.999857,0.011437,0.012420
0.600000,-2.446863,-1.544491,-1.776030,-1.425087,1.569625,-0.876869,-0.209440,0.008433,0.029257,-0.032309,-0.001937,-0.209445,-0.000000,0.000000,0.000000,-0.000000,-0.000000,-0.000000,-0.620311,-0.290049,0.571001,-0.000411,0.999862,0.011077,0.012389
0.700000,-2.467807,-1.543647,-1.773104,-1.428318,1.569432,-0.897813,-0.209440,0.008433,0.029257,-0.032309,-0.001937,-0.209445,-0.000000,0.000000,0.000000,-0.000000,-0.000000,-0.000000,-0.626207,-0.276932,0.573170,-0.000413,0.999866,0.010723,0.012347
0.800000,-2.488751,-1.542804,-1.770178,-1.431548,1.569238,-0.918758,-0.209440,0.008433,0.029257,-0.032309,-0.001937,-0.209445,-0.000000,0.000000,0.000000,-0.000000,-0.000000,-0.000000,-0.631820,-0.263690,0.575340,-0.000414,0.999870,0.010376,0.012296
0.900000,-2.509694,-1.541961,-1.767252,-1.434779,1.569044,-0.939702,-0.209440,0.008433,0.029257,-0.032309,-0.001937,-0.209445,-0.000000,0.000000,0.000000,-0.000000,-0.000000,-0.000000,-0.637145,-0.250330,0.577511,-0.000416,0.999875,0.010035,0.012237
1.000000,-2.530638,-1.541118,-1.764327,-1.438010,1.568851,-0.960647,-0.209440,0.008433,0.029257,-0.032309,-0.001937,-0.209445,-0.000000,0.000000,0.000000,-0.000000,-0.000000,-0.000000,-0.642182,-0.236858,0.579683,-0.000417,0.999879,0.009702,0.012168
1.100000,-2.551582,-1.540274,-1.761401,-1.441241,1.568657,-0.981591,-0.209440,0.008433,0.029257,-0.032309,-0.001937,-0.209445,0.000000,-0.000000,-0.000000,0.000000,0.000000,0.000000,-0.646927,-0.223280,0.581856,-0.000419,0.999883,0.009376,0.012091
1.200000,-2.572526,-1.539431,-1.758475,-1.444472,1.568463,-1.002536,-0.209440,0.008433,0.029257,-0.032309,-0.001937,-0.209445,0.000000,-0.000000,-0.000000,0.000000,0.000000,0.000000,-0.651379,-0.209603,0.584030,-0.000420,0.999887,0.009057,0.012006
1.300000,-2.593470,-1.538588,-1.755550,-1.447703,1.568270,-1.023480,-0.209440,0.008433,0.029257,-0.032309,-0.001937,-0.209445,0.000000,-0.000000,-0.000000,0.000000,0.000000,0.000000,-0.655535,-0.195834,0.586205,-0.000422,0.999891,0.008747,0.011913
1.400000,-2.614414,-1.537745,-1.752624,-1.450934,1.568076,-1.044425,-0.209440,0.008433,0.029257,-0.032309,-0.001937,-0.209445,0.000000,-0.000000,-0.000000,0.000000,0.000000,0.000000,-0.659393,-0.181978,0.588380,-0.000423,0.999894,0.008444,0.011813
1.500000,-2.635358,-1.536901,-1.749698,-1.454165,1.567882,-1.065369,-0.209440,0.008433,0.029257,-0.032309,-0.001937,-0.209445,0.000000,-0.000000,-0.000000,0.000000,0.000000,0.000000,-0.662950,-0.168043,0.590557,-0.000424,0.999898,0.008149,0.011705
1.600000,-2.656302,-1.536058,-1.746773,-1.457396,1.567688,-1.086314,-0.209440,0.008433,0.029257,-0.032309,-0.001937,-0.209445,0.000000,-0.000000,-0.000000,0.000000,0.000000,0.000000,-0.666207,-0.154035,0.592734,-0.000426,0.999902,0.007862,0.011590
1.700000,-2.677246,-1.535215,-1.743847,-1.460627,1.567495,-1.107258,-0.209440,0.008433,0.029257,-0.032309,-0.001937,-0.209445,0.000000,-0.000000,-0.000000,0.000000,0.000000,0.000000,-0.669160,-0.139961,0.594912,-0.000427,0.999905,0.007584,0.011468
1.800000,-2.698190,-1.534372,-1.740921,-1.463858,1.567301,-1.128203,-0.209440,0.008433,0.029257,-0.032309,-0.001937,-0.209445,0.000000,-0.000000,-0.000000,0.000000,0.000000,0.000000,-0.671809,-0.125827,0.597090,-0.000428,0.999909,0.007314,0.011340
1.900000,-2.719134,-1.533528,-1.737996,-1.467089,1.567107,-1.149147,-0.209440,0.008433,0.029257,-0.032309,-0.001937,-0.209445,0.000000,-0.000000,-0.000000,0.000000,0.000000,0.000000,-0.674152,-0.111640,0.599270,-0.000429,0.999912,0.007053,0.011205
2.000000,-2.740078,-1.532685,-1.735070,-1.470320,1.566914,-1.170092,-0.209440,0.008433,0.029257,-0.032309,-0.001937,-0.209445,0.000000,-0.000000,-0.000000,0.000000,0.000000,0.000000,-0.676188,-0.097408,0.601449,-0.000430,0.999916,0.006801,0.011065
2.100000,-2.761022,-1.531842,-1.732144,-1.473551,1.566720,-1.191036,-0.209440,0.008433,0.029257,-0.032309,-0.001937,-0.209445,-0.000000,0.000000,0.000000,-0.000000,-0.000000,-0.000000,-0.677917,-0.083136,0.603630,-0.000431,0.999919,0.006558,0.010919
2.200000,-2.781966,-1.530998,-1.729218,-1.476782,1.566526,-1.211981,-0.209440,0.008433,0.029257,-0.032309,-0.001937,-0.209445,-0.000000,0.000000,0.000000,-0.000000,-0.000000,-0.000000,-0.679336,-0.068831,0.605811,-0.000432,0.999922,0.006324,0.010769
2.300000,-2.802910,-1.530155,-1.726293,-1.480013,1.566332,-1.232925,-0.209440,0.008433,0.029257,-0.032309,-0.001937,-0.209445,-0.000000,0.000000,0.000000,-0.000000,-0.000000,-0.000000,-0.680447,-0.054501,0.607993,-0.000433,0.999925,0.006099,0.010613
2.400000,-2.823854,-1.529312,-1.723367,-1.483244,1.566139,-1.253870,-0.209440,0.008433,0.029257,-0.032309,-0.001937,-0.209445,-0.000000,0.000000,0.000000,-0.000000,-0.000000,-0.000000,-0.681247,-0.040152,0.610175,-0.000434,0.999928,0.005884,0.010452
2.500000,-2.844798,-1.528469,-1.720441,-1.486474,1.565945,-1.274814,-0.209440,0.008433,0.029257,-0.032309,-0.001937,-0.209445,-0.000000,0.000000,0.000000,-0.000000,-0.000000,-0.000000,-0.681738,-0.025791,0.612358,-0.000434,0.999931,0.005678,0.010288
2.600000,-2.865742,-1.527625,-1.717516,-1.489705,1.565751,-1.295759,-0.209440,0.008433,0.029257,-0.032309,-0.001937,-0.209445,-0.000000,0.000000,0.000000,-0.000000,-0.000000,-0.000000,-0.681918,-0.011425,0.614541,-0.000435,0.999934,0.005481,0.010119
2.700000,-2.886686,-1.526782,-1.714590,-1.492936,1.565558,-1.316703,-0.209440,0.008433,0.029257,-0.032309,-0.001937,-0.209445,-0.000000,0.000000,0.000000,-0.000000,-0.000000,-0.000000,-0.681787,0.002939,0.616725,-0.000436,0.999936,0.005294,0.009947
2.800000,-2.907630,-1.525939,-1.711664,-1.496167,1.565364,-1.337648,-0.209440,0.008433,0.029257,-0.032309,-0.001937,-0.209445,-0.000000,0.000000,0.000000,-0.000000,-0.000000,-0.000000,-0.681346,0.017295,0.618909,-0.000436,0.999939,0.005116,0.009772
2.900000,-2.928574,-1.525096,-1.708739,-1.499398,1.565170,-1.358592,-0.209440,0.008433,0.029257,-0.032309,-0.001937,-0.209445,-0.000000,0.000000,0.000000,-0.000000,-0.000000,-0.000000,-0.680595,0.031635,0.621094,-0.000437,0.999942,0.004949,0.009593
3.000000,-2.949517,-1.524252,-1.705813,-1.502629,1.564977,-1.379537,-0.209440,0.008433,0.029257,-0.032309,-0.001937,-0.209445,-0.000000,0.000000,0.000000,-0.000000,-0.000000,-0.000000,-0.679535,0.045953,0.623278,-0.000437,0.999944,0.004790,0.009412
3.100000,-2.970461,-1.523409,-1.702887,-1.505860,1.564783,-1.400481,-0.209440,0.008433,0.029257,-0.032309,-0.001937,-0.209445,-0.000000,0.000000,0.000000,-0.000000,-0.000000,-0.000000,-0.678166,0.060241,0.625464,-0.000438,0.999947,0.004642,0.009229
3.200000,-2.991405,-1.522566,-1.699961,-1.509091,1.564589,-1.421426,-0.209440,0.008433,0.029257,-0.032309,-0.001937,-0.209445,-0.000000,0.000000,0.000000,-0.000000,-0.000000,-0.000000,-0.676488,0.074494,0.627649,-0.000438,0.999949,0.004503,0.009044
3.300000,-3.012349,-1.521723,-1.697036,-1.512322,1.564395,-1.442370,-0.209440,0.008433,0.029257,-0.032309,-0.001937,-0.209445,-0.000000,0.000000,0.000000,-0.000000,-0.000000,-0.000000,-0.674503,0.088703,0.629835,-0.000438,0.999951,0.004374,0.008857
3.400000,-3.033293,-1.520879,-1.694110,-1.515553,1.564202,-1.463315,-0.209440,0.008433,0.029257,-0.032309,-0.001937,-0.209445,-0.000000,0.000000,0.000000,-0.000000,-0.000000,-0.000000,-0.672211,0.102863,0.632021,-0.000439,0.999953,0.004255,0.008669
3.500000,-3.054237,-1.520036,-1.691184,-1.518784,1.564008,-1.484259,-0.209440,0.008433,0.029257,-0.032309,-0.001937,-0.209445,-0.000000,0.000000,0.000000,-0.000000,-0.000000,-0.000000,-0.669614,0.116967,0.634207,-0.000439,0.999955,0.004146,0.008480
3.600000,-3.075181,-1.519193,-1.688259,-1.522015,1.563814,-1.505204,-0.209440,0.008433,0.029257,-0.032309,-0.001937,-0.209445,-0.000000,0.000000,0.000000,-0.000000,-0.000000,-0.000000,-0.666714,0.131008,0.636393,-0.000439,0.999957,0.004046,0.008290
3.700000,-3.096125,-1.518350,-1.685333,-1.525246,1.563621,-1.526148,-0.209440,0.008433,0.029257,-0.032309,-0.001937,-0.209445,-0.000000,0.000000,0.000000,-0.000000,-0.000000,-0.000000,-0.663511,0.144978,0.638580,-0.000439,0.999959,0.003957,0.008100
3.800000,-3.117069,-1.517506,-1.682407,-1.528477,1.563427,-1.547093,-0.209440,0.008433,0.029257,-0.032309,-0.001937,-0.209445,-0.000000,0.000000,0.000000,-0.000000,-0.000000,-0.000000,-0.660007,0.158873,0.640766,-0.000439,0.999961,0.003876,0.007909
3.900000,-3.138013,-1.516663,-1.679482,-1.531708,1.563233,-1.568037,-0.209440,0.008433,0.029257,-0.032309,-0.001937,-0.209445,-0.000000,0.000000,0.000000,-0.000000,-0.000000,-0.000000,-0.656204,0.172684,0.642953,-0.000439,0.999963,0.003806,0.007720
4.000000,-3.158957,-1.515820,-1.676556,-1.534939,1.563039,-1.588982,-0.209440,0.008433,0.029257,-0.032309,-0.001937,-0.209445,-0.000000,0.000000,0.000000,-0.000000,-0.000000,-0.000000,-0.652105,0.186405,0.645139,-0.000439,0.999965,0.003745,0.007530
4.100000,-3.179901,-1.514977,-1.673630,-1.538170,1.562846,-1.609926,-0.209440,0.008433,0.029257,-0.032309,-0.001937,-0.209445,-0.000000,0.000000,0.000000,-0.000000,-0.000000,-0.000000,-0.647711,0.200030,0.647326,-0.000439,0.999966,0.003694,0.007342
4.200000,-3.200845,-1.514133,-1.670704,-1.541400,1.562652,-1.630871,-0.209440,0.008433,0.029257,-0.032309,-0.001937,-0.209445,-0.000000,0.000000,0.000000,-0.000000,-0.000000,-0.000000,-0.643024,0.213552,0.649513,-0.000439,0.999968,0.003652,0.007155
4.300000,-3.221789,-1.513290,-1.667779,-1.544631,1.562458,-1.651815,-0.209440,0.008433,0.029257,-0.032309,-0.001937,-0.209445,-0.000000,0.000000,0.000000,-0.000000,-0.000000,-0.000000,-0.638047,0.226965,0.651699,-0.000439,0.999969,0.003619,0.006970
4.400000,-3.242733,-1.512447,-1.664853,-1.547862,1.562265,-1.672760,-0.209440,0.008433,0.029257,-0.032309,-0.001937,-0.209445,-0.000000,0.000000,0.000000,-0.000000,-0.000000,-0.000000,-0.632782,0.240263,0.653886,-0.000439,0.999970,0.003596,0.006786
4.500000,-3.263677,-1.511604,-1.661927,-1.551093,1.562071,-1.693704,-0.209440,0.008433,0.029257,-0.032309,-0.001937,-0.209445,-0.000000,0.000000,0.000000,-0.000000,-0.000000,-0.000000,-0.627232,0.253438,0.656072,-0.000439,0.999972,0.003582,0.006605
4.600000,-3.284621,-1.510760,-1.659002,-1.554324,1.561877,-1.714649,-0.209440,0.008433,0.029257,-0.032309,-0.001937,-0.209445,-0.000000,0.000000,0.000000,-0.000000,-0.000000,-0.000000,-0.621400,0.266485,0.658259,-0.000438,0.999973,0.003578,0.006426
4.700000,-3.305565,-1.509917,-1.656076,-1.557555,1.561684,-1.735593,-0.209440,0.008433,0.029257,-0.032309,-0.001937,-0.209445,-0.000000,0.000000,0.000000,-0.000000,-0.000000,-0.000000,-0.615289,0.279398,0.660445,-0.000438,0.999974,0.003582,0.006250
4.800000,-3.326509,-1.509074,-1.653150,-1.560786,1.561490,-1.756538,-0.209440,0.008433,0.029257,-0.032309,-0.001937,-0.209445,-0.000000,0.000000,0.000000,-0.000000,-0.000000,-0.000000,-0.608901,0.292171,0.662631,-0.000437,0.999975,0.003595,0.006077
4.900000,-3.347453,-1.508231,-1.650225,-1.564017,1.561296,-1.777482,-0.209440,0.008433,0.029257,-0.032309,-0.001937,-0.209445,-0.000000,0.000000,0.000000,-0.000000,-0.000000,-0.000000,-0.602241,0.304796,0.664817,-0.000437,0.999976,0.003617,0.005908
5.000000,-3.368396,-1.507387,-1.647299,-1.567248,1.561102,-1.798427,-0.209440,0.008433,0.029257,-0.032309,-0.001937,-0.209445,-0.000000,0.000000,0.000000,-0.000000,-0.000000,-0.000000,-0.595312,0.317269,0.667002,-0.000436,0.999977,0.003647,0.005742
5.100000,-3.389340,-1.506544,-1.644373,-1.570479,1.560909,-1.819371,-0.209440,0.008433,0.029257,-0.032309,-0.001937,-0.209445,-0.000000,0.000000,0.000000,-0.000000,-0.000000,-0.000000,-0.588116,0.329584,0.669187,-0.000436,0.999978,0.003686,0.005580
5.200000,-3.410284,-1.505701,-1.641448,-1.573710,1.560715,-1.840316,-0.209440,0.008433,0.029257,-0.032309,-0.001937,-0.209445,-0.000000,0.000000,0.000000,-0.000000,-0.000000,-0.000000,-0.580658,0.341734,0.671372,-0.000435,0.999978,0.003733,0.005422
5.300000,-3.431228,-1.504858,-1.638522,-1.576941,1.560521,-1.861260,-0.209440,0.008433,0.029257,-0.032309,-0.001937,-0.209445,-0.000000,0.000000,0.000000,-0.000000,-0.000000,-0.000000,-0.572942,0.353714,0.673557,-0.000434,0.999979,0.003789,0.005269
5.400000,-3.452172,-1.504014,-1.635596,-1.580172,1.560328,-1.882205,-0.209440,0.008433,0.029257,-0.032309,-0.001937,-0.209445,-0.000000,0.000000,0.000000,-0.000000,-0.000000,-0.000000,-0.564971,0.365519,0.675741,-0.000434,0.999979,0.003852,0.005121
5.500000,-3.473116,-1.503171,-1.632670,-1.583403,1.560134,-1.903149,-0.209440,0.008433,0.029257,-0.032309,-0.001937,-0.209445,-0.000000,0.000000,0.000000,-0.000000,-0.000000,-0.000000,-0.556749,0.377142,0.677924,-0.000433,0.999980,0.003923,0.004978
5.600000,-3.494060,-1.502328,-1.629745,-1.586634,1.559940,-1.924094,-0.209440,0.008433,0.029257,-0.032309,-0.001937,-0.209445,-0.000000,0.000000,0.000000,-0.000000,-0.000000,-0.000000,-0.548281,0.388578,0.680108,-0.000432,0.999980,0.004002,0.004840
5.700000,-3.515004,-1.501484,-1.626819,-1.589865,1.559746,-1.945038,-0.209440,0.008433,0.029257,-0.032309,-0.001937,-0.209445,-0.000000,0.000000,0.000000,-0.000000,-0.000000,-0.000000,-0.539571,0.399822,0.682290,-0.000431,0.999980,0.004088,0.004708
5.800000,-3.535948,-1.500641,-1.623893,-1.593096,1.559553,-1.965983,-0.209440,0.008433,0.029257,-0.032309,-0.001937,-0.209445,-0.000000,0.000000,0.000000,-0.000000,-0.000000,-0.000000,-0.530623,0.410869,0.684473,-0.000430,0.999981,0.004181,0.004581
5.900000,-3.556892,-1.499798,-1.620968,-1.596326,1.559359,-1.986927,-0.209440,0.008433,0.029257,-0.032309,-0.001937,-0.209445,-0.000000,0.000000,0.000000,-0.000000,-0.000000,-0.000000,-0.521441,0.421713,0.686654,-0.000429,0.999981,0.004282,0.004461
6.000000,-3.577836,-1.498955,-1.618042,-1.599557,1.559165,-2.007872,-0.209440,0.008433,0.029257,-0.032309,-0.001937,-0.209445,-0.000000,0.000000,0.000000,-0.000000,-0.000000,-0.000000,-0.512031,0.432350,0.688836,-0.000428,0.999981,0.004389,0.004347
6.100000,-3.598780,-1.498111,-1.615116,-1.602788,1.558972,-2.028816,-0.209440,0.008433,0.029257,-0.032309,-0.001937,-0.209445,-0.000000,0.000000,0.000000,-0.000000,-0.000000,-0.000000,-0.502398,0.442773,0.691016,-0.000427,0.999981,0.004503,0.004239
6.200000,-3.619724,-1.497268,-1.612191,-1.606019,1.558778,-2.049761,-0.209440,0.008433,0.029257,-0.032309,-0.001937,-0.209445,-0.000000,0.000000,0.000000,-0.000000,-0.000000,-0.000000,-0.492545,0.452980,0.693196,-0.000426,0.999981,0.004623,0.004138
6.300000,-3.640668,-1.496425,-1.609265,-1.609250,1.558584,-2.070705,-0.209440,0.008433,0.029257,-0.032309,-0.001937,-0.209445,-0.000000,0.000000,0.000000,-0.000000,-0.000000,-0.000000,-0.482478,0.462964,0.695376,-0.000425,0.999980,0.004749,0.004044
6.400000,-3.661612,-1.495582,-1.606339,-1.612481,1.558391,-2.091650,-0.209440,0.008433,0.029257,-0.032309,-0.001937,-0.209445,-0.000000,0.000000,0.000000,-0.000000,-0.000000,-0.000000,-0.472202,0.472721,0.697554,-0.000423,0.999980,0.004881,0.003958
6.500000,-3.682556,-1.494738,-1.603413,-1.615712,1.558197,-2.112594,-0.209440,0.008433,0.029257,-0.032309,-0.001937,-0.209445,-0.000000,0.000000,0.000000,-0.000000,-0.000000,-0.000000,-0.461722,0.482246,0.699732,-0.000422,0.999980,0.005019,0.003878
6.600000,-3.703500,-1.493895,-1.600488,-1.618943,1.558003,-2.133539,-0.209440,0.008433,0.029257,-0.032309,-0.001937,-0.209445,-0.000000,0.000000,0.000000,-0.000000,-0.000000,-0.000000,-0.451044,0.491536,0.701909,-0.000421,0.999979,0.005162,0.003807
6.700000,-3.724444,-1.493052,-1.597562,-1.622174,1.557809,-2.154483,-0.209440,0.008433,0.029257,-0.032309,-0.001937,-0.209445,-0.000000,0.000000,0.000000,-0.000000,-0.000000,-0.000000,-0.440173,0.500586,0.704086,-0.000419,0.999979,0.005310,0.003743
6.800000,-3.745388,-1.492209,-1.594636,-1.625405,1.557616,-2.175428,-0.209440,0.008433,0.029257,-0.032309,-0.001937,-0.209445,-0.000000,0.000000,0.000000,-0.000000,-0.000000,-0.000000,-0.429114,0.509392,0.706261,-0.000418,0.999978,0.005463,0.003687
6.900000,-3.766332,-1.491365,-1.591711,-1.628636,1.557422,-2.196372,-0.209440,0.008433,0.029257,-0.032309,-0.001937,-0.209445,-0.000000,0.000000,0.000000,-0.000000,-0.000000,-0.000000,-0.417873,0.517949,0.708436,-0.000416,0.999977,0.005620,0.003639
7.000000,-3.787275,-1.490522,-1.588785,-1.631867,1.557228,-2.217317,-0.209440,0.008433,0.029257,-0.032309,-0.001937,-0.209445,-0.000000,0.000000,0.000000,-0.000000,-0.000000,-0.000000,-0.406456,0.526254,0.710610,-0.000415,0.999977,0.005782,0.003599
7.100000,-3.808219,-1.489679,-1.585859,-1.635098,1.557035,-2.238261,-0.209440,0.008433,0.029257,-0.032309,-0.001937,-0.209445,-0.000000,0.000000,0.000000,-0.000000,-0.000000,-0.000000,-0.394867,0.534304,0.712783,-0.000413,0.999976,0.005948,0.003568
7.200000,-3.829163,-1.488836,-1.582934,-1.638329,1.556841,-2.259206,-0.209440,0.008433,0.029257,-0.032309,-0.001937,-0.209445,-0.000000,0.000000,0.000000,-0.000000,-0.000000,-0.000000,-0.383114,0.542093,0.714955,-0.000411,0.999975,0.006118,0.003546
7.300000,-3.850107,-1.487992,-1.580008,-1.641560,1.556647,-2.280150,-0.209440,0.008433,0.029257,-0.032309,-0.001937,-0.209445,-0.000000,0.000000,0.000000,-0.000000,-0.000000,-0.000000,-0.371202,0.549620,0.717126,-0.000409,0.999974,0.006291,0.003532
7.400000,-3.871051,-1.487149,-1.577082,-1.644791,1.556453,-2.301095,-0.209440,0.008433,0.029257,-0.032309,-0.001937,-0.209445,-0.000000,0.000000,0.000000,-0.000000,-0.000000,-0.000000,-0.359137,0.556881,0.719296,-0.000408,0.999973,0.006467,0.003527
7.500000,-3.891995,-1.486306,-1.574157,-1.648022,1.556260,-2.322039,-0.209440,0.008433,0.029257,-0.032309,-0.001937,-0.209445,-0.000000,0.000000,0.000000,-0.000000,-0.000000,-0.000000,-0.346925,0.563871,0.721465,-0.000406,0.999972,0.006646,0.003531
7.600000,-3.912939,-1.485463,-1.571231,-1.651252,1.556066,-2.342984,-0.209440,0.008433,0.029257,-0.032309,-0.001937,-0.209445,-0.000000,0.000000,0.000000,-0.000000,-0.000000,-0.000000,-0.334572,0.570590,0.723633,-0.000404,0.999970,0.006828,0.003544
7.700000,-3.933883,-1.484619,-1.568305,-1.654483,1.555872,-2.363928,-0.209440,0.008433,0.029257,-0.032309,-0.001937,-0.209445,-0.000000,0.000000,0.000000,-0.000000,-0.000000,-0.000000,-0.322084,0.577032,0.725800,-0.000402,0.999969,0.007012,0.003567
7.800000,-3.954827,-1.483776,-1.565379,-1.657714,1.555679,-2.384873,-0.209440,0.008433,0.029257,-0.032309,-0.001937,-0.209445,-0.000000,0.000000,0.000000,-0.000000,-0.000000,-0.000000,-0.309468,0.583196,0.727965,-0.000400,0.999968,0.007197,0.003598
7.900000,-3.975771,-1.482933,-1.562454,-1.660945,1.555485,-2.405817,-0.209440,0.008433,0.029257,-0.032309,-0.001937,-0.209445,-0.000000,0.000000,0.000000,-0.000000,-0.000000,-0.000000,-0.296729,0.589079,0.730130,-0.000398,0.999966,0.007385,0.003639
8.000000,-3.996715,-1.482090,-1.559528,-1.664176,1.555291,-2.426762,-0.209440,0.008433,0.029257,-0.032309,-0.001937,-0.209445,0.000000,-0.000000,-0.000000,0.000000,0.000000,0.000000,-0.283875,0.594678,0.732294,-0.000396,0.999964,0.007573,0.003690
8.100000,-4.017659,-1.481246,-1.556602,-1.667407,1.555098,-2.447706,-0.209440,0.008433,0.029257,-0.032309,-0.001937,-0.209445,-0.000000,0.000000,0.000000,-0.000000,-0.000000,-0.000000,-0.270912,0.599991,0.734456,-0.000394,0.999963,0.007763,0.003750
8.200000,-4.038603,-1.480403,-1.553677,-1.670638,1.554904,-2.468651,-0.209440,0.008433,0.029257,-0.032309,-0.001937,-0.209445,-0.000000,0.000000,0.000000,-0.000000,-0.000000,-0.000000,-0.257846,0.605016,0.736617,-0.000391,0.999961,0.007954,0.003820
8.300000,-4.059547,-1.479560,-1.550751,-1.673869,1.554710,-2.489595,-0.209440,0.008433,0.029257,-0.032309,-0.001937,-0.209445,-0.000000,0.000000,0.000000,-0.000000,-0.000000,-0.000000,-0.244683,0.609751,0.738777,-0.000389,0.999959,0.008144,0.003899
8.400000,-4.080491,-1.478717,-1.547825,-1.677100,1.554516,-2.510540,-0.209440,0.008433,0.029257,-0.032309,-0.001937,-0.209445,-0.000000,0.000000,0.000000,-0.000000,-0.000000,-0.000000,-0.231431,0.614194,0.740935,-0.000387,0.999957,0.008335,0.003988
8.500000,-4.101435,-1.477873,-1.544900,-1.680331,1.554323,-2.531484,-0.209440,0.008433,0.029257,-0.032309,-0.001937,-0.209445,-0.000000,0.000000,0.000000,-0.000000,-0.000000,-0.000000,-0.218095,0.618342,0.743092,-0.000385,0.999955,0.008526,0.004087
8.600000,-4.122379,-1.477030,-1.541974,-1.683562,1.554129,-2.552428,-0.209440,0.008433,0.029257,-0.032309,-0.001937,-0.209445,-0.000000,0.000000,0.000000,-0.000000,-0.000000,-0.000000,-0.204683,0.622195,0.745248,-0.000382,0.999953,0.008716,0.004196
8.700000,-4.143323,-1.476187,-1.539048,-1.686793,1.553935,-2.573373,-0.209440,0.008433,0.029257,-0.032309,-0.001937,-0.209445,-0.000000,0.000000,0.000000,-0.000000,-0.000000,-0.000000,-0.191201,0.625751,0.747402,-0.000380,0.999951,0.008905,0.004314
8.800000,-4.164267,-1.475343,-1.536122,-1.690024,1.553742,-2.594317,-0.209440,0.008433,0.029257,-0.032309,-0.001937,-0.209445,-0.000000,0.000000,0.000000,-0.000000,-0.000000,-0.000000,-0.177656,0.629009,0.749555,-0.000377,0.999949,0.009093,0.004442
8.900000,-4.185211,-1.474500,-1.533197,-1.693255,1.553548,-2.615262,-0.209440,0.008433,0.029257,-0.032309,-0.001937,-0.209445,-0.000000,0.000000,0.000000,-0.000000,-0.000000,-0.000000,-0.164054,0.631967,0.751707,-0.000375,0.999946,0.009279,0.004580
9.000000,-4.206155,-1.473657,-1.530271,-1.696486,1.553354,-2.636206,-0.209440,0.008433,0.029257,-0.032309,-0.001937,-0.209445,-0.000000,0.000000,0.000000,-0.000000,-0.000000,-0.000000,-0.150403,0.634624,0.753857,-0.000372,0.999944,0.009463,0.004728
9.100000,-4.227098,-1.472814,-1.527345,-1.699717,1.553160,-2.657151,-0.209440,0.008433,0.029257,-0.032309,-0.001937,-0.209445,-0.000000,0.000000,0.000000,-0.000000,-0.000000,-0.000000,-0.136708,0.636980,0.756005,-0.000369,0.999941,0.009645,0.004885
9.200000,-4.248042,-1.471970,-1.524420,-1.702948,1.552967,-2.678095,-0.209440,0.008433,0.029257,-0.032309,-0.001937,-0.209445,-0.000000,0.000000,0.000000,-0.000000,-0.000000,-0.000000,-0.122978,0.639034,0.758152,-0.000366,0.999939,0.009825,0.005052
9.300000,-4.268986,-1.471127,-1.521494,-1.706178,1.552773,-2.699040,-0.209440,0.008433,0.029257,-0.032309,-0.001937,-0.209445,-0.000000,0.000000,0.000000,-0.000000,-0.000000,-0.000000,-0.109218,0.640785,0.760298,-0.000364,0.999936,0.010001,0.005229
9.400000,-4.289930,-1.470284,-1.518568,-1.709409,1.552579,-2.719984,-0.209440,0.008433,0.029257,-0.032309,-0.001937,-0.209445,-0.000000,0.000000,0.000000,-0.000000,-0.000000,-0.000000,-0.095436,0.642234,0.762441,-0.000361,0.999934,0.010174,0.005416
9.500000,-4.310874,-1.469441,-1.515643,-1.712640,1.552386,-2.740929,-0.209440,0.008433,0.029257,-0.032309,-0.001937,-0.209445,-0.000000,0.000000,0.000000,-0.000000,-0.000000,-0.000000,-0.081638,0.643379,0.764584,-0.000358,0.999931,0.010344,0.005612
9.600000,-4.331818,-1.468597,-1.512717,-1.715871,1.552192,-2.761873,-0.209440,0.008433,0.029257,-0.032309,-0.001937,-0.209445,-0.000000,0.000000,0.000000,-0.000000,-0.000000,-0.000000,-0.067831,0.644220,0.766724,-0.000355,0.999928,0.010510,0.005817
9.700000,-4.352762,-1.467754,-1.509791,-1.719102,1.551998,-2.782818,-0.209440,0.008433,0.029257,-0.032309,-0.001937,-0.209445,-0.000000,0.000000,0.000000,-0.000000,-0.000000,-0.000000,-0.054022,0.644759,0.768863,-0.000352,0.999925,0.010672,0.006032
9.800000,-4.373706,-1.466911,-1.506866,-1.722333,1.551805,-2.803762,-0.209440,0.008433,0.029257,-0.032309,-0.001937,-0.209445,-0.000000,0.000000,0.000000,-0.000000,-0.000000,-0.000000,-0.040217,0.644994,0.771000,-0.000349,0.999922,0.010829,0.006256
9.900000,-4.394650,-1.466068,-1.503940,-1.725564,1.551611,-2.824707,-0.209440,0.008433,0.029257,-0.032309,-0.001937,-0.209445,-0.000000,0.000000,0.000000,-0.000000,-0.000000,-0.000000,-0.026424,0.644926,0.773135,-0.000346,0.999919,0.010981,0.006490
10.000000,-4.415594,-1.465224,-1.501014,-1.728795,1.551417,-2.845651,-0.209440,0.008433,0.029257,-0.032309,-0.001937,-0.209445,-0.000000,0.000000,0.000000,-0.000000,-0.000000,-0.000000,-0.012650,0.644557,0.775269,-0.000343,0.999915,0.011129,0.006733
10.100000,-4.436538,-1.464381,-1.498088,-1.732026,1.551223,-2.866596,-0.209440,0.008433,0.029257,-0.032309,-0.001937,-0.209445,-0.000000,0.000000,0.000000,-0.000000,-0.000000,-0.000000,0.001100,0.643886,0.777401,-0.000340,0.999912,0.011270,0.006984
10.200000,-4.457482,-1.463538,-1.495163,-1.735257,1.551030,-2.887540,-0.209440,0.008433,0.029257,-0.032309,-0.001937,-0.209445,-0.000000,0.000000,0.000000,-0.000000,-0.000000,-0.000000,0.014818,0.642915,0.779531,-0.000336,0.999909,0.011406,0.007245
10.300000,-4.478426,-1.462695,-1.492237,-1.738488,1.550836,-2.908485,-0.209440,0.008433,0.029257,-0.032309,-0.001937,-0.209445,-0.000000,0.000000,0.000000,-0.000000,-0.000000,-0.000000,0.028498,0.641644,0.781659,-0.000333,0.999905,0.011536,0.007514
10.400000,-4.499370,-1.461851,-1.489311,-1.741719,1.550642,-2.929429,-0.209440,0.008433,0.029257,-0.032309,-0.001937,-0.209445,-0.000000,0.000000,0.000000,-0.000000,-0.000000,-0.000000,0.042132,0.640074,0.783785,-0.000330,0.999902,0.011660,0.007792
10.500000,-4.520314,-1.461008,-1.486386,-1.744950,1.550449,-2.950374,-0.209440,0.008433,0.029257,-0.032309,-0.001937,-0.209445,-0.000000,0.000000,0.000000,-0.000000,-0.000000,-0.000000,0.055714,0.638208,0.785909,-0.000326,0.999898,0.011776,0.008078
10.600000,-4.541258,-1.460165,-1.483460,-1.748181,1.550255,-2.971318,-0.209440,0.008433,0.029257,-0.032309,-0.001937,-0.209445,-0.000000,0.000000,0.000000,-0.000000,-0.000000,-0.000000,0.069239,0.636046,0.788031,-0.000323,0.999894,0.011886,0.008373
10.700000,-4.562202,-1.459322,-1.480534,-1.751412,1.550061,-2.992263,-0.209440,0.008433,0.029257,-0.032309,-0.001937,-0.209445,-0.000000,0.000000,0.000000,-0.000000,-0.000000,-0.000000,0.082698,0.633590,0.790151,-0.000319,0.999890,0.011989,0.008675
10.800000,-4.583146,-1.458478,-1.477609,-1.754643,1.549867,-3.013207,-0.209440,0.008433,0.029257,-0.032309,-0.001937,-0.209445,-0.000000,0.000000,0.000000,-0.000000,-0.000000,-0.000000,0.096085,0.630842,0.792270,-0.000316,0.999887,0.012083,0.008986
10.900000,-4.604090,-1.457635,-1.474683,-1.757874,1.549674,-3.034152,-0.209440,0.008433,0.029257,-0.032309,-0.001937,-0.209445,-0.000000,0.000000,0.000000,-0.000000,-0.000000,-0.000000,0.109395,0.627803,0.794386,-0.000312,0.999883,0.012170,0.009304
11.000000,-4.625034,-1.456792,-1.471757,-1.761104,1.549480,-3.055096,-0.209440,0.008433,0.029257,-0.032309,-0.001937,-0.209445,-0.000000,0.000000,0.000000,-0.000000,-0.000000,-0.000000,0.122620,0.624476,0.796500,-0.000308,0.999879,0.012249,0.009630
11.100000,-4.645977,-1.455949,-1.468831,-1.764335,1.549286,-3.076041,-0.209440,0.008433,0.029257,-0.032309,-0.001937,-0.209445,-0.000000,0.000000,0.000000,-0.000000,-0.000000,-0.000000,0.135754,0.620863,0.798612,-0.000305,0.999874,0.012320,0.009963
11.200000,-4.666921,-1.455105,-1.465906,-1.767566,1.549093,-3.096985,-0.209440,0.008433,0.029257,-0.032309,-0.001937,-0.209445,-0.000000,0.000000,0.000000,-0.000000,-0.000000,-0.000000,0.148791,0.616966,0.800722,-0.000301,0.999870,0.012381,0.010304
11.300000,-4.687865,-1.454262,-1.462980,-1.770797,1.548899,-3.117930,-0.209440,0.008433,0.029257,-0.032309,-0.001937,-0.209445,-0.000000,0.000000,0.000000,-0.000000,-0.000000,-0.000000,0.161724,0.612789,0.802829,-0.000297,0.999866,0.012434,0.010651
11.400000,-4.708809,-1.453419,-1.460054,-1.774028,1.548705,-3.138874,-0.209440,0.008433,0.029257,-0.032309,-0.001937,-0.209445,-0.000000,0.000000,0.000000,-0.000000,-0.000000,-0.000000,0.174548,0.608332,0.804935,-0.000293,0.999862,0.012477,0.011005
11.500000,-4.729753,-1.452576,-1.457129,-1.777259,1.548512,-3.159819,-0.209440,0.008433,0.029257,-0.032309,-0.001937,-0.209445,-0.000000,0.000000,0.000000,-0.000000,-0.000000,-0.000000,0.187256,0.603600,0.807038,-0.000289,0.999857,0.012511,0.011366
11.600000,-4.750697,-1.451732,-1.454203,-1.780490,1.548318,-3.180763,-0.209440,0.008433,0.029257,-0.032309,-0.001937,-0.209445,-0.000000,0.000000,0.000000,-0.000000,-0.000000,-0.000000,0.199842,0.598595,0.809139,-0.000285,0.999853,0.012536,0.011732
11.700000,-4.769556,-1.450973,-1.451569,-1.783399,1.548143,-3.199623,-0.163496,0.006583,0.022839,-0.025222,-0.001512,-0.163500,0.499987,-0.020131,-0.069844,0.077131,0.004624,0.500000,0.211065,0.593857,0.811029,-0.000282,0.999848,0.012549,0.012068
11.800000,-4.783434,-1.450414,-1.449630,-1.785540,1.548015,-3.213501,-0.113497,0.004570,0.015855,-0.017509,-0.001050,-0.113500,0.499987,-0.020131,-0.069844,0.077131,0.004624,0.500000,0.219256,0.590232,0.812418,-0.000279,0.999845,0.012553,0.012317
11.900000,-4.792312,-1.450057,-1.448390,-1.786910,1.547933,-3.222379,-0.063498,0.002557,0.008870,-0.009796,-0.000587,-0.063500,0.499987,-0.020131,-0.069844,0.077131,0.004624,0.500000,0.224464,0.587852,0.813307,-0.000277,0.999843,0.012554,0.012478
12.000000,-4.796190,-1.449901,-1.447848,-1.787508,1.547897,-3.226257,-0.013500,0.000544,0.001886,-0.002083,-0.000125,-0.013500,0.499987,-0.020131,-0.069844,0.077131,0.004624,0.500000,0.226731,0.586798,0.813695,-0.000276,0.999842,0.012554,0.012549
12.027563,-4.796380,-1.449893,-1.447821,-1.787537,1.547895,-3.226447,0.000000,-0.000000,-0.000000,0.000000,0.000000,0.000000,0.499987,-0.020131,-0.069844,0.077131,0.004624,0.500000,0.226842,0.586746,0.813714,-0.000276,0.999842,0.012554,0.012552
