mathias31415/motion_primitives_from_planned_trajectory/data/trajectory_20250626_095540_executed.csv
timestamp,shoulder_lift_joint_pos,elbow_joint_pos,wrist_1_joint_pos,wrist_2_joint_pos,wrist_3_joint_pos,shoulder_pan_joint_pos,shoulder_lift_joint_vel,elbow_joint_vel,wrist_1_joint_vel,wrist_2_joint_vel,wrist_3_joint_vel,shoulder_pan_joint_vel,shoulder_lift_joint_eff,elbow_joint_eff,wrist_1_joint_eff,wrist_2_joint_eff,wrist_3_joint_eff,shoulder_pan_joint_eff
1750924548.435214281,-1.382944841,-1.417576016,-1.913630328,1.553554458,-2.107821663,-3.677691619,0.000000000,0.000000000,0.000000000,0.000000000,0.000000000,0.000000000,2.070989042,4.064269329,0.302629255,-0.001423333,0.000000000,0.000000000
1750924548.443818331,-1.382944841,-1.417576016,-1.913630328,1.553554458,-2.107821663,-3.677691619,0.000000000,0.000000000,0.000000000,0.000000000,0.000000000,0.000000000,2.070989042,4.064269329,0.302629255,-0.001423333,0.000000000,0.000000000
1750924548.444259167,-1.382944841,-1.417576016,-1.913630328,1.553554458,-2.107821663,-3.677691619,0.000000000,0.000000000,0.000000000,0.000000000,0.000000000,0.000000000,2.070989042,4.064269329,0.302629255,-0.001423333,0.000000000,0.000000000
1750924548.444281340,-1.382944841,-1.417576016,-1.913630328,1.553554458,-2.107821663,-3.677691619,0.000000000,0.000000000,0.000000000,0.000000000,0.000000000,0.000000000,2.070989042,4.064269329,0.302629255,-0.001423333,0.000000000,0.000000000
1750924548.446373463,-1.382944841,-1.417576016,-1.913630328,1.553554458,-2.107821663,-3.677691619,0.000000000,0.000000000,0.000000000,0.000000000,0.000000000,0.000000000,2.070989042,4.064269329,0.302629255,-0.001423333,0.000000000,0.000000000
1750924548.450475454,-1.382944841,-1.417576016,-1.913630328,1.553554458,-2.107821663,-3.677691619,0.000000000,0.000000000,0.000000000,0.000000000,0.000000000,0.000000000,2.070989042,4.064269329,0.302629255,-0.001423333,0.000000000,0.000000000
1750924548.450525284,-1.382944841,-1.417576016,-1.913630328,1.553554458,-2.107821663,-3.677691619,0.000000000,0.000000000,0.000000000,0.000000000,0.000000000,0.000000000,2.070989042,4.064269329,0.302629255,-0.001423333,0.000000000,0.000000000
1750924548.451992512,-1.382944841,-1.417576016,-1.913630328,1.553554458,-2.107821663,-3.677691619,0.000000000,0.000000000,0.000000000,0.000000000,0.000000000,0.000000000,2.070989042,4.064269329,0.302629255,-0.001423333,0.000000000,0.000000000
1750924548.454056501,-1.382944841,-1.417576016,-1.913630328,1.553554458,-2.107821663,-3.677691619,0.000000000,0.000000000,0.000000000,0.000000000,0.000000000,0.000000000,2.070989042,4.064269329,0.302629255,-0.001423333,0.000000000,0.000000000
1750924548.455995083,-1.382944841,-1.417576016,-1.913630328,1.553554458,-2.107821663,-3.677691619,0.000000000,0.000000000,0.000000000,0.000000000,0.000000000,0.000000000,2.070989042,4.064269329,0.302629255,-0.001423333,0.000000000,0.000000000
1750924548.457598448,-1.382944841,-1.417576016,-1.913630328,1.553554458,-2.107821663,-3.677691619,0.000000000,0.000000000,0.000000000,0.000000000,0.000000000,0.000000000,2.070989042,4.064269329,0.302629255,-0.001423333,0.000000000,0.000000000
1750924548.459247828,-1.382944841,-1.417576016,-1.913630328,1.553554458,-2.107821663,-3.677691619,0.000000000,0.000000000,0.000000000,0.000000000,0.000000000,0.000000000,2.070989042,4.064269329,0.302629255,-0.001423333,0.000000000,0.000000000
1750924548.461155415,-1.382944841,-1.417576016,-1.913630328,1.553554458,-2.107821663,-3.677691619,0.000000000,0.000000000,0.000000000,0.000000000,0.000000000,0.000000000,2.070989042,4.064269329,0.302629255,-0.001423333,0.000000000,0.000000000
1750924548.463328362,-1.382944841,-1.417576016,-1.913630328,1.553554458,-2.107821663,-3.677691619,0.000000000,0.000000000,0.000000000,0.000000000,0.000000000,0.000000000,2.070989042,4.064269329,0.302629255,-0.001423333,0.000000000,0.000000000
1750924548.465245008,-1.382944841,-1.417576016,-1.913630328,1.553554458,-2.107821663,-3.677691619,0.000000000,0.000000000,0.000000000,0.000000000,0.000000000,0.000000000,2.070989042,4.064269329,0.302629255,-0.001423333,0.000000000,0.000000000
1750924548.468055725,-1.382944841,-1.417576016,-1.913630328,1.553554458,-2.107821663,-3.677691619,0.000000000,0.000000000,0.000000000,0.000000000,0.000000000,0.000000000,2.070989042,4.064269329,0.302629255,-0.001423333,0.000000000,0.000000000
1750924548.469194412,-1.382944841,-1.417576016,-1.913630328,1.553554458,-2.107821663,-3.677691619,0.000000000,0.000000000,0.000000000,0.000000000,0.000000000,0.000000000,2.070989042,4.064269329,0.302629255,-0.001423333,0.000000000,0.000000000
1750924548.471225500,-1.382944841,-1.417576016,-1.913630328,1.553554458,-2.107821663,-3.677691619,0.000000000,0.000000000,0.000000000,0.000000000,0.000000000,0.000000000,2.070989042,4.064269329,0.302629255,-0.001423333,0.000000000,0.000000000
1750924548.473197937,-1.382944841,-1.417576016,-1.913630328,1.553554458,-2.107821663,-3.677691619,0.000000000,0.000000000,0.000000000,0.000000000,0.000000000,0.000000000,2.070989042,4.064269329,0.302629255,-0.001423333,0.000000000,0.000000000
1750924548.475154161,-1.382944841,-1.417576016,-1.913630328,1.553554458,-2.107821663,-3.677691619,0.000000000,0.000000000,0.000000000,0.000000000,0.000000000,0.000000000,2.070989042,4.064269329,0.302629255,-0.001423333,0.000000000,0.000000000
1750924548.477090836,-1.382944841,-1.417576016,-1.913630328,1.553554458,-2.107821663,-3.677691619,0.000000000,0.000000000,0.000000000,0.000000000,0.000000000,0.000000000,2.070989042,4.064269329,0.302629255,-0.001423333,0.000000000,0.000000000
1750924548.479016781,-1.382944841,-1.417576016,-1.913630328,1.553554458,-2.107821663,-3.677691619,0.000000000,0.000000000,0.000000000,0.000000000,0.000000000,0.000000000,2.070989042,4.064269329,0.302629255,-0.001423333,0.000000000,0.000000000
1750924548.481126308,-1.382944841,-1.417576016,-1.913630328,1.553554458,-2.107821663,-3.677691619,0.000000000,0.000000000,0.000000000,0.000000000,0.000000000,0.000000000,2.070989042,4.064269329,0.302629255,-0.001423333,0.000000000,0.000000000
1750924548.483155727,-1.382944841,-1.417576016,-1.913630328,1.553554458,-2.107821663,-3.677691619,0.000000000,0.000000000,0.000000000,0.000000000,0.000000000,0.000000000,2.070989042,4.064269329,0.302629255,-0.001423333,0.000000000,0.000000000
1750924548.485390663,-1.382944841,-1.417576016,-1.913630328,1.553554458,-2.107821663,-3.677691619,0.000000000,0.000000000,0.000000000,0.000000000,0.000000000,0.000000000,2.070989042,4.064269329,0.302629255,-0.001423333,0.000000000,0.000000000
1750924548.487272978,-1.382944841,-1.417576016,-1.913630328,1.553554458,-2.107821663,-3.677691619,0.000000000,0.000000000,0.000000000,0.000000000,0.000000000,0.000000000,2.070989042,4.064269329,0.302629255,-0.001423333,0.000000000,0.000000000
1750924548.489512920,-1.382944841,-1.417576016,-1.913630328,1.553554458,-2.107821663,-3.677691619,0.000000000,0.000000000,0.000000000,0.000000000,0.000000000,0.000000000,2.070989042,4.064269329,0.302629255,-0.001423333,0.000000000,0.000000000
1750924548.491656303,-1.382944841,-1.417576016,-1.913630328,1.553554458,-2.107821663,-3.677691619,0.000000000,0.000000000,0.000000000,0.000000000,0.000000000,0.000000000,2.070989042,4.064269329,0.302629255,-0.001423333,0.000000000,0.000000000
1750924548.493273497,-1.382944841,-1.417576016,-1.913630328,1.553554458,-2.107821663,-3.677691619,0.000000000,0.000000000,0.000000000,0.000000000,0.000000000,0.000000000,2.070989042,4.064269329,0.302629255,-0.001423333,0.000000000,0.000000000
1750924548.495341539,-1.382944841,-1.417576016,-1.913630328,1.553554458,-2.107821663,-3.677691619,0.000000000,0.000000000,0.000000000,0.000000000,0.000000000,0.000000000,2.070989042,4.064269329,0.302629255,-0.001423333,0.000000000,0.000000000
1750924548.497704268,-1.382944841,-1.417576016,-1.913630328,1.553554458,-2.107821663,-3.677691619,0.000000000,0.000000000,0.000000000,0.000000000,0.000000000,0.000000000,2.070989042,4.064269329,0.302629255,-0.001423333,0.000000000,0.000000000
1750924548.500021458,-1.382944841,-1.417576016,-1.913630328,1.553554458,-2.107821663,-3.677691619,0.000000000,0.000000000,0.000000000,0.000000000,0.000000000,0.000000000,2.070989042,4.064269329,0.302629255,-0.001423333,0.000000000,0.000000000
1750924548.501276731,-1.382944841,-1.417576016,-1.913630328,1.553554458,-2.107821663,-3.677691619,0.000000000,0.000000000,0.000000000,0.000000000,0.000000000,0.000000000,2.070989042,4.064269329,0.302629255,-0.001423333,0.000000000,0.000000000
1750924548.503215551,-1.382944522,-1.417575695,-1.913630935,1.553554435,-2.107823071,-3.677693027,0.000319460,0.000320480,-0.000607092,-0.000023169,-0.001408008,-0.001407798,2.367100667,4.191210359,0.287970398,-0.005293739,-0.039664052,-0.499551712
1750924548.505165577,-1.382943564,-1.417574734,-1.913632756,1.553554365,-2.107827295,-3.677697250,0.000638903,0.000640974,-0.001214181,-0.000046338,-0.002816031,-0.002815609,2.367086709,4.191209191,0.287970472,-0.005293730,-0.039664435,-0.499554690
1750924548.507244587,-1.382941966,-1.417573131,-1.913635792,1.553554249,-2.107834335,-3.677704289,0.000958314,0.000961496,-0.001821265,-0.000069506,-0.004224080,-0.004223447,2.367061158,4.191207583,0.287970635,-0.005293722,-0.039665200,-0.499560939
1750924548.513314962,-1.382939730,-1.417570888,-1.913640041,1.553554087,-2.107844192,-3.677714144,0.001277677,0.001282061,-0.002428341,-0.000092673,-0.005632170,-0.005631326,2.367024015,4.191205534,0.287970886,-0.005293714,-0.039666349,-0.499570460
1750924548.513369322,-1.382936856,-1.417568003,-1.913645505,1.553553879,-2.107856864,-3.677726814,0.001596975,0.001602682,-0.003035407,-0.000115839,-0.007040314,-0.007039260,2.366975280,4.191203045,0.287971227,-0.005293708,-0.039667879,-0.499583253
1750924548.515283823,-1.382933343,-1.417564477,-1.913652183,1.553553624,-2.107872353,-3.677742301,0.001916193,0.001923374,-0.003642460,-0.000139004,-0.008448526,-0.008447261,2.366914954,4.191200115,0.287971656,-0.005293703,-0.039669793,-0.499599317
1750924548.519196510,-1.382929191,-1.417560309,-1.913660075,1.553553323,-2.107890658,-3.677760604,0.002235314,0.002244150,-0.004249497,-0.000162166,-0.009856820,-0.009855344,2.366843038,4.191196744,0.287972175,-0.005293699,-0.039672089,-0.499618653
1750924548.519638538,-1.382924401,-1.417555500,-1.913669181,1.553552975,-2.107911780,-3.677781722,0.002554322,0.002565026,-0.004856516,-0.000185326,-0.011265209,-0.011263522,2.366759532,4.191192933,0.287972782,-0.005293696,-0.039674768,-0.499641260
1750924548.521138668,-1.382918974,-1.417550049,-1.913679501,1.553552581,-2.107935719,-3.677805658,0.002873201,0.002886014,-0.005463514,-0.000208483,-0.012673707,-0.012671808,2.366664437,4.191188680,0.287973479,-0.005293693,-0.039677830,-0.499667137
1750924548.523229361,-1.382912909,-1.417543956,-1.913691035,1.553552141,-2.107962475,-3.677832410,0.003191935,0.003207129,-0.006070488,-0.000231638,-0.014082326,-0.014080217,2.366557755,4.191183986,0.287974264,-0.005293692,-0.039681274,-0.499696286
1750924548.525180101,-1.382906206,-1.417537221,-1.913703783,1.553551655,-2.107992048,-3.677861979,0.003510508,0.003528386,-0.006677436,-0.000254789,-0.015491082,-0.015488761,2.366439487,4.191178850,0.287975139,-0.005293692,-0.039685101,-0.499728705
1750924548.527117014,-1.382898867,-1.417529843,-1.913717745,1.553551122,-2.108024439,-3.677894365,0.003828903,0.003849797,-0.007284356,-0.000277937,-0.016899987,-0.016897454,2.366309633,4.191173272,0.287976103,-0.005293693,-0.039689310,-0.499764394
1750924548.529251575,-1.382890891,-1.417521821,-1.913732920,1.553550543,-2.108059649,-3.677929569,0.004147105,0.004171379,-0.007891244,-0.000301080,-0.018309055,-0.018306311,2.366168197,4.191167253,0.287977157,-0.005293694,-0.039693902,-0.499803354
1750924548.531058073,-1.382882278,-1.417513157,-1.913749310,1.553549918,-2.108097676,-3.677967590,0.004465097,0.004493143,-0.008498098,-0.000324220,-0.019718300,-0.019715344,2.366015178,4.191160791,0.287978299,-0.005293697,-0.039698876,-0.499845582
1750924548.534673929,-1.382873030,-1.417503849,-1.913766913,1.553549246,-2.108138522,-3.678008430,0.004782864,0.004815106,-0.009104916,-0.000347355,-0.021127735,-0.021124567,2.365850579,4.191153886,0.287979532,-0.005293701,-0.039704233,-0.499891080
1750924548.535122156,-1.382863147,-1.417493896,-1.913785729,1.553548528,-2.108182187,-3.678052089,0.005100388,0.005137280,-0.009711694,-0.000370485,-0.022537373,-0.022533993,2.365674403,4.191146539,0.287980853,-0.005293705,-0.039709972,-0.499939846
1750924548.537323475,-1.382852629,-1.417483299,-1.913805759,1.553547764,-2.108228671,-3.678098566,0.005417654,0.005459680,-0.010318430,-0.000393610,-0.023947229,-0.023943637,2.365486649,4.191138748,0.287982265,-0.005293711,-0.039716094,-0.499991881
1750924548.539119720,-1.382841477,-1.417472057,-1.913827003,1.553546954,-2.108277976,-3.678147863,0.005734646,0.005782320,-0.010925122,-0.000416729,-0.025357316,-0.025353511,2.365287322,4.191130513,0.287983766,-0.005293717,-0.039722598,-0.500047184
1750924548.541256666,-1.382829691,-1.417460170,-1.913849460,1.553546097,-2.108330101,-3.678199980,0.006051348,0.006105214,-0.011531767,-0.000439842,-0.026767647,-0.026763630,2.365076423,4.191121834,0.287985357,-0.005293724,-0.039729484,-0.500105753
1750924548.543090105,-1.382817272,-1.417447636,-1.913873130,1.553545194,-2.108385047,-3.678254918,0.006367743,0.006428376,-0.012138362,-0.000462949,-0.028178236,-0.028174007,2.364853954,4.191112711,0.287987038,-0.005293732,-0.039736753,-0.500167589
1750924548.545105696,-1.382804220,-1.417434456,-1.913898013,1.553544245,-2.108442814,-3.678312677,0.006683816,0.006751821,-0.012744905,-0.000486050,-0.029589097,-0.029584654,2.364619917,4.191103142,0.287988809,-0.005293742,-0.039744403,-0.500232692
1750924548.547666550,-1.382790537,-1.417420629,-1.913924110,1.553543250,-2.108503403,-3.678373257,0.006999549,0.007075562,-0.013351392,-0.000509143,-0.031000243,-0.030995587,2.364374317,4.191093128,0.287990670,-0.005293752,-0.039752436,-0.500301059
1750924548.549121857,-1.382776222,-1.417406154,-1.913951419,1.553542209,-2.108566815,-3.678436659,0.007314928,0.007399614,-0.013957822,-0.000532230,-0.032411688,-0.032406819,2.364117154,4.191082668,0.287992621,-0.005293762,-0.039760851,-0.500372692
1750924548.551173449,-1.382761277,-1.417391030,-1.913979941,1.553541121,-2.108633050,-3.678502884,0.007629935,0.007723991,-0.014564191,-0.000555309,-0.033823445,-0.033818362,2.363848433,4.191071761,0.287994663,-0.005293774,-0.039769648,-0.500447589
1750924548.553195238,-1.382761277,-1.417391030,-1.913979941,1.553541121,-2.108633050,-3.678502884,0.007629935,0.007723991,-0.014564191,-0.000555309,-0.033823445,-0.033818362,2.363848433,4.191071761,0.287994663,-0.005293774,-0.039769648,-0.500447589
1750924548.555256128,-1.382745703,-1.417375258,-1.914009675,1.553539988,-2.108702109,-3.678571933,0.007944555,0.008048706,-0.015170497,-0.000578380,-0.035235528,-0.035230231,2.363568155,4.191060407,0.287996796,-0.005293786,-0.039778827,-0.500525749
1750924548.557265759,-1.382729499,-1.417358835,-1.914040623,1.553538808,-2.108773993,-3.678643805,0.008258772,0.008373774,-0.015776737,-0.000601443,-0.036647950,-0.036642439,2.363276325,4.191048605,0.287999019,-0.005293800,-0.039788388,-0.500607171
1750924548.559112310,-1.382712668,-1.417341762,-1.914072782,1.553537582,-2.108848701,-3.678718503,0.008572568,0.008699209,-0.016382909,-0.000624497,-0.038060725,-0.038055000,2.362972945,4.191036355,0.288001333,-0.005293814,-0.039798330,-0.500691856
1750924548.561143637,-1.382695209,-1.417324038,-1.914106154,1.553536310,-2.108926236,-3.678796026,0.008885929,0.009025025,-0.016989010,-0.000647543,-0.039473867,-0.039467927,2.362658018,4.191023656,0.288003739,-0.005293829,-0.039808654,-0.500779801
1750924548.563041210,-1.382677124,-1.417305662,-1.914140738,1.553534992,-2.109006597,-3.678876375,0.009198838,0.009351237,-0.017595037,-0.000670579,-0.040887388,-0.040881233,2.362331549,4.191010507,0.288006235,-0.005293844,-0.039819360,-0.500871007
1750924548.565053701,-1.382658414,-1.417286633,-1.914176534,1.553533627,-2.109089786,-3.678959551,0.009511279,0.009677858,-0.018200988,-0.000693606,-0.042301303,-0.042294933,2.361993540,4.190996908,0.288008823,-0.005293861,-0.039830448,-0.500965472
1750924548.567004681,-1.382639079,-1.417266950,-1.914213542,1.553532217,-2.109175802,-3.679045555,0.009823235,0.010004902,-0.018806859,-0.000716622,-0.043715626,-0.043709040,2.361643995,4.190982857,0.288011503,-0.005293878,-0.039841916,-0.501063195
1750924548.575742483,-1.382619121,-1.417246613,-1.914251762,1.553530761,-2.109264648,-3.679134387,0.010134690,0.010332383,-0.019412648,-0.000739629,-0.045130369,-0.045123568,2.361282919,4.190968355,0.288014274,-0.005293896,-0.039853767,-0.501164176
1750924548.575863600,-1.382577339,-1.417203971,-1.914331835,1.553527711,-2.109450831,-3.679320542,0.010756034,0.010988716,-0.020623971,-0.000785610,-0.047961171,-0.047953937,2.360526188,4.190937992,0.288020092,-0.005293933,-0.039878611,-0.501375905
1750924548.575881243,-1.382555517,-1.417181665,-1.914373689,1.553526116,-2.109548169,-3.679417865,0.011065890,0.011317595,-0.021229498,-0.000808584,-0.049377257,-0.049369806,2.360130541,4.190922129,0.288023140,-0.005293953,-0.039891605,-0.501486652
1750924548.577287197,-1.382533076,-1.417158701,-1.914416753,1.553524476,-2.109648340,-3.679518021,0.011375180,0.011646968,-0.021834933,-0.000831547,-0.050793818,-0.050786150,2.359723379,4.190905812,0.288026280,-0.005293974,-0.039904980,-0.501600651
1750924548.579205513,-1.382510017,-1.417135077,-1.914461028,1.553522790,-2.109751345,-3.679621010,0.011683889,0.011976849,-0.022440272,-0.000854497,-0.052210868,-0.052202982,2.359304706,4.190889038,0.288029513,-0.005293995,-0.039918735,-0.501717903
1750924548.581000805,-1.382486341,-1.417110793,-1.914506514,1.553521058,-2.109857184,-3.679726834,0.011991999,0.012307252,-0.023045513,-0.000877435,-0.053628419,-0.053620315,2.358874528,4.190871808,0.288032839,-0.005294016,-0.039932872,-0.501838406
1750924548.583001852,-1.382462049,-1.417085848,-1.914553210,1.553519280,-2.109965859,-3.679835492,0.012299496,0.012638191,-0.023650652,-0.000900361,-0.055046485,-0.055038164,2.358432848,4.190854121,0.288036258,-0.005294038,-0.039947389,-0.501962158
1750924548.585042477,-1.382437143,-1.417060240,-1.914601117,1.553517457,-2.110077370,-3.679946987,0.012606362,0.012969681,-0.024255688,-0.000923274,-0.056465081,-0.056456540,2.357979672,4.190835974,0.288039771,-0.005294061,-0.039962287,-0.502089158
1750924548.587011576,-1.382411624,-1.417033969,-1.914650233,1.553515587,-2.110191719,-3.680061318,0.012912581,0.013301735,-0.024860618,-0.000946173,-0.057884218,-0.057875459,2.357515004,4.190817368,0.288043377,-0.005294084,-0.039977565,-0.502219406
1750924548.588994980,-1.382385494,-1.417007033,-1.914700559,1.553513672,-2.110308908,-3.680178489,0.013218136,0.013634368,-0.025465438,-0.000969059,-0.059303912,-0.059294933,2.357038850,4.190798302,0.288047078,-0.005294108,-0.039993223,-0.502352899
1750924548.591085672,-1.382358752,-1.416979431,-1.914752095,1.553511711,-2.110428936,-3.680298499,0.013523013,0.013967593,-0.026070146,-0.000991931,-0.060724175,-0.060714976,2.356551215,4.190778774,0.288050872,-0.005294132,-0.040009262,-0.502489637
1750924548.593085289,-1.382358752,-1.416979431,-1.914752095,1.553511711,-2.110428936,-3.680298499,0.013523013,0.013967593,-0.026070146,-0.000991931,-0.060724175,-0.060714976,2.356551215,4.190778774,0.288050872,-0.005294132,-0.040009262,-0.502489637
1750924548.595322609,-1.382331402,-1.416951162,-1.914804840,1.553509704,-2.110551805,-3.680421349,0.013827194,0.014301425,-0.026674739,-0.001014789,-0.062145020,-0.062135601,2.356052104,4.190758783,0.288054761,-0.005294156,-0.040025681,-0.502629617
1750924548.598120451,-1.382303444,-1.416922225,-1.914858793,1.553507652,-2.110677516,-3.680547041,0.014130663,0.014635877,-0.027279214,-0.001037632,-0.063566462,-0.063556822,2.355541523,4.190738329,0.288058744,-0.005294181,-0.040042479,-0.502772839
1750924548.599054575,-1.382274880,-1.416892618,-1.914913956,1.553505554,-2.110806071,-3.680675577,0.014433404,0.014970965,-0.027883568,-0.001060460,-0.064988514,-0.064978653,2.355019478,4.190717411,0.288062823,-0.005294206,-0.040059658,-0.502919301
1750924548.601069212,-1.382245711,-1.416862340,-1.914970328,1.553503410,-2.110937470,-3.680806956,0.014735400,0.015306702,-0.028487800,-0.001083273,-0.066411189,-0.066401106,2.354485974,4.190696026,0.288066996,-0.005294232,-0.040077216,-0.503069001
1750924548.603117228,-1.382215939,-1.416831391,-1.915027907,1.553501221,-2.111071716,-3.680941182,0.015036636,0.015643101,-0.029091905,-0.001106070,-0.067834501,-0.067824196,2.353941017,4.190674175,0.288071265,-0.005294257,-0.040095153,-0.503221938
1750924548.605209827,-1.382185565,-1.416799767,-1.915086695,1.553498986,-2.111208809,-3.681078254,0.015337094,0.015980178,-0.029695881,-0.001128851,-0.069258463,-0.069247935,2.353384613,4.190651855,0.288075630,-0.005294284,-0.040113470,-0.503378111
1750924548.607106447,-1.382154591,-1.416767469,-1.915146691,1.553496705,-2.111348750,-3.681218174,0.015636759,0.016317946,-0.030299725,-0.001151615,-0.070683089,-0.070672338,2.352816768,4.190629067,0.288080091,-0.005294310,-0.040132166,-0.503537516
1750924548.609075308,-1.382123018,-1.416734495,-1.915207894,1.553494379,-2.111491542,-3.681360943,0.015935615,0.016656419,-0.030903434,-0.001174363,-0.072108392,-0.072097417,2.352237489,4.190605808,0.288084648,-0.005294336,-0.040151241,-0.503700154
1750924548.611059427,-1.382090849,-1.416700843,-1.915270304,1.553492008,-2.111637184,-3.681506564,0.016233644,0.016995612,-0.031507006,-0.001197094,-0.073534385,-0.073523186,2.351646782,4.190582077,0.288089302,-0.005294363,-0.040170695,-0.503866022
1750924548.613071203,-1.382058084,-1.416666512,-1.915333922,1.553489591,-2.111785680,-3.681655037,0.016530830,0.017335538,-0.032110437,-0.001219807,-0.074961083,-0.074949659,2.351044653,4.190557874,0.288094053,-0.005294390,-0.040190528,-0.504035118
1750924548.615107298,-1.382024726,-1.416631501,-1.915398746,1.553487129,-2.111937029,-3.681806363,0.016827158,0.017676211,-0.032713725,-0.001242502,-0.076388498,-0.076376849,2.350431109,4.190533197,0.288098901,-0.005294417,-0.040210739,-0.504207440
1750924548.617032528,-1.381990776,-1.416595807,-1.915464777,1.553484621,-2.112091234,-3.681960545,0.017122610,0.018017647,-0.033316867,-0.001265180,-0.077816644,-0.077804769,2.349806158,4.190508044,0.288103847,-0.005294444,-0.040231329,-0.504382987
1750924548.619185925,-1.381956236,-1.416559429,-1.915532014,1.553482068,-2.112248296,-3.682117583,0.017417171,0.018359858,-0.033919859,-0.001287839,-0.079245534,-0.079233433,2.349169805,4.190482414,0.288108891,-0.005294471,-0.040252296,-0.504561756
1750924548.621258736,-1.381921108,-1.416522367,-1.915600456,1.553479470,-2.112408217,-3.682277479,0.017710824,0.018702858,-0.034522699,-0.001310478,-0.080675182,-0.080662854,2.348522059,4.190456307,0.288114033,-0.005294498,-0.040273642,-0.504743746
1750924548.623080015,-1.381885394,-1.416484618,-1.915670104,1.553476826,-2.112570998,-3.682440235,0.018003553,0.019046663,-0.035125384,-0.001333099,-0.082105601,-0.082093045,2.347862925,4.190429720,0.288119273,-0.005294524,-0.040295365,-0.504928954
1750924548.628632784,-1.381885394,-1.416484618,-1.915670104,1.553476826,-2.112570998,-3.682440235,0.018003553,0.019046663,-0.035125384,-0.001333099,-0.082105601,-0.082093045,2.347862925,4.190429720,0.288119273,-0.005294524,-0.040295365,-0.504928954
1750924548.628754377,-1.381849095,-1.416446180,-1.915740958,1.553474137,-2.112736640,-3.682605851,0.018295340,0.019391285,-0.035727911,-0.001355700,-0.083536804,-0.083524021,2.347192412,4.190402653,0.288124612,-0.005294551,-0.040317466,-0.505117379
1750924548.629338264,-1.381774751,-1.416367232,-1.915886279,1.553468624,-2.113076516,-3.682945675,0.018876027,0.020083040,-0.036932479,-0.001400842,-0.086401619,-0.086388377,2.345817278,4.190347070,0.288135589,-0.005294604,-0.040362801,-0.505503870
1750924548.631397724,-1.381736709,-1.416326719,-1.915960746,1.553465800,-2.113250752,-3.683119885,0.019164894,0.020430200,-0.037534514,-0.001423382,-0.087835257,-0.087821785,2.345112672,4.190318552,0.288141227,-0.005294631,-0.040386033,-0.505701931
1750924548.633450747,-1.381698092,-1.416285511,-1.916036416,1.553462931,-2.113427857,-3.683296963,0.019452754,0.020778235,-0.038136379,-0.001445901,-0.089269732,-0.089256030,2.344396717,4.190289548,0.288146965,-0.005294657,-0.040409643,-0.505903200
1750924548.635118961,-1.381658899,-1.416243606,-1.916113291,1.553460016,-2.113607832,-3.683476910,0.019739591,0.021127157,-0.038738071,-0.001468399,-0.090705059,-0.090691126,2.343669421,4.190260055,0.288152804,-0.005294683,-0.040433629,-0.506107674
1750924548.637102604,-1.381619134,-1.416201002,-1.916191369,1.553457057,-2.113790678,-3.683659728,0.020025389,0.021476983,-0.039339587,-0.001490875,-0.092141251,-0.092127086,2.342930793,4.190230074,0.288158744,-0.005294708,-0.040457991,-0.506315351
1750924548.639125347,-1.381578798,-1.416157697,-1.916270649,1.553454053,-2.113976397,-3.683845419,0.020310131,0.021827724,-0.039940924,-0.001513328,-0.093578322,-0.093563924,2.342180840,4.190199601,0.288164786,-0.005294733,-0.040482730,-0.506526228
1750924548.640968800,-1.381537894,-1.416113690,-1.916351132,1.553451004,-2.114164992,-3.684033984,0.020593800,0.022179396,-0.040542079,-0.001535760,-0.095016283,-0.095001653,2.341419572,4.190168636,0.288170929,-0.005294758,-0.040507844,-0.506740304
1750924548.642923355,-1.381496424,-1.416068979,-1.916432817,1.553447910,-2.114356463,-3.684225426,0.020876380,0.022532012,-0.041143049,-0.001558168,-0.096455150,-0.096440285,2.340646995,4.190137176,0.288177174,-0.005294782,-0.040533334,-0.506957575
1750924548.645065308,-1.381454389,-1.416023561,-1.916515704,1.553444771,-2.114550813,-3.684419746,0.021157855,0.022885586,-0.041743831,-0.001580553,-0.097894935,-0.097879835,2.339863120,4.190105221,0.288183522,-0.005294805,-0.040559199,-0.507178038
1750924548.647891521,-1.381411793,-1.415977436,-1.916599793,1.553441588,-2.114748043,-3.684616946,0.021438208,0.023240133,-0.042344421,-0.001602914,-0.099335651,-0.099320317,2.339067955,4.190072769,0.288189973,-0.005294828,-0.040585440,-0.507401692
1750924548.649579525,-1.381411793,-1.415977436,-1.916599793,1.553441588,-2.114748043,-3.684616946,0.021438208,0.023240133,-0.042344421,-0.001602914,-0.099335651,-0.099320317,2.339067955,4.190072769,0.288189973,-0.005294828,-0.040585440,-0.507401692
1750924548.651168346,-1.381368637,-1.415930600,-1.916685082,1.553438359,-2.114948156,-3.684817028,0.021717422,0.023595667,-0.042944817,-0.001625251,-0.100777312,-0.100761742,2.338261509,4.190039818,0.288196527,-0.005294851,-0.040612055,-0.507628533
1750924548.653137445,-1.381324924,-1.415883052,-1.916771572,1.553435087,-2.115151153,-3.685019994,0.021995481,0.023952201,-0.043545016,-0.001647564,-0.102219931,-0.102204124,2.337443791,4.190006366,0.288203185,-0.005294873,-0.040639046,-0.507858558
1750924548.655197620,-1.381280656,-1.415834791,-1.916859262,1.553431769,-2.115357037,-3.685225845,0.022272368,0.024309750,-0.044145013,-0.001669852,-0.103663521,-0.103647477,2.336614811,4.189972412,0.288209947,-0.005294894,-0.040666410,-0.508091766
1750924548.656939983,-1.381235836,-1.415785813,-1.916948152,1.553428407,-2.115565808,-3.685434584,0.022548068,0.024668328,-0.044744808,-0.001692115,-0.105108097,-0.105091814,2.335774577,4.189937954,0.288216814,-0.005294914,-0.040694149,-0.508328152
1750924548.659055948,-1.381190465,-1.415736117,-1.917038241,1.553425001,-2.115777470,-3.685646213,0.022822562,0.025027948,-0.045344395,-0.001714352,-0.106553670,-0.106537149,2.334923099,4.189902990,0.288223785,-0.005294934,-0.040722261,-0.508567715
1750924548.660892725,-1.381144546,-1.415685700,-1.917129529,1.553421550,-2.115992023,-3.685860733,0.023095835,0.025388625,-0.045943772,-0.001736564,-0.108000254,-0.107983493,2.334060387,4.189867519,0.288230862,-0.005294952,-0.040750747,-0.508810450
1750924548.663020611,-1.381098082,-1.415634561,-1.917222016,1.553418055,-2.116209471,-3.686078148,0.023367870,0.025750373,-0.046542936,-0.001758748,-0.109447863,-0.109430862,2.333186451,4.189831539,0.288238045,-0.005294970,-0.040779606,-0.509056355
1750924548.665166855,-1.381051075,-1.415582698,-1.917315701,1.553414515,-2.116429816,-3.686298458,0.023638651,0.026113206,-0.047141883,-0.001780907,-0.110896510,-0.110879267,2.332301300,4.189795047,0.288245334,-0.005294987,-0.040808839,-0.509305427
1750924548.666954517,-1.381003528,-1.415530108,-1.917410583,1.553410931,-2.116653058,-3.686521665,0.023908160,0.026477138,-0.047740611,-0.001803038,-0.112346207,-0.112328723,2.331404945,4.189758043,0.288252730,-0.005295003,-0.040838444,-0.509557662
1750924548.669188023,-1.380955444,-1.415476789,-1.917506663,1.553407303,-2.116879201,-3.686747773,0.024176381,0.026842182,-0.048339116,-0.001825142,-0.113796969,-0.113779241,2.330497395,4.189720524,0.288260233,-0.005295018,-0.040868421,-0.509813057
1750924548.671390057,-1.380906824,-1.415422738,-1.917603939,1.553403630,-2.117108247,-3.686976783,0.024443298,0.027208354,-0.048937395,-0.001847217,-0.115248807,-0.115230837,2.329578662,4.189682489,0.288267843,-0.005295031,-0.040898770,-0.510071610
1750924548.673067570,-1.380857671,-1.415367955,-1.917702412,1.553399914,-2.117340197,-3.687208697,0.024708893,0.027575666,-0.049535444,-0.001869265,-0.116701737,-0.116683522,2.328648755,4.189643935,0.288275562,-0.005295044,-0.040929491,-0.510333315
1750924548.675134897,-1.380807989,-1.415312435,-1.917802081,1.553396153,-2.117575054,-3.687443518,0.024973150,0.027944133,-0.050133260,-0.001891283,-0.118155770,-0.118137310,2.327707686,4.189604861,0.288283389,-0.005295055,-0.040960584,-0.510598171
1750924548.679136515,-1.380757780,-1.415256177,-1.917902945,1.553392349,-2.117812821,-3.687681247,0.025236053,0.028313770,-0.050730841,-0.001913273,-0.119610920,-0.119592214,2.326755465,4.189565265,0.288291324,-0.005295065,-0.040992047,-0.510866173
1750924548.680538416,-1.380707046,-1.415199179,-1.918005004,1.553388500,-2.118053499,-3.687921888,0.025497585,0.028684589,-0.051328182,-0.001935233,-0.121067200,-0.121048247,2.325792102,4.189525145,0.288299370,-0.005295073,-0.041023882,-0.511137319
1750924548.684142113,-1.380707046,-1.415199179,-1.918005004,1.553388500,-2.118053499,-3.687921888,0.025497585,0.028684589,-0.051328182,-0.001935233,-0.121067200,-0.121048247,2.325792102,4.189525145,0.288299370,-0.005295073,-0.041023882,-0.511137319
1750924548.684203863,-1.380655790,-1.415141438,-1.918108258,1.553384608,-2.118297090,-3.688165441,0.025757728,0.029056605,-0.051925281,-0.001957163,-0.122524624,-0.122505423,2.324817610,4.189484499,0.288307525,-0.005295081,-0.041056086,-0.511411603
1750924548.686919689,-1.380604016,-1.415082952,-1.918212705,1.553380672,-2.118543598,-3.688411910,0.026016466,0.029429833,-0.052522134,-0.001979063,-0.123983204,-0.123963754,2.323831999,4.189443325,0.288315790,-0.005295086,-0.041088661,-0.511689023
1750924548.687357664,-1.380551725,-1.415023718,-1.918318346,1.553376692,-2.118793024,-3.688661297,0.026273783,0.029804285,-0.053118737,-0.002000932,-0.125442953,-0.125423254,2.322835281,4.189401620,0.288324167,-0.005295091,-0.041121606,-0.511969574
1750924548.689137220,-1.380498922,-1.414963734,-1.918425180,1.553372668,-2.119045371,-3.688913604,0.026529662,0.030179977,-0.053715088,-0.002022771,-0.126903885,-0.126883935,2.321827466,4.189359384,0.288332654,-0.005295093,-0.041154919,-0.512253253
1750924548.691120625,-1.380445608,-1.414902997,-1.918533206,1.553368601,-2.119300640,-3.689168833,0.026784085,0.030556921,-0.054311183,-0.002044577,-0.128366012,-0.128345811,2.320808568,4.189316614,0.288341253,-0.005295094,-0.041188602,-0.512540056
1750924548.693052053,-1.380391786,-1.414841505,-1.918642425,1.553364490,-2.119558836,-3.689426988,0.027037036,0.030935133,-0.054907018,-0.002066352,-0.129829348,-0.129808895,2.319778597,4.189273307,0.288349965,-0.005295094,-0.041222653,-0.512829979
1750924548.694931984,-1.380337461,-1.414779256,-1.918752834,1.553360335,-2.119819959,-3.689688070,0.027288499,0.031314625,-0.055502591,-0.002088094,-0.131293907,-0.131273200,2.318737565,4.189229463,0.288358789,-0.005295091,-0.041257073,-0.513123017
1750924548.697264671,-1.380282633,-1.414716246,-1.918864435,1.553356137,-2.120084012,-3.689952081,0.027538456,0.031695413,-0.056097897,-0.002109803,-0.132759699,-0.132738739,2.317685485,4.189185078,0.288367727,-0.005295087,-0.041291860,-0.513419167
1750924548.699079990,-1.380227308,-1.414652473,-1.918977226,1.553351896,-2.120350998,-3.690219026,0.027786891,0.032077510,-0.056692933,-0.002131480,-0.134226740,-0.134205525,2.316622369,4.189140150,0.288376778,-0.005295081,-0.041327015,-0.513718424
1750924548.701101065,-1.380171487,-1.414587935,-1.919091206,1.553347611,-2.120620920,-3.690488904,0.028033786,0.032460929,-0.057287697,-0.002153122,-0.135695042,-0.135673571,2.315548229,4.189094678,0.288385944,-0.005295073,-0.041362536,-0.514020783
1750924548.704004049,-1.380115174,-1.414522629,-1.919206376,1.553343284,-2.120893779,-3.690761721,0.028279125,0.032845686,-0.057882183,-0.002174731,-0.137164618,-0.137142890,2.314463078,4.189048660,0.288395224,-0.005295062,-0.041398425,-0.514326241
1750924548.705285072,-1.380058371,-1.414456551,-1.919322735,1.553338913,-2.121169579,-3.691037477,0.028522891,0.033231794,-0.058476389,-0.002196305,-0.138635481,-0.138613494,2.313366928,4.189002093,0.288404620,-0.005295050,-0.041434679,-0.514634793
1750924548.707168818,-1.380001083,-1.414389701,-1.919440282,1.553334498,-2.121448322,-3.691316175,0.028765067,0.033619267,-0.059070312,-0.002217844,-0.140107644,-0.140085398,2.312259792,4.188954974,0.288414131,-0.005295036,-0.041471299,-0.514946434
1750924548.709107876,-1.379943312,-1.414322073,-1.919559016,1.553330041,-2.121730011,-3.691597819,0.029005637,0.034008119,-0.059663947,-0.002239348,-0.141581119,-0.141558614,2.311141684,4.188907303,0.288423759,-0.005295019,-0.041508284,-0.515261160
1750924548.711045980,-1.379885062,-1.414253667,-1.919678937,1.553325541,-2.122014647,-3.691882411,0.029244582,0.034398364,-0.060257292,-0.002260816,-0.143055921,-0.143033155,2.310012616,4.188859076,0.288433503,-0.005295000,-0.041545634,-0.515578965
1750924548.713146210,-1.379826335,-1.414184479,-1.919800045,1.553320998,-2.122302235,-3.692169953,0.029481887,0.034790016,-0.060850342,-0.002282248,-0.144532061,-0.144509033,2.308872601,4.188810291,0.288443365,-0.005294979,-0.041583349,-0.515899845
1750924548.715172291,-1.379767135,-1.414114506,-1.919922338,1.553316412,-2.122592777,-3.692460448,0.029717534,0.035183089,-0.061443094,-0.002303644,-0.146009553,-0.145986262,2.307721654,4.188760947,0.288453345,-0.005294955,-0.041621427,-0.516223795
1750924548.717083216,-1.379707466,-1.414043746,-1.920045817,1.553311783,-2.122886274,-3.692753899,0.029951506,0.035577596,-0.062035544,-0.002325002,-0.147488410,-0.147464855,2.306559787,4.188711040,0.288463443,-0.005294929,-0.041659869,-0.516550811
1750924548.718973160,-1.379647330,-1.413972195,-1.920170480,1.553307112,-2.123182731,-3.693050308,0.030183787,0.035973553,-0.062627689,-0.002346323,-0.148968644,-0.148944824,2.305387015,4.188660569,0.288473660,-0.005294900,-0.041698673,-0.516880886
1750924548.721208096,-1.379586732,-1.413899851,-1.920296328,1.553302398,-2.123482150,-3.693349679,0.030414358,0.036370973,-0.063219526,-0.002367606,-0.150450269,-0.150426182,2.304203352,4.188609531,0.288483996,-0.005294869,-0.041737840,-0.517214015
1750924548.723115921,-1.379525674,-1.413826710,-1.920423358,1.553297642,-2.123784533,-3.693652014,0.030643205,0.036769869,-0.063811049,-0.002388850,-0.151933296,-0.151908943,2.303008810,4.188557924,0.288494453,-0.005294835,-0.041777369,-0.517550194
1750924548.725037098,-1.379464160,-1.413752770,-1.920551572,1.553292843,-2.124089884,-3.693957316,0.030870308,0.037170256,-0.064402257,-0.002410056,-0.153417740,-0.153393118,2.301803405,4.188505745,0.288505030,-0.005294798,-0.041817260,-0.517889417
1750924548.726976395,-1.379402194,-1.413678028,-1.920680967,1.553288001,-2.124398205,-3.694265587,0.031095651,0.037572148,-0.064993145,-0.002431222,-0.154903613,-0.154878722,2.300587152,4.188452993,0.288515728,-0.005294758,-0.041857511,-0.518231679
1750924548.728903055,-1.379339779,-1.413602481,-1.920811544,1.553283118,-2.124709499,-3.694576832,0.031319218,0.037975559,-0.065583709,-0.002452349,-0.156390927,-0.156365766,2.299360064,4.188399664,0.288526548,-0.005294716,-0.041898123,-0.518576973
1750924548.731139898,-1.379276918,-1.413526125,-1.920943302,1.553278192,-2.125023770,-3.694891051,0.031540990,0.038380503,-0.066173945,-0.002473435,-0.157879696,-0.157854263,2.298122156,4.188345757,0.288537490,-0.005294670,-0.041939094,-0.518925294
1750924548.734074354,-1.379213616,-1.413448957,-1.921076240,1.553273224,-2.125341019,-3.695208250,0.031760952,0.038786993,-0.066763851,-0.002494481,-0.159369932,-0.159344226,2.296873443,4.188291269,0.288548555,-0.005294621,-0.041980425,-0.519276637
1750924548.738387823,-1.379085701,-1.413292176,-1.921345653,1.553263162,-2.125984467,-3.695851593,0.032195373,0.039604669,-0.067942653,-0.002536449,-0.162354856,-0.162328601,2.294343663,4.188180540,0.288571055,-0.005294514,-0.042064162,-0.519988363
1750924548.739207268,-1.379021095,-1.413212556,-1.921482127,1.553258068,-2.126310671,-3.696177745,0.032409798,0.040015883,-0.068531542,-0.002557370,-0.163849570,-0.163823039,2.293062626,4.188124294,0.288582491,-0.005294455,-0.042106567,-0.520348734
1750924548.741441250,-1.379021095,-1.413212556,-1.921482127,1.553258068,-2.126310671,-3.696177745,0.032409798,0.040015883,-0.068531542,-0.002557370,-0.163849570,-0.163823039,2.293062626,4.188124294,0.288582491,-0.005294455,-0.042106567,-0.520348734
1750924548.743375301,-1.378956063,-1.413132112,-1.921619779,1.553252933,-2.126639866,-3.696506886,0.032622343,0.040428699,-0.069120085,-0.002578248,-0.165345802,-0.165318993,2.291770845,4.188067457,0.288594052,-0.005294393,-0.042149330,-0.520712103
1750924548.745157003,-1.378890607,-1.413050840,-1.921758607,1.553247755,-2.126972055,-3.696839022,0.032832992,0.040843132,-0.069708278,-0.002599084,-0.166843564,-0.166816477,2.290468336,4.188010027,0.288605739,-0.005294327,-0.042192448,-0.521078462
1750924548.747247696,-1.378824732,-1.412968738,-1.921898612,1.553242536,-2.127307241,-3.697174153,0.033041726,0.041259196,-0.070296116,-0.002619876,-0.168342870,-0.168315503,2.289155115,4.187952001,0.288617553,-0.005294258,-0.042235923,-0.521447806
1750924548.749112606,-1.378758442,-1.412885802,-1.922039792,1.553237276,-2.127645428,-3.697512285,0.033248529,0.041676903,-0.070883597,-0.002640625,-0.169843731,-0.169816084,2.287831197,4.187893377,0.288629492,-0.005294186,-0.042279752,-0.521820128
1750924548.751020193,-1.378691739,-1.412802029,-1.922182146,1.553231974,-2.127986617,-3.697853419,0.033453383,0.042096269,-0.071470715,-0.002661328,-0.171346161,-0.171318232,2.286496599,4.187834152,0.288641559,-0.005294109,-0.042323936,-0.522195421
1750924548.753087282,-1.378624630,-1.412717416,-1.922325674,1.553226631,-2.128330813,-3.698197559,0.033656271,0.042517307,-0.072057468,-0.002681987,-0.172850172,-0.172821960,2.285151337,4.187774324,0.288653754,-0.005294029,-0.042368474,-0.522573679
1750924548.755104780,-1.378557116,-1.412631959,-1.922470376,1.553221246,-2.128678019,-3.698544708,0.033857176,0.042940031,-0.072643851,-0.002702601,-0.174355777,-0.174327280,2.283795428,4.187713889,0.288666078,-0.005293945,-0.042413365,-0.522954895
1750924548.757554531,-1.378557116,-1.412631959,-1.922470376,1.553221246,-2.128678019,-3.698544708,0.033857176,0.042940031,-0.072643851,-0.002702601,-0.174355777,-0.174327280,2.283795428,4.187713889,0.288666078,-0.005293945,-0.042413365,-0.522954895
1750924548.759306192,-1.378420893,-1.412458500,-1.922763295,1.553210353,-2.129381472,-3.699248046,0.034252968,0.043790594,-0.073815493,-0.002743690,-0.177371816,-0.177342747,2.281051734,4.187591192,0.288691112,-0.005293764,-0.042504204,-0.523726172
1750924548.761095524,-1.378352192,-1.412370491,-1.922911511,1.553204846,-2.129737726,-3.699604241,0.034447820,0.044218460,-0.074400742,-0.002764165,-0.178882277,-0.178852919,2.279663982,4.187528924,0.288703825,-0.005293668,-0.042550151,-0.524116219
1750924548.763194561,-1.378283103,-1.412281625,-1.923060898,1.553199297,-2.130097002,-3.699963458,0.034640619,0.044648068,-0.074985607,-0.002784592,-0.180394380,-0.180364733,2.278265651,4.187466040,0.288716668,-0.005293567,-0.042596449,-0.524509195
1750924548.765125513,-1.378213631,-1.412191898,-1.923211453,1.553193707,-2.130459304,-3.700325701,0.034831348,0.045079432,-0.075570081,-0.002804972,-0.181908140,-0.181878202,2.276856758,4.187402537,0.288729642,-0.005293462,-0.042643096,-0.524905093
1750924548.767088652,-1.378143779,-1.412101306,-1.923363178,1.553188077,-2.130824636,-3.700690972,0.035019990,0.045512566,-0.076154161,-0.002825303,-0.183423568,-0.183393338,2.275437319,4.187338412,0.288742748,-0.005293352,-0.042690092,-0.525303906
1750924548.769017696,-1.378073552,-1.412009846,-1.923516070,1.553182406,-2.131193000,-3.701059275,0.035206527,0.045947483,-0.076737844,-0.002845585,-0.184940676,-0.184910154,2.274007353,4.187273662,0.288755987,-0.005293238,-0.042737437,-0.525705625
1750924548.771355629,-1.378002954,-1.411917515,-1.923670129,1.553176695,-2.131564400,-3.701430614,0.035390943,0.046384198,-0.077321124,-0.002865818,-0.186459478,-0.186428661,2.272566877,4.187208286,0.288769359,-0.005293119,-0.042785129,-0.526110243
1750924548.773359299,-1.377931990,-1.411824308,-1.923825354,1.553170943,-2.131938839,-3.701804991,0.035573218,0.046822725,-0.077903998,-0.002886001,-0.187979985,-0.187948871,2.271115910,4.187142280,0.288782865,-0.005292996,-0.042833168,-0.526517751
1750924548.775255919,-1.377860663,-1.411730223,-1.923981744,1.553165151,-2.132316321,-3.702182411,0.035753337,0.047263076,-0.078486462,-0.002906134,-0.189502209,-0.189470799,2.269654470,4.187075641,0.288796505,-0.005292868,-0.042881553,-0.526928143
1750924548.777152777,-1.377788978,-1.411635255,-1.924139299,1.553159318,-2.132696849,-3.702562876,0.035931281,0.047705267,-0.079068512,-0.002926216,-0.191026163,-0.190994454,2.268182575,4.187008368,0.288810280,-0.005292735,-0.042930283,-0.527341409
1750924548.779086828,-1.377716939,-1.411539401,-1.924298018,1.553153446,-2.133080427,-3.702946390,0.036107033,0.048149312,-0.079650142,-0.002946247,-0.192551860,-0.192519851,2.266700243,4.186940456,0.288824191,-0.005292596,-0.042979358,-0.527757542
1750924548.781074762,-1.377644551,-1.411442656,-1.924457900,1.553147533,-2.133467057,-3.703332956,0.036280576,0.048595223,-0.080231350,-0.002966226,-0.194079310,-0.194047000,2.265207494,4.186871904,0.288838238,-0.005292453,-0.043028776,-0.528176532
1750924548.782984734,-1.377571818,-1.411345018,-1.924618943,1.553141581,-2.133856745,-3.703722579,0.036451891,0.049043016,-0.080812131,-0.002986152,-0.195608528,-0.195575915,2.263704346,4.186802709,0.288852421,-0.005292305,-0.043078538,-0.528598372
1750924548.785099506,-1.377498745,-1.411246483,-1.924781148,1.553135589,-2.134249493,-3.704115261,0.036620962,0.049492703,-0.081392480,-0.003006026,-0.197139523,-0.197106606,2.262190818,4.186732868,0.288866742,-0.005292151,-0.043128641,-0.529023052
1750924548.787101269,-1.377425336,-1.411147046,-1.924944513,1.553129557,-2.134645304,-3.704511006,0.036787771,0.049944300,-0.081972393,-0.003025846,-0.198672310,-0.198639087,2.260666930,4.186662377,0.288881200,-0.005291992,-0.043179086,-0.529450564
1750924548.792351484,-1.377351595,-1.411046705,-1.925109037,1.553123485,-2.135044183,-3.704909819,0.036952300,0.050397819,-0.082551867,-0.003045612,-0.200206899,-0.200173370,2.259132701,4.186591235,0.288895797,-0.005291827,-0.043229871,-0.529880899
1750924548.792589426,-1.377277528,-1.410945454,-1.925274720,1.553117375,-2.135446133,-3.705311701,0.037114531,0.050853275,-0.083130896,-0.003065323,-0.201743303,-0.201709465,2.257588150,4.186519439,0.288910534,-0.005291657,-0.043280995,-0.530314047
1750924548.793057203,-1.377277528,-1.410945454,-1.925274720,1.553117375,-2.135446133,-3.705311701,0.037114531,0.050853275,-0.083130896,-0.003065323,-0.201743303,-0.201709465,2.257588150,4.186519439,0.288910534,-0.005291657,-0.043280995,-0.530314047
1750924548.795121670,-1.377203139,-1.410843290,-1.925441561,1.553111224,-2.135851158,-3.705716658,0.037274448,0.051310681,-0.083709477,-0.003084980,-0.203281534,-0.203247387,2.256033298,4.186446985,0.288925410,-0.005291481,-0.043332458,-0.530750000
1750924548.798414230,-1.377203139,-1.410843290,-1.925441561,1.553111224,-2.135851158,-3.705716658,0.037274448,0.051310681,-0.083709477,-0.003084980,-0.203281534,-0.203247387,2.256033298,4.186446985,0.288925410,-0.005291481,-0.043332458,-0.530750000
1750924548.799578905,-1.377053412,-1.410636209,-1.925778711,1.553098806,-2.136670445,-3.706535807,0.037587265,0.052231401,-0.084865275,-0.003124125,-0.206363524,-0.206328753,2.252892769,4.186300095,0.288955583,-0.005291112,-0.043436395,-0.531630280
1750924548.801122189,-1.376978085,-1.410531283,-1.925949018,1.553092538,-2.137084716,-3.706950008,0.037740130,0.052694743,-0.085442484,-0.003143613,-0.207907307,-0.207872223,2.251307133,4.186225652,0.288970882,-0.005290919,-0.043488868,-0.532074588
1750924548.803041220,-1.376902453,-1.410425428,-1.926120480,1.553086232,-2.137502076,-3.707367298,0.037890609,0.053160090,-0.086019227,-0.003163044,-0.209452965,-0.209417565,2.249711277,4.186150541,0.288986323,-0.005290719,-0.043541676,-0.532521662
1750924548.805058241,-1.376826524,-1.410318641,-1.926293095,1.553079886,-2.137922529,-3.707787680,0.038038685,0.053627458,-0.086595499,-0.003182416,-0.211000509,-0.210964792,2.248105220,4.186074759,0.289001907,-0.005290513,-0.043594818,-0.532971492
1750924548.806964397,-1.376750300,-1.410210917,-1.926466862,1.553073502,-2.138346079,-3.708211158,0.038184340,0.054096860,-0.087171296,-0.003201731,-0.212549951,-0.212513916,2.246488985,4.185998302,0.289017634,-0.005290301,-0.043648292,-0.533424068
1750924548.808952808,-1.376673788,-1.410102252,-1.926641780,1.553067079,-2.138772730,-3.708637737,0.038327555,0.054568309,-0.087746614,-0.003220987,-0.214101304,-0.214064949,2.244862592,4.185921168,0.289033505,-0.005290082,-0.043702099,-0.533879378
1750924548.810958862,-1.376596992,-1.409992642,-1.926817848,1.553060618,-2.139202486,-3.709067419,0.038468314,0.055041821,-0.088321448,-0.003240183,-0.215654578,-0.215617902,2.243226063,4.185843354,0.289049520,-0.005289857,-0.043756236,-0.534337413
1750924548.814096928,-1.376596992,-1.409992642,-1.926817848,1.553060618,-2.139202486,-3.709067419,0.038468314,0.055041821,-0.088321448,-0.003240183,-0.215654578,-0.215617902,2.243226063,4.185843354,0.289049520,-0.005289857,-0.043756236,-0.534337413
1750924548.815154076,-1.376519916,-1.409882084,-1.926995065,1.553054118,-2.139635350,-3.709500209,0.038606598,0.055517408,-0.088895793,-0.003259319,-0.217209786,-0.217172787,2.241579419,4.185764857,0.289065681,-0.005289625,-0.043810703,-0.534798163
1750924548.817056179,-1.376442567,-1.409770571,-1.927173431,1.553047581,-2.140071326,-3.709936111,0.038742390,0.055995084,-0.089469646,-0.003278394,-0.218766938,-0.218729616,2.239922681,4.185685675,0.289081988,-0.005289387,-0.043865499,-0.535261615
1750924548.819094181,-1.376364948,-1.409658102,-1.927352944,1.553041005,-2.140510419,-3.710375129,0.038875672,0.056474864,-0.090043001,-0.003297408,-0.220326048,-0.220288399,2.238255872,4.185605803,0.289098440,-0.005289142,-0.043920623,-0.535727760
1750924548.821138382,-1.376287066,-1.409544671,-1.927533603,1.553034391,-2.140952632,-3.710817266,0.039006425,0.056956761,-0.090615854,-0.003316361,-0.221887126,-0.221849150,2.236579014,4.185525240,0.289115040,-0.005288889,-0.043976073,-0.536196586
1750924548.823026180,-1.376208924,-1.409430273,-1.927715407,1.553027740,-2.141397969,-3.711262527,0.039134632,0.057440789,-0.091188200,-0.003335251,-0.223450184,-0.223411879,2.234892129,4.185443982,0.289131787,-0.005288630,-0.044031849,-0.536668082
1750924548.824993134,-1.376130529,-1.409314906,-1.927898355,1.553021050,-2.141846434,-3.711710915,0.039260275,0.057926962,-0.091760034,-0.003354078,-0.225015234,-0.224976598,2.233195239,4.185362027,0.289148683,-0.005288363,-0.044087949,-0.537142236
1750924548.826951265,-1.376051885,-1.409198564,-1.928082447,1.553014323,-2.142298031,-3.712162435,0.039383337,0.058415294,-0.092331353,-0.003372841,-0.226582286,-0.226543319,2.231488367,4.185279371,0.289165727,-0.005288089,-0.044144373,-0.537619037
1750924548.828982353,-1.375972997,-1.409081243,-1.928267680,1.553007559,-2.142752764,-3.712617090,0.039503798,0.058905799,-0.092902152,-0.003391541,-0.228151353,-0.228112052,2.229771536,4.185196012,0.289182920,-0.005287808,-0.044201119,-0.538098472
1750924548.831112385,-1.375893872,-1.408962939,-1.928454055,1.553000757,-2.143210638,-3.713074884,0.039621642,0.059398491,-0.093472425,-0.003410175,-0.229722446,-0.229682809,2.228044769,4.185111946,0.289200263,-0.005287519,-0.044258186,-0.538580531
1750924548.832986355,-1.375814513,-1.408843648,-1.928641569,1.552993918,-2.143671655,-3.713535822,0.039736850,0.059893383,-0.094042168,-0.003428745,-0.231295576,-0.231255602,2.226308090,4.185027172,0.289217757,-0.005287223,-0.044315573,-0.539065200
1750924548.835058451,-1.375734926,-1.408723364,-1.928830223,1.552987042,-2.144135821,-3.713999908,0.039849404,0.060390490,-0.094611376,-0.003447248,-0.232870754,-0.232830442,2.224561521,4.184941684,0.289235402,-0.005286919,-0.044373278,-0.539552468
1750924548.837071657,-1.375655117,-1.408602085,-1.929020015,1.552980129,-2.144603140,-3.714467146,0.039959286,0.060889825,-0.095180045,-0.003465685,-0.234447992,-0.234407340,2.222805087,4.184855482,0.289253199,-0.005286606,-0.044431302,-0.540042322
1750924548.839026213,-1.375575091,-1.408479804,-1.929210943,1.552973180,-2.145073615,-3.714937539,0.040066479,0.061391402,-0.095748170,-0.003484055,-0.236027301,-0.235986308,2.221038811,4.184768562,0.289271148,-0.005286286,-0.044489641,-0.540534749
1750924548.840959549,-1.375494853,-1.408356517,-1.929403007,1.552966193,-2.145547250,-3.715411092,0.040170963,0.061895235,-0.096315747,-0.003502357,-0.237608692,-0.237567355,2.219262717,4.184680920,0.289289250,-0.005285958,-0.044548295,-0.541029736
1750924548.847473860,-1.375414409,-1.408232221,-1.929596206,1.552959170,-2.146024051,-3.715887810,0.040272722,0.062401338,-0.096882769,-0.003520590,-0.239192176,-0.239150495,2.217476830,4.184592554,0.289307505,-0.005285621,-0.044607263,-0.541527270
1750924548.847532988,-1.375414409,-1.408232221,-1.929596206,1.552959170,-2.146024051,-3.715887810,0.040272722,0.062401338,-0.096882769,-0.003520590,-0.239192176,-0.239150495,2.217476830,4.184592554,0.289307505,-0.005285621,-0.044607263,-0.541527270
1750924548.849199772,-1.375414409,-1.408232221,-1.929596206,1.552959170,-2.146024051,-3.715887810,0.040272722,0.062401338,-0.096882769,-0.003520590,-0.239192176,-0.239150495,2.217476830,4.184592554,0.289307505,-0.005285621,-0.044607263,-0.541527270
1750924548.851505518,-1.375252923,-1.407980581,-1.929986002,1.552945015,-2.146987163,-3.716850754,0.040467988,0.063420409,-0.098015134,-0.003556850,-0.242365469,-0.242323093,2.213875775,4.184413638,0.289344478,-0.005284923,-0.044726135,-0.542529927
1750924548.853910685,-1.375171894,-1.407853227,-1.930182598,1.552937883,-2.147473484,-3.717336989,0.040561460,0.063933405,-0.098580466,-0.003574874,-0.243955299,-0.243912573,2.212060655,4.184323082,0.289363197,-0.005284561,-0.044786036,-0.543035022
1750924548.855082750,-1.375090680,-1.407724846,-1.930380324,1.552930716,-2.147962986,-3.717826406,0.040652134,0.064448727,-0.099145226,-0.003592828,-0.245547267,-0.245504189,2.210235842,4.184231790,0.289382071,-0.005284191,-0.044846246,-0.543542611
1750924548.857083321,-1.375009287,-1.407595431,-1.930579178,1.552923512,-2.148455674,-3.718319008,0.040739990,0.064966387,-0.099709407,-0.003610710,-0.247141383,-0.247097952,2.208401360,4.184139759,0.289401102,-0.005283811,-0.044906763,-0.544052678
1750924548.858998537,-1.374927721,-1.407464978,-1.930779161,1.552916273,-2.148951553,-3.718814799,0.040825012,0.065486401,-0.100273006,-0.003628521,-0.248737658,-0.248693872,2.206557235,4.184046985,0.289420290,-0.005283422,-0.044967585,-0.544565210
1750924548.861029148,-1.374845989,-1.407333484,-1.930980270,1.552908998,-2.149450626,-3.719313785,0.040907180,0.066008782,-0.100836017,-0.003646258,-0.250336103,-0.250291961,2.204703492,4.183953466,0.289439635,-0.005283025,-0.045028712,-0.545080192
1750924548.863014221,-1.374764095,-1.407200942,-1.931182504,1.552901688,-2.149952899,-3.719815968,0.040986478,0.066533544,-0.101398436,-0.003663922,-0.251936729,-0.251892228,2.202840158,4.183859200,0.289459139,-0.005282618,-0.045090142,-0.545597609
1750924548.865072489,-1.374682045,-1.407067348,-1.931385863,1.552894342,-2.150458375,-3.720321355,0.041062885,0.067060701,-0.101960257,-0.003681511,-0.253539546,-0.253494685,2.200967258,4.183764182,0.289478801,-0.005282201,-0.045151873,-0.546117448
1750924548.868329048,-1.374599845,-1.406932697,-1.931590345,1.552886962,-2.150967058,-3.720829949,0.041136385,0.067590266,-0.102521475,-0.003699026,-0.255144565,-0.255099342,2.199084820,4.183668410,0.289498622,-0.005281776,-0.045213904,-0.546639692
1750924548.869082212,-1.374517501,-1.406796985,-1.931795949,1.552879546,-2.151478954,-3.721341754,0.041206958,0.068122254,-0.103082086,-0.003716466,-0.256751797,-0.256706210,2.197192869,4.183571881,0.289518602,-0.005281340,-0.045276234,-0.547164326
1750924548.871206045,-1.374435019,-1.406660207,-1.932002673,1.552872096,-2.151994067,-3.721856775,0.041274587,0.068656678,-0.103642084,-0.003733829,-0.258361252,-0.258315300,2.195291433,4.183474592,0.289538743,-0.005280895,-0.045338861,-0.547691335
1750924548.873177290,-1.374352405,-1.406522357,-1.932210517,1.552864611,-2.152512401,-3.722375016,0.041339253,0.069193553,-0.104201465,-0.003751116,-0.259972940,-0.259926621,2.193380539,4.183376540,0.289559044,-0.005280440,-0.045401783,-0.548220703
1750924548.875097513,-1.374269664,-1.406383431,-1.932419478,1.552857092,-2.153033960,-3.722896483,0.041400938,0.069732891,-0.104760223,-0.003768325,-0.261586873,-0.261540185,2.191460214,4.183277721,0.289579507,-0.005279975,-0.045464999,-0.548752415
1750924548.877180099,-1.374186803,-1.406243424,-1.932629557,1.552849538,-2.153558750,-3.723421179,0.041459623,0.070274708,-0.105318353,-0.003785456,-0.263203060,-0.263156001,2.189530485,4.183178133,0.289600132,-0.005279500,-0.045528507,-0.549286454
1750924548.879167557,-1.374103828,-1.406102330,-1.932840751,1.552841950,-2.154086774,-3.723949108,0.041515290,0.070819017,-0.105875850,-0.003802509,-0.264821511,-0.264774080,2.187591381,4.183077774,0.289620919,-0.005279014,-0.045592306,-0.549822803
1750924548.881224155,-1.374020744,-1.405960146,-1.933053060,1.552834328,-2.154618037,-3.724480276,0.041567921,0.071365831,-0.106432710,-0.003819482,-0.266442238,-0.266394432,2.185642928,4.182976639,0.289641868,-0.005278518,-0.045656394,-0.550361446
1750924548.883341074,-1.373937558,-1.405816865,-1.933266482,1.552826672,-2.155152544,-3.725014688,0.041617497,0.071915165,-0.106988927,-0.003836374,-0.268065250,-0.268017068,2.183685157,4.182874725,0.289662981,-0.005278012,-0.045720770,-0.550902367
1750924548.885157585,-1.373854276,-1.405672484,-1.933481015,1.552818982,-2.155690300,-3.725552346,0.041663999,0.072467032,-0.107544495,-0.003853186,-0.269690557,-0.269641998,2.181718094,4.182772031,0.289684259,-0.005277494,-0.045785431,-0.551445548
1750924548.887125015,-1.373770904,-1.405526996,-1.933696659,1.552811259,-2.156231308,-3.726093257,0.041707410,0.073021447,-0.108099410,-0.003869916,-0.271318170,-0.271269231,2.179741769,4.182668552,0.289705700,-0.005276966,-0.045850377,-0.551990972
1750924548.889211178,-1.373687448,-1.405380396,-1.933913413,1.552803503,-2.156775574,-3.726637425,0.041747710,0.073578424,-0.108653667,-0.003886564,-0.272948098,-0.272898777,2.177756211,4.182564287,0.289727306,-0.005276427,-0.045915605,-0.552538622
1750924548.891041279,-1.373603888,-1.405232626,-1.934131359,1.552795704,-2.157323289,-3.727185041,0.041818486,0.074206254,-0.109314674,-0.003914621,-0.274815084,-0.274765543,2.215831973,4.204254796,0.287142169,-0.006129179,-0.052593577,-0.634992631
1750924548.893175125,-1.373520175,-1.405083565,-1.934350676,1.552787844,-2.157874848,-3.727736501,0.041894086,0.074854528,-0.110002270,-0.003945448,-0.276744544,-0.276694824,2.223799914,4.209732884,0.286503268,-0.006343955,-0.054353523,-0.656480805
1750924548.895259857,-1.373436315,-1.404933206,-1.934571368,1.552779922,-2.158430269,-3.728291822,0.041965875,0.075505957,-0.110689124,-0.003976114,-0.278676853,-0.278626952,2.221544065,4.209673058,0.286527654,-0.006341483,-0.054433762,-0.657155615
1750924548.897276640,-1.373352314,-1.404781540,-1.934793432,1.552771940,-2.158989558,-3.728851011,0.042033827,0.076160562,-0.111375232,-0.004006619,-0.280612025,-0.280561940,2.219275319,4.209612567,0.286552265,-0.006339011,-0.054514419,-0.657833750
1750924548.899288654,-1.373352314,-1.404781540,-1.934793432,1.552771940,-2.158989558,-3.728851011,0.042033827,0.076160562,-0.111375232,-0.004006619,-0.280612025,-0.280561940,2.219275319,4.209612567,0.286552265,-0.006339011,-0.054514419,-0.657833750
1750924548.903862476,-1.373268182,-1.404628561,-1.935016868,1.552763896,-2.159552719,-3.729414072,0.042097915,0.076818362,-0.112060584,-0.004036963,-0.282550075,-0.282499805,2.216993710,4.209551405,0.286577103,-0.006336538,-0.054595491,-0.658515184
1750924548.905324697,-1.373099552,-1.404318641,-1.935467849,1.552747627,-2.160690685,-3.730551836,0.042214393,0.078143628,-0.113428995,-0.004097163,-0.286434867,-0.286384220,2.212392033,4.209427056,0.286627461,-0.006331591,-0.054758873,-0.659887845
1750924548.907304287,-1.373099552,-1.404318641,-1.935467849,1.552747627,-2.160690685,-3.730551836,0.042214393,0.078143628,-0.113428995,-0.004097163,-0.286434867,-0.286384220,2.212392033,4.209427056,0.286627461,-0.006331591,-0.054758873,-0.659887845
1750924548.909297228,-1.373015070,-1.404161687,-1.935695390,1.552739403,-2.161265501,-3.731126551,0.042266731,0.078811134,-0.114112040,-0.004127019,-0.288381639,-0.288330801,2.210072032,4.209363860,0.286652983,-0.006329116,-0.054841177,-0.660579019
1750924548.911300898,-1.372930488,-1.404003395,-1.935924296,1.552731120,-2.161844214,-3.731705161,0.042315100,0.079481915,-0.114794300,-0.004156712,-0.290331346,-0.290280315,2.207739303,4.209299978,0.286678734,-0.006326640,-0.054923886,-0.661273386
1750924548.913038731,-1.372845813,-1.403843757,-1.936154566,1.552722777,-2.162426829,-3.732287674,0.042359472,0.080155992,-0.115475769,-0.004186240,-0.292284004,-0.292232777,2.205393878,4.209235405,0.286704716,-0.006324163,-0.055006998,-0.661970920
1750924548.915038347,-1.372761053,-1.403682769,-1.936386199,1.552714375,-2.163013352,-3.732874094,0.042399822,0.080833385,-0.116156439,-0.004215604,-0.294239626,-0.294188202,2.203035793,4.209170138,0.286730928,-0.006321685,-0.055090509,-0.662671592
1750924548.917110682,-1.372676216,-1.403520422,-1.936619192,1.552705914,-2.163603789,-3.733464429,0.042436123,0.081514112,-0.116836304,-0.004244803,-0.296198227,-0.296146603,2.200665083,4.209104173,0.286757372,-0.006319206,-0.055174418,-0.663375375
1750924548.919084787,-1.372591311,-1.403356710,-1.936853543,1.552697396,-2.164198147,-3.734058683,0.042468349,0.082198195,-0.117515355,-0.004273836,-0.298159821,-0.298107996,2.198281783,4.209037505,0.286784047,-0.006316725,-0.055258722,-0.664082239
1750924548.921094179,-1.372506345,-1.403191627,-1.937089252,1.552688819,-2.164796431,-3.734656863,0.042496472,0.082885653,-0.118193585,-0.004302703,-0.300124421,-0.300072392,2.195885930,4.208970130,0.286810955,-0.006314242,-0.055343416,-0.664792156
1750924548.923033237,-1.372421328,-1.403025165,-1.937326317,1.552680185,-2.165398646,-3.735258974,0.042520466,0.083576507,-0.118870987,-0.004331403,-0.302092041,-0.302039807,2.193477558,4.208902044,0.286838097,-0.006311758,-0.055428500,-0.665505097
1750924548.925408840,-1.372336266,-1.402857318,-1.937564736,1.552671493,-2.166004801,-3.735865024,0.042540305,0.084270776,-0.119547553,-0.004359935,-0.304062695,-0.304010254,2.191056704,4.208833244,0.286865473,-0.006309272,-0.055513969,-0.666221032
1750924548.927119970,-1.372251169,-1.402688080,-1.937804507,1.552662745,-2.166614899,-3.736475017,0.042555962,0.084968481,-0.120223276,-0.004388300,-0.306036397,-0.305983746,2.188623406,4.208763725,0.286893083,-0.006306783,-0.055599821,-0.666939930
1750924548.929056406,-1.372166045,-1.402517442,-1.938045628,1.552653940,-2.167228948,-3.737088961,0.042567409,0.085669641,-0.120898148,-0.004416497,-0.308013160,-0.307960297,2.186177700,4.208693483,0.286920928,-0.006304293,-0.055686053,-0.667661761
1750924548.931123495,-1.372080902,-1.402345399,-1.938288099,1.552645079,-2.167846954,-3.737706861,0.042574622,0.086374277,-0.121572162,-0.004444525,-0.309992998,-0.309939921,2.183719624,4.208622514,0.286949009,-0.006301800,-0.055772662,-0.668386494
1750924548.933081627,-1.371995750,-1.402171943,-1.938531916,1.552636162,-2.168468922,-3.738328723,0.042577571,0.087082408,-0.122245311,-0.004472383,-0.311975923,-0.311922630,2.181249215,4.208550814,0.286977327,-0.006299305,-0.055859644,-0.669114098
1750924548.935055971,-1.371910595,-1.401997067,-1.938777079,1.552627190,-2.169094860,-3.738954553,0.042576232,0.087794055,-0.122917586,-0.004500071,-0.313961949,-0.313908438,2.178766512,4.208478379,0.287005881,-0.006296807,-0.055946997,-0.669844540
1750924548.937214613,-1.371825448,-1.401820764,-1.939023586,1.552618162,-2.169724772,-3.739584358,0.042570576,0.088509238,-0.123588980,-0.004527589,-0.315951089,-0.315897357,2.176271554,4.208405206,0.287034673,-0.006294307,-0.056034717,-0.670577788
1750924548.939246178,-1.371825448,-1.401820764,-1.939023586,1.552618162,-2.169724772,-3.739584358,0.042570576,0.088509238,-0.123588980,-0.004527589,-0.315951089,-0.315897357,2.176271554,4.208405206,0.287034673,-0.006294307,-0.056034717,-0.670577788
1750924548.941027641,-1.371740316,-1.401643027,-1.939271435,1.552609080,-2.170358666,-3.740218145,0.042560578,0.089227976,-0.124259486,-0.004554935,-0.317943356,-0.317889402,2.173764378,4.208331289,0.287063703,-0.006291804,-0.056122802,-0.671313810
1750924548.942972660,-1.371655208,-1.401463850,-1.939520624,1.552599943,-2.170996548,-3.740855918,0.042546210,0.089950290,-0.124929095,-0.004582110,-0.319938763,-0.319884584,2.171245024,4.208256626,0.287092971,-0.006289297,-0.056211247,-0.672052572
1750924548.944964647,-1.371570134,-1.401283224,-1.939771151,1.552590751,-2.171638423,-3.741497685,0.042527445,0.090676200,-0.125597801,-0.004609113,-0.321937322,-0.321882916,2.168713533,4.208181212,0.287122478,-0.006286787,-0.056300050,-0.672794040
1750924548.947207689,-1.371485101,-1.401101143,-1.940023014,1.552581506,-2.172284299,-3.742143452,0.042504256,0.091405726,-0.126265596,-0.004635942,-0.323939046,-0.323884410,2.166169943,4.208105043,0.287152226,-0.006284275,-0.056389207,-0.673538180
1750924548.949117661,-1.371400120,-1.400917599,-1.940276212,1.552572208,-2.172934182,-3.742793225,0.042476617,0.092138888,-0.126932472,-0.004662598,-0.325943947,-0.325889080,2.163614296,4.208028115,0.287182213,-0.006281758,-0.056478715,-0.674284957
1750924548.951052427,-1.371315198,-1.400732585,-1.940530743,1.552562856,-2.173588077,-3.743447010,0.042444500,0.092875707,-0.127598421,-0.004689080,-0.327952038,-0.327896938,2.161046631,4.207950424,0.287212440,-0.006279238,-0.056568570,-0.675034337
1750924548.953068256,-1.371230345,-1.400546093,-1.940786605,1.552553452,-2.174245992,-3.744104815,0.042407879,0.093616201,-0.128263436,-0.004715387,-0.329963331,-0.329907995,2.158466991,4.207871967,0.287242909,-0.006276714,-0.056658769,-0.675786284
1750924548.955470562,-1.371145569,-1.400358117,-1.941043797,1.552543995,-2.174907933,-3.744766644,0.042366726,0.094360392,-0.128927509,-0.004741520,-0.331977838,-0.331922264,2.155875416,4.207792740,0.287273619,-0.006274186,-0.056749309,-0.676540761
1750924548.957728863,-1.371060881,-1.400168649,-1.941302315,1.552534486,-2.175573905,-3.745432506,0.042321014,0.095108299,-0.129590632,-0.004767476,-0.333995571,-0.333939757,2.153271948,4.207712738,0.287304571,-0.006271655,-0.056840185,-0.677297732
1750924548.960379601,-1.370976288,-1.399977682,-1.941562158,1.552524925,-2.176243917,-3.746102406,0.042270716,0.095859943,-0.130252797,-0.004793256,-0.336016541,-0.335960485,2.150656630,4.207631959,0.287335766,-0.006269119,-0.056931395,-0.678057160
1750924548.961556435,-1.370891801,-1.399785207,-1.941823325,1.552515313,-2.176917974,-3.746776350,0.042215806,0.096615343,-0.130913998,-0.004818859,-0.338040761,-0.337984460,2.148029504,4.207550397,0.287367203,-0.006266578,-0.057022933,-0.678819007
1750924548.964222431,-1.370807428,-1.399591218,-1.942085814,1.552505649,-2.177596082,-3.747454346,0.042156255,0.097374521,-0.131574226,-0.004844284,-0.340068243,-0.340011694,2.145390614,4.207468049,0.287398883,-0.006264033,-0.057114798,-0.679583235
1750924548.965248108,-1.370723179,-1.399395706,-1.942349622,1.552495936,-2.178278249,-3.748136399,0.042092037,0.098137495,-0.132233472,-0.004869531,-0.342098996,-0.342042199,2.142740002,4.207384912,0.287430807,-0.006261484,-0.057206984,-0.680349806
1750924548.967099667,-1.370639063,-1.399198665,-1.942614747,1.552486171,-2.178964480,-3.748822517,0.042023125,0.098904286,-0.132891731,-0.004894599,-0.344133034,-0.344075985,2.140077713,4.207300981,0.287462975,-0.006258929,-0.057299488,-0.681118681
1750924548.969162464,-1.370555090,-1.399000087,-1.942881188,1.552476357,-2.179654783,-3.749512705,0.041949490,0.099674915,-0.133548993,-0.004919487,-0.346170366,-0.346113063,2.137403790,4.207216253,0.287495387,-0.006256370,-0.057392306,-0.681889819
1750924548.971087217,-1.370471268,-1.398799963,-1.943148942,1.552466494,-2.180349164,-3.750206971,0.041871107,0.100449401,-0.134205251,-0.004944196,-0.348211004,-0.348153445,2.134718279,4.207130725,0.287528044,-0.006253805,-0.057485434,-0.682663181
1750924548.973049402,-1.370387609,-1.398598286,-1.943418008,1.552456581,-2.181047629,-3.750905321,0.041787948,0.101227765,-0.134860498,-0.004968723,-0.350254959,-0.350197142,2.132021224,4.207044392,0.287560946,-0.006251235,-0.057578868,-0.683438725
1750924548.975044012,-1.370304120,-1.398395049,-1.943688384,1.552446619,-2.181750186,-3.751607762,0.041699985,0.102010027,-0.135514725,-0.004993070,-0.352302241,-0.352244163,2.129312671,4.206957250,0.287594092,-0.006248660,-0.057672605,-0.684216412
1750924548.977018595,-1.370220812,-1.398190244,-1.943960066,1.552436609,-2.182456841,-3.752314300,0.041607191,0.102796207,-0.136167924,-0.005017234,-0.354352862,-0.354294521,2.126592666,4.206869297,0.287627484,-0.006246079,-0.057766639,-0.684996199
1750924548.979626656,-1.370220812,-1.398190244,-1.943960066,1.552436609,-2.182456841,-3.752314300,0.041607191,0.102796207,-0.136167924,-0.005017234,-0.354352862,-0.354294521,2.126592666,4.206869297,0.287627484,-0.006246079,-0.057766639,-0.684996199
1750924548.981357098,-1.370137694,-1.397983862,-1.944233055,1.552426550,-2.183167600,-3.753024942,0.041509539,0.103586325,-0.136820088,-0.005041215,-0.356406831,-0.356348224,2.123861254,4.206780528,0.287661122,-0.006243492,-0.057860967,-0.685778043
1750924548.983301163,-1.370054777,-1.397775896,-1.944507346,1.552416444,-2.183882470,-3.753739695,0.041407002,0.104380402,-0.137471209,-0.005065014,-0.358464158,-0.358405284,2.121118483,4.206690940,0.287695006,-0.006240899,-0.057955584,-0.686561902
1750924548.985275030,-1.369972070,-1.397566338,-1.944782939,1.552406290,-2.184601459,-3.754458566,0.041299551,0.105178457,-0.138121280,-0.005088628,-0.360524855,-0.360465711,2.118364400,4.206600529,0.287729136,-0.006238300,-0.058050487,-0.687347733
1750924548.987216473,-1.369889582,-1.397355179,-1.945059830,1.552396089,-2.185324572,-3.755181560,0.041187160,0.105980512,-0.138770291,-0.005112058,-0.362588930,-0.362529514,2.115599052,4.206509292,0.287763513,-0.006235695,-0.058145670,-0.688135491
1750924548.989089012,-1.369807324,-1.397142413,-1.945338019,1.552385842,-2.186051817,-3.755908686,0.041069801,0.106786586,-0.139418236,-0.005135302,-0.364656394,-0.364596703,2.112822486,4.206417226,0.287798136,-0.006233084,-0.058241130,-0.688925132
1750924548.990998745,-1.369725306,-1.396928030,-1.945617503,1.552375548,-2.186783200,-3.756639949,0.040947447,0.107596699,-0.140065106,-0.005158361,-0.366727257,-0.366667288,2.110034753,4.206324326,0.287833005,-0.006230465,-0.058336862,-0.689716611
1750924548.993046284,-1.369643538,-1.396712023,-1.945898279,1.552365209,-2.187518728,-3.757375357,0.040820071,0.108410872,-0.140710895,-0.005181232,-0.368801527,-0.368741279,2.107235899,4.206230589,0.287868122,-0.006227840,-0.058432862,-0.690509883
1750924548.995067358,-1.369562029,-1.396494384,-1.946180346,1.552354824,-2.188258408,-3.758114917,0.040687644,0.109229126,-0.141355593,-0.005203917,-0.370879214,-0.370818684,2.104425976,4.206136012,0.287903485,-0.006225209,-0.058529124,-0.691304900
1750924548.997202635,-1.369480791,-1.396275104,-1.946463701,1.552344393,-2.189002247,-3.758858634,0.040550139,0.110051479,-0.141999193,-0.005226414,-0.372960328,-0.372899514,2.101605031,4.206040592,0.287939096,-0.006222570,-0.058625645,-0.692101617
1750924548.999094248,-1.369399832,-1.396054175,-1.946748342,1.552333918,-2.189750252,-3.759606517,0.040407529,0.110877954,-0.142641687,-0.005248722,-0.375044877,-0.374983776,2.098773116,4.205944325,0.287974953,-0.006219923,-0.058722419,-0.692899986
1750924549.001177788,-1.369319164,-1.395831590,-1.947034267,1.552323398,-2.190502429,-3.760358572,0.040259785,0.111708570,-0.143283068,-0.005270841,-0.377132870,-0.377071480,2.095930280,4.205847207,0.288011058,-0.006217270,-0.058819442,-0.693699958
1750924549.003147840,-1.369238796,-1.395607338,-1.947321473,1.552312835,-2.191258785,-3.761114805,0.040106882,0.112543347,-0.143923327,-0.005292769,-0.379224317,-0.379162634,2.093076576,4.205749237,0.288047411,-0.006214609,-0.058916709,-0.694501486
1750924549.005168200,-1.369158740,-1.395381413,-1.947609959,1.552302227,-2.192019328,-3.761875225,0.039948790,0.113382306,-0.144562456,-0.005314507,-0.381319224,-0.381257248,2.090212054,4.205650409,0.288084010,-0.006211940,-0.059014216,-0.695304520
1750924549.006973028,-1.369079005,-1.395153806,-1.947899722,1.552291577,-2.192784065,-3.762639837,0.039785483,0.114225468,-0.145200449,-0.005336054,-0.383417601,-0.383355328,2.087336766,4.205550722,0.288120856,-0.006209263,-0.059111956,-0.696109011
1750924549.009040356,-1.368999601,-1.394924509,-1.948190760,1.552280883,-2.193553001,-3.763408648,0.039616932,0.115072852,-0.145837296,-0.005357409,-0.385519456,-0.385456884,2.084450765,4.205450171,0.288157950,-0.006206578,-0.059209926,-0.696914907
1750924549.015151024,-1.368999601,-1.394924509,-1.948190760,1.552280883,-2.193553001,-3.763408648,0.039616932,0.115072852,-0.145837296,-0.005357409,-0.385519456,-0.385456884,2.084450765,4.205450171,0.288157950,-0.006206578,-0.059209926,-0.696914907
1750924549.015204191,-1.368920540,-1.394693512,-1.948483071,1.552270147,-2.194326145,-3.764181666,0.039443110,0.115924479,-0.146472991,-0.005378571,-0.387624796,-0.387561923,2.081554104,4.205348755,0.288195291,-0.006203885,-0.059308120,-0.697722159
1750924549.017925024,-1.368841832,-1.394460808,-1.948776651,1.552259369,-2.195103503,-3.764958898,0.039263990,0.116780370,-0.147107525,-0.005399539,-0.389733630,-0.389670453,2.078646835,4.205246469,0.288232879,-0.006201183,-0.059406533,-0.698530714
1750924549.019134521,-1.368763488,-1.394226388,-1.949071500,1.552248549,-2.195885082,-3.765740351,0.039079543,0.117640545,-0.147740890,-0.005420313,-0.391845965,-0.391782482,2.075729014,4.205143310,0.288270714,-0.006198473,-0.059505160,-0.699340519
1750924549.021064281,-1.368685518,-1.393990243,-1.949367614,1.552237688,-2.196670889,-3.766526031,0.038889742,0.118505024,-0.148373079,-0.005440892,-0.393961809,-0.393898017,2.072800693,4.205039277,0.288308795,-0.006195754,-0.059603995,-0.700151523
1750924549.023038864,-1.368607933,-1.393752365,-1.949664991,1.552226786,-2.197460931,-3.767315945,0.038694559,0.119373829,-0.149004084,-0.005461276,-0.396081168,-0.396017065,2.069861927,4.204934365,0.288347123,-0.006193026,-0.059703034,-0.700963672
1750924549.025040150,-1.368530743,-1.393512745,-1.949963630,1.552215843,-2.198255216,-3.768110101,0.038493966,0.120246978,-0.149633897,-0.005481463,-0.398204050,-0.398139633,2.066912773,4.204828572,0.288385698,-0.006190289,-0.059802270,-0.701776911
1750924549.026992083,-1.368453960,-1.393271374,-1.950263526,1.552204860,-2.199053750,-3.768908506,0.038287936,0.121124494,-0.150262510,-0.005501453,-0.400330461,-0.400265728,2.063953285,4.204721894,0.288424519,-0.006187543,-0.059901699,-0.702591186
1750924549.028981686,-1.368377595,-1.393028244,-1.950564679,1.552193837,-2.199856540,-3.769711166,0.038076441,0.122006397,-0.150889916,-0.005521246,-0.402460409,-0.402395358,2.060983520,4.204614330,0.288463585,-0.006184787,-0.060001315,-0.703406441
1750924549.031517982,-1.368301658,-1.392783345,-1.950867085,1.552182775,-2.200663594,-3.770518090,0.037859453,0.122892706,-0.151516106,-0.005540839,-0.404593899,-0.404528527,2.058003534,4.204505877,0.288502897,-0.006182022,-0.060101112,-0.704222621
1750924549.033101082,-1.368226161,-1.392536670,-1.951170742,1.552171674,-2.201474918,-3.771329283,0.037636944,0.123783444,-0.152141073,-0.005560234,-0.406730939,-0.406665242,2.055013384,4.204396531,0.288542455,-0.006179247,-0.060201085,-0.705039667
1750924549.035201073,-1.368151114,-1.392288209,-1.951475649,1.552160535,-2.202290520,-3.772144753,0.037408887,0.124678629,-0.152764810,-0.005579428,-0.408871533,-0.408805510,2.052013129,4.204286289,0.288582258,-0.006176462,-0.060301228,-0.705857524
1750924549.037102938,-1.368076529,-1.392037952,-1.951781801,1.552149357,-2.203110407,-3.772964507,0.037175253,0.125578284,-0.153387308,-0.005598422,-0.411015688,-0.410949336,2.049002826,4.204175151,0.288622305,-0.006173667,-0.060401535,-0.706676133
1750924549.039157867,-1.368002417,-1.391785893,-1.952089197,1.552138141,-2.203934585,-3.773788553,0.036936015,0.126482428,-0.154008560,-0.005617214,-0.413163409,-0.413096727,2.045982535,4.204063112,0.288662597,-0.006170861,-0.060502001,-0.707495434
1750924549.041131020,-1.367928789,-1.391532020,-1.952397834,1.552126888,-2.204763063,-3.774616897,0.036691144,0.127391083,-0.154628558,-0.005635804,-0.415314702,-0.415247686,2.042952313,4.203950170,0.288703132,-0.006168045,-0.060602619,-0.708315369
1750924549.043107033,-1.367855656,-1.391276325,-1.952707710,1.552115598,-2.205595846,-3.775449546,0.036440614,0.128304269,-0.155247294,-0.005654190,-0.417469572,-0.417402220,2.039912221,4.203836323,0.288743911,-0.006165219,-0.060703383,-0.709135878
1750924549.045168877,-1.367783030,-1.391018800,-1.953018823,1.552104271,-2.206432943,-3.776286508,0.036184396,0.129222006,-0.155864761,-0.005672373,-0.419628024,-0.419560333,2.036862319,4.203721568,0.288784932,-0.006162381,-0.060804288,-0.709956899
1750924549.047201395,-1.367783030,-1.391018800,-1.953018823,1.552104271,-2.206432943,-3.776286508,0.036184396,0.129222006,-0.155864761,-0.005672373,-0.419628024,-0.419560333,2.036862319,4.203721568,0.288784932,-0.006162381,-0.060804288,-0.709956899
1750924549.049211740,-1.367710922,-1.390759434,-1.953331169,1.552092909,-2.207274361,-3.777127790,0.035922461,0.130144316,-0.156480952,-0.005690351,-0.421790063,-0.421722030,2.033802668,4.203605904,0.288826196,-0.006159533,-0.060905327,-0.710778372
1750924549.051098585,-1.367639344,-1.390498219,-1.953644746,1.552081510,-2.208120106,-3.777973398,0.035654784,0.131071219,-0.157095857,-0.005708124,-0.423955693,-0.423887316,2.030733329,4.203489327,0.288867702,-0.006156673,-0.061006493,-0.711600233
1750924549.053195953,-1.367568307,-1.390235146,-1.953959551,1.552070076,-2.208970186,-3.778823341,0.035381334,0.132002737,-0.157709471,-0.005725691,-0.426124918,-0.426056195,2.027654363,4.203371836,0.288909449,-0.006153802,-0.061107782,-0.712422420
1750924549.055213451,-1.367497823,-1.389970205,-1.954275583,1.552058607,-2.209824608,-3.779677626,0.035102085,0.132938889,-0.158321786,-0.005743051,-0.428297743,-0.428228671,2.024565834,4.203253428,0.288951437,-0.006150919,-0.061209186,-0.713244870
1750924549.057210922,-1.367427903,-1.389703387,-1.954592837,1.552047104,-2.210683379,-3.780536258,0.034817008,0.133879697,-0.158932793,-0.005760203,-0.430474172,-0.430404748,2.021467803,4.203134102,0.288993665,-0.006148025,-0.061310699,-0.714067518
1750924549.059033394,-1.367358559,-1.389434683,-1.954911313,1.552035567,-2.211546507,-3.781399247,0.034526076,0.134825181,-0.159542485,-0.005777146,-0.432654208,-0.432584430,2.018360334,4.203013855,0.289036132,-0.006145119,-0.061412314,-0.714890298
1750924549.061150551,-1.367289802,-1.389164084,-1.955231006,1.552023996,-2.212413999,-3.782266598,0.034229260,0.135775364,-0.160150856,-0.005793880,-0.434837854,-0.434767720,2.015243491,4.202892685,0.289078838,-0.006142201,-0.061514026,-0.715713146
1750924549.066021919,-1.367221645,-1.388891579,-1.955551915,1.552012391,-2.213285861,-3.783138320,0.033926533,0.136730264,-0.160757897,-0.005810404,-0.437025115,-0.436954621,2.012117338,4.202770590,0.289121781,-0.006139270,-0.061615826,-0.716535995
1750924549.068653107,-1.367154100,-1.388617159,-1.955874037,1.552000754,-2.214162101,-3.784014419,0.033617866,0.137689904,-0.161363600,-0.005826717,-0.439215991,-0.439145136,2.008981941,4.202647569,0.289164962,-0.006136327,-0.061717709,-0.717358777
1750924549.068732738,-1.367087178,-1.388340816,-1.956197369,1.551989085,-2.215042727,-3.784894903,0.033303232,0.138654305,-0.161967960,-0.005842818,-0.441410488,-0.441339268,2.005837365,4.202523620,0.289208378,-0.006133372,-0.061819668,-0.718181424
1750924549.069010258,-1.367087178,-1.388340816,-1.956197369,1.551989085,-2.215042727,-3.784894903,0.033303232,0.138654305,-0.161967960,-0.005842818,-0.441410488,-0.441339268,2.005837365,4.202523620,0.289208378,-0.006133372,-0.061819668,-0.718181424
1750924549.071282625,-1.367020891,-1.388062539,-1.956521908,1.551977383,-2.215927746,-3.785779779,0.032982603,0.139623487,-0.162570968,-0.005858707,-0.443608606,-0.443537019,2.002683676,4.202398740,0.289252031,-0.006130404,-0.061921696,-0.719003868
1750924549.073166847,-1.366955252,-1.387782319,-1.956847652,1.551965650,-2.216817164,-3.786669054,0.032655950,0.140597472,-0.163172616,-0.005874383,-0.445810348,-0.445738392,1.999520940,4.202272930,0.289295917,-0.006127423,-0.062023785,-0.719826040
1750924549.075042486,-1.366890271,-1.387500146,-1.957174598,1.551953886,-2.217710990,-3.787562735,0.032323246,0.141576280,-0.163772899,-0.005889844,-0.448015716,-0.447943388,1.996349225,4.202146185,0.289340037,-0.006124428,-0.062125929,-0.720647869
1750924549.077038527,-1.366825963,-1.387216011,-1.957502743,1.551942091,-2.218609229,-3.788460830,0.031984462,0.142559932,-0.164371808,-0.005905090,-0.450224712,-0.450152009,1.993168598,4.202018507,0.289384390,-0.006121421,-0.062228121,-0.721469284
1750924549.078968048,-1.366762338,-1.386929903,-1.957832084,1.551930265,-2.219511891,-3.789363345,0.031639572,0.143548451,-0.164969336,-0.005920120,-0.452437336,-0.452364257,1.989979128,4.201889892,0.289428974,-0.006118400,-0.062330354,-0.722290214
1750924549.081042767,-1.366699408,-1.386641813,-1.958162619,1.551918410,-2.220418981,-3.790270289,0.031288545,0.144541857,-0.165565476,-0.005934934,-0.454653591,-0.454580132,1.986780884,4.201760340,0.289473789,-0.006115365,-0.062432620,-0.723110586
1750924549.083071232,-1.366637188,-1.386351732,-1.958494345,1.551906526,-2.221330508,-3.791181668,0.030931355,0.145540171,-0.166160221,-0.005949530,-0.456873478,-0.456799636,1.983573935,4.201629849,0.289518833,-0.006112317,-0.062534911,-0.723930327
1750924549.087018967,-1.366575687,-1.386059649,-1.958827259,1.551894612,-2.222246478,-3.792097490,0.030567974,0.146543414,-0.166753564,-0.005963908,-0.459096996,-0.459022769,1.980358351,4.201498418,0.289564106,-0.006109254,-0.062637222,-0.724749362
1750924549.087301970,-1.366514920,-1.385765555,-1.959161358,1.551882670,-2.223166898,-3.793017762,0.030198374,0.147551608,-0.167345497,-0.005978066,-0.461324146,-0.461249532,1.977134203,4.201366046,0.289609606,-0.006106178,-0.062739543,-0.725567618
1750924549.089370251,-1.366454898,-1.385469440,-1.959496640,1.551870700,-2.224091777,-3.793942491,0.029822526,0.148564775,-0.167936015,-0.005992005,-0.463554929,-0.463479924,1.973901562,4.201232732,0.289655331,-0.006103087,-0.062841868,-0.726385018
1750924549.091216326,-1.366395634,-1.385171293,-1.959833101,1.551858702,-2.225021120,-3.794871684,0.029440402,0.149582935,-0.168525109,-0.006005723,-0.465789344,-0.465713947,1.970660499,4.201098475,0.289701281,-0.006099981,-0.062944188,-0.727201487
1750924549.093169928,-1.366337140,-1.384871105,-1.960170739,1.551846678,-2.225954936,-3.795805349,0.029051975,0.150606109,-0.169112773,-0.006019218,-0.468027390,-0.467951598,1.967411088,4.200963274,0.289747455,-0.006096861,-0.063046497,-0.728016947
1750924549.094974041,-1.366279430,-1.384568865,-1.960509551,1.551834626,-2.226893232,-3.796743493,0.028657216,0.151634320,-0.169699000,-0.006032492,-0.470269068,-0.470192878,1.964153401,4.200827129,0.289793850,-0.006093726,-0.063148785,-0.728831320
1750924549.097160816,-1.366279430,-1.384568865,-1.960509551,1.551834626,-2.226893232,-3.796743493,0.028657216,0.151634320,-0.169699000,-0.006032492,-0.470269068,-0.470192878,1.964153401,4.200827129,0.289793850,-0.006093726,-0.063148785,-0.728831320
1750924549.099103928,-1.366222516,-1.384264564,-1.960849534,1.551822548,-2.227836015,-3.797686123,0.028256098,0.152667589,-0.170283783,-0.006045541,-0.472514376,-0.472437785,1.960887512,4.200690038,0.289840467,-0.006090576,-0.063251046,-0.729644528
1750924549.101155519,-1.366166410,-1.383958191,-1.961190686,1.551810444,-2.228783292,-3.798633246,0.027848592,0.153705937,-0.170867116,-0.006058367,-0.474763312,-0.474686319,1.957613495,4.200552002,0.289887302,-0.006087411,-0.063353271,-0.730456492
1750924549.102931499,-1.366111126,-1.383649737,-1.961533002,1.551798314,-2.229735071,-3.799584870,0.027434671,0.154749386,-0.171448992,-0.006070967,-0.477015876,-0.476938477,1.954331425,4.200413019,0.289934355,-0.006084230,-0.063455453,-0.731267130
1750924549.105210543,-1.366056676,-1.383339190,-1.961876481,1.551786160,-2.230691358,-3.800541003,0.027014307,0.155797957,-0.172029404,-0.006083341,-0.479272066,-0.479194258,1.951041376,4.200273089,0.289981625,-0.006081034,-0.063557582,-0.732076362
1750924549.107194662,-1.366003073,-1.383026542,-1.962221119,1.551773981,-2.231652161,-3.801501650,0.026587470,0.156851672,-0.172608346,-0.006095488,-0.481531878,-0.481453660,1.947743426,4.200132212,0.290029109,-0.006077822,-0.063659652,-0.732884106
1750924549.109004259,-1.365950330,-1.382711780,-1.962566913,1.551761778,-2.232617488,-3.802466820,0.026154134,0.157910553,-0.173185811,-0.006107407,-0.483795312,-0.483716680,1.944437651,4.199990387,0.290076806,-0.006074594,-0.063761652,-0.733690280
1750924549.111083269,-1.365898461,-1.382394896,-1.962913861,1.551749552,-2.233587345,-3.803436519,0.025714271,0.158974621,-0.173761792,-0.006119098,-0.486062363,-0.485983316,1.941124128,4.199847615,0.290124715,-0.006071350,-0.063863576,-0.734494799
1750924549.113084555,-1.365847477,-1.382075878,-1.963261959,1.551737302,-2.234561740,-3.804410755,0.025267852,0.160043899,-0.174336283,-0.006130558,-0.488333030,-0.488253564,1.937802936,4.199703895,0.290172833,-0.006068090,-0.063965414,-0.735297580
1750924549.115109921,-1.365797394,-1.381754717,-1.963611205,1.551725030,-2.235540680,-3.805389536,0.024814850,0.161118407,-0.174909279,-0.006141789,-0.490607309,-0.490527422,1.934474151,4.199559228,0.290221159,-0.006064813,-0.064067159,-0.736098538
1750924549.120514631,-1.365748222,-1.381431401,-1.963961595,1.551712735,-2.236524171,-3.806372867,0.024355236,0.162198168,-0.175480772,-0.006152787,-0.492885195,-0.492804885,1.931137855,4.199413613,0.290269692,-0.006061520,-0.064168800,-0.736897586
1750924549.120770931,-1.365652671,-1.380778265,-1.964665797,1.551688081,-2.238504841,-3.808353214,0.023416063,0.164373537,-0.176619227,-0.006174087,-0.497451776,-0.497370611,1.924443045,4.199119542,0.290367368,-0.006054883,-0.064371740,-0.738489607
1750924549.121012449,-1.365652671,-1.380778265,-1.964665797,1.551688081,-2.238504841,-3.808353214,0.023416063,0.164373537,-0.176619227,-0.006174087,-0.497451776,-0.497370611,1.924443045,4.199119542,0.290367368,-0.006054883,-0.064371740,-0.738489607
1750924549.123675346,-1.365606317,-1.380448423,-1.965019603,1.551675722,-2.239502032,-3.809350242,0.022936447,0.165469189,-0.177186176,-0.006184386,-0.499740462,-0.499658866,1.921084694,4.198971086,0.290416508,-0.006051539,-0.064473020,-0.739282403
1750924549.126570463,-1.365560930,-1.380116384,-1.965374541,1.551663344,-2.240503805,-3.810351851,0.022450109,0.166570181,-0.177751598,-0.006194450,-0.502032739,-0.501950708,1.917719153,4.198821685,0.290465846,-0.006048178,-0.064574163,-0.740072937
1750924549.127171516,-1.365560930,-1.380116384,-1.965374541,1.551663344,-2.240503805,-3.810351851,0.022450109,0.166570181,-0.177751598,-0.006194450,-0.502032739,-0.501950708,1.917719153,4.198821685,0.290465846,-0.006048178,-0.064574163,-0.740072937
1750924549.129055500,-1.365516521,-1.379782139,-1.965730608,1.551650945,-2.241510166,-3.811358048,0.021957019,0.167676536,-0.178315488,-0.006204278,-0.504328600,-0.504246133,1.914346505,4.198671338,0.290515381,-0.006044799,-0.064675158,-0.740861121
1750924549.131051779,-1.365472382,-1.379446572,-1.966087659,1.551638524,-2.242519587,-3.812367303,0.022427811,0.167586841,-0.178686456,-0.006216728,-0.504572263,-0.504489733,2.216855892,4.050558141,0.291422071,-0.001638758,-0.006864071,-0.094918190
1750924549.132993460,-1.365426727,-1.379111895,-1.966445337,1.551626078,-2.243528278,-3.813375830,0.023226824,0.167089539,-0.178991407,-0.006230079,-0.504118932,-0.504036465,2.319342721,3.999677080,0.291738166,-0.000141305,0.012770479,0.124472881
1750924549.135105848,-1.365379474,-1.378778214,-1.966803624,1.551613604,-2.244536062,-3.814383449,0.024025954,0.166590984,-0.179295265,-0.006243385,-0.503664793,-0.503582389,2.318386387,3.998826185,0.291761989,-0.000135630,0.012793247,0.124839684
1750924549.137026787,-1.365330623,-1.378445532,-1.967162517,1.551601104,-2.245542936,-3.815390159,0.024825199,0.166091180,-0.179598033,-0.006256648,-0.503209841,-0.503127501,2.317416800,3.997974075,0.291785714,-0.000129968,0.012816141,0.125207556
1750924549.140463114,-1.365280173,-1.378113850,-1.967522015,1.551588578,-2.246548901,-3.816395958,0.025624559,0.165590133,-0.179899715,-0.006269868,-0.502754072,-0.502671795,2.316433958,3.997120753,0.291809341,-0.000124319,0.012839160,0.125576500
1750924549.141021252,-1.365228125,-1.377783172,-1.967882115,1.551576025,-2.247553952,-3.817400845,0.026424030,0.165087847,-0.180200315,-0.006283045,-0.502297482,-0.502215268,2.315437863,3.996266221,0.291832868,-0.000118682,0.012862307,0.125946520
1750924549.142969608,-1.365174477,-1.377453500,-1.968242816,1.551563445,-2.248558090,-3.818404819,0.027223612,0.164584328,-0.180499837,-0.006296179,-0.501840065,-0.501757914,2.314428511,3.995410481,0.291856296,-0.000113059,0.012885581,0.126317619
1750924549.144982815,-1.365119230,-1.377124836,-1.968604114,1.551550840,-2.249561312,-3.819407877,0.028023303,0.164079580,-0.180798283,-0.006309270,-0.501381818,-0.501299730,2.313405903,3.994553538,0.291879625,-0.000107448,0.012908982,0.126689802
1750924549.147229195,-1.365062384,-1.376797182,-1.968966008,1.551538208,-2.250563617,-3.820410017,0.028823101,0.163573609,-0.181095659,-0.006322320,-0.500922735,-0.500840711,2.312370038,3.993695392,0.291902854,-0.000101850,0.012932513,0.127063072
1750924549.149137974,-1.365003938,-1.376470542,-1.969328496,1.551525551,-2.251565002,-3.821411239,0.029623003,0.163066419,-0.181391968,-0.006335327,-0.500462812,-0.500380851,2.311320915,3.992836047,0.291925983,-0.000096265,0.012956172,0.127437432
1750924549.151061535,-1.364943892,-1.376144917,-1.969691575,1.551512867,-2.252565467,-3.822411540,0.030423010,0.162558016,-0.181687213,-0.006348292,-0.500002045,-0.499920147,2.310258533,3.991975505,0.291949012,-0.000090694,0.012979961,0.127812888
1750924549.153078318,-1.364882246,-1.375820311,-1.970055244,1.551500158,-2.253565010,-3.823410919,0.031223118,0.162048405,-0.181981398,-0.006361216,-0.499540429,-0.499458595,2.309182891,3.991113768,0.291971941,-0.000085135,0.013003880,0.128189442
1750924549.155165911,-1.364818999,-1.375496725,-1.970419500,1.551487422,-2.254563628,-3.824409374,0.032023326,0.161537591,-0.182274528,-0.006374098,-0.499077959,-0.498996188,2.308093989,3.990250840,0.291994770,-0.000079589,0.013027930,0.128567099
1750924549.157087088,-1.364754152,-1.375174161,-1.970784342,1.551474661,-2.255561321,-3.825406903,0.032823632,0.161025578,-0.182566606,-0.006386940,-0.498614630,-0.498532923,2.306991827,3.989386722,0.292017498,-0.000074057,0.013052111,0.128945863
1750924549.159075499,-1.364687705,-1.374852623,-1.971149766,1.551461875,-2.256558086,-3.826403505,0.033624034,0.160512372,-0.182857636,-0.006399741,-0.498150439,-0.498068795,2.305876402,3.988521418,0.292040124,-0.000068537,0.013076425,0.129325737
1750924549.161032915,-1.364619656,-1.374532113,-1.971515771,1.551449062,-2.257553922,-3.827399178,0.034424532,0.159997979,-0.183147622,-0.006412501,-0.497685380,-0.497603800,2.304747716,3.987654930,0.292062650,-0.000063031,0.013100871,0.129706727
1750924549.163068533,-1.364550006,-1.374212632,-1.971882356,1.551436225,-2.258548827,-3.828393920,0.035225122,0.159482402,-0.183436568,-0.006425220,-0.497219448,-0.497137932,2.303605767,3.986787260,0.292085075,-0.000057538,0.013125450,0.130088835
1750924549.165094614,-1.364478756,-1.373894184,-1.972249517,1.551423361,-2.259542800,-3.829387729,0.036025804,0.158965648,-0.183724477,-0.006437900,-0.496752639,-0.496671186,2.302450554,3.985918411,0.292107397,-0.000052059,0.013150164,0.130472067
1750924549.167074919,-1.364405903,-1.373576770,-1.972617253,1.551410473,-2.260535837,-3.830380604,0.036826575,0.158447721,-0.184011354,-0.006450540,-0.496284948,-0.496203559,2.301282078,3.985048385,0.292129618,-0.000046593,0.013175012,0.130856427
1750924549.173494101,-1.364331449,-1.373260394,-1.972985562,1.551397559,-2.261527939,-3.831372542,0.037627433,0.157928628,-0.184297202,-0.006463141,-0.495816370,-0.495735045,2.300100338,3.984177185,0.292151738,-0.000041140,0.013199995,0.131241918
1750924549.173547029,-1.364331449,-1.373260394,-1.972985562,1.551397559,-2.261527939,-3.831372542,0.037627433,0.157928628,-0.184297202,-0.006463141,-0.495816370,-0.495735045,2.300100338,3.984177185,0.292151738,-0.000041140,0.013199995,0.131241918
1750924549.175761461,-1.364177736,-1.372630761,-1.973723889,1.551371657,-2.263509326,-3.833353604,0.039229407,0.156886958,-0.184865827,-0.006488224,-0.494876534,-0.494795338,2.297697063,3.982431274,0.292195669,-0.000030275,0.013250369,0.132016315
1750924549.177273035,-1.364098476,-1.372317509,-1.974093904,1.551358668,-2.264498608,-3.834342724,0.040030518,0.156364394,-0.185148613,-0.006500708,-0.494405266,-0.494324134,2.296475528,3.981556568,0.292217481,-0.000024862,0.013275762,0.132405229
1750924549.179137230,-1.364017613,-1.372005304,-1.974464483,1.551345654,-2.265486946,-3.835330900,0.040831709,0.155840682,-0.185430385,-0.006513153,-0.493933092,-0.493852025,2.295240727,3.980680697,0.292239190,-0.000019463,0.013301292,0.132795292
1750924549.181091070,-1.363935149,-1.371694147,-1.974835625,1.551332615,-2.266474339,-3.836318132,0.041632980,0.155315830,-0.185711149,-0.006525560,-0.493460007,-0.493379005,2.293992660,3.979803666,0.292260796,-0.000014078,0.013326961,0.133186509
1750924549.182951689,-1.363851082,-1.371384042,-1.975207327,1.551319552,-2.267460786,-3.837304416,0.042434327,0.154789841,-0.185990908,-0.006537929,-0.492986006,-0.492905068,2.292731327,3.978925475,0.292282299,-0.000008706,0.013352769,0.133578886
1750924549.185028076,-1.363765411,-1.371074989,-1.975579588,1.551306463,-2.268446283,-3.838289751,0.043235750,0.154262722,-0.186269665,-0.006550260,-0.492511084,-0.492430211,2.291456727,3.978046128,0.292303698,-0.000003348,0.013378716,0.133972425
1750924549.187040567,-1.363678138,-1.370766991,-1.975952405,1.551293350,-2.269430829,-3.839274136,0.044037246,0.153734477,-0.186547426,-0.006562553,-0.492035235,-0.491954428,2.290168861,3.977165627,0.292324994,0.000001996,0.013404804,0.134367133
1750924549.188980818,-1.363589262,-1.370460052,-1.976325777,1.551280213,-2.270414423,-3.840257568,0.044838814,0.153205112,-0.186824193,-0.006574810,-0.491558456,-0.491477713,2.288867728,3.976283975,0.292346186,0.000007327,0.013431033,0.134763014
1750924549.192228556,-1.363589262,-1.370460052,-1.976325777,1.551280213,-2.270414423,-3.840257568,0.044838814,0.153205112,-0.186824193,-0.006574810,-0.491558456,-0.491477713,2.288867728,3.976283975,0.292346186,0.000007327,0.013431033,0.134763014
1750924549.193158865,-1.363406701,-1.369849354,-1.977074176,1.551253865,-2.272378746,-3.842221568,0.046442157,0.152143043,-0.187374765,-0.006599213,-0.490602083,-0.490521472,2.286225660,3.974517227,0.292388257,0.000017947,0.013483917,0.135558314
1750924549.195505142,-1.363313014,-1.369545600,-1.977449199,1.551240654,-2.273359470,-3.843202131,0.047243929,0.151610350,-0.187648577,-0.006611360,-0.490122480,-0.490041935,2.284884725,3.973632137,0.292409136,0.000023236,0.013510573,0.135957742
1750924549.197188377,-1.363217725,-1.369242913,-1.977824770,1.551227420,-2.274339235,-3.844181735,0.048045766,0.151076557,-0.187921413,-0.006623470,-0.489641926,-0.489561447,2.283530524,3.972745904,0.292429910,0.000028511,0.013537373,0.136358363
1750924549.199167013,-1.363120831,-1.368941295,-1.978200884,1.551214161,-2.275318037,-3.845160377,0.048847665,0.150541672,-0.188193275,-0.006635545,-0.489160415,-0.489080002,2.282163055,3.971858533,0.292450579,0.000033773,0.013564318,0.136760181
1750924549.201072693,-1.363022334,-1.368640747,-1.978577542,1.551200877,-2.276295876,-3.846138054,0.049649625,0.150005698,-0.188464169,-0.006647584,-0.488677943,-0.488597596,2.280782319,3.970970026,0.292471143,0.000039020,0.013591407,0.137163202
1750924549.203072071,-1.362922233,-1.368341273,-1.978954740,1.551187570,-2.277272748,-3.847114766,0.050451644,0.149468641,-0.188734098,-0.006659588,-0.488194503,-0.488114224,2.279388316,3.970080385,0.292491602,0.000044253,0.013618643,0.137567430
1750924549.205249786,-1.362922233,-1.368341273,-1.978954740,1.551187570,-2.277272748,-3.847114766,0.050451644,0.149468641,-0.188734098,-0.006659588,-0.488194503,-0.488114224,2.279388316,3.970080385,0.292491602,0.000044253,0.013618643,0.137567430
1750924549.207067490,-1.362820528,-1.368042873,-1.979332478,1.551174239,-2.278248653,-3.848090511,0.051253720,0.148930507,-0.189003066,-0.006671557,-0.487710092,-0.487629879,2.277981046,3.969189612,0.292511956,0.000049473,0.013646025,0.137972871
1750924549.209099054,-1.362717218,-1.367745551,-1.979710752,1.551160884,-2.279223588,-3.849065285,0.052055851,0.148391302,-0.189271078,-0.006683492,-0.487224704,-0.487144558,2.276560509,3.968297711,0.292532203,0.000054678,0.013673554,0.138379530
1750924549.211045742,-1.362612304,-1.367449309,-1.980089561,1.551147505,-2.280197551,-3.850039088,0.052858036,0.147851029,-0.189538137,-0.006695391,-0.486738332,-0.486658255,2.275126706,3.967404683,0.292552345,0.000059869,0.013701232,0.138787412
1750924549.213098526,-1.362505786,-1.367154148,-1.980468904,1.551134103,-2.281170541,-3.851011918,0.053660273,0.147309696,-0.189804247,-0.006707257,-0.486250974,-0.486170963,2.273679636,3.966510531,0.292572381,0.000065046,0.013729058,0.139196523
1750924549.215130329,-1.362397663,-1.366860071,-1.980848778,1.551120676,-2.282142555,-3.851983771,0.054462560,0.146767308,-0.190069414,-0.006719089,-0.485762622,-0.485682680,2.272219300,3.965615257,0.292592310,0.000070208,0.013757033,0.139606867
1750924549.217245102,-1.362287935,-1.366567079,-1.981229181,1.551107226,-2.283113591,-3.852954648,0.055264895,0.146223869,-0.190333640,-0.006730887,-0.485273271,-0.485193398,2.270745699,3.964718865,0.292612133,0.000075357,0.013785159,0.140018451
1750924549.219145775,-1.362176603,-1.366275176,-1.981610112,1.551093753,-2.284083647,-3.853924544,0.056067276,0.145679386,-0.190596930,-0.006742652,-0.484782917,-0.484703112,2.269258832,3.963821356,0.292631849,0.000080491,0.013813435,0.140431280
1750924549.221157312,-1.362063666,-1.365984363,-1.981991568,1.551080256,-2.285052722,-3.854893459,0.056869701,0.145133863,-0.190859289,-0.006754384,-0.484291554,-0.484211818,2.267758699,3.962922733,0.292651458,0.000085611,0.013841863,0.140845359
1750924549.226205349,-1.361949124,-1.365694641,-1.982373548,1.551066735,-2.286020813,-3.855861391,0.057672169,0.144587307,-0.191120720,-0.006766083,-0.483799176,-0.483719509,2.266245302,3.962022999,0.292670960,0.000090716,0.013870444,0.141260694
1750924549.227267981,-1.361832978,-1.365406014,-1.982756050,1.551053191,-2.286987918,-3.856828337,0.058474678,0.144039723,-0.191381227,-0.006777749,-0.483305778,-0.483226181,2.264718641,3.961122155,0.292690354,0.000095807,0.013899178,0.141677290
1750924549.229136229,-1.361595869,-1.364832050,-1.983522613,1.551026034,-2.288919162,-3.858759263,0.060079810,0.142941493,-0.191899488,-0.006800986,-0.482315901,-0.482236443,2.261625527,3.959317149,0.292728821,0.000105946,0.013957107,0.142514291
1750924549.231633663,-1.361474906,-1.364546718,-1.983906670,1.551012420,-2.289883298,-3.859723240,0.060882430,0.142390859,-0.192157250,-0.006812557,-0.481819410,-0.481740023,2.260059076,3.958412992,0.292747892,0.000110994,0.013986305,0.142934707
1750924549.233070612,-1.361352339,-1.364262487,-1.984291241,1.550998784,-2.290846439,-3.860686223,0.061685083,0.141839218,-0.192414105,-0.006824096,-0.481321877,-0.481242561,2.258479362,3.957507735,0.292766855,0.000116027,0.014015659,0.143356407
1750924549.235047340,-1.361228166,-1.363979362,-1.984676326,1.550985124,-2.291808585,-3.861648210,0.062487768,0.141286577,-0.192670058,-0.006835605,-0.480823297,-0.480744052,2.256886387,3.956601382,0.292785710,0.000121045,0.014045169,0.143779398
1750924549.237057447,-1.361102388,-1.363697342,-1.985061921,1.550971441,-2.292769732,-3.862609198,0.063290482,0.140732942,-0.192925112,-0.006847082,-0.480323663,-0.480244490,2.255280151,3.955693934,0.292804456,0.000126049,0.014074838,0.144203686
1750924549.239018679,-1.360975004,-1.363416430,-1.985448026,1.550957736,-2.293729879,-3.863569187,0.064093224,0.140178318,-0.193179273,-0.006858529,-0.479822971,-0.479743870,2.253660654,3.954785393,0.292823094,0.000131038,0.014104664,0.144629276
1750924549.240977526,-1.360846015,-1.363136629,-1.985834638,1.550944007,-2.294689023,-3.864528173,0.064895991,0.139622710,-0.193432544,-0.006869946,-0.479321214,-0.479242185,2.252027898,3.953875763,0.292841623,0.000136013,0.014134651,0.145056176
1750924549.242930412,-1.360715420,-1.362857940,-1.986221755,1.550930256,-2.295647163,-3.865486155,0.065698783,0.139066124,-0.193684929,-0.006881333,-0.478818388,-0.478739431,2.250381884,3.952965045,0.292860042,0.000140972,0.014164797,0.145484390
1750924549.245819330,-1.360715420,-1.362857940,-1.986221755,1.550930256,-2.295647163,-3.865486155,0.065698783,0.139066124,-0.193684929,-0.006881333,-0.478818388,-0.478739431,2.250381884,3.952965045,0.292860042,0.000140972,0.014164797,0.145484390
1750924549.247331381,-1.360583220,-1.362580365,-1.986609377,1.550916482,-2.296604296,-3.866443130,0.066501597,0.138508567,-0.193936434,-0.006892690,-0.478314485,-0.478235601,2.248722611,3.952053242,0.292878353,0.000145917,0.014195104,0.145913926
1750924549.249120712,-1.360449414,-1.362303907,-1.986997500,1.550902685,-2.297560420,-3.867399097,0.067304431,0.137950043,-0.194187061,-0.006904018,-0.477809500,-0.477730691,2.247050081,3.951140356,0.292896554,0.000150847,0.014225572,0.146344789
1750924549.251048803,-1.360314002,-1.362028566,-1.987386124,1.550888866,-2.298515533,-3.868354052,0.068107284,0.137390559,-0.194436816,-0.006915317,-0.477303429,-0.477224693,2.245364295,3.950226390,0.292914645,0.000155763,0.014256204,0.146776986
1750924549.253197670,-1.360176985,-1.361754345,-1.987775247,1.550875024,-2.299469633,-3.869307995,0.068910152,0.136830119,-0.194685702,-0.006926587,-0.476796264,-0.476717602,2.243665253,3.949311346,0.292932626,0.000160663,0.014286998,0.147210523
