mathias31415/motion_primitives_from_planned_trajectory/data/trajectory_20250626_095358_planned.csv
time_from_start,shoulder_pan_joint_pos,shoulder_lift_joint_pos,elbow_joint_pos,wrist_1_joint_pos,wrist_2_joint_pos,wrist_3_joint_pos,shoulder_pan_joint_vel,shoulder_lift_joint_vel,elbow_joint_vel,wrist_1_joint_vel,wrist_2_joint_vel,wrist_3_joint_vel,shoulder_pan_joint_acc,shoulder_lift_joint_acc,elbow_joint_acc,wrist_1_joint_acc,wrist_2_joint_acc,wrist_3_joint_acc,pose_x,pose_y,pose_z,pose_qx,pose_qy,pose_qz,pose_qw
0.000000,-2.365110,-1.547685,-1.787364,-1.412483,1.570481,-0.795068,-0.000500,0.000055,0.000146,-0.000188,-0.000006,-0.000500,-0.499955,0.054563,0.146220,-0.188016,-0.006211,-0.500000,-0.594618,-0.339938,0.562666,-0.000380,0.999846,0.012421,0.012429
0.100000,-2.367610,-1.547412,-1.786633,-1.413423,1.570450,-0.797568,-0.049995,0.005456,0.014622,-0.018802,-0.000621,-0.050000,-0.499955,0.054563,0.146220,-0.188016,-0.006211,-0.500000,-0.595433,-0.338414,0.563232,-0.000380,0.999846,0.012379,0.012426
0.200000,-2.375109,-1.546594,-1.784440,-1.416243,1.570357,-0.805068,-0.099991,0.010913,0.029244,-0.037603,-0.001242,-0.100000,-0.499955,0.054563,0.146220,-0.188016,-0.006211,-0.500000,-0.597852,-0.333826,0.564933,-0.000381,0.999848,0.012252,0.012417
0.300000,-2.387608,-1.545230,-1.780784,-1.420944,1.570201,-0.817568,-0.149986,0.016369,0.043866,-0.056405,-0.001863,-0.150000,-0.499955,0.054563,0.146220,-0.188016,-0.006211,-0.500000,-0.601798,-0.326134,0.567768,-0.000383,0.999851,0.012043,0.012400
0.400000,-2.405106,-1.543320,-1.775666,-1.427524,1.569984,-0.835068,-0.199982,0.021825,0.058488,-0.075206,-0.002485,-0.200000,-0.499955,0.054563,0.146220,-0.188016,-0.006211,-0.500000,-0.607138,-0.315271,0.571739,-0.000386,0.999854,0.011755,0.012370
0.500000,-2.425961,-1.541044,-1.769567,-1.435367,1.569725,-0.855924,-0.209440,0.022857,0.061254,-0.078763,-0.002602,-0.209459,0.000000,-0.000000,-0.000000,0.000000,0.000000,0.000000,-0.613219,-0.302188,0.576477,-0.000389,0.999859,0.011418,0.012327
0.600000,-2.446905,-1.538758,-1.763442,-1.443243,1.569465,-0.876870,-0.209440,0.022857,0.061254,-0.078763,-0.002602,-0.209459,-0.000000,0.000000,0.000000,-0.000000,-0.000000,-0.000000,-0.619013,-0.288906,0.581238,-0.000392,0.999863,0.011086,0.012275
0.700000,-2.467849,-1.536473,-1.757316,-1.451120,1.569205,-0.897816,-0.209440,0.022857,0.061254,-0.078763,-0.002602,-0.209459,0.000000,-0.000000,-0.000000,0.000000,0.000000,0.000000,-0.624488,-0.275490,0.586002,-0.000395,0.999867,0.010761,0.012214
0.800000,-2.488793,-1.534187,-1.751191,-1.458996,1.568944,-0.918762,-0.209440,0.022857,0.061254,-0.078763,-0.002602,-0.209459,0.000000,-0.000000,-0.000000,0.000000,0.000000,0.000000,-0.629641,-0.261946,0.590769,-0.000398,0.999872,0.010444,0.012145
0.900000,-2.509737,-1.531901,-1.745066,-1.466872,1.568684,-0.939708,-0.209440,0.022857,0.061254,-0.078763,-0.002602,-0.209459,0.000000,-0.000000,-0.000000,0.000000,0.000000,0.000000,-0.634469,-0.248285,0.595539,-0.000400,0.999876,0.010135,0.012069
1.000000,-2.530681,-1.529615,-1.738940,-1.474749,1.568424,-0.960654,-0.209440,0.022857,0.061254,-0.078763,-0.002602,-0.209459,-0.000000,0.000000,0.000000,-0.000000,-0.000000,-0.000000,-0.638969,-0.234513,0.600311,-0.000403,0.999880,0.009833,0.011985
1.100000,-2.551625,-1.527330,-1.732815,-1.482625,1.568164,-0.981600,-0.209440,0.022857,0.061254,-0.078763,-0.002602,-0.209459,0.000000,-0.000000,-0.000000,0.000000,0.000000,0.000000,-0.643136,-0.220639,0.605085,-0.000406,0.999884,0.009540,0.011893
1.200000,-2.572568,-1.525044,-1.726689,-1.490501,1.567904,-1.002545,-0.209440,0.022857,0.061254,-0.078763,-0.002602,-0.209459,0.000000,-0.000000,-0.000000,0.000000,0.000000,0.000000,-0.646970,-0.206673,0.609861,-0.000408,0.999888,0.009254,0.011795
1.300000,-2.593512,-1.522758,-1.720564,-1.498378,1.567643,-1.023491,-0.209440,0.022857,0.061254,-0.078763,-0.002602,-0.209459,0.000000,-0.000000,-0.000000,0.000000,0.000000,0.000000,-0.650467,-0.192622,0.614638,-0.000411,0.999891,0.008977,0.011690
1.400000,-2.614456,-1.520472,-1.714438,-1.506254,1.567383,-1.044437,-0.209440,0.022857,0.061254,-0.078763,-0.002602,-0.209459,0.000000,-0.000000,-0.000000,0.000000,0.000000,0.000000,-0.653625,-0.178495,0.619416,-0.000413,0.999895,0.008708,0.011579
1.500000,-2.635400,-1.518187,-1.708313,-1.514130,1.567123,-1.065383,-0.209440,0.022857,0.061254,-0.078763,-0.002602,-0.209459,0.000000,-0.000000,-0.000000,0.000000,0.000000,0.000000,-0.656441,-0.164302,0.624195,-0.000415,0.999899,0.008448,0.011462
1.600000,-2.656344,-1.515901,-1.702188,-1.522006,1.566863,-1.086329,-0.209440,0.022857,0.061254,-0.078763,-0.002602,-0.209459,0.000000,-0.000000,-0.000000,0.000000,0.000000,0.000000,-0.658915,-0.150050,0.628974,-0.000418,0.999902,0.008196,0.011339
1.700000,-2.677288,-1.513615,-1.696062,-1.529883,1.566603,-1.107275,-0.209440,0.022857,0.061254,-0.078763,-0.002602,-0.209459,0.000000,-0.000000,-0.000000,0.000000,0.000000,0.000000,-0.661044,-0.135748,0.633753,-0.000420,0.999905,0.007954,0.011211
1.800000,-2.698232,-1.511329,-1.689937,-1.537759,1.566342,-1.128221,-0.209440,0.022857,0.061254,-0.078763,-0.002602,-0.209459,0.000000,-0.000000,-0.000000,0.000000,0.000000,0.000000,-0.662827,-0.121407,0.638531,-0.000422,0.999909,0.007720,0.011078
1.900000,-2.719176,-1.509044,-1.683811,-1.545635,1.566082,-1.149166,-0.209440,0.022857,0.061254,-0.078763,-0.002602,-0.209459,0.000000,-0.000000,-0.000000,0.000000,0.000000,0.000000,-0.664263,-0.107034,0.643309,-0.000424,0.999912,0.007496,0.010940
2.000000,-2.740120,-1.506758,-1.677686,-1.553512,1.565822,-1.170112,-0.209440,0.022857,0.061254,-0.078763,-0.002602,-0.209459,0.000000,-0.000000,-0.000000,0.000000,0.000000,0.000000,-0.665351,-0.092638,0.648086,-0.000426,0.999915,0.007280,0.010798
2.100000,-2.761064,-1.504472,-1.671561,-1.561388,1.565562,-1.191058,-0.209440,0.022857,0.061254,-0.078763,-0.002602,-0.209459,-0.000000,0.000000,0.000000,-0.000000,-0.000000,-0.000000,-0.666091,-0.078229,0.652861,-0.000428,0.999918,0.007074,0.010651
2.200000,-2.782008,-1.502187,-1.665435,-1.569264,1.565302,-1.212004,-0.209440,0.022857,0.061254,-0.078763,-0.002602,-0.209459,-0.000000,0.000000,0.000000,-0.000000,-0.000000,-0.000000,-0.666481,-0.063816,0.657634,-0.000430,0.999921,0.006877,0.010501
2.300000,-2.802952,-1.499901,-1.659310,-1.577141,1.565041,-1.232950,-0.209440,0.022857,0.061254,-0.078763,-0.002602,-0.209459,-0.000000,0.000000,0.000000,-0.000000,-0.000000,-0.000000,-0.666523,-0.049408,0.662406,-0.000432,0.999924,0.006690,0.010347
2.400000,-2.823896,-1.497615,-1.653184,-1.585017,1.564781,-1.253896,-0.209440,0.022857,0.061254,-0.078763,-0.002602,-0.209459,-0.000000,0.000000,0.000000,-0.000000,-0.000000,-0.000000,-0.666216,-0.035013,0.667175,-0.000433,0.999927,0.006512,0.010190
2.500000,-2.844840,-1.495329,-1.647059,-1.592893,1.564521,-1.274842,-0.209440,0.022857,0.061254,-0.078763,-0.002602,-0.209459,-0.000000,0.000000,0.000000,-0.000000,-0.000000,-0.000000,-0.665561,-0.020642,0.671941,-0.000435,0.999929,0.006343,0.010031
2.600000,-2.865784,-1.493044,-1.640934,-1.600770,1.564261,-1.295787,-0.209440,0.022857,0.061254,-0.078763,-0.002602,-0.209459,-0.000000,0.000000,0.000000,-0.000000,-0.000000,-0.000000,-0.664557,-0.006302,0.676704,-0.000436,0.999932,0.006184,0.009869
2.700000,-2.886728,-1.490758,-1.634808,-1.608646,1.564001,-1.316733,-0.209440,0.022857,0.061254,-0.078763,-0.002602,-0.209459,-0.000000,0.000000,0.000000,-0.000000,-0.000000,-0.000000,-0.663207,0.007996,0.681463,-0.000438,0.999935,0.006035,0.009705
2.800000,-2.907672,-1.488472,-1.628683,-1.616522,1.563740,-1.337679,-0.209440,0.022857,0.061254,-0.078763,-0.002602,-0.209459,-0.000000,0.000000,0.000000,-0.000000,-0.000000,-0.000000,-0.661511,0.022244,0.686219,-0.000439,0.999937,0.005895,0.009539
2.900000,-2.928616,-1.486186,-1.622557,-1.624399,1.563480,-1.358625,-0.209440,0.022857,0.061254,-0.078763,-0.002602,-0.209459,-0.000000,0.000000,0.000000,-0.000000,-0.000000,-0.000000,-0.659470,0.036433,0.690971,-0.000441,0.999939,0.005765,0.009371
3.000000,-2.949560,-1.483901,-1.616432,-1.632275,1.563220,-1.379571,-0.209440,0.022857,0.061254,-0.078763,-0.002602,-0.209459,-0.000000,0.000000,0.000000,-0.000000,-0.000000,-0.000000,-0.657086,0.050554,0.695718,-0.000442,0.999942,0.005644,0.009203
3.100000,-2.970504,-1.481615,-1.610307,-1.640151,1.562960,-1.400517,-0.209440,0.022857,0.061254,-0.078763,-0.002602,-0.209459,-0.000000,0.000000,0.000000,-0.000000,-0.000000,-0.000000,-0.654361,0.064598,0.700460,-0.000443,0.999944,0.005533,0.009033
3.200000,-2.991448,-1.479329,-1.604181,-1.648028,1.562700,-1.421462,-0.209440,0.022857,0.061254,-0.078763,-0.002602,-0.209459,-0.000000,0.000000,0.000000,-0.000000,-0.000000,-0.000000,-0.651297,0.078555,0.705197,-0.000444,0.999946,0.005431,0.008863
3.300000,-3.012391,-1.477043,-1.598056,-1.655904,1.562439,-1.442408,-0.209440,0.022857,0.061254,-0.078763,-0.002602,-0.209459,-0.000000,0.000000,0.000000,-0.000000,-0.000000,-0.000000,-0.647896,0.092418,0.709929,-0.000445,0.999948,0.005339,0.008693
3.400000,-3.033335,-1.474758,-1.591930,-1.663780,1.562179,-1.463354,-0.209440,0.022857,0.061254,-0.078763,-0.002602,-0.209459,-0.000000,0.000000,0.000000,-0.000000,-0.000000,-0.000000,-0.644161,0.106177,0.714655,-0.000446,0.999950,0.005256,0.008523
3.500000,-3.054279,-1.472472,-1.585805,-1.671657,1.561919,-1.484300,-0.209440,0.022857,0.061254,-0.078763,-0.002602,-0.209459,-0.000000,0.000000,0.000000,-0.000000,-0.000000,-0.000000,-0.640095,0.119823,0.719375,-0.000447,0.999952,0.005183,0.008354
3.600000,-3.075223,-1.470186,-1.579679,-1.679533,1.561659,-1.505246,-0.209440,0.022857,0.061254,-0.078763,-0.002602,-0.209459,-0.000000,0.000000,0.000000,-0.000000,-0.000000,-0.000000,-0.635701,0.133348,0.724088,-0.000448,0.999953,0.005119,0.008185
3.700000,-3.096167,-1.467900,-1.573554,-1.687409,1.561398,-1.526192,-0.209440,0.022857,0.061254,-0.078763,-0.002602,-0.209459,-0.000000,0.000000,0.000000,-0.000000,-0.000000,-0.000000,-0.630982,0.146744,0.728794,-0.000449,0.999955,0.005065,0.008017
3.800000,-3.117111,-1.465615,-1.567429,-1.695286,1.561138,-1.547138,-0.209440,0.022857,0.061254,-0.078763,-0.002602,-0.209459,-0.000000,0.000000,0.000000,-0.000000,-0.000000,-0.000000,-0.625941,0.160001,0.733493,-0.000450,0.999956,0.005019,0.007851
3.900000,-3.138055,-1.463329,-1.561303,-1.703162,1.560878,-1.568083,-0.209440,0.022857,0.061254,-0.078763,-0.002602,-0.209459,-0.000000,0.000000,0.000000,-0.000000,-0.000000,-0.000000,-0.620583,0.173112,0.738185,-0.000451,0.999958,0.004983,0.007687
4.000000,-3.158999,-1.461043,-1.555178,-1.711038,1.560618,-1.589029,-0.209440,0.022857,0.061254,-0.078763,-0.002602,-0.209459,-0.000000,0.000000,0.000000,-0.000000,-0.000000,-0.000000,-0.614912,0.186067,0.742869,-0.000451,0.999959,0.004956,0.007525
4.100000,-3.179943,-1.458758,-1.549052,-1.718914,1.560358,-1.609975,-0.209440,0.022857,0.061254,-0.078763,-0.002602,-0.209459,-0.000000,0.000000,0.000000,-0.000000,-0.000000,-0.000000,-0.608931,0.198860,0.747544,-0.000452,0.999961,0.004937,0.007364
4.200000,-3.200887,-1.456472,-1.542927,-1.726791,1.560097,-1.630921,-0.209440,0.022857,0.061254,-0.078763,-0.002602,-0.209459,-0.000000,0.000000,0.000000,-0.000000,-0.000000,-0.000000,-0.602645,0.211481,0.752211,-0.000452,0.999962,0.004928,0.007207
4.300000,-3.221831,-1.454186,-1.536802,-1.734667,1.559837,-1.651867,-0.209440,0.022857,0.061254,-0.078763,-0.002602,-0.209459,-0.000000,0.000000,0.000000,-0.000000,-0.000000,-0.000000,-0.596058,0.223923,0.756870,-0.000452,0.999963,0.004927,0.007053
4.400000,-3.242775,-1.451900,-1.530676,-1.742543,1.559577,-1.672813,-0.209440,0.022857,0.061254,-0.078763,-0.002602,-0.209459,-0.000000,0.000000,0.000000,-0.000000,-0.000000,-0.000000,-0.589177,0.236178,0.761519,-0.000453,0.999964,0.004935,0.006901
4.500000,-3.263719,-1.449615,-1.524551,-1.750420,1.559317,-1.693759,-0.209440,0.022857,0.061254,-0.078763,-0.002602,-0.209459,-0.000000,0.000000,0.000000,-0.000000,-0.000000,-0.000000,-0.582005,0.248238,0.766158,-0.000453,0.999965,0.004951,0.006754
4.600000,-3.284663,-1.447329,-1.518425,-1.758296,1.559057,-1.714704,-0.209440,0.022857,0.061254,-0.078763,-0.002602,-0.209459,-0.000000,0.000000,0.000000,-0.000000,-0.000000,-0.000000,-0.574548,0.260096,0.770788,-0.000453,0.999966,0.004976,0.006610
4.700000,-3.305607,-1.445043,-1.512300,-1.766172,1.558796,-1.735650,-0.209440,0.022857,0.061254,-0.078763,-0.002602,-0.209459,-0.000000,0.000000,0.000000,-0.000000,-0.000000,-0.000000,-0.566812,0.271744,0.775407,-0.000453,0.999966,0.005008,0.006470
4.800000,-3.326551,-1.442757,-1.506175,-1.774049,1.558536,-1.756596,-0.209440,0.022857,0.061254,-0.078763,-0.002602,-0.209459,-0.000000,0.000000,0.000000,-0.000000,-0.000000,-0.000000,-0.558802,0.283175,0.780016,-0.000453,0.999967,0.005049,0.006335
4.900000,-3.347495,-1.440472,-1.500049,-1.781925,1.558276,-1.777542,-0.209440,0.022857,0.061254,-0.078763,-0.002602,-0.209459,-0.000000,0.000000,0.000000,-0.000000,-0.000000,-0.000000,-0.550525,0.294382,0.784614,-0.000453,0.999968,0.005097,0.006204
5.000000,-3.368439,-1.438186,-1.493924,-1.789801,1.558016,-1.798488,-0.209440,0.022857,0.061254,-0.078763,-0.002602,-0.209459,-0.000000,0.000000,0.000000,-0.000000,-0.000000,-0.000000,-0.541986,0.305358,0.789200,-0.000453,0.999968,0.005153,0.006078
5.100000,-3.389383,-1.435900,-1.487798,-1.797678,1.557756,-1.819434,-0.209440,0.022857,0.061254,-0.078763,-0.002602,-0.209459,-0.000000,0.000000,0.000000,-0.000000,-0.000000,-0.000000,-0.533192,0.316096,0.793776,-0.000453,0.999969,0.005216,0.005958
5.200000,-3.410327,-1.433614,-1.481673,-1.805554,1.557495,-1.840380,-0.209440,0.022857,0.061254,-0.078763,-0.002602,-0.209459,-0.000000,0.000000,0.000000,-0.000000,-0.000000,-0.000000,-0.524149,0.326590,0.798339,-0.000453,0.999969,0.005287,0.005842
5.300000,-3.431270,-1.431329,-1.475548,-1.813430,1.557235,-1.861325,-0.209440,0.022857,0.061254,-0.078763,-0.002602,-0.209459,-0.000000,0.000000,0.000000,-0.000000,-0.000000,-0.000000,-0.514864,0.336832,0.802890,-0.000452,0.999969,0.005365,0.005733
5.400000,-3.452214,-1.429043,-1.469422,-1.821307,1.556975,-1.882271,-0.209440,0.022857,0.061254,-0.078763,-0.002602,-0.209459,-0.000000,0.000000,0.000000,-0.000000,-0.000000,-0.000000,-0.505344,0.346817,0.807429,-0.000452,0.999969,0.005449,0.005629
5.500000,-3.473158,-1.426757,-1.463297,-1.829183,1.556715,-1.903217,-0.209440,0.022857,0.061254,-0.078763,-0.002602,-0.209459,-0.000000,0.000000,0.000000,-0.000000,-0.000000,-0.000000,-0.495596,0.356539,0.811954,-0.000452,0.999969,0.005540,0.005532
5.600000,-3.494102,-1.424472,-1.457171,-1.837059,1.556455,-1.924163,-0.209440,0.022857,0.061254,-0.078763,-0.002602,-0.209459,-0.000000,0.000000,0.000000,-0.000000,-0.000000,-0.000000,-0.485627,0.365991,0.816467,-0.000451,0.999969,0.005638,0.005441
5.700000,-3.515046,-1.422186,-1.451046,-1.844936,1.556194,-1.945109,-0.209440,0.022857,0.061254,-0.078763,-0.002602,-0.209459,-0.000000,0.000000,0.000000,-0.000000,-0.000000,-0.000000,-0.475445,0.375169,0.820966,-0.000451,0.999969,0.005741,0.005356
5.800000,-3.535990,-1.419900,-1.444921,-1.852812,1.555934,-1.966055,-0.209440,0.022857,0.061254,-0.078763,-0.002602,-0.209459,-0.000000,0.000000,0.000000,-0.000000,-0.000000,-0.000000,-0.465057,0.384067,0.825451,-0.000450,0.999969,0.005851,0.005278
5.900000,-3.556934,-1.417614,-1.438795,-1.860688,1.555674,-1.987001,-0.209440,0.022857,0.061254,-0.078763,-0.002602,-0.209459,-0.000000,0.000000,0.000000,-0.000000,-0.000000,-0.000000,-0.454470,0.392678,0.829922,-0.000449,0.999969,0.005966,0.005208
6.000000,-3.577878,-1.415329,-1.432670,-1.868565,1.555414,-2.007946,-0.209440,0.022857,0.061254,-0.078763,-0.002602,-0.209459,-0.000000,0.000000,0.000000,-0.000000,-0.000000,-0.000000,-0.443693,0.400999,0.834378,-0.000448,0.999968,0.006087,0.005144
6.100000,-3.598822,-1.413043,-1.426544,-1.876441,1.555154,-2.028892,-0.209440,0.022857,0.061254,-0.078763,-0.002602,-0.209459,-0.000000,0.000000,0.000000,-0.000000,-0.000000,-0.000000,-0.432734,0.409025,0.838820,-0.000448,0.999968,0.006212,0.005088
6.200000,-3.619766,-1.410757,-1.420419,-1.884317,1.554893,-2.049838,-0.209440,0.022857,0.061254,-0.078763,-0.002602,-0.209459,-0.000000,0.000000,0.000000,-0.000000,-0.000000,-0.000000,-0.421600,0.416750,0.843247,-0.000447,0.999967,0.006343,0.005040
6.300000,-3.640710,-1.408471,-1.414293,-1.892194,1.554633,-2.070784,-0.209440,0.022857,0.061254,-0.078763,-0.002602,-0.209459,-0.000000,0.000000,0.000000,-0.000000,-0.000000,-0.000000,-0.410300,0.424171,0.847658,-0.000446,0.999966,0.006478,0.004999
6.400000,-3.661654,-1.406186,-1.408168,-1.900070,1.554373,-2.091730,-0.209440,0.022857,0.061254,-0.078763,-0.002602,-0.209459,-0.000000,0.000000,0.000000,-0.000000,-0.000000,-0.000000,-0.398843,0.431283,0.852053,-0.000444,0.999966,0.006618,0.004966
6.500000,-3.682598,-1.403900,-1.402043,-1.907946,1.554113,-2.112676,-0.209440,0.022857,0.061254,-0.078763,-0.002602,-0.209459,-0.000000,0.000000,0.000000,-0.000000,-0.000000,-0.000000,-0.387236,0.438082,0.856432,-0.000443,0.999965,0.006762,0.004942
6.600000,-3.703542,-1.401614,-1.395917,-1.915822,1.553853,-2.133622,-0.209440,0.022857,0.061254,-0.078763,-0.002602,-0.209459,-0.000000,0.000000,0.000000,-0.000000,-0.000000,-0.000000,-0.375489,0.444565,0.860795,-0.000442,0.999964,0.006910,0.004925
6.700000,-3.724486,-1.399328,-1.389792,-1.923699,1.553592,-2.154567,-0.209440,0.022857,0.061254,-0.078763,-0.002602,-0.209459,-0.000000,0.000000,0.000000,-0.000000,-0.000000,-0.000000,-0.363610,0.450728,0.865141,-0.000441,0.999963,0.007061,0.004917
6.800000,-3.745430,-1.397043,-1.383666,-1.931575,1.553332,-2.175513,-0.209440,0.022857,0.061254,-0.078763,-0.002602,-0.209459,-0.000000,0.000000,0.000000,-0.000000,-0.000000,-0.000000,-0.351607,0.456568,0.869470,-0.000439,0.999962,0.007215,0.004918
6.900000,-3.766374,-1.394757,-1.377541,-1.939451,1.553072,-2.196459,-0.209440,0.022857,0.061254,-0.078763,-0.002602,-0.209459,-0.000000,0.000000,0.000000,-0.000000,-0.000000,-0.000000,-0.339491,0.462082,0.873781,-0.000438,0.999961,0.007373,0.004927
7.000000,-3.787318,-1.392471,-1.371416,-1.947328,1.552812,-2.217405,-0.209440,0.022857,0.061254,-0.078763,-0.002602,-0.209459,-0.000000,0.000000,0.000000,-0.000000,-0.000000,-0.000000,-0.327269,0.467267,0.878075,-0.000437,0.999959,0.007533,0.004946
7.100000,-3.808262,-1.390186,-1.365290,-1.955204,1.552552,-2.238351,-0.209440,0.022857,0.061254,-0.078763,-0.002602,-0.209459,-0.000000,0.000000,0.000000,-0.000000,-0.000000,-0.000000,-0.314950,0.472120,0.882351,-0.000435,0.999958,0.007695,0.004973
7.200000,-3.829206,-1.387900,-1.359165,-1.963080,1.552291,-2.259297,-0.209440,0.022857,0.061254,-0.078763,-0.002602,-0.209459,-0.000000,0.000000,0.000000,-0.000000,-0.000000,-0.000000,-0.302545,0.476640,0.886608,-0.000433,0.999956,0.007860,0.005009
7.300000,-3.850150,-1.385614,-1.353039,-1.970957,1.552031,-2.280243,-0.209440,0.022857,0.061254,-0.078763,-0.002602,-0.209459,-0.000000,0.000000,0.000000,-0.000000,-0.000000,-0.000000,-0.290061,0.480825,0.890847,-0.000432,0.999955,0.008026,0.005054
7.400000,-3.871093,-1.383328,-1.346914,-1.978833,1.551771,-2.301188,-0.209440,0.022857,0.061254,-0.078763,-0.002602,-0.209459,-0.000000,0.000000,0.000000,-0.000000,-0.000000,-0.000000,-0.277509,0.484672,0.895067,-0.000430,0.999953,0.008194,0.005109
7.500000,-3.892037,-1.381043,-1.340789,-1.986709,1.551511,-2.322134,-0.209440,0.022857,0.061254,-0.078763,-0.002602,-0.209459,-0.000000,0.000000,0.000000,-0.000000,-0.000000,-0.000000,-0.264897,0.488180,0.899267,-0.000428,0.999952,0.008362,0.005172
7.600000,-3.912981,-1.378757,-1.334663,-1.994586,1.551251,-2.343080,-0.209440,0.022857,0.061254,-0.078763,-0.002602,-0.209459,-0.000000,0.000000,0.000000,-0.000000,-0.000000,-0.000000,-0.252235,0.491349,0.903448,-0.000426,0.999950,0.008532,0.005245
7.700000,-3.933925,-1.376471,-1.328538,-2.002462,1.550990,-2.364026,-0.209440,0.022857,0.061254,-0.078763,-0.002602,-0.209459,-0.000000,0.000000,0.000000,-0.000000,-0.000000,-0.000000,-0.239532,0.494176,0.907609,-0.000424,0.999948,0.008702,0.005328
7.800000,-3.954869,-1.374185,-1.322412,-2.010338,1.550730,-2.384972,-0.209440,0.022857,0.061254,-0.078763,-0.002602,-0.209459,-0.000000,0.000000,0.000000,-0.000000,-0.000000,-0.000000,-0.226798,0.496661,0.911750,-0.000422,0.999946,0.008872,0.005420
7.900000,-3.975813,-1.371900,-1.316287,-2.018215,1.550470,-2.405918,-0.209440,0.022857,0.061254,-0.078763,-0.002602,-0.209459,-0.000000,0.000000,0.000000,-0.000000,-0.000000,-0.000000,-0.214041,0.498805,0.915871,-0.000420,0.999944,0.009042,0.005521
8.000000,-3.996757,-1.369614,-1.310162,-2.026091,1.550210,-2.426864,-0.209440,0.022857,0.061254,-0.078763,-0.002602,-0.209459,0.000000,-0.000000,-0.000000,0.000000,0.000000,0.000000,-0.201272,0.500606,0.919970,-0.000418,0.999942,0.009212,0.005633
8.100000,-4.017701,-1.367328,-1.304036,-2.033967,1.549950,-2.447809,-0.209440,0.022857,0.061254,-0.078763,-0.002602,-0.209459,0.000000,-0.000000,-0.000000,0.000000,0.000000,0.000000,-0.188499,0.502065,0.924049,-0.000416,0.999939,0.009381,0.005753
8.200000,-4.038645,-1.365042,-1.297911,-2.041844,1.549689,-2.468755,-0.209440,0.022857,0.061254,-0.078763,-0.002602,-0.209459,0.000000,-0.000000,-0.000000,0.000000,0.000000,0.000000,-0.175732,0.503181,0.928106,-0.000413,0.999937,0.009548,0.005883
8.300000,-4.059589,-1.362757,-1.291785,-2.049720,1.549429,-2.489701,-0.209440,0.022857,0.061254,-0.078763,-0.002602,-0.209459,0.000000,-0.000000,-0.000000,0.000000,0.000000,0.000000,-0.162981,0.503957,0.932141,-0.000411,0.999935,0.009714,0.006023
8.400000,-4.080533,-1.360471,-1.285660,-2.057596,1.549169,-2.510647,-0.209440,0.022857,0.061254,-0.078763,-0.002602,-0.209459,0.000000,-0.000000,-0.000000,0.000000,0.000000,0.000000,-0.150255,0.504392,0.936154,-0.000408,0.999932,0.009879,0.006172
8.500000,-4.101477,-1.358185,-1.279534,-2.065473,1.548909,-2.531593,-0.209440,0.022857,0.061254,-0.078763,-0.002602,-0.209459,0.000000,-0.000000,-0.000000,0.000000,0.000000,0.000000,-0.137562,0.504488,0.940145,-0.000406,0.999929,0.010041,0.006331
8.600000,-4.122421,-1.355900,-1.273409,-2.073349,1.548649,-2.552539,-0.209440,0.022857,0.061254,-0.078763,-0.002602,-0.209459,0.000000,-0.000000,-0.000000,0.000000,0.000000,0.000000,-0.124914,0.504245,0.944114,-0.000403,0.999927,0.010201,0.006500
8.700000,-4.143365,-1.353614,-1.267284,-2.081225,1.548388,-2.573485,-0.209440,0.022857,0.061254,-0.078763,-0.002602,-0.209459,0.000000,-0.000000,-0.000000,0.000000,0.000000,0.000000,-0.112317,0.503667,0.948059,-0.000401,0.999924,0.010358,0.006677
8.800000,-4.164309,-1.351328,-1.261158,-2.089102,1.548128,-2.594430,-0.209440,0.022857,0.061254,-0.078763,-0.002602,-0.209459,0.000000,-0.000000,-0.000000,0.000000,0.000000,0.000000,-0.099783,0.502754,0.951981,-0.000398,0.999921,0.010511,0.006865
8.900000,-4.185253,-1.349042,-1.255033,-2.096978,1.547868,-2.615376,-0.209440,0.022857,0.061254,-0.078763,-0.002602,-0.209459,0.000000,-0.000000,-0.000000,0.000000,0.000000,0.000000,-0.087321,0.501508,0.955880,-0.000395,0.999918,0.010662,0.007061
9.000000,-4.206197,-1.346757,-1.248907,-2.104854,1.547608,-2.636322,-0.209440,0.022857,0.061254,-0.078763,-0.002602,-0.209459,0.000000,-0.000000,-0.000000,0.000000,0.000000,0.000000,-0.074938,0.499933,0.959755,-0.000392,0.999915,0.010809,0.007267
9.100000,-4.227141,-1.344471,-1.242782,-2.112730,1.547347,-2.657268,-0.209440,0.022857,0.061254,-0.078763,-0.002602,-0.209459,0.000000,-0.000000,-0.000000,0.000000,0.000000,0.000000,-0.062645,0.498031,0.963606,-0.000389,0.999912,0.010951,0.007483
9.200000,-4.248085,-1.342185,-1.236657,-2.120607,1.547087,-2.678214,-0.209440,0.022857,0.061254,-0.078763,-0.002602,-0.209459,0.000000,-0.000000,-0.000000,0.000000,0.000000,0.000000,-0.050449,0.495804,0.967433,-0.000386,0.999909,0.011089,0.007707
9.300000,-4.269029,-1.339899,-1.230531,-2.128483,1.546827,-2.699160,-0.209440,0.022857,0.061254,-0.078763,-0.002602,-0.209459,0.000000,-0.000000,-0.000000,0.000000,0.000000,0.000000,-0.038361,0.493256,0.971235,-0.000383,0.999905,0.011223,0.007941
9.400000,-4.289972,-1.337614,-1.224406,-2.136359,1.546567,-2.720106,-0.209440,0.022857,0.061254,-0.078763,-0.002602,-0.209459,0.000000,-0.000000,-0.000000,0.000000,0.000000,0.000000,-0.026389,0.490391,0.975012,-0.000380,0.999902,0.011351,0.008183
9.500000,-4.310916,-1.335328,-1.218280,-2.144236,1.546307,-2.741051,-0.209440,0.022857,0.061254,-0.078763,-0.002602,-0.209459,0.000000,-0.000000,-0.000000,0.000000,0.000000,0.000000,-0.014542,0.487211,0.978763,-0.000377,0.999899,0.011474,0.008434
9.600000,-4.331860,-1.333042,-1.212155,-2.152112,1.546046,-2.761997,-0.209440,0.022857,0.061254,-0.078763,-0.002602,-0.209459,0.000000,-0.000000,-0.000000,0.000000,0.000000,0.000000,-0.002828,0.483722,0.982490,-0.000373,0.999895,0.011592,0.008694
9.700000,-4.352804,-1.330756,-1.206030,-2.159988,1.545786,-2.782943,-0.209440,0.022857,0.061254,-0.078763,-0.002602,-0.209459,0.000000,-0.000000,-0.000000,0.000000,0.000000,0.000000,0.008745,0.479926,0.986190,-0.000370,0.999891,0.011703,0.008963
9.800000,-4.373748,-1.328471,-1.199904,-2.167865,1.545526,-2.803889,-0.209440,0.022857,0.061254,-0.078763,-0.002602,-0.209459,0.000000,-0.000000,-0.000000,0.000000,0.000000,0.000000,0.020167,0.475829,0.989864,-0.000366,0.999888,0.011808,0.009240
9.900000,-4.394692,-1.326185,-1.193779,-2.175741,1.545266,-2.824835,-0.209440,0.022857,0.061254,-0.078763,-0.002602,-0.209459,0.000000,-0.000000,-0.000000,0.000000,0.000000,0.000000,0.031432,0.471435,0.993512,-0.000363,0.999884,0.011907,0.009526
10.000000,-4.415636,-1.323899,-1.187653,-2.183617,1.545006,-2.845781,-0.209440,0.022857,0.061254,-0.078763,-0.002602,-0.209459,0.000000,-0.000000,-0.000000,0.000000,0.000000,0.000000,0.042529,0.466749,0.997134,-0.000359,0.999880,0.011998,0.009819
10.100000,-4.436580,-1.321614,-1.181528,-2.191494,1.544745,-2.866727,-0.209440,0.022857,0.061254,-0.078763,-0.002602,-0.209459,0.000000,-0.000000,-0.000000,0.000000,0.000000,0.000000,0.053453,0.461775,1.000729,-0.000356,0.999876,0.012083,0.010121
10.200000,-4.457524,-1.319328,-1.175403,-2.199370,1.544485,-2.887672,-0.209440,0.022857,0.061254,-0.078763,-0.002602,-0.209459,0.000000,-0.000000,-0.000000,0.000000,0.000000,0.000000,0.064194,0.456520,1.004296,-0.000352,0.999872,0.012160,0.010430
10.300000,-4.478468,-1.317042,-1.169277,-2.207246,1.544225,-2.908618,-0.209440,0.022857,0.061254,-0.078763,-0.002602,-0.209459,0.000000,-0.000000,-0.000000,0.000000,0.000000,0.000000,0.074746,0.450989,1.007836,-0.000348,0.999867,0.012229,0.010747
10.400000,-4.499412,-1.314756,-1.163152,-2.215123,1.543965,-2.929564,-0.209440,0.022857,0.061254,-0.078763,-0.002602,-0.209459,0.000000,-0.000000,-0.000000,0.000000,0.000000,0.000000,0.085100,0.445188,1.011348,-0.000344,0.999863,0.012290,0.011072
10.500000,-4.520356,-1.312471,-1.157026,-2.222999,1.543705,-2.950510,-0.209440,0.022857,0.061254,-0.078763,-0.002602,-0.209459,0.000000,-0.000000,-0.000000,0.000000,0.000000,0.000000,0.095250,0.439121,1.014833,-0.000340,0.999859,0.012342,0.011403
10.600000,-4.541196,-1.310196,-1.150931,-2.230836,1.543446,-2.971352,-0.198982,0.021716,0.058196,-0.074830,-0.002472,-0.199000,0.499955,-0.054563,-0.146220,0.188016,0.006211,0.500000,0.105138,0.432829,1.018272,-0.000336,0.999854,0.012386,0.011741
10.700000,-4.558621,-1.308295,-1.145835,-2.237389,1.543229,-2.988778,-0.148986,0.016260,0.043574,-0.056029,-0.001851,-0.149000,0.499955,-0.054563,-0.146220,0.188016,0.006211,0.500000,0.113241,0.427375,1.021125,-0.000333,0.999851,0.012416,0.012028
10.800000,-4.571046,-1.306938,-1.142201,-2.242062,1.543075,-3.001205,-0.098991,0.010803,0.028952,-0.037227,-0.001230,-0.099000,0.499955,-0.054563,-0.146220,0.188016,0.006211,0.500000,0.118923,0.423382,1.023148,-0.000331,0.999848,0.012434,0.012235
10.900000,-4.578472,-1.306128,-1.140029,-2.244854,1.542983,-3.008631,-0.048996,0.005347,0.014330,-0.018426,-0.000609,-0.049000,0.499955,-0.054563,-0.146220,0.188016,0.006211,0.500000,0.122281,0.420955,1.024352,-0.000329,0.999846,0.012442,0.012360
10.998527,-4.580898,-1.305863,-1.139320,-2.245767,1.542952,-3.011058,0.000000,-0.000000,-0.000000,0.000000,0.000000,0.000000,0.499955,-0.054563,-0.146220,0.188016,0.006211,0.500000,0.123372,0.420155,1.024745,-0.000329,0.999846,0.012445,0.012401
