mathias31415/motion_primitives_from_planned_trajectory/data/trajectory_20250701_092904_executed.csv
timestamp,shoulder_lift_joint_pos,elbow_joint_pos,wrist_1_joint_pos,wrist_2_joint_pos,wrist_3_joint_pos,shoulder_pan_joint_pos,shoulder_lift_joint_vel,elbow_joint_vel,wrist_1_joint_vel,wrist_2_joint_vel,wrist_3_joint_vel,shoulder_pan_joint_vel,shoulder_lift_joint_eff,elbow_joint_eff,wrist_1_joint_eff,wrist_2_joint_eff,wrist_3_joint_eff,shoulder_pan_joint_eff,pose_x,pose_y,pose_z,pose_qx,pose_qy,pose_qz,pose_qw
1751354976.7889235,-1.651495,-1.769945,-1.318355,1.592974,-0.112136,-1.681708,0.0,0.0,0.0,0.0,0.0,0.0,3.945148732,4.135912158,0.300399814,0.001830045,0.0,0.0,-0.2496857702110752,-0.6919329641365844,0.513777046194678,-0.0004601258198561356,0.9998445461518257,0.012382652243434286,0.012543593508143767
1751354976.7908123,-1.651495,-1.769945,-1.318355,1.592974,-0.112136,-1.681708,0.0,0.0,0.0,0.0,0.0,0.0,3.945148732,4.135912158,0.300399814,0.001830045,0.0,0.0,-0.2496857702110752,-0.6919329641365844,0.513777046194678,-0.0004601258198561356,0.9998445461518257,0.012382652243434286,0.012543593508143767
1751354976.7926536,-1.651495,-1.769945,-1.318355,1.592974,-0.112136,-1.681708,0.0,0.0,0.0,0.0,0.0,0.0,3.945148732,4.135912158,0.300399814,0.001830045,0.0,0.0,-0.2496857702110752,-0.6919329641365844,0.513777046194678,-0.0004601258198561356,0.9998445461518257,0.012382652243434286,0.012543593508143767
1751354976.7947843,-1.651495,-1.769945,-1.318355,1.592974,-0.112136,-1.681708,0.0,0.0,0.0,0.0,0.0,0.0,3.945148732,4.135912158,0.300399814,0.001830045,0.0,0.0,-0.2496857702110752,-0.6919329641365844,0.513777046194678,-0.0004601258198561356,0.9998445461518257,0.012382652243434286,0.012543593508143767
1751354976.7966847,-1.651495,-1.769945,-1.318355,1.592974,-0.112136,-1.681708,0.0,0.0,0.0,0.0,0.0,0.0,3.945148732,4.135912158,0.300399814,0.001830045,0.0,0.0,-0.2496857702110752,-0.6919329641365844,0.513777046194678,-0.0004601258198561356,0.9998445461518257,0.012382652243434286,0.012543593508143767
1751354976.7987015,-1.651495,-1.769945,-1.318355,1.592974,-0.112136,-1.681708,0.0,0.0,0.0,0.0,0.0,0.0,3.945148732,4.135912158,0.300399814,0.001830045,0.0,0.0,-0.2496857702110752,-0.6919329641365844,0.513777046194678,-0.0004601258198561356,0.9998445461518257,0.012382652243434286,0.012543593508143767
1751354976.8008327,-1.651495,-1.769945,-1.318355,1.592974,-0.112136,-1.681708,0.0,0.0,0.0,0.0,0.0,0.0,3.945148732,4.135912158,0.300399814,0.001830045,0.0,0.0,-0.2496857702110752,-0.6919329641365844,0.513777046194678,-0.0004601258198561356,0.9998445461518257,0.012382652243434286,0.012543593508143767
1751354976.8028145,-1.651495,-1.769945,-1.318355,1.592974,-0.112136,-1.681708,0.0,0.0,0.0,0.0,0.0,0.0,3.945148732,4.135912158,0.300399814,0.001830045,0.0,0.0,-0.2496857702110752,-0.6919329641365844,0.513777046194678,-0.0004601258198561356,0.9998445461518257,0.012382652243434286,0.012543593508143767
1751354976.8068383,-1.651495,-1.769945,-1.318355,1.592974,-0.112136,-1.681708,0.0,0.0,0.0,0.0,0.0,0.0,3.945148732,4.135912158,0.300399814,0.001830045,0.0,0.0,-0.2496857702110752,-0.6919329641365844,0.513777046194678,-0.0004601258198561356,0.9998445461518257,0.012382652243434286,0.012543593508143767
1751354976.807036,-1.651495,-1.769945,-1.318355,1.592974,-0.112136,-1.681708,0.0,0.0,0.0,0.0,0.0,0.0,3.945148732,4.135912158,0.300399814,0.001830045,0.0,0.0,-0.2496857702110752,-0.6919329641365844,0.513777046194678,-0.0004601258198561356,0.9998445461518257,0.012382652243434286,0.012543593508143767
1751354976.8087125,-1.651495,-1.769945,-1.318355,1.592974,-0.112136,-1.681708,0.0,0.0,0.0,0.0,0.0,0.0,3.945148732,4.135912158,0.300399814,0.001830045,0.0,0.0,-0.2496857702110752,-0.6919329641365844,0.513777046194678,-0.0004601258198561356,0.9998445461518257,0.012382652243434286,0.012543593508143767
1751354976.816323,-1.651495,-1.769945,-1.318355,1.592974,-0.112136,-1.681708,0.0,0.0,0.0,0.0,0.0,0.0,3.945148732,4.135912158,0.300399814,0.001830045,0.0,0.0,-0.2496857702110752,-0.6919329641365844,0.513777046194678,-0.0004601258198561356,0.9998445461518257,0.012382652243434286,0.012543593508143767
1751354976.818764,-1.651495,-1.769945,-1.318355,1.592974,-0.112136,-1.681708,0.0,0.0,0.0,0.0,0.0,0.0,3.945148732,4.135912158,0.300399814,0.001830045,0.0,0.0,-0.2496857702110752,-0.6919329641365844,0.513777046194678,-0.0004601258198561356,0.9998445461518257,0.012382652243434286,0.012543593508143767
1751354976.8188288,-1.651495,-1.769945,-1.318355,1.592974,-0.112136,-1.681708,0.0,0.0,0.0,0.0,0.0,0.0,3.945148732,4.135912158,0.300399814,0.001830045,0.0,0.0,-0.2496857702110752,-0.6919329641365844,0.513777046194678,-0.0004601258198561356,0.9998445461518257,0.012382652243434286,0.012543593508143767
1751354976.8202765,-1.651495,-1.769945,-1.318355,1.592974,-0.112136,-1.681708,0.0,0.0,0.0,0.0,0.0,0.0,3.945148732,4.135912158,0.300399814,0.001830045,0.0,0.0,-0.2496857702110752,-0.6919329641365844,0.513777046194678,-0.0004601258198561356,0.9998445461518257,0.012382652243434286,0.012543593508143767
1751354976.822159,-1.651495,-1.769945,-1.318355,1.592974,-0.112136,-1.681708,0.0,0.0,0.0,0.0,0.0,0.0,3.945148732,4.135912158,0.300399814,0.001830045,0.0,0.0,-0.2496857702110752,-0.6919329641365844,0.513777046194678,-0.0004601258198561356,0.9998445461518257,0.012382652243434286,0.012543593508143767
1751354976.8246648,-1.651495,-1.769945,-1.318355,1.592974,-0.112136,-1.681708,0.0,0.0,0.0,0.0,0.0,0.0,3.945148732,4.135912158,0.300399814,0.001830045,0.0,0.0,-0.2496857702110752,-0.6919329641365844,0.513777046194678,-0.0004601258198561356,0.9998445461518257,0.012382652243434286,0.012543593508143767
1751354976.828552,-1.651495,-1.769945,-1.318355,1.592974,-0.112136,-1.681708,0.0,0.0,0.0,0.0,0.0,0.0,3.945148732,4.135912158,0.300399814,0.001830045,0.0,0.0,-0.2496857702110752,-0.6919329641365844,0.513777046194678,-0.0004601258198561356,0.9998445461518257,0.012382652243434286,0.012543593508143767
1751354976.828679,-1.651495,-1.769945,-1.318355,1.592974,-0.112136,-1.681708,0.0,0.0,0.0,0.0,0.0,0.0,3.945148732,4.135912158,0.300399814,0.001830045,0.0,0.0,-0.2496857702110752,-0.6919329641365844,0.513777046194678,-0.0004601258198561356,0.9998445461518257,0.012382652243434286,0.012543593508143767
1751354976.8307748,-1.651495,-1.769945,-1.318355,1.592974,-0.112136,-1.681708,0.0,0.0,0.0,0.0,0.0,0.0,3.945148732,4.135912158,0.300399814,0.001830045,0.0,0.0,-0.2496857702110752,-0.6919329641365844,0.513777046194678,-0.0004601258198561356,0.9998445461518257,0.012382652243434286,0.012543593508143767
1751354976.8351448,-1.651495,-1.769945,-1.318355,1.592974,-0.112136,-1.681708,0.0,0.0,0.0,0.0,0.0,0.0,3.945148732,4.135912158,0.300399814,0.001830045,0.0,0.0,-0.2496857702110752,-0.6919329641365844,0.513777046194678,-0.0004601258198561356,0.9998445461518257,0.012382652243434286,0.012543593508143767
1751354976.8357275,-1.651495,-1.769945,-1.318355,1.592974,-0.112136,-1.681708,0.0,0.0,0.0,0.0,0.0,0.0,3.945148732,4.135912158,0.300399814,0.001830045,0.0,0.0,-0.2496857702110752,-0.6919329641365844,0.513777046194678,-0.0004601258198561356,0.9998445461518257,0.012382652243434286,0.012543593508143767
1751354976.8367567,-1.651495,-1.769945,-1.318355,1.592974,-0.112136,-1.681708,0.0,0.0,0.0,0.0,0.0,0.0,3.945148732,4.135912158,0.300399814,0.001830045,0.0,0.0,-0.2496857702110752,-0.6919329641365844,0.513777046194678,-0.0004601258198561356,0.9998445461518257,0.012382652243434286,0.012543593508143767
1751354976.838844,-1.651495,-1.769945,-1.318355,1.592974,-0.112136,-1.681708,0.0,0.0,0.0,0.0,0.0,0.0,3.945148732,4.135912158,0.300399814,0.001830045,0.0,0.0,-0.2496857702110752,-0.6919329641365844,0.513777046194678,-0.0004601258198561356,0.9998445461518257,0.012382652243434286,0.012543593508143767
1751354976.8408823,-1.651495,-1.769945,-1.318355,1.592974,-0.112136,-1.681708,0.0,0.0,0.0,0.0,0.0,0.0,3.945148732,4.135912158,0.300399814,0.001830045,0.0,0.0,-0.2496857702110752,-0.6919329641365844,0.513777046194678,-0.0004601258198561356,0.9998445461518257,0.012382652243434286,0.012543593508143767
1751354976.842954,-1.651495,-1.769945,-1.318355,1.592974,-0.112136,-1.681708,0.0,0.0,0.0,0.0,0.0,0.0,3.945148732,4.135912158,0.300399814,0.001830045,0.0,0.0,-0.2496857702110752,-0.6919329641365844,0.513777046194678,-0.0004601258198561356,0.9998445461518257,0.012382652243434286,0.012543593508143767
1751354976.8449442,-1.651495,-1.769945,-1.318355,1.592974,-0.112136,-1.681708,0.0,0.0,0.0,0.0,0.0,0.0,3.945148732,4.135912158,0.300399814,0.001830045,0.0,0.0,-0.2496857702110752,-0.6919329641365844,0.513777046194678,-0.0004601258198561356,0.9998445461518257,0.012382652243434286,0.012543593508143767
1751354976.8469155,-1.651495,-1.769945,-1.318355,1.592974,-0.112136,-1.681708,0.0,0.0,0.0,0.0,0.0,0.0,3.945148732,4.135912158,0.300399814,0.001830045,0.0,0.0,-0.2496857702110752,-0.6919329641365844,0.513777046194678,-0.0004601258198561356,0.9998445461518257,0.012382652243434286,0.012543593508143767
1751354976.8538957,-1.651495,-1.769945,-1.318355,1.592974,-0.112136,-1.681708,0.0,0.0,0.0,0.0,0.0,0.0,3.945148732,4.135912158,0.300399814,0.001830045,0.0,0.0,-0.2496857702110752,-0.6919329641365844,0.513777046194678,-0.0004601258198561356,0.9998445461518257,0.012382652243434286,0.012543593508143767
1751354976.8547099,-1.651495,-1.769945,-1.318355,1.592974,-0.112136,-1.681708,0.0,0.0,0.0,0.0,0.0,0.0,3.945148732,4.135912158,0.300399814,0.001830045,0.0,0.0,-0.2496857702110752,-0.6919329641365844,0.513777046194678,-0.0004601258198561356,0.9998445461518257,0.012382652243434286,0.012543593508143767
1751354976.854828,-1.651495,-1.769945,-1.318355,1.592974,-0.112136,-1.681708,0.0,0.0,0.0,0.0,0.0,0.0,3.945148732,4.135912158,0.300399814,0.001830045,0.0,0.0,-0.2496857702110752,-0.6919329641365844,0.513777046194678,-0.0004601258198561356,0.9998445461518257,0.012382652243434286,0.012543593508143767
1751354976.8569307,-1.651495,-1.769945,-1.318355,1.592974,-0.112136,-1.681708,0.0,0.0,0.0,0.0,0.0,0.0,3.945148732,4.135912158,0.300399814,0.001830045,0.0,0.0,-0.2496857702110752,-0.6919329641365844,0.513777046194678,-0.0004601258198561356,0.9998445461518257,0.012382652243434286,0.012543593508143767
1751354976.8592176,-1.651495,-1.769945,-1.318355,1.592974,-0.112136,-1.681708,0.0,0.0,0.0,0.0,0.0,0.0,3.945148732,4.135912158,0.300399814,0.001830045,0.0,0.0,-0.2496857702110752,-0.6919329641365844,0.513777046194678,-0.0004601258198561356,0.9998445461518257,0.012382652243434286,0.012543593508143767
1751354976.8610132,-1.651495,-1.769945,-1.318355,1.592974,-0.112136,-1.681708,0.0,0.0,0.0,0.0,0.0,0.0,3.945148732,4.135912158,0.300399814,0.001830045,0.0,0.0,-0.2496857702110752,-0.6919329641365844,0.513777046194678,-0.0004601258198561356,0.9998445461518257,0.012382652243434286,0.012543593508143767
1751354976.8630843,-1.651495,-1.769945,-1.318355,1.592974,-0.112136,-1.681708,0.0,0.0,0.0,0.0,0.0,0.0,3.945148732,4.135912158,0.300399814,0.001830045,0.0,0.0,-0.2496857702110752,-0.6919329641365844,0.513777046194678,-0.0004601258198561356,0.9998445461518257,0.012382652243434286,0.012543593508143767
1751354976.8651264,-1.651495,-1.769945,-1.318355,1.592974,-0.112136,-1.681708,0.0,0.0,0.0,0.0,0.0,0.0,3.945148732,4.135912158,0.300399814,0.001830045,0.0,0.0,-0.2496857702110752,-0.6919329641365844,0.513777046194678,-0.0004601258198561356,0.9998445461518257,0.012382652243434286,0.012543593508143767
1751354976.8677819,-1.651495,-1.769945,-1.318355,1.592974,-0.112136,-1.681708,0.0,0.0,0.0,0.0,0.0,0.0,3.945148732,4.135912158,0.300399814,0.001830045,0.0,0.0,-0.2496857702110752,-0.6919329641365844,0.513777046194678,-0.0004601258198561356,0.9998445461518257,0.012382652243434286,0.012543593508143767
1751354976.86993,-1.651495,-1.769945,-1.318355,1.592974,-0.112136,-1.681708,0.0,0.0,0.0,0.0,0.0,0.0,3.945148732,4.135912158,0.300399814,0.001830045,0.0,0.0,-0.2496857702110752,-0.6919329641365844,0.513777046194678,-0.0004601258198561356,0.9998445461518257,0.012382652243434286,0.012543593508143767
1751354976.8712285,-1.651495,-1.769945,-1.318355,1.592974,-0.112136,-1.681708,0.0,0.0,0.0,0.0,0.0,0.0,3.945148732,4.135912158,0.300399814,0.001830045,0.0,0.0,-0.2496857702110752,-0.6919329641365844,0.513777046194678,-0.0004601258198561356,0.9998445461518257,0.012382652243434286,0.012543593508143767
1751354976.8732188,-1.651495,-1.769945,-1.318355,1.592974,-0.112136,-1.681708,0.0,0.0,0.0,0.0,0.0,0.0,3.945148732,4.135912158,0.300399814,0.001830045,0.0,0.0,-0.2496857702110752,-0.6919329641365844,0.513777046194678,-0.0004601258198561356,0.9998445461518257,0.012382652243434286,0.012543593508143767
1751354976.874997,-1.651495,-1.769945,-1.318355,1.592974,-0.112136,-1.681708,0.0,0.0,0.0,0.0,0.0,0.0,3.945148732,4.135912158,0.300399814,0.001830045,0.0,0.0,-0.2496857702110752,-0.6919329641365844,0.513777046194678,-0.0004601258198561356,0.9998445461518257,0.012382652243434286,0.012543593508143767
1751354976.877062,-1.651495,-1.769945,-1.318355,1.592974,-0.112136,-1.681708,0.0,0.0,0.0,0.0,0.0,0.0,3.945148732,4.135912158,0.300399814,0.001830045,0.0,0.0,-0.2496857702110752,-0.6919329641365844,0.513777046194678,-0.0004601258198561356,0.9998445461518257,0.012382652243434286,0.012543593508143767
1751354976.879258,-1.651495,-1.769945,-1.318355,1.592974,-0.112136,-1.681708,0.0,0.0,0.0,0.0,0.0,0.0,3.945148732,4.135912158,0.300399814,0.001830045,0.0,0.0,-0.2496857702110752,-0.6919329641365844,0.513777046194678,-0.0004601258198561356,0.9998445461518257,0.012382652243434286,0.012543593508143767
1751354976.8811417,-1.651495,-1.769945,-1.318355,1.592974,-0.112136,-1.681708,0.0,0.0,0.0,0.0,0.0,0.0,3.945148732,4.135912158,0.300399814,0.001830045,0.0,0.0,-0.2496857702110752,-0.6919329641365844,0.513777046194678,-0.0004601258198561356,0.9998445461518257,0.012382652243434286,0.012543593508143767
1751354976.88327,-1.651495,-1.769945,-1.318355,1.592974,-0.112136,-1.681708,0.0,0.0,0.0,0.0,0.0,0.0,3.945148732,4.135912158,0.300399814,0.001830045,0.0,0.0,-0.2496857702110752,-0.6919329641365844,0.513777046194678,-0.0004601258198561356,0.9998445461518257,0.012382652243434286,0.012543593508143767
1751354976.8849223,-1.651495,-1.769945,-1.318355,1.592974,-0.112136,-1.681708,0.0,0.0,0.0,0.0,0.0,0.0,3.945148732,4.135912158,0.300399814,0.001830045,0.0,0.0,-0.2496857702110752,-0.6919329641365844,0.513777046194678,-0.0004601258198561356,0.9998445461518257,0.012382652243434286,0.012543593508143767
1751354976.887021,-1.651495,-1.769945,-1.318355,1.592974,-0.112136,-1.681708,0.0,0.0,0.0,0.0,0.0,0.0,3.945148732,4.135912158,0.300399814,0.001830045,0.0,0.0,-0.2496857702110752,-0.6919329641365844,0.513777046194678,-0.0004601258198561356,0.9998445461518257,0.012382652243434286,0.012543593508143767
1751354976.8890915,-1.651495,-1.769945,-1.318355,1.592974,-0.112136,-1.681708,0.0,0.0,0.0,0.0,0.0,0.0,3.945148732,4.135912158,0.300399814,0.001830045,0.0,0.0,-0.2496857702110752,-0.6919329641365844,0.513777046194678,-0.0004601258198561356,0.9998445461518257,0.012382652243434286,0.012543593508143767
1751354976.8908958,-1.651495,-1.769945,-1.318355,1.592974,-0.112136,-1.681708,0.0,0.0,0.0,0.0,0.0,0.0,3.945148732,4.135912158,0.300399814,0.001830045,0.0,0.0,-0.2496857702110752,-0.6919329641365844,0.513777046194678,-0.0004601258198561356,0.9998445461518257,0.012382652243434286,0.012543593508143767
1751354976.8930907,-1.651495,-1.769945,-1.318355,1.592974,-0.112136,-1.681708,0.0,0.0,0.0,0.0,0.0,0.0,3.945148732,4.135912158,0.300399814,0.001830045,0.0,0.0,-0.2496857702110752,-0.6919329641365844,0.513777046194678,-0.0004601258198561356,0.9998445461518257,0.012382652243434286,0.012543593508143767
1751354976.8949423,-1.651495,-1.769945,-1.318355,1.592974,-0.112136,-1.681708,0.0,0.0,0.0,0.0,0.0,0.0,3.945148732,4.135912158,0.300399814,0.001830045,0.0,0.0,-0.2496857702110752,-0.6919329641365844,0.513777046194678,-0.0004601258198561356,0.9998445461518257,0.012382652243434286,0.012543593508143767
1751354976.8968315,-1.651495,-1.769945,-1.318355,1.592974,-0.112136,-1.681708,0.0,0.0,0.0,0.0,0.0,0.0,3.945148732,4.135912158,0.300399814,0.001830045,0.0,0.0,-0.2496857702110752,-0.6919329641365844,0.513777046194678,-0.0004601258198561356,0.9998445461518257,0.012382652243434286,0.012543593508143767
1751354976.903262,-1.651495,-1.769945,-1.318355,1.592974,-0.112136,-1.681708,0.0,0.0,0.0,0.0,0.0,0.0,3.945148732,4.135912158,0.300399814,0.001830045,0.0,0.0,-0.2496857702110752,-0.6919329641365844,0.513777046194678,-0.0004601258198561356,0.9998445461518257,0.012382652243434286,0.012543593508143767
1751354976.9033155,-1.651495,-1.769945,-1.318355,1.592974,-0.112136,-1.681708,0.0,0.0,0.0,0.0,0.0,0.0,3.945148732,4.135912158,0.300399814,0.001830045,0.0,0.0,-0.2496857702110752,-0.6919329641365844,0.513777046194678,-0.0004601258198561356,0.9998445461518257,0.012382652243434286,0.012543593508143767
1751354976.9033315,-1.651495,-1.769945,-1.318355,1.592974,-0.112136,-1.681708,0.0,0.0,0.0,0.0,0.0,0.0,3.945148732,4.135912158,0.300399814,0.001830045,0.0,0.0,-0.2496857702110752,-0.6919329641365844,0.513777046194678,-0.0004601258198561356,0.9998445461518257,0.012382652243434286,0.012543593508143767
1751354976.9051347,-1.651495,-1.769945,-1.318355,1.592974,-0.112136,-1.681708,0.0,0.0,0.0,0.0,0.0,0.0,3.945148732,4.135912158,0.300399814,0.001830045,0.0,0.0,-0.2496857702110752,-0.6919329641365844,0.513777046194678,-0.0004601258198561356,0.9998445461518257,0.012382652243434286,0.012543593508143767
1751354976.9071732,-1.651495,-1.769945,-1.318355,1.592974,-0.112136,-1.681708,0.0,0.0,0.0,0.0,0.0,0.0,3.945148732,4.135912158,0.300399814,0.001830045,0.0,0.0,-0.2496857702110752,-0.6919329641365844,0.513777046194678,-0.0004601258198561356,0.9998445461518257,0.012382652243434286,0.012543593508143767
1751354976.9104812,-1.651495,-1.769945,-1.318355,1.592974,-0.112136,-1.681708,0.0,0.0,0.0,0.0,0.0,0.0,3.945148732,4.135912158,0.300399814,0.001830045,0.0,0.0,-0.2496857702110752,-0.6919329641365844,0.513777046194678,-0.0004601258198561356,0.9998445461518257,0.012382652243434286,0.012543593508143767
1751354976.9109097,-1.651495,-1.769945,-1.318355,1.592974,-0.112136,-1.681708,0.0,0.0,0.0,0.0,0.0,0.0,3.945148732,4.135912158,0.300399814,0.001830045,0.0,0.0,-0.2496857702110752,-0.6919329641365844,0.513777046194678,-0.0004601258198561356,0.9998445461518257,0.012382652243434286,0.012543593508143767
1751354976.91468,-1.651495,-1.769945,-1.318355,1.592974,-0.112136,-1.681708,0.0,0.0,0.0,0.0,0.0,0.0,3.945148732,4.135912158,0.300399814,0.001830045,0.0,0.0,-0.2496857702110752,-0.6919329641365844,0.513777046194678,-0.0004601258198561356,0.9998445461518257,0.012382652243434286,0.012543593508143767
1751354976.9153304,-1.651495,-1.769945,-1.318355,1.592974,-0.112136,-1.681708,0.0,0.0,0.0,0.0,0.0,0.0,3.945148732,4.135912158,0.300399814,0.001830045,0.0,0.0,-0.2496857702110752,-0.6919329641365844,0.513777046194678,-0.0004601258198561356,0.9998445461518257,0.012382652243434286,0.012543593508143767
1751354976.9170165,-1.651495,-1.769945,-1.318355,1.592974,-0.112136,-1.681708,0.0,0.0,0.0,0.0,0.0,0.0,3.945148732,4.135912158,0.300399814,0.001830045,0.0,0.0,-0.2496857702110752,-0.6919329641365844,0.513777046194678,-0.0004601258198561356,0.9998445461518257,0.012382652243434286,0.012543593508143767
1751354976.9189932,-1.651495,-1.769945,-1.318355,1.592974,-0.112136,-1.681708,0.0,0.0,0.0,0.0,0.0,0.0,3.945148732,4.135912158,0.300399814,0.001830045,0.0,0.0,-0.2496857702110752,-0.6919329641365844,0.513777046194678,-0.0004601258198561356,0.9998445461518257,0.012382652243434286,0.012543593508143767
1751354976.9208643,-1.651495,-1.769945,-1.318355,1.592974,-0.112136,-1.681708,0.0,0.0,0.0,0.0,0.0,0.0,3.945148732,4.135912158,0.300399814,0.001830045,0.0,0.0,-0.2496857702110752,-0.6919329641365844,0.513777046194678,-0.0004601258198561356,0.9998445461518257,0.012382652243434286,0.012543593508143767
1751354976.92495,-1.651495,-1.769945,-1.318355,1.592974,-0.112136,-1.681708,0.0,0.0,0.0,0.0,0.0,0.0,3.945148732,4.135912158,0.300399814,0.001830045,0.0,0.0,-0.2496857702110752,-0.6919329641365844,0.513777046194678,-0.0004601258198561356,0.9998445461518257,0.012382652243434286,0.012543593508143767
1751354976.9253411,-1.651495,-1.769945,-1.318355,1.592974,-0.112136,-1.681708,0.0,0.0,0.0,0.0,0.0,0.0,3.945148732,4.135912158,0.300399814,0.001830045,0.0,0.0,-0.2496857702110752,-0.6919329641365844,0.513777046194678,-0.0004601258198561356,0.9998445461518257,0.012382652243434286,0.012543593508143767
1751354976.9293163,-1.651495,-1.769945,-1.318355,1.592974,-0.112136,-1.681708,0.0,0.0,0.0,0.0,0.0,0.0,3.945148732,4.135912158,0.300399814,0.001830045,0.0,0.0,-0.2496857702110752,-0.6919329641365844,0.513777046194678,-0.0004601258198561356,0.9998445461518257,0.012382652243434286,0.012543593508143767
1751354976.9295332,-1.651495,-1.769945,-1.318355,1.592974,-0.112136,-1.681708,0.0,0.0,0.0,0.0,0.0,0.0,3.945148732,4.135912158,0.300399814,0.001830045,0.0,0.0,-0.2496857702110752,-0.6919329641365844,0.513777046194678,-0.0004601258198561356,0.9998445461518257,0.012382652243434286,0.012543593508143767
1751354976.9308898,-1.651495,-1.769945,-1.318355,1.592974,-0.112136,-1.681708,0.0,0.0,0.0,0.0,0.0,0.0,3.945148732,4.135912158,0.300399814,0.001830045,0.0,0.0,-0.2496857702110752,-0.6919329641365844,0.513777046194678,-0.0004601258198561356,0.9998445461518257,0.012382652243434286,0.012543593508143767
1751354976.9332871,-1.651495,-1.769945,-1.318355,1.592974,-0.112136,-1.681708,0.0,0.0,0.0,0.0,0.0,0.0,3.945148732,4.135912158,0.300399814,0.001830045,0.0,0.0,-0.2496857702110752,-0.6919329641365844,0.513777046194678,-0.0004601258198561356,0.9998445461518257,0.012382652243434286,0.012543593508143767
1751354976.9348867,-1.651495,-1.769945,-1.318355,1.592974,-0.112136,-1.681708,0.0,0.0,0.0,0.0,0.0,0.0,3.945148732,4.135912158,0.300399814,0.001830045,0.0,0.0,-0.2496857702110752,-0.6919329641365844,0.513777046194678,-0.0004601258198561356,0.9998445461518257,0.012382652243434286,0.012543593508143767
1751354976.9368615,-1.651495,-1.769945,-1.318355,1.592974,-0.112136,-1.681708,0.0,0.0,0.0,0.0,0.0,0.0,3.945148732,4.135912158,0.300399814,0.001830045,0.0,0.0,-0.2496857702110752,-0.6919329641365844,0.513777046194678,-0.0004601258198561356,0.9998445461518257,0.012382652243434286,0.012543593508143767
1751354976.9396956,-1.651495,-1.769945,-1.318355,1.592974,-0.112136,-1.681708,0.0,0.0,0.0,0.0,0.0,0.0,3.945148732,4.135912158,0.300399814,0.001830045,0.0,0.0,-0.2496857702110752,-0.6919329641365844,0.513777046194678,-0.0004601258198561356,0.9998445461518257,0.012382652243434286,0.012543593508143767
1751354976.942098,-1.651495,-1.769945,-1.318355,1.592974,-0.112136,-1.681708,0.0,0.0,0.0,0.0,0.0,0.0,3.945148732,4.135912158,0.300399814,0.001830045,0.0,0.0,-0.2496857702110752,-0.6919329641365844,0.513777046194678,-0.0004601258198561356,0.9998445461518257,0.012382652243434286,0.012543593508143767
1751354976.943846,-1.651495,-1.769945,-1.318355,1.592974,-0.112136,-1.681708,0.0,0.0,0.0,0.0,0.0,0.0,3.945148732,4.135912158,0.300399814,0.001830045,0.0,0.0,-0.2496857702110752,-0.6919329641365844,0.513777046194678,-0.0004601258198561356,0.9998445461518257,0.012382652243434286,0.012543593508143767
1751354976.9448495,-1.651495,-1.769945,-1.318355,1.592974,-0.112136,-1.681708,0.0,0.0,0.0,0.0,0.0,0.0,3.945148732,4.135912158,0.300399814,0.001830045,0.0,0.0,-0.2496857702110752,-0.6919329641365844,0.513777046194678,-0.0004601258198561356,0.9998445461518257,0.012382652243434286,0.012543593508143767
1751354976.94724,-1.651495,-1.769945,-1.318355,1.592974,-0.112136,-1.681708,0.0,0.0,0.0,0.0,0.0,0.0,3.945148732,4.135912158,0.300399814,0.001830045,0.0,0.0,-0.2496857702110752,-0.6919329641365844,0.513777046194678,-0.0004601258198561356,0.9998445461518257,0.012382652243434286,0.012543593508143767
1751354976.9489915,-1.651495,-1.769945,-1.318355,1.592974,-0.112136,-1.681708,0.0,0.0,0.0,0.0,0.0,0.0,3.945148732,4.135912158,0.300399814,0.001830045,0.0,0.0,-0.2496857702110752,-0.6919329641365844,0.513777046194678,-0.0004601258198561356,0.9998445461518257,0.012382652243434286,0.012543593508143767
1751354976.9508507,-1.651495,-1.769945,-1.318355,1.592974,-0.112136,-1.681708,0.0,0.0,0.0,0.0,0.0,0.0,3.945148732,4.135912158,0.300399814,0.001830045,0.0,0.0,-0.2496857702110752,-0.6919329641365844,0.513777046194678,-0.0004601258198561356,0.9998445461518257,0.012382652243434286,0.012543593508143767
1751354976.9529507,-1.651495,-1.769945,-1.318355,1.592974,-0.112136,-1.681708,0.0,0.0,0.0,0.0,0.0,0.0,3.945148732,4.135912158,0.300399814,0.001830045,0.0,0.0,-0.2496857702110752,-0.6919329641365844,0.513777046194678,-0.0004601258198561356,0.9998445461518257,0.012382652243434286,0.012543593508143767
1751354976.9553351,-1.651495,-1.769945,-1.318355,1.592974,-0.112136,-1.681708,0.0,0.0,0.0,0.0,0.0,0.0,3.945148732,4.135912158,0.300399814,0.001830045,0.0,0.0,-0.2496857702110752,-0.6919329641365844,0.513777046194678,-0.0004601258198561356,0.9998445461518257,0.012382652243434286,0.012543593508143767
1751354976.9568262,-1.651495,-1.769945,-1.318355,1.592974,-0.112136,-1.681708,0.0,0.0,0.0,0.0,0.0,0.0,3.945148732,4.135912158,0.300399814,0.001830045,0.0,0.0,-0.2496857702110752,-0.6919329641365844,0.513777046194678,-0.0004601258198561356,0.9998445461518257,0.012382652243434286,0.012543593508143767
1751354976.9589927,-1.651495,-1.769945,-1.318355,1.592974,-0.112136,-1.681708,0.0,0.0,0.0,0.0,0.0,0.0,3.945148732,4.135912158,0.300399814,0.001830045,0.0,0.0,-0.2496857702110752,-0.6919329641365844,0.513777046194678,-0.0004601258198561356,0.9998445461518257,0.012382652243434286,0.012543593508143767
1751354976.9612556,-1.651495,-1.769945,-1.318355,1.592974,-0.112136,-1.681708,0.0,0.0,0.0,0.0,0.0,0.0,3.945148732,4.135912158,0.300399814,0.001830045,0.0,0.0,-0.2496857702110752,-0.6919329641365844,0.513777046194678,-0.0004601258198561356,0.9998445461518257,0.012382652243434286,0.012543593508143767
1751354976.962904,-1.651495,-1.769945,-1.318355,1.592974,-0.112136,-1.681708,0.0,0.0,0.0,0.0,0.0,0.0,3.945148732,4.135912158,0.300399814,0.001830045,0.0,0.0,-0.2496857702110752,-0.6919329641365844,0.513777046194678,-0.0004601258198561356,0.9998445461518257,0.012382652243434286,0.012543593508143767
1751354976.9650192,-1.651495,-1.769945,-1.318355,1.592974,-0.112136,-1.681708,0.0,0.0,0.0,0.0,0.0,0.0,3.945148732,4.135912158,0.300399814,0.001830045,0.0,0.0,-0.2496857702110752,-0.6919329641365844,0.513777046194678,-0.0004601258198561356,0.9998445461518257,0.012382652243434286,0.012543593508143767
1751354976.9669917,-1.651495,-1.769945,-1.318355,1.592974,-0.112136,-1.681708,0.0,0.0,0.0,0.0,0.0,0.0,3.945148732,4.135912158,0.300399814,0.001830045,0.0,0.0,-0.2496857702110752,-0.6919329641365844,0.513777046194678,-0.0004601258198561356,0.9998445461518257,0.012382652243434286,0.012543593508143767
1751354976.9689012,-1.651495,-1.769945,-1.318355,1.592974,-0.112136,-1.681708,0.0,0.0,0.0,0.0,0.0,0.0,3.945148732,4.135912158,0.300399814,0.001830045,0.0,0.0,-0.2496857702110752,-0.6919329641365844,0.513777046194678,-0.0004601258198561356,0.9998445461518257,0.012382652243434286,0.012543593508143767
1751354976.9710596,-1.651495,-1.769945,-1.318355,1.592974,-0.112136,-1.681708,0.0,0.0,0.0,0.0,0.0,0.0,3.945148732,4.135912158,0.300399814,0.001830045,0.0,0.0,-0.2496857702110752,-0.6919329641365844,0.513777046194678,-0.0004601258198561356,0.9998445461518257,0.012382652243434286,0.012543593508143767
1751354976.9733136,-1.651495,-1.769945,-1.318355,1.592974,-0.112136,-1.681708,0.0,0.0,0.0,0.0,0.0,0.0,3.945148732,4.135912158,0.300399814,0.001830045,0.0,0.0,-0.2496857702110752,-0.6919329641365844,0.513777046194678,-0.0004601258198561356,0.9998445461518257,0.012382652243434286,0.012543593508143767
1751354976.9748406,-1.651495,-1.769945,-1.318355,1.592974,-0.112136,-1.681708,0.0,0.0,0.0,0.0,0.0,0.0,3.945148732,4.135912158,0.300399814,0.001830045,0.0,0.0,-0.2496857702110752,-0.6919329641365844,0.513777046194678,-0.0004601258198561356,0.9998445461518257,0.012382652243434286,0.012543593508143767
1751354976.9774292,-1.651495,-1.769945,-1.318355,1.592974,-0.112136,-1.681708,0.0,0.0,0.0,0.0,0.0,0.0,3.945148732,4.135912158,0.300399814,0.001830045,0.0,0.0,-0.2496857702110752,-0.6919329641365844,0.513777046194678,-0.0004601258198561356,0.9998445461518257,0.012382652243434286,0.012543593508143767
1751354976.9790013,-1.651495,-1.769945,-1.318355,1.592974,-0.112136,-1.681708,0.0,0.0,0.0,0.0,0.0,0.0,3.945148732,4.135912158,0.300399814,0.001830045,0.0,0.0,-0.2496857702110752,-0.6919329641365844,0.513777046194678,-0.0004601258198561356,0.9998445461518257,0.012382652243434286,0.012543593508143767
1751354976.9811535,-1.651495,-1.769945,-1.318355,1.592974,-0.112136,-1.681708,0.0,0.0,0.0,0.0,0.0,0.0,3.945148732,4.135912158,0.300399814,0.001830045,0.0,0.0,-0.2496857702110752,-0.6919329641365844,0.513777046194678,-0.0004601258198561356,0.9998445461518257,0.012382652243434286,0.012543593508143767
1751354976.9828775,-1.651495,-1.769945,-1.318355,1.592974,-0.112136,-1.681708,0.0,0.0,0.0,0.0,0.0,0.0,3.945148732,4.135912158,0.300399814,0.001830045,0.0,0.0,-0.2496857702110752,-0.6919329641365844,0.513777046194678,-0.0004601258198561356,0.9998445461518257,0.012382652243434286,0.012543593508143767
1751354976.9850602,-1.651495,-1.769945,-1.318355,1.592974,-0.112136,-1.681708,0.0,0.0,0.0,0.0,0.0,0.0,3.945148732,4.135912158,0.300399814,0.001830045,0.0,0.0,-0.2496857702110752,-0.6919329641365844,0.513777046194678,-0.0004601258198561356,0.9998445461518257,0.012382652243434286,0.012543593508143767
1751354976.9869304,-1.651495,-1.769945,-1.318355,1.592974,-0.112136,-1.681708,0.0,0.0,0.0,0.0,0.0,0.0,3.945148732,4.135912158,0.300399814,0.001830045,0.0,0.0,-0.2496857702110752,-0.6919329641365844,0.513777046194678,-0.0004601258198561356,0.9998445461518257,0.012382652243434286,0.012543593508143767
1751354976.9894118,-1.651495,-1.769945,-1.318355,1.592974,-0.112136,-1.681708,0.0,0.0,0.0,0.0,0.0,0.0,3.945148732,4.135912158,0.300399814,0.001830045,0.0,0.0,-0.2496857702110752,-0.6919329641365844,0.513777046194678,-0.0004601258198561356,0.9998445461518257,0.012382652243434286,0.012543593508143767
1751354976.9932108,-1.651495,-1.769945,-1.318355,1.592974,-0.112136,-1.681708,0.0,0.0,0.0,0.0,0.0,0.0,3.945148732,4.135912158,0.300399814,0.001830045,0.0,0.0,-0.2496857702110752,-0.6919329641365844,0.513777046194678,-0.0004601258198561356,0.9998445461518257,0.012382652243434286,0.012543593508143767
1751354976.9941015,-1.651495,-1.769945,-1.318355,1.592974,-0.112136,-1.681708,0.0,0.0,0.0,0.0,0.0,0.0,3.945148732,4.135912158,0.300399814,0.001830045,0.0,0.0,-0.2496857702110752,-0.6919329641365844,0.513777046194678,-0.0004601258198561356,0.9998445461518257,0.012382652243434286,0.012543593508143767
1751354976.9956503,-1.651495,-1.769945,-1.318355,1.592974,-0.112136,-1.681708,0.0,0.0,0.0,0.0,0.0,0.0,3.945148732,4.135912158,0.300399814,0.001830045,0.0,0.0,-0.2496857702110752,-0.6919329641365844,0.513777046194678,-0.0004601258198561356,0.9998445461518257,0.012382652243434286,0.012543593508143767
1751354976.9971855,-1.651495,-1.769945,-1.318355,1.592974,-0.112136,-1.681708,0.0,0.0,0.0,0.0,0.0,0.0,3.945148732,4.135912158,0.300399814,0.001830045,0.0,0.0,-0.2496857702110752,-0.6919329641365844,0.513777046194678,-0.0004601258198561356,0.9998445461518257,0.012382652243434286,0.012543593508143767
1751354977.00011,-1.651495,-1.769945,-1.318355,1.592974,-0.112136,-1.681708,0.0,0.0,0.0,0.0,0.0,0.0,3.945148732,4.135912158,0.300399814,0.001830045,0.0,0.0,-0.2496857702110752,-0.6919329641365844,0.513777046194678,-0.0004601258198561356,0.9998445461518257,0.012382652243434286,0.012543593508143767
1751354977.0014787,-1.651494658,-1.769944952,-1.318354906,1.592973656,-0.112135728,-1.681706621,0.000341877,4.8256e-05,9.3846e-05,-0.000344027,0.00027164,0.001379371,4.071105005,4.198232716,0.308021476,-0.003846411,0.007634687,0.530239541,-0.24968484598247986,-0.6919332152120922,0.5137773328706295,-0.00046068427686044277,0.9998445511167424,0.012382441300019082,0.012543385492296994
1751354977.0052693,-1.651494658,-1.769944952,-1.318354906,1.592973656,-0.112135728,-1.681706621,0.000341877,4.8256e-05,9.3846e-05,-0.000344027,0.00027164,0.001379371,4.071105005,4.198232716,0.308021476,-0.003846411,0.007634687,0.530239541,-0.24968484598247986,-0.6919332152120922,0.5137773328706295,-0.00046068427686044277,0.9998445511167424,0.012382441300019082,0.012543385492296994
1751354977.0053227,-1.651493633,-1.769944807,-1.318354625,1.592972624,-0.112134913,-1.681702483,0.00068374,9.6527e-05,0.000187686,-0.000688059,0.000543278,0.002758742,4.071094641,4.198235644,0.308021446,-0.003846633,0.007634664,0.530239471,-0.24968207265771653,-0.6919339691681382,0.5137781927324483,-0.0004623606417044036,0.9998445660017833,0.012381808964577653,0.012542761502443838
1751354977.0075784,-1.651491923,-1.769944566,-1.318354155,1.592970904,-0.112133555,-1.681695586,0.001025576,0.000144829,0.000281516,-0.0010321,0.000814916,0.004138114,4.071075505,4.198241217,0.308021357,-0.003847049,0.007634619,0.53023958,-0.249677450154687,-0.6919352252805112,0.5137796267779663,-0.0004651549296336115,0.9998445908202817,0.012380753740570218,0.012541721378283173
1751354977.009266,-1.65148953,-1.769944228,-1.318353499,1.592968495,-0.112131654,-1.68168593,0.001367372,0.000193178,0.000375329,-0.001376155,0.00108655,0.005517485,4.071047595,4.198249436,0.30802121,-0.003847657,0.007634551,0.530239866,-0.2496709786469635,-0.6919369840766908,0.5137816338898905,-0.0004690671229816316,0.9998446255383748,0.012379277660899133,0.012540264855877998
1751354977.0112166,-1.651486454,-1.769943793,-1.318352654,1.592965399,-0.112129209,-1.681673516,0.001709113,0.00024159,0.000469119,-0.00172023,0.001358182,0.006896858,4.071010913,4.198260298,0.308021004,-0.003848459,0.007634461,0.530240331,-0.2496626586249554,-0.6919392456333742,0.5137842144229955,-0.0004740962215787932,0.9998446701491787,0.01237737910952211,0.012538392777058132
1751354977.0135155,-1.651482694,-1.769943261,-1.318351622,1.592961615,-0.112126221,-1.681658343,0.002050787,0.000290079,0.000562882,-0.002064328,0.00162981,0.00827623,4.070965458,4.198273806,0.308020739,-0.003849454,0.007634348,0.530240973,-0.24965248943670207,-0.6919420095453525,0.5137873688564913,-0.0004802432223828303,0.9998447246292975,0.012375058620784009,0.012536104719716298
1751354977.0156524,-1.651478251,-1.769942632,-1.318350403,1.592957142,-0.11212269,-1.681640411,0.002392379,0.000338662,0.000656612,-0.002408454,0.001901432,0.009655603,4.070911233,4.198289958,0.308020415,-0.003850642,0.007634212,0.530241793,-0.2496404712196314,-0.6919452760416882,0.513791096472119,-0.0004875081215733258,0.9998447889509956,0.012372316724972588,0.012533400265980578
1751354977.018129,-1.651478251,-1.769942632,-1.318350403,1.592957142,-0.11212269,-1.681640411,0.002392379,0.000338662,0.000656612,-0.002408454,0.001901432,0.009655603,4.070911233,4.198289958,0.308020415,-0.003850642,0.007634212,0.530241793,-0.2496404712196314,-0.6919452760416882,0.513791096472119,-0.0004875081215733258,0.9998447889509956,0.012372316724972588,0.012533400265980578
1751354977.0198379,-1.651473124,-1.769941906,-1.318348996,1.592951981,-0.112118615,-1.68161972,0.002733876,0.000387355,0.000750303,-0.002752614,0.002173049,0.011034977,4.070848238,4.198308755,0.308020032,-0.003852024,0.007634054,0.53024279,-0.2496266038163529,-0.6919490448181184,0.5137953981039609,-0.0004958904174077382,0.9998448630914325,0.012369152352719988,0.012530279823036552
1751354977.0221767,-1.651467315,-1.769941083,-1.318347401,1.592946131,-0.112113998,-1.681596271,0.003075266,0.000436171,0.00084395,-0.003096812,0.00244466,0.012414352,4.070776474,4.198330196,0.308019591,-0.003853598,0.007633872,0.530243963,-0.2496108880875319,-0.6919533161527902,0.5138002723183217,-0.0005053905985762257,0.9998449470061799,0.012365566504248643,0.012526743055608795
1751354977.0238123,-1.651460823,-1.769940162,-1.31834562,1.592939593,-0.112108837,-1.681570063,0.003416533,0.000485128,0.000937548,-0.003441052,0.002716264,0.013793728,4.070695942,4.198354282,0.308019091,-0.003855366,0.007633668,0.530245313,-0.24959332316925176,-0.6919580898775491,0.5138057202652457,-0.0005160081503885753,0.9998450406491209,0.012361559108303086,0.012522790478092283
1751354977.0258012,-1.651453649,-1.769939142,-1.318343651,1.592932367,-0.112103133,-1.681541096,0.003757664,0.000534241,0.00103109,-0.00378534,0.002987859,0.015173104,4.070606644,4.198381012,0.308018532,-0.003857327,0.007633441,0.530246838,-0.24957390912917143,-0.6919633666836448,0.5138117421279869,-0.0005277435749914761,0.9998451439880311,0.012357129126558637,0.012518422026034554
1751354977.02728,-1.651445793,-1.769938025,-1.318341496,1.592924452,-0.112096885,-1.68150937,0.004098647,0.000583526,0.001124571,-0.00412968,0.003259446,0.016552482,4.070508582,4.198410386,0.308017914,-0.00385948,0.00763319,0.530248537,-0.2495526459661382,-0.6919691455983646,0.5138183363381752,-0.0005405963473596951,0.9998452569509256,0.01235227856581098,0.012513637463155826
1751354977.0289545,-1.651437255,-1.769936808,-1.318339153,1.592915848,-0.112090095,-1.681474886,0.004439467,0.000632997,0.001217986,-0.004474076,0.003531022,0.017931861,4.070401756,4.198442405,0.308017238,-0.003861828,0.007632917,0.530250411,-0.2495295344587253,-0.6919754272517917,0.5138255051261508,-0.0005545669843714868,0.9998453795164415,0.01234700487662387,0.012508436579350067
1751354977.0347297,-1.651418134,-1.769934077,-1.318333908,1.592896574,-0.112074884,-1.681397641,0.005120565,0.000732564,0.001404594,-0.005163059,0.004074143,0.020690622,4.070161825,4.198514374,0.308015709,-0.003867101,0.0076323,0.530254677,-0.249477763956195,-0.6919894976193617,0.5138415631386004,-0.0005858607482261377,0.9998456531438592,0.01233519237260207,0.012496787012831608
1751354977.03489,-1.651418134,-1.769934077,-1.318333908,1.592896574,-0.112074884,-1.681397641,0.005120565,0.000732564,0.001404594,-0.005163059,0.004074143,0.020690622,4.070161825,4.198514374,0.308015709,-0.003867101,0.0076323,0.530254677,-0.249477763956195,-0.6919894976193617,0.5138415631386004,-0.0005858607482261377,0.9998456531438592,0.01233519237260207,0.012496787012831608
1751354977.0370507,-1.651396291,-1.769930946,-1.318327917,1.592874543,-0.112057502,-1.681309361,0.00580085,0.000833065,0.001590872,-0.005852326,0.004617216,0.023449389,4.069886868,4.198596919,0.308013944,-0.003873147,0.007631588,0.530259629,-0.24941859780488662,-0.6920055783122523,0.5138599144579763,-0.0006216257589248453,0.9998459643221692,0.012321692750869756,0.012483472987931477
1751354977.0389295,-1.65138435,-1.76992923,-1.318324642,1.592862494,-0.112047996,-1.681261083,0.006140654,0.000883706,0.001683872,-0.006197078,0.004888731,0.024828774,4.06973626,4.198642157,0.308012974,-0.00387646,0.007631197,0.530262359,-0.2493862413525647,-0.6920143723893493,0.5138699495160338,-0.0006411844370733148,0.9998461337951653,0.01231431059231991,0.012476192208126215
1751354977.0408146,-1.651371729,-1.769927411,-1.318321181,1.592849755,-0.112037947,-1.681210046,0.006480213,0.000934627,0.001776773,-0.006541916,0.005160232,0.026208161,4.069576903,4.198690038,0.308011945,-0.003879966,0.007630782,0.530265257,-0.24935203586858865,-0.6920236692371635,0.5138805594778543,-0.0006618608970917779,0.9998463124370158,0.012306505506313813,0.012468495036585496
1751354977.0428512,-1.651358429,-1.769925491,-1.318317535,1.592836326,-0.112027355,-1.68115625,0.006819516,0.000985844,0.00186957,-0.006886843,0.005431718,0.02758755,4.0694088,4.198740563,0.308010857,-0.003883665,0.007630342,0.530268322,-0.2493159812638319,-0.6920334682167739,0.5138917421784934,-0.0006836550996046673,0.9998465001316084,0.012298279405380419,0.012460381773670854
1751354977.0448427,-1.651344451,-1.769923468,-1.318313703,1.592822208,-0.11201622,-1.681099696,0.007158547,0.001037373,0.001962255,-0.007231865,0.005703187,0.02896694,4.069231953,4.19879373,0.308009711,-0.003887557,0.007629878,0.530271553,-0.24927807817128333,-0.6920437697781383,0.5139034983526796,-0.0007065665306926879,0.9998466967937146,0.012289631155201989,0.01245185289442267
1751354977.0469935,-1.651329795,-1.769921341,-1.318309686,1.592807399,-0.112004542,-1.681040382,0.007497293,0.001089229,0.002054825,-0.007576987,0.005974638,0.030346332,4.069046366,4.198849541,0.308008505,-0.003891643,0.00762939,0.530274949,-0.24923832539868937,-0.6920545742191639,0.5139158285434604,-0.0007305961846346099,0.9998469023351442,0.012280560796396042,0.012442907480074372
1751354977.048839,-1.651314462,-1.769919111,-1.318305484,1.5927919,-0.111992321,-1.68097831,0.007835742,0.001141428,0.002147273,-0.007922212,0.006246072,0.031725726,4.068852041,4.198907994,0.308007241,-0.003895921,0.007628877,0.530278507,-0.2491967241605273,-0.6920658807617428,0.513928731370935,-0.0007557430236481513,0.9998471166342455,0.012271069167708929,0.012433546241876483
1751354977.0507216,-1.651298452,-1.769916775,-1.318301097,1.59277571,-0.111979558,-1.68091348,0.008173878,0.001193986,0.002239595,-0.008267547,0.006517486,0.033105121,4.068648984,4.19896909,0.308005919,-0.003900392,0.007628339,0.530282226,-0.2491532746014044,-0.6920776898565023,0.5139422088292667,-0.0007820075499055756,0.9998473396084118,0.012261154736877737,0.012423768618716299
1751354977.0529199,-1.651281767,-1.769914334,-1.318296526,1.592758829,-0.111966251,-1.68084589,0.008511689,0.001246917,0.002331784,-0.008612995,0.00678888,0.034484519,4.068437196,4.199032828,0.308004537,-0.003905057,0.007627776,0.530286105,-0.24910797530110415,-0.6920900018892344,0.5139562587040231,-0.0008093897193865837,0.9998475711176253,0.012250819421080007,0.012413574907306562
1751354977.0550127,-1.651264406,-1.769911787,-1.31829177,1.592741258,-0.111952402,-1.680775542,0.008849162,0.001300239,0.002423834,-0.008958562,0.007060254,0.035863918,4.068216681,4.199099208,0.308003097,-0.003909914,0.007627187,0.530290142,-0.24906082746653455,-0.6921028160417543,0.5139708824943717,-0.0008378895188626294,0.9998478110590316,0.012240061550359943,0.01240296556717182
1751354977.0569499,-1.651264406,-1.769911787,-1.31829177,1.592741258,-0.111952402,-1.680775542,0.008849162,0.001300239,0.002423834,-0.008958562,0.007060254,0.035863918,4.068216681,4.199099208,0.308003097,-0.003909914,0.007627187,0.530290142,-0.24906082746653455,-0.6921028160417543,0.5139708824943717,-0.0008378895188626294,0.9998478110590316,0.012240061550359943,0.01240296556717182
1751354977.0589056,-1.65124637,-1.769909133,-1.31828683,1.592722995,-0.11193801,-1.680702434,0.009186281,0.001353965,0.002515742,-0.009304252,0.007331605,0.037243318,4.067987444,4.199168229,0.308001597,-0.003914965,0.007626573,0.530294336,-0.24901182992772333,-0.6921161328619752,0.5139860800279651,-0.0008675074324107072,0.9998480593138782,0.012228881647916759,0.012391939749997862
1751354977.0606935,-1.651227661,-1.769906371,-1.318281707,1.592704041,-0.111923076,-1.680626568,0.009523035,0.001408112,0.0026075,-0.00965007,0.007602934,0.038622721,4.067749489,4.199239893,0.30800004,-0.003920209,0.007625933,0.530298684,-0.24896098396930538,-0.6921299522553039,0.5140018504248672,-0.0008982429175114956,0.9998483157362769,0.01221728052623172,0.012380498194126396
1751354977.062696,-1.651208278,-1.7699035,-1.3182764,1.592684395,-0.111907599,-1.680547943,0.009859409,0.001462695,0.002699104,-0.00999602,0.007874239,0.040002125,4.067502819,4.199314198,0.307998423,-0.003925646,0.007625267,0.530303185,-0.2489082889449041,-0.6921442740765661,0.5140181951790935,-0.0009300959715878467,0.9998485802198555,0.012205256651257986,0.01236864034160523
1751354977.0647087,-1.651188223,-1.76990052,-1.318270911,1.592664057,-0.111891579,-1.68046656,0.01019539,0.001517731,0.002790547,-0.010342107,0.00814552,0.041381531,4.067247439,4.199391143,0.307996748,-0.003931275,0.007624574,0.530307836,-0.2488537455135723,-0.6921590980405146,0.5140351126254536,-0.0009630660460402651,0.9998488526012054,0.012192811888939628,0.012356366540570743
1751354977.066836,-1.651167497,-1.769897429,-1.318265238,1.592643026,-0.111875017,-1.680382417,0.010530964,0.001573234,0.002881825,-0.010688337,0.008416775,0.042760939,4.066983353,4.19947073,0.307995013,-0.003937098,0.007623855,0.530312637,-0.24879735244740914,-0.692174425275728,0.5140526036101728,-0.0009971546361171345,0.9998491327628636,0.012179944690817152,0.01234367624777538
1751354977.0686836,-1.6511461,-1.769894227,-1.318259384,1.592621303,-0.111857912,-1.680295516,0.010866117,0.001629219,0.002972932,-0.011034713,0.008688003,0.044140348,4.066710567,4.199552957,0.307993221,-0.003943114,0.007623109,0.530317584,-0.2487391108899033,-0.6921902544470989,0.5140706677844143,-0.0010323601902302582,0.9998494205341242,0.012166656362564195,0.012330570261297212
1751354977.0708404,-1.651124033,-1.769890912,-1.318253347,1.592598887,-0.111840265,-1.680205856,0.011200836,0.001685704,0.003063863,-0.011381241,0.008959205,0.045519759,4.066429084,4.199637824,0.307991369,-0.003949323,0.007622335,0.530322676,-0.2486790202993619,-0.6922065864019331,0.5140893059944385,-0.00106868370175467,0.9998497157882995,0.012152945341410275,0.01231704805263846
1751354977.0726595,-1.651101297,-1.769887484,-1.318247128,1.592575778,-0.111822075,-1.680113437,0.011535108,0.001742703,0.003154612,-0.011727925,0.009230377,0.046899171,4.06613891,4.199725332,0.307989458,-0.003955725,0.007621535,0.530327911,-0.2486170806075651,-0.6922234208270058,0.5141085174069677,-0.0011061246292602912,0.9998500183563381,0.01213881249572469,0.012303109864121304
1751354977.0811968,-1.651053821,-1.769880282,-1.318234148,1.592527479,-0.111784069,-1.679920323,0.012202254,0.001858305,0.003335541,-0.01242178,0.009772634,0.049658001,4.065532508,4.199908264,0.307985461,-0.003969107,0.007619849,0.530338798,-0.2484876547320974,-0.6922585970785436,0.5141486618790235,-0.001184359618416453,0.999850644795311,0.0121092808702164,0.012273985151576763
1751354977.0851076,-1.650977615,-1.769868602,-1.318213324,1.592449823,-0.111722994,-1.67960996,0.013199276,0.002035954,0.003605432,-0.013463851,0.01058578,0.053796255,4.064557853,4.200202455,0.307979025,-0.003990628,0.007617107,0.530356137,-0.24827964838221064,-0.6923151309372695,0.5142131776742415,-0.0013100949310009293,0.9998516351326928,0.012061820213588197,0.012227177388394038
1751354977.0851572,-1.650950885,-1.76986447,-1.318206023,1.592422547,-0.111701551,-1.679500988,0.013530577,0.002096365,0.003694973,-0.013811571,0.010856761,0.055175675,4.064215643,4.200305795,0.307976762,-0.003998187,0.007616134,0.530362176,-0.2482066151131853,-0.6923349804848746,0.5142358300975103,-0.0013542416967904515,0.999851978056341,0.012045155878611774,0.01221074224233421
1751354977.0868027,-1.650923493,-1.769860216,-1.318198544,1.592394576,-0.111679567,-1.679389257,0.013861334,0.002157399,0.003784294,-0.01415948,0.011127706,0.056555095,4.06386478,4.200411772,0.307974441,-0.00400594,0.007615131,0.53036834,-0.2481317327250232,-0.6923553326710996,0.514259056230595,-0.0013995066399764965,0.999852327062776,0.012028069776618142,0.012193891329879393
1751354977.0890608,-1.65089544,-1.76985584,-1.318190886,1.592365909,-0.11165704,-1.679274768,0.014191535,0.002219071,0.003873389,-0.014507582,0.011398615,0.057934517,4.063505271,4.200520387,0.30797206,-0.004013885,0.007614099,0.530374627,-0.24805500195989755,-0.6923761870310073,0.5142828554713056,-0.0014458882291534566,0.9998526819649638,0.012010561804770923,0.012176624320047572
1751354977.0926676,-1.650866727,-1.76985134,-1.318183051,1.592336546,-0.111633972,-1.679157519,0.014521165,0.002281398,0.003962253,-0.014855884,0.011669486,0.059313939,4.063137122,4.200631638,0.307969621,-0.004022023,0.007613035,0.530381033,-0.247976421385195,-0.6923975440346934,0.5143072282021464,-0.0014933884193596033,0.9998530425541071,0.011992632291918302,0.012158941443843316
1751354977.0927272,-1.650837355,-1.769846714,-1.318175038,1.592306486,-0.111610362,-1.679037512,0.014850212,0.002344395,0.004050879,-0.015204388,0.011940318,0.060693362,4.062760339,4.200745525,0.307967123,-0.004030354,0.007611941,0.530387555,-0.24789599248933933,-0.692419403488063,0.5143321751533482,-0.0015420056879975705,0.9998534086468607,0.011974280120988593,0.012140842281160238
1751354977.094612,-1.650807326,-1.769841962,-1.318166847,1.592275728,-0.111586211,-1.678914746,0.015178662,0.002408077,0.004139264,-0.0155531,0.01221111,0.062072784,4.06237493,4.200862049,0.307964566,-0.004038878,0.007610815,0.530394191,-0.24781371464363613,-0.6924417655867725,0.5143576948910736,-0.0015917409895066406,0.9998537800248914,0.011955506164490804,0.012122326629363125
1751354977.09682,-1.650776641,-1.769837081,-1.318158481,1.592244273,-0.111561518,-1.678789221,0.0155065,0.00247246,0.004227401,-0.015902025,0.012481861,0.063452207,4.0619809,4.200981208,0.307961951,-0.004047594,0.007609657,0.530400938,-0.2477295876919503,-0.6924646304255551,0.5143837883500236,-0.001642593769750722,0.999854156463277,0.011936310690234745,0.012103395222930037
1751354977.1000652,-1.650776641,-1.769837081,-1.318158481,1.592244273,-0.111561518,-1.678789221,0.0155065,0.00247246,0.004227401,-0.015902025,0.012481861,0.063452207,4.0619809,4.200981208,0.307961951,-0.004047594,0.007609657,0.530400938,-0.2477295876919503,-0.6924646304255551,0.5143837883500236,-0.001642593769750722,0.999854156463277,0.011936310690234745,0.012103395222930037
1751354977.102723,-1.650713307,-1.769826931,-1.31814122,1.592179268,-0.111510508,-1.678529894,0.016160289,0.00260339,0.004402909,-0.016600532,0.013023235,0.066211052,4.061167007,4.201227431,0.307956544,-0.004065606,0.007607245,0.53041475,-0.24755578663496922,-0.6925118673935938,0.5144376946905763,-0.0017476526243962857,0.9998549236685951,0.011896654157456993,0.012064283892140065
1751354977.10278,-1.650713307,-1.769826931,-1.31814122,1.592179268,-0.111510508,-1.678529894,0.016160289,0.00260339,0.004402909,-0.016600532,0.013023235,0.066211052,4.061167007,4.201227431,0.307956544,-0.004065606,0.007607245,0.53041475,-0.24755578663496922,-0.6925118673935938,0.5144376946905763,-0.0017476526243962857,0.9998549236685951,0.011896654157456993,0.012064283892140065
1751354977.1047854,-1.65068066,-1.769821657,-1.318132326,1.592145718,-0.111484191,-1.678396093,0.016486212,0.002669969,0.004490269,-0.016950123,0.013293856,0.067590473,4.060747158,4.201354493,0.307953752,-0.004074901,0.007605989,0.530421809,-0.2474661131604255,-0.6925362396780353,0.5144655093545569,-0.0018018581202226323,0.9998553139980203,0.011876191718170743,0.012044104263416382
1751354977.1068091,-1.650647362,-1.76981625,-1.318123259,1.592111468,-0.111457332,-1.678259532,0.01681147,0.002737311,0.00457736,-0.017299945,0.013564431,0.068969893,4.060318718,4.20148419,0.307950902,-0.004084388,0.007604699,0.530428966,-0.2473745899683782,-0.6925611143969765,0.5144938965847342,-0.001857181419739761,0.9998557084803877,0.011855308660580316,0.01202350834484423
1751354977.1086104,-1.650613415,-1.769810708,-1.318114017,1.592076518,-0.111429933,-1.678120213,0.017136048,0.002805432,0.004664176,-0.017650004,0.013834959,0.070349313,4.059881694,4.20161652,0.307947993,-0.004094068,0.007603376,0.530436217,-0.24728121845806025,-0.6925864917082474,0.5145228565162616,-0.00191362248650557,0.9998561068910629,0.011834003766083786,0.01200249626081928
1751354977.110677,-1.650578819,-1.769805028,-1.318104602,1.592040867,-0.111401993,-1.677978135,0.017459933,0.002874347,0.004750712,-0.018000303,0.014105439,0.07172873,4.059436093,4.201751482,0.307945025,-0.004103941,0.007602018,0.530443559,-0.24718599797033639,-0.6926123716190928,0.5145523909113812,-0.0019711812842345823,0.9998565089993039,0.011812276399682214,0.011981067662244958
1751354977.1126451,-1.650543575,-1.76979921,-1.318095015,1.592004516,-0.111373511,-1.677833298,0.017783112,0.002944072,0.004836961,-0.018350848,0.01437587,0.073108146,4.058981924,4.201889077,0.307941999,-0.004114007,0.007600625,0.530450989,-0.24708892826347614,-0.6926387535230085,0.5145824989403225,-0.0020298572466460334,0.999856914540427,0.011790127297865532,0.01195922336757016
1751354977.1146483,-1.650507687,-1.769793251,-1.318085255,1.591967464,-0.111344489,-1.677685702,0.01810557,0.003014622,0.004922919,-0.018701642,0.01464625,0.07448756,4.058519194,4.202029303,0.307938913,-0.004124265,0.007599197,0.530458502,-0.24699000954555783,-0.6926656388320672,0.5146131798555929,-0.002089651330005951,0.9998573232656143,0.011767556290460593,0.011936963114243488
1751354977.1166987,-1.650471154,-1.769787151,-1.318075323,1.59192971,-0.111314926,-1.677535348,0.018427294,0.003086012,0.005008581,-0.019052692,0.014916577,0.075866971,4.058047912,4.202172161,0.307935769,-0.004134716,0.007597733,0.530466094,-0.24688924242140156,-0.6926930259718737,0.5146444342528919,-0.0021505624898228797,0.9998577349252799,0.011744563215103674,0.011914286632129789
1751354977.1185958,-1.650433978,-1.769780906,-1.31806522,1.591891253,-0.111284823,-1.677382235,0.018748271,0.00315826,0.00509394,-0.019404001,0.015186852,0.07724638,4.057568086,4.202317649,0.307932567,-0.004145359,0.007596232,0.530473764,-0.24678662633235346,-0.6927209159428889,0.5146762632479731,-0.0022125916855595977,0.9998581492672892,0.01172114740825839,0.011891193601061565
1751354977.120609,-1.650396161,-1.769774517,-1.318054947,1.591852093,-0.111254179,-1.677226362,0.019068486,0.003231379,0.005178991,-0.019755574,0.015457072,0.078625785,4.057079725,4.202465768,0.307929305,-0.004156195,0.007594694,0.530481505,-0.24668216045298869,-0.6927493083655044,0.5147086646277763,-0.002275738842865568,0.9998585659991716,0.011697310644556496,0.011867684461769902
1751354977.12265,-1.650357705,-1.76976798,-1.318044505,1.59181223,-0.111222995,-1.677067731,0.019387925,0.003305385,0.005263729,-0.020107416,0.015727236,0.080005187,4.056582837,4.202616516,0.307925985,-0.004167224,0.007593119,0.530489315,-0.24657584617995407,-0.6927782034800227,0.5147416395109117,-0.002340003412956729,0.9998589848572171,0.011673052180065747,0.01184375941684047
1751354977.124738,-1.65031861,-1.769761295,-1.318033893,1.591771664,-0.11119127,-1.676906342,0.019706577,0.003380294,0.005348149,-0.020459531,0.015997342,0.081384585,4.056077431,4.202769893,0.307922606,-0.004178445,0.007591506,0.53049719,-0.24646768335800476,-0.6928076004771596,0.5147751880145811,-0.002405384846006566,0.9998594055730025,0.011648371290600737,0.011819418649874052
1751354977.126664,-1.650278879,-1.769754459,-1.318023112,1.591730392,-0.111159005,-1.676742193,0.020024425,0.003456122,0.005432245,-0.020811925,0.016267391,0.082763979,4.055563516,4.202925898,0.307919168,-0.004189858,0.007589854,0.530505125,-0.24635767095942704,-0.6928375005712705,0.5148093098691499,-0.0024718845996531745,0.9998598278712936,0.011623268404573358,0.011794660966235443
1751354977.1286817,-1.650238513,-1.76974747,-1.318012164,1.591688416,-0.1111262,-1.676575286,0.020341458,0.003532884,0.005516011,-0.021164601,0.016537379,0.084143368,4.0550411,4.203084532,0.307915672,-0.004201464,0.007588163,0.530513116,-0.24624581003214277,-0.6928679029784004,0.5148440054643081,-0.0025395015986678982,0.9998602514519199,0.01159774365721018,0.011769487677689788
1751354977.1306255,-1.650197514,-1.769740326,-1.318001049,1.591645734,-0.111092856,-1.67640562,0.02065766,0.003610595,0.005599442,-0.021517565,0.016807305,0.085522751,4.054510195,4.203245793,0.307912117,-0.004213263,0.007586432,0.53052116,-0.2461321000662814,-0.6928988081582601,0.5148792746988198,-0.0026082367975192346,0.9998606760322765,0.01157179691149894,0.011743898046485634
1751354977.13299,-1.650155883,-1.769733027,-1.317989766,1.591602345,-0.111058971,-1.676233195,0.020973019,0.003689271,0.005682534,-0.02187082,0.017077169,0.086902129,4.053970808,4.20340968,0.307908503,-0.004225253,0.007584661,0.530529251,-0.24601654104451007,-0.6929302155570056,0.5149151169731757,-0.0026780891434375923,0.9998611013247801,0.011545427983650922,0.011717891824555062
1751354977.1402264,-1.650155883,-1.769733027,-1.317989766,1.591602345,-0.111058971,-1.676233195,0.020973019,0.003689271,0.005682534,-0.02187082,0.017077169,0.086902129,4.053970808,4.20340968,0.307908503,-0.004225253,0.007584661,0.530529251,-0.24601654104451007,-0.6929302155570056,0.5149151169731757,-0.0026780891434375923,0.9998611013247801,0.011545427983650922,0.011717891824555062
1751354977.1402855,-1.650155883,-1.769733027,-1.317989766,1.591602345,-0.111058971,-1.676233195,0.020973019,0.003689271,0.005682534,-0.02187082,0.017077169,0.086902129,4.053970808,4.20340968,0.307908503,-0.004225253,0.007584661,0.530529251,-0.24601654104451007,-0.6929302155570056,0.5149151169731757,-0.0026780891434375923,0.9998611013247801,0.011545427983650922,0.011717891824555062
1751354977.1443567,-1.650155883,-1.769733027,-1.317989766,1.591602345,-0.111058971,-1.676233195,0.020973019,0.003689271,0.005682534,-0.02187082,0.017077169,0.086902129,4.053970808,4.20340968,0.307908503,-0.004225253,0.007584661,0.530529251,-0.24601654104451007,-0.6929302155570056,0.5149151169731757,-0.0026780891434375923,0.9998611013247801,0.011545427983650922,0.011717891824555062
1751354977.1444342,-1.650155883,-1.769733027,-1.317989766,1.591602345,-0.111058971,-1.676233195,0.020973019,0.003689271,0.005682534,-0.02187082,0.017077169,0.086902129,4.053970808,4.20340968,0.307908503,-0.004225253,0.007584661,0.530529251,-0.24601654104451007,-0.6929302155570056,0.5149151169731757,-0.0026780891434375923,0.9998611013247801,0.011545427983650922,0.011717891824555062
1751354977.1454298,-1.649892932,-1.769685833,-1.317918616,1.591327151,-0.110844336,-1.675140712,0.022846686,0.004182463,0.006173635,-0.023996748,0.018694949,0.095178247,4.050556932,4.204448128,0.307885586,-0.004301236,0.007573157,0.53057856,-0.2452843588646556,-0.6931292137063904,0.5151422157572928,-0.0031206747395632374,0.9998636506789211,0.01137835344040342,0.011553117032887502
1751354977.147751,-1.64984693,-1.769677383,-1.317906189,1.591278802,-0.110806677,-1.674948976,0.023155754,0.004268328,0.006254194,-0.024352178,0.018964331,0.09655757,4.049958455,4.204630384,0.307881561,-0.004314572,0.007571087,0.530586862,-0.24515585713631613,-0.6931641388318652,0.5151820716826779,-0.0031983508383644802,0.9998640722064097,0.011349031854148612,0.011524197963579558
1751354977.1496077,-1.64980031,-1.769668759,-1.3178936,1.591229742,-0.110768479,-1.674754482,0.023463869,0.004355283,0.006334369,-0.024707938,0.019233637,0.097936883,4.049351579,4.204815262,0.307877477,-0.004328101,0.007568973,0.530595175,-0.2450255069042271,-0.6931995665283501,0.5152225026065265,-0.00327714409254814,0.9998644919237508,0.011319286636675644,0.01149486262176191
1751354977.1506839,-1.649753075,-1.769659961,-1.317880851,1.59117997,-0.110729742,-1.674557229,0.023771017,0.004443342,0.006414156,-0.025064031,0.019502868,0.099316185,4.048736314,4.20500276,0.307873335,-0.004341822,0.007566812,0.530603495,-0.24489330745897978,-0.6932354966522205,0.5152635061510539,-0.003357054913937296,0.9998649094647848,0.011289120046229872,0.011465111070736613
1751354977.1526704,-1.649705226,-1.769650985,-1.317867944,1.591129486,-0.110690467,-1.674357217,0.024077183,0.004532522,0.006493548,-0.025420462,0.019772019,0.100695475,4.048112671,4.205192878,0.307869134,-0.004355734,0.007564605,0.530611816,-0.24475925871009302,-0.6932719292444481,0.5153050840370015,-0.0034380837378871847,0.9998653244907945,0.011258531289481729,0.011434943564938281
1751354977.1546817,-1.649656767,-1.76964183,-1.317854877,1.591078288,-0.110650654,-1.674154447,0.024382354,0.004622837,0.006572541,-0.025777237,0.020041091,0.102074754,4.047480661,4.205385615,0.307864874,-0.004369839,0.007562351,0.530620134,-0.24462336155580253,-0.6933088647106234,0.5153472343041613,-0.0035202300010261124,0.9998657366593211,0.011227520670213167,0.011404359475785492
1751354977.1600628,-1.649607698,-1.769632493,-1.317841654,1.591026377,-0.110610303,-1.673948918,0.024686517,0.004714303,0.006651129,-0.026134359,0.020310081,0.103454019,4.046840297,4.205580971,0.307860555,-0.004384135,0.007560049,0.530628442,-0.2444856150010766,-0.6933463024714344,0.5153899584907915,-0.0036034941201327085,0.9998661456045536,0.01119608833900015,0.011373359658661496
1751354977.1601212,-1.649558021,-1.769622972,-1.317828273,1.59097375,-0.110569414,-1.673740631,0.024989657,0.004806935,0.006729308,-0.026491834,0.020578988,0.104833271,4.046191589,4.205778945,0.307856178,-0.004398624,0.007557698,0.530636737,-0.24434602001205272,-0.693384242497816,0.5154332567313078,-0.003687875551084551,0.9998665509980399,0.01116423315332877,0.011341942836287085
1751354977.1611552,-1.64950774,-1.769613264,-1.317814737,1.590920409,-0.110527987,-1.673529585,0.02529176,0.00490075,0.00680707,-0.026849665,0.020847809,0.106212508,4.045534549,4.205979535,0.307851741,-0.004413304,0.007555299,0.530645013,-0.2442045756203929,-0.6934226856405258,0.5154771278245811,-0.0037733746871459186,0.9998669524409037,0.01113195669353508,0.011310110529221483
1751354977.1629944,-1.64950774,-1.769613264,-1.317814737,1.590920409,-0.110527987,-1.673529585,0.02529176,0.00490075,0.00680707,-0.026849665,0.020847809,0.106212508,4.045534549,4.205979535,0.307851741,-0.004413304,0.007555299,0.530645013,-0.2442045756203929,-0.6934226856405258,0.5154771278245811,-0.0037733746871459186,0.9998669524409037,0.01113195669353508,0.011310110529221483
1751354977.1648865,-1.649456855,-1.769603368,-1.317801045,1.590866352,-0.110486023,-1.673315781,0.025592814,0.004995762,0.006884412,-0.027207858,0.021116544,0.10759173,4.044869189,4.206182742,0.307847246,-0.004428176,0.007552849,0.530653264,-0.24406128255918277,-0.6934616307916985,0.5155215725542416,-0.0038599914757374795,0.9998673495882194,0.01109925774975113,0.011277861971194972
1751354977.1667871,-1.649405369,-1.769593281,-1.317787199,1.590811577,-0.110443521,-1.673099218,0.025892803,0.005091987,0.006961327,-0.027566417,0.021385189,0.108970936,4.044195521,4.206388564,0.307842693,-0.00444324,0.007550348,0.530661485,-0.24391614029389308,-0.6935010785077506,0.5155665905422627,-0.003947725842853434,0.9998677420657105,0.011066137118642403,0.011245196590490426
1751354977.1688864,-1.649353284,-1.769582999,-1.3177732,1.590756086,-0.110400482,-1.672879897,0.026191715,0.00518944,0.007037811,-0.027925346,0.021653744,0.110350125,4.043513558,4.206597,0.30783808,-0.004458496,0.007547797,0.530669671,-0.24376914921527104,-0.6935410289490963,0.5156121829188365,-0.004036577704020701,0.9998681294926874,0.01103259386618558,0.011212115670899388
1751354977.170786,-1.649300603,-1.769572522,-1.317759048,1.590699876,-0.110356906,-1.672657818,0.026489535,0.005288138,0.007113858,-0.028284651,0.021922207,0.111729296,4.042823312,4.206808051,0.307833409,-0.004473943,0.007545193,0.530677816,-0.24362030952992247,-0.6935814817986583,0.5156583475383962,-0.004126546984194388,0.9998685114843165,0.010998629319749044,0.01117861821564795
1751354977.1728835,-1.649247327,-1.769561846,-1.317744745,1.590642947,-0.110312793,-1.67243298,0.026786249,0.005388094,0.007189463,-0.028644335,0.022190575,0.113108449,4.042124795,4.207021714,0.307828679,-0.004489582,0.007542536,0.530685914,-0.24346962041919387,-0.6936224371967491,0.5157050861250804,-0.004217634108888772,0.9998688876582201,0.010964242660190245,0.011144704505989401
1751354977.1746688,-1.649193459,-1.769550969,-1.317730291,1.590585298,-0.110268144,-1.672205384,0.027081844,0.005489326,0.00726462,-0.029004404,0.022458848,0.114487582,4.04141802,4.207237989,0.307823891,-0.004505413,0.007539825,0.53069396,-0.24331708259976584,-0.6936638951236248,0.5157523978721967,-0.0043098389986474415,0.9998692576220638,0.010929434094782527,0.01111037445257379
1751354977.1766999,-1.649139,-1.769539888,-1.317715687,1.590526929,-0.110222958,-1.67197503,0.027376306,0.005591848,0.007339325,-0.029364862,0.022727022,0.115866694,4.040703,4.207456876,0.307819043,-0.004521435,0.007537061,0.530701948,-0.24316269592276227,-0.6937058552882521,0.5158002839550191,-0.0044031610768713245,0.9998696209880178,0.010894202796204355,0.011075628345336545
1751354977.1786695,-1.649083954,-1.7695286,-1.317700934,1.590467838,-0.110177236,-1.671741917,0.027669621,0.005695676,0.007413571,-0.029725713,0.022995095,0.117245786,4.039979748,4.207678373,0.307814137,-0.004537648,0.007534241,0.530709872,-0.24300645987494213,-0.6937483186029958,0.5158487434005152,-0.004497601262795233,0.9998699773487472,0.010858549524489027,0.011040465647838142
1751354977.180652,-1.649028323,-1.769517104,-1.317686033,1.590408026,-0.110130978,-1.671506046,0.027961775,0.005800825,0.007487354,-0.030086963,0.023263067,0.118624855,4.039248278,4.207902479,0.307809172,-0.004554053,0.007531364,0.530717726,-0.24284837485518848,-0.6937912842982928,0.5158977753388947,-0.004593158956766302,0.9998703262840791,0.010822474871691308,0.011004887324214287
1751354977.1825936,-1.648972108,-1.769505396,-1.317670985,1.59034749,-0.110084184,-1.671267418,0.028252754,0.00590731,0.007560668,-0.030448615,0.023530935,0.1200039,4.038508602,4.208129194,0.307804148,-0.004570649,0.007528432,0.530725504,-0.24268844177201393,-0.693834752031353,0.5159473816066931,-0.004689833601751309,0.9998706674125935,0.010785977647957823,0.010968892143719355
1751354977.1847093,-1.648915312,-1.769493474,-1.317655791,1.590286231,-0.110036854,-1.671026031,0.028542545,0.006015148,0.007633507,-0.030810674,0.023798696,0.121382921,4.037760734,4.208358517,0.307799066,-0.004587437,0.007525441,0.5307332,-0.24252665899659895,-0.693878722337225,0.5159975612870852,-0.004787626095691482,0.9998710002978112,0.010749058453668534,0.010932481062505243
1751354977.1866453,-1.648857939,-1.769481335,-1.317640451,1.590224247,-0.109988989,-1.670781886,0.028831133,0.006124353,0.007705868,-0.031173145,0.02406635,0.122761917,4.037004689,4.208590446,0.307793925,-0.004604415,0.007522393,0.530740808,-0.2423630273980655,-0.6939231956981924,0.5160483135261666,-0.004886536358409397,0.9998713245235711,0.010711717523786987,0.010895653518176826
1751354977.188652,-1.648799989,-1.769468976,-1.317624967,1.590161538,-0.109940589,-1.670534983,0.029118504,0.006234942,0.007777744,-0.031536033,0.024333893,0.124140886,4.03624048,4.208824981,0.307788725,-0.004621585,0.007519285,0.530748322,-0.2421975467576258,-0.6939681712748887,0.5160996400996322,-0.004986564306458747,0.9998716396709859,0.010673954000597246,0.010858409831322212
1751354977.1968873,-1.648682371,-1.769443587,-1.317593571,1.590033941,-0.109842184,-1.670032904,0.029689542,0.006460329,0.00792002,-0.032263074,0.024868639,0.126898739,4.034687626,4.209301865,0.307778148,-0.004656498,0.007512888,0.530763041,-0.24186103906861517,-0.6940596298878576,0.5162040138568129,-0.00518997239401201,0.9998722409946068,0.010597160899089228,0.01078267387298318
1751354977.1987996,-1.648501687,-1.769403785,-1.31754542,1.589837083,-0.109690567,-1.669259102,0.030536629,0.006809168,0.008129668,-0.033356872,0.025669877,0.131035291,4.032297474,4.210036711,0.307761843,-0.0047103,0.007502827,0.530784253,-0.24134241045264096,-0.6942005868207722,0.5163648748094045,-0.00550346566730101,0.9998730639699331,0.01047880626035575,0.01066594732711782
1751354977.2009282,-1.648501687,-1.769403785,-1.31754542,1.589837083,-0.109690567,-1.669259102,0.030536629,0.006809168,0.008129668,-0.033356872,0.025669877,0.131035291,4.032297474,4.210036711,0.307761843,-0.0047103,0.007502827,0.530784253,-0.24134241045264096,-0.6942005868207722,0.5163648748094045,-0.00550346566730101,0.9998730639699331,0.01047880626035575,0.01066594732711782
1751354977.2045598,-1.648378422,-1.769376071,-1.317512626,1.589702193,-0.109586821,-1.668729445,0.031094877,0.00704908,0.00826686,-0.03408828,0.026203421,0.133792826,4.030663631,4.210539609,0.307750678,-0.004747122,0.0074958,0.53079774,-0.24098741271601806,-0.6942970706898675,0.5164749828394962,-0.005718050037604008,0.999873554706377,0.010397792521101772,0.010586048048694612
1751354977.2046952,-1.648378422,-1.769376071,-1.317512626,1.589702193,-0.109586821,-1.668729445,0.031094877,0.00704908,0.00826686,-0.03408828,0.026203421,0.133792826,4.030663631,4.210539609,0.307750678,-0.004747122,0.0074958,0.53079774,-0.24098741271601806,-0.6942970706898675,0.5164749828394962,-0.005718050037604008,0.999873554706377,0.010397792521101772,0.010586048048694612
1751354977.2067854,-1.648315955,-1.76936185,-1.317496024,1.58963365,-0.109534147,-1.668460481,0.031372016,0.007171288,0.008334669,-0.034454661,0.026470002,0.13517154,4.029834632,4.210794956,0.307745008,-0.004765818,0.007492188,0.530804266,-0.24080714097931682,-0.6943460666490295,0.5165308976976631,-0.005827017700463139,0.9998737813373898,0.010356651918103699,0.010545473902832454
1751354977.2085605,-1.648252935,-1.769347384,-1.317479288,1.589564374,-0.109480941,-1.668188759,0.031647813,0.007295018,0.008401945,-0.034821499,0.026736453,0.136550216,4.028997603,4.211052899,0.307739279,-0.004784706,0.007488509,0.530810639,-0.24062501980993134,-0.6943955648726319,0.5165873853291916,-0.0059371037054418195,0.9998739948300651,0.0103150901671049,0.010504483661857933
1751354977.2108147,-1.648189364,-1.769332669,-1.317462417,1.589494364,-0.109427201,-1.66791428,0.031922255,0.007420285,0.008468685,-0.035188798,0.02700277,0.137928853,4.028152558,4.211313439,0.307733491,-0.004803784,0.007484761,0.530816852,-0.24044104988504716,-0.6944455654072922,0.5166444471023897,-0.006048306472818475,0.9998741947423039,0.010273105431378491,0.010463077082578686
1751354977.2126265,-1.648125247,-1.769317702,-1.317445413,1.589423618,-0.10937293,-1.667637044,0.032195327,0.007547104,0.008534882,-0.035556563,0.027268952,0.139307449,4.027299514,4.211576572,0.307727644,-0.004823052,0.007480945,0.530822897,-0.24025523133491528,-0.6944960688868632,0.5167020812220399,-0.006160627393859035,0.9998743805745323,0.010230699381464875,0.010421253810148844
1751354977.2162197,-1.648060584,-1.76930248,-1.317428278,1.589352137,-0.109318126,-1.66735705,0.032467015,0.007675492,0.008600531,-0.035924798,0.027534996,0.140686004,4.026438487,4.2118423,0.307721738,-0.00484251,0.007477059,0.530828767,-0.24006756308003466,-0.6945470745316275,0.5167602894724872,-0.006274065865496342,0.9998745518485866,0.010187871074007203,0.010379014697109949
1751354977.2169836,-1.648060584,-1.76930248,-1.317428278,1.589352137,-0.109318126,-1.66735705,0.032467015,0.007675492,0.008600531,-0.035924798,0.027534996,0.140686004,4.026438487,4.2118423,0.307721738,-0.00484251,0.007477059,0.530828767,-0.24006756308003466,-0.6945470745316275,0.5167602894724872,-0.006274065865496342,0.9998745518485866,0.010187871074007203,0.010379014697109949
1751354977.218806,-1.647929636,-1.769271257,-1.317393616,1.589206963,-0.109206922,-1.666788792,0.033006184,0.007937032,0.008730165,-0.036662698,0.02806666,0.143442982,4.024692547,4.212381531,0.307709751,-0.004881998,0.007469074,0.530839954,-0.2396866806004383,-0.6946505938007076,0.5168784262057659,-0.006504294571368368,0.9998748487885937,0.01010094784077754,0.01029328736767609
1751354977.2206595,-1.647863356,-1.76925525,-1.317376091,1.589133268,-0.109150523,-1.666500528,0.033273637,0.008070216,0.00879414,-0.037032371,0.028332275,0.144821402,4.023807668,4.212655032,0.307703668,-0.004902027,0.007464973,0.530845256,-0.23949346623189996,-0.6947031071706509,0.516938354914111,-0.006621085101688323,0.999874973466852,0.010056852668629917,0.010249799078023574
1751354977.222752,-1.647796542,-1.769238975,-1.31735844,1.589058833,-0.109093593,-1.666209507,0.033539651,0.00820503,0.008857546,-0.037402533,0.028597742,0.146199774,4.022914872,4.212931123,0.307697527,-0.004922246,0.007460799,0.530850355,-0.2392984027617519,-0.6947561227685776,0.5169988573229818,-0.0067389932712639015,0.999875081608218,0.010012335787125902,0.010205894411325564
1751354977.2245896,-1.647729198,-1.769222429,-1.317340662,1.588983657,-0.109036132,-1.665915729,0.033804211,0.008341488,0.008920378,-0.037773188,0.028863058,0.147578096,4.022014175,4.213209801,0.307691327,-0.004942655,0.00745655,0.530855242,-0.2391014901771802,-0.6948096411669634,0.5170599327097802,-0.006858018977465752,0.9998751727111832,0.009967396816358188,0.010161573312799373
1751354977.2267075,-1.647661326,-1.769205608,-1.317322758,1.58890774,-0.108978141,-1.665619195,0.034067303,0.008479607,0.008982632,-0.038144339,0.02912822,0.148956368,4.021105595,4.213491067,0.307685069,-0.004963254,0.007452225,0.53085991,-0.2389027289784681,-0.6948636620612387,0.5171215822163902,-0.006978162115468833,0.9998752462703445,0.00992203481373441,0.010116836188410592
1751354977.2285817,-1.64759293,-1.769188509,-1.317304731,1.58883108,-0.10891962,-1.665319904,0.034328913,0.008619401,0.009044301,-0.038515992,0.029393227,0.150334586,4.020189149,4.213774917,0.307678751,-0.004984042,0.007447823,0.530864352,-0.23870211851858655,-0.694918185746271,0.5171838046506231,-0.007099423067302997,0.9998753017538803,0.009876251436455933,0.010071682692683406
1751354977.2305913,-1.647524012,-1.769171129,-1.317286582,1.588753676,-0.108860568,-1.665017856,0.034589027,0.008760887,0.009105381,-0.038888152,0.029658074,0.15171275,4.019264855,4.214061352,0.307672374,-0.00500502,0.007443344,0.530868559,-0.23849965868339004,-0.694973211840466,0.5172466004864107,-0.00722180122671236,0.9998753386494778,0.009830046296879249,0.010026112777913099
1751354977.2325535,-1.647454575,-1.769153465,-1.31726831,1.588675527,-0.108800987,-1.664713053,0.034847632,0.008904079,0.009165867,-0.039260821,0.029922759,0.153090858,4.018332729,4.21435037,0.307665939,-0.005026188,0.007438787,0.530872525,-0.23829535079818068,-0.6950287400419054,0.5173099697187068,-0.007345296490592335,0.9998753564419135,0.009783418480623954,0.009980126374689554
1751354977.234598,-1.647384622,-1.769135512,-1.317249919,1.588596632,-0.108740877,-1.664405493,0.035104713,0.009048992,0.009225753,-0.039634006,0.03018728,0.154468908,4.017392791,4.21464197,0.307659444,-0.005047545,0.007434149,0.53087624,-0.23808919339877763,-0.6950847709402549,0.5173739130915154,-0.007469909740864075,0.9998753545876343,0.009736368591335408,0.009933723540017644
1751354977.2365692,-1.647314157,-1.769117267,-1.317231408,1.58851699,-0.108680238,-1.664095177,0.035360255,0.009195643,0.009285034,-0.04000771,0.030451633,0.155846898,4.016445057,4.214936151,0.307652891,-0.005069091,0.007429432,0.530879697,-0.23788118713652134,-0.695141304775907,0.5174384298872342,-0.007595640367422415,0.9998753325599424,0.00968889621859552,0.009886904248471088
1751354977.238562,-1.647243182,-1.769098728,-1.317212779,1.588436601,-0.108619071,-1.663782105,0.035614246,0.009344046,0.009343705,-0.040381937,0.030715816,0.157224827,4.015489547,4.215232911,0.307646279,-0.005090827,0.007424632,0.530882889,-0.23767133172494326,-0.6951983407239721,0.517503519800264,-0.007722488744495757,0.9998752898049659,0.009641001892252853,0.009839669076759998
1751354977.2405403,-1.647171701,-1.76907989,-1.317194033,1.588355462,-0.108557375,-1.663466278,0.03586667,0.009494217,0.009401761,-0.040756693,0.030979826,0.158602692,4.014526278,4.215532249,0.307639608,-0.005112751,0.007419749,0.530885807,-0.23745962806628065,-0.6952558792817372,0.5175691832107708,-0.007850453770202192,0.999875225799336,0.009592685299226281,0.009792017007689014
1751354977.2425349,-1.647099717,-1.76906075,-1.317175172,1.588273574,-0.108495152,-1.663147695,0.036117515,0.009646172,0.009459198,-0.041131981,0.031243659,0.159980492,4.013555269,4.215834164,0.307632877,-0.005134865,0.007414783,0.530888442,-0.23724607510956353,-0.6953139204498593,0.5176354197700337,-0.007979536810899485,0.9998751399675557,0.00954394691070264,0.009743949122920094
1751354977.2445402,-1.647027232,-1.769041304,-1.317156197,1.588190934,-0.108432401,-1.662826356,0.036366765,0.009799924,0.009516008,-0.041507806,0.031507313,0.161358224,4.01257654,4.216138654,0.307626088,-0.005157168,0.007409732,0.530890787,-0.2370306729633515,-0.6953724639878717,0.5177022306210743,-0.008109737266390296,0.9998750317778853,0.009494785912134929,0.009695464358432866
1751354977.2506337,-1.646954251,-1.769021549,-1.317137109,1.588107542,-0.108369123,-1.662502262,0.036614406,0.009955491,0.009572188,-0.041884172,0.031770785,0.162735887,4.011590108,4.216445718,0.30761924,-0.005179659,0.007404595,0.530892833,-0.23681342214606954,-0.6954315101690083,0.5177696141037451,-0.008241055001646144,0.9998749006561924,0.009445203309199035,0.009646563360963709
1751354977.2506883,-1.646880775,-1.769001481,-1.317117909,1.588023397,-0.108305318,-1.662175412,0.036860426,0.010112886,0.009627733,-0.042261083,0.032034071,0.164113479,4.010595993,4.216755355,0.307612333,-0.005202339,0.007399371,0.530894572,-0.23659432179747122,-0.6954910586444278,0.5178375720811473,-0.00837349040752635,0.9998747460496085,0.00939519768088791,0.009597246019732195
1751354977.2541409,-1.646880775,-1.769001481,-1.317117909,1.588023397,-0.108305318,-1.662175412,0.036860426,0.010112886,0.009627733,-0.042261083,0.032034071,0.164113479,4.010595993,4.216755355,0.307612333,-0.005202339,0.007399371,0.530894572,-0.23659432179747122,-0.6954910586444278,0.5178375720811473,-0.00837349040752635,0.9998747460496085,0.00939519768088791,0.009597246019732195
1751354977.2549143,-1.646880775,-1.769001481,-1.317117909,1.588023397,-0.108305318,-1.662175412,0.036860426,0.010112886,0.009627733,-0.042261083,0.032034071,0.164113479,4.010595993,4.216755355,0.307612333,-0.005202339,0.007399371,0.530894572,-0.23659432179747122,-0.6954910586444278,0.5178375720811473,-0.00837349040752635,0.9998747460496085,0.00939519768088791,0.009597246019732195
1751354977.2549348,-1.646880775,-1.769001481,-1.317117909,1.588023397,-0.108305318,-1.662175412,0.036860426,0.010112886,0.009627733,-0.042261083,0.032034071,0.164113479,4.010595993,4.216755355,0.307612333,-0.005202339,0.007399371,0.530894572,-0.23659432179747122,-0.6954910586444278,0.5178375720811473,-0.00837349040752635,0.9998747460496085,0.00939519768088791,0.009597246019732195
1751354977.2570112,-1.646732357,-1.768960391,-1.317079178,1.587852842,-0.108176129,-1.661513448,0.03734754,0.010433226,0.009736895,-0.043016561,0.032560074,0.16686844,4.008584792,4.217382342,0.307598342,-0.005248265,0.007388657,0.530897096,-0.23615057526073777,-0.6956116637327769,0.5179752074754055,-0.008641712724416451,0.9998743640920967,0.009293920150843538,0.00949736178334916
1751354977.260258,-1.646582004,-1.768918005,-1.317040017,1.587679261,-0.108044838,-1.660840465,0.037827994,0.010761066,0.009843454,-0.043774272,0.033085298,0.169623092,4.006543094,4.218019603,0.307584114,-0.005294944,0.007377581,0.530898288,-0.23569943304833213,-0.6957342786511006,0.5181151362821205,-0.008914404704686522,0.999873881273461,0.009190954739576658,0.009395812199116333
1751354977.2608147,-1.646582004,-1.768918005,-1.317040017,1.587679261,-0.108044838,-1.660840465,0.037827994,0.010761066,0.009843454,-0.043774272,0.033085298,0.169623092,4.006543094,4.218019603,0.307584114,-0.005294944,0.007377581,0.530898288,-0.23569943304833213,-0.6957342786511006,0.5181151362821205,-0.008914404704686522,0.999873881273461,0.009190954739576658,0.009395812199116333
1751354977.263431,-1.64650611,-1.768896317,-1.317020278,1.587591333,-0.107978405,-1.660499842,0.038065689,0.010927836,0.009895744,-0.044153977,0.033347609,0.171000296,4.005510858,4.218342084,0.307576912,-0.005318565,0.007371905,0.530898363,-0.23547108870397454,-0.6957963396025643,0.51818596066814,-0.009052426565826914,0.9998736005838101,0.009138838894414775,0.009344412902879302
1751354977.2646608,-1.646429742,-1.768874293,-1.317000434,1.587502645,-0.107911448,-1.660156464,0.038301676,0.011096528,0.009947368,-0.044534253,0.033609715,0.172377416,4.004471059,4.218667128,0.307569651,-0.005342375,0.007366135,0.530898079,-0.23524089496321984,-0.6958589034025638,0.5182573592477525,-0.009191566346199343,0.9998732929238408,0.009086299866173235,0.009292597079432025
1751354977.266666,-1.646352905,-1.768851929,-1.316980489,1.587413196,-0.107843967,-1.659810332,0.038535942,0.011267156,0.009998321,-0.044915105,0.033871614,0.17375445,4.003423715,4.218994736,0.30756233,-0.005366373,0.00736027,0.530897427,-0.23500885240845845,-0.6959219701089523,0.5183293306818924,-0.009331823397618188,0.9998729576806259,0.009033339676881899,0.009240365001182974
1751354977.2686417,-1.6462756,-1.768829223,-1.316960441,1.587322984,-0.107775962,-1.659461446,0.038768472,0.011439736,0.010048598,-0.045296537,0.0341333,0.175131395,4.002368849,4.219324904,0.307554951,-0.005390558,0.007354309,0.530896399,-0.23477496093156347,-0.6959855388103983,0.518401875856255,-0.009473197609266532,0.9998725942756894,0.00897995641780487,0.009187716048755849
1751354977.2743387,-1.646197832,-1.768806169,-1.316940295,1.587232009,-0.107707434,-1.659109807,0.038999252,0.011614282,0.010098193,-0.045678554,0.034394772,0.176508249,4.00130648,4.219657633,0.307547512,-0.005414931,0.007348251,0.530894984,-0.23453922102601962,-0.696049609971229,0.5184749946537797,-0.00961568882959603,0.9998722020832244,0.008926151551223652,0.00913465095449272
1751354977.2744277,-1.646197832,-1.768806169,-1.316940295,1.587232009,-0.107707434,-1.659109807,0.038999252,0.011614282,0.010098193,-0.045678554,0.034394772,0.176508249,4.00130648,4.219657633,0.307547512,-0.005414931,0.007348251,0.530894984,-0.23453922102601962,-0.696049609971229,0.5184749946537797,-0.00961568882959603,0.9998722020832244,0.008926151551223652,0.00913465095449272
1751354977.274746,-1.646119604,-1.768782764,-1.316920049,1.58714027,-0.107638383,-1.658755413,0.039228268,0.01179081,0.010147102,-0.04606116,0.034656024,0.17788501,4.000236631,4.219992921,0.307540014,-0.005439491,0.007342094,0.530893174,-0.234301631148339,-0.6961141840730848,0.5185486872039106,-0.009759297935701568,0.9998717804963808,0.008871923617474062,0.009081169645223115
1751354977.2771633,-1.64604092,-1.768759004,-1.316899707,1.587047764,-0.10756881,-1.658398267,0.039455506,0.011969336,0.01019532,-0.046444358,0.034917055,0.179261675,3.999159322,4.220330765,0.307532457,-0.005464238,0.007335837,0.53089096,-0.2340621934528476,-0.6961792602875746,0.5186229528818895,-0.00990402378841368,0.99987132890179,0.00881727420820171,0.009027271376472487
1751354977.2788713,-1.645961783,-1.768734886,-1.316879268,1.586954492,-0.107498715,-1.658038367,0.039680952,0.012149874,0.010242841,-0.046828154,0.03517786,0.180638241,3.998074574,4.220671165,0.307524841,-0.005489173,0.00732948,0.530888331,-0.2338209061419773,-0.6962448389671498,0.518697791705509,-0.010049867248099748,0.9998708466698768,0.008762202254843079,0.008972957127092757
1751354977.2807145,-1.645882197,-1.768710404,-1.316858736,1.586860451,-0.107428098,-1.657675714,0.03990459,0.01233244,0.01028966,-0.047212551,0.035438436,0.182014707,3.99698241,4.221014118,0.307517166,-0.005514294,0.007323021,0.53088528,-0.2335777700140585,-0.696310920265638,0.5187732043880411,-0.010196827681081324,0.999870333182727,0.00870670835869302,0.008918226049013643
1751354977.282692,-1.645802166,-1.768685554,-1.31683811,1.586765641,-0.107356961,-1.657310308,0.040126408,0.012517049,0.010335774,-0.047597554,0.035698779,0.18339107,3.995882852,4.221359624,0.307509431,-0.005539603,0.007316458,0.530881796,-0.23333278482067718,-0.6963775046340137,0.5188491909017189,-0.010344905949791434,0.9998697878047044,0.008650791473487568,0.008863078649522023
1751354977.284701,-1.645721693,-1.768660334,-1.316817393,1.586670061,-0.107285303,-1.65694215,0.040346391,0.012703717,0.010381175,-0.047983168,0.035958885,0.184767327,3.99477592,4.22170768,0.307501638,-0.005565098,0.007309791,0.530877871,-0.23308595100241128,-0.6964445909105569,0.5189257501254325,-0.010494100900171341,0.999869209896343,0.008594453094518374,0.008807515175461971
1751354977.2867274,-1.645640782,-1.768634738,-1.316796586,1.586573708,-0.107213126,-1.656571239,0.040564525,0.012892458,0.01042586,-0.048369395,0.036218751,0.186143475,3.993661638,4.222058286,0.307493785,-0.00559078,0.007303018,0.530873493,-0.23283726797745474,-0.6965121800253317,0.5190028831288704,-0.010644413906165513,0.9998685988187963,0.008537692316763275,0.00875153464458505
1751354977.288743,-1.645559436,-1.768608763,-1.31677569,1.586476583,-0.107140428,-1.656197576,0.040780794,0.013083288,0.010469824,-0.048756241,0.036478373,0.187519513,3.992540028,4.222411439,0.307485873,-0.005616648,0.007296139,0.530868654,-0.2325867359866931,-0.6965802713144622,0.5190805897000896,-0.010795843313650575,0.9998679539349014,0.008480509041675677,0.008695138157328352
1751354977.2907472,-1.64547766,-1.768582404,-1.316754707,1.586378683,-0.107067212,-1.655821161,0.040995187,0.013276222,0.010513061,-0.04914371,0.036737746,0.188895436,3.991411113,4.222767138,0.307477901,-0.005642702,0.007289151,0.530863344,-0.23233435512730688,-0.6966488653910136,0.519158869411678,-0.010948390481651468,0.9998672745818946,0.008422903839516738,0.008638324892338676
1751354977.2927463,-1.645395457,-1.768555656,-1.316733638,1.586280007,-0.106993478,-1.655441994,0.041207686,0.013471275,0.010555566,-0.049531805,0.036996868,0.190271243,3.990274915,4.223125381,0.30746987,-0.005668943,0.007282053,0.530857553,-0.2320801252099611,-0.6967179623164445,0.5192377233866541,-0.011102055270394847,0.9998665601139584,0.008364875699863829,0.008581094870641424
1751354977.294727,-1.64531283,-1.768528517,-1.316712485,1.586180555,-0.106919225,-1.655060076,0.04141828,0.013668462,0.010597335,-0.049920532,0.037255734,0.191646931,3.989131458,4.223486166,0.30746178,-0.005695369,0.007274845,0.530851271,-0.23182404654086264,-0.696787560981583,0.5193171506287505,-0.011256836518500549,0.999865809869808,0.008306425550904736,0.008523448806445547
1751354977.2967336,-1.645229785,-1.768500981,-1.31669125,1.586080325,-0.106844455,-1.654675406,0.041626953,0.0138678,0.010638363,-0.050309893,0.037514339,0.193022496,3.987980765,4.223849492,0.307453631,-0.005721981,0.007267525,0.530844488,-0.23156611843652794,-0.69685766280428,0.5193971506704762,-0.011412735576177599,0.9998650231679431,0.00824755391044027,0.008465386378138408
1751354977.2986517,-1.645146324,-1.768473044,-1.316669932,1.585979315,-0.106769168,-1.654287986,0.041833691,0.014069302,0.010678644,-0.050699895,0.037772681,0.194397936,3.986822859,4.224215358,0.307445422,-0.005748779,0.007260092,0.530837194,-0.2313063421671211,-0.6969282669541482,0.5194777249178033,-0.011569751311792595,0.9998641993723666,0.008188258798945743,0.008406907034156365
1751354977.300706,-1.645062451,-1.768444703,-1.316648535,1.585877525,-0.106693364,-1.653897815,0.04203848,0.014272984,0.010718174,-0.051090539,0.038030755,0.195773249,3.985657763,4.22458376,0.307437154,-0.005775762,0.007252544,0.530829379,-0.23104471665867227,-0.6969993731122665,0.519558872096832,-0.011727884052038602,0.9998633377822009,0.008128542131662832,0.008348011590311497
1751354977.3027492,-1.644978171,-1.768415951,-1.31662706,1.585774953,-0.106617045,-1.653504893,0.042241305,0.014478862,0.010756948,-0.051481832,0.038288557,0.19714843,3.984485503,4.224954699,0.307428826,-0.005802931,0.00724488,0.530821033,-0.230781241908074,-0.6970709824703459,0.519640593244007,-0.011887134654363389,0.9998624377198458,0.00806840291584037,0.008288699597895258
1751354977.3048823,-1.644893487,-1.768386786,-1.316605508,1.585671597,-0.10654021,-1.653109221,0.042442153,0.01468695,0.01079496,-0.051873776,0.038546083,0.198523477,3.983306102,4.225328171,0.307420439,-0.005830284,0.007237099,0.530812145,-0.23051591843340316,-0.6971430939426919,0.5197228874831372,-0.012047501963435625,0.9998614985131299,0.008007841655575595,0.0082289707460108
1751354977.318863,-1.644808404,-1.768357202,-1.316583881,1.585567457,-0.106462861,-1.652710799,0.042641008,0.014897263,0.010832206,-0.052266377,0.038803328,0.199898388,3.982119584,4.225704175,0.307411992,-0.005857822,0.007229199,0.530802705,-0.23024874595316666,-0.6972157083206841,0.5198057550708562,-0.01220898681718351,0.9998605194584894,0.007946858250220675,0.008168825683552513
1751354977.3189375,-1.644637054,-1.768296761,-1.316540407,1.585356818,-0.10630662,-1.651905707,0.043032686,0.015324628,0.01090438,-0.053053562,0.039316961,0.202647786,3.979725295,4.226463773,0.307394921,-0.005913453,0.007213039,0.530782128,-0.22970885467875748,-0.6973624441748876,0.5199732113157313,-0.012535307042384113,0.9998584390676548,0.007823623944121021,0.008047285935451108
1751354977.3189566,-1.644550795,-1.768265895,-1.316518563,1.585250317,-0.10622773,-1.651499037,0.043225479,0.01554171,0.010939298,-0.053448154,0.039573339,0.204022267,3.978517574,4.226847363,0.307386296,-0.005941545,0.007204775,0.530770969,-0.22943613540733826,-0.6974365657667136,0.5200578000294895,-0.012700143091395135,0.9998573363194075,0.00776137292348082,0.00798589156325497
1751354977.319317,-1.644464153,-1.768234593,-1.31649665,1.585143025,-0.106148327,-1.651089618,0.043416223,0.015761078,0.01097343,-0.05384342,0.039829419,0.205396598,3.977302836,4.227233477,0.307377611,-0.005969821,0.007196388,0.530759216,-0.2291615671985509,-0.6975111899663482,0.5201429615316344,-0.012866096049877618,0.9998561909304539,0.007698700164349675,0.007924080152206407
1751354977.3215425,-1.644377132,-1.768202849,-1.31647467,1.585034942,-0.106068412,-1.65067745,0.043604903,0.015982747,0.011006772,-0.054239361,0.040085198,0.206770776,3.976081106,4.227622114,0.307368867,-0.005998281,0.007187876,0.530746858,-0.22888514970818194,-0.6975863171497553,0.5202286967994993,-0.013033166252347744,0.9998550021833417,0.007635605051344938,0.00786185231916428
1751354977.323422,-1.644289735,-1.76817066,-1.316452623,1.584926067,-0.105987986,-1.650262535,0.043791505,0.016206733,0.011039317,-0.054635984,0.04034067,0.208144798,3.974852408,4.228013273,0.307360063,-0.006026925,0.007179237,0.530733884,-0.2286068840232136,-0.69766194629619,0.5203150057538269,-0.01320135303622979,0.9998537693722765,0.0075720870038876315,0.007799208194987549
1751354977.3247542,-1.644201967,-1.768138021,-1.316430513,1.584816398,-0.10590705,-1.649844871,0.043976014,0.016433051,0.011071063,-0.05503329,0.04059583,0.209518661,3.97361677,4.22840695,0.3073512,-0.006055752,0.00717047,0.530720283,-0.2283267686095714,-0.6977380780214105,0.5204018877533452,-0.013370657726998898,0.9998524917475243,0.0075081474904633875,0.007736147586204191
1751354977.3267403,-1.644113832,-1.768104926,-1.31640834,1.584705934,-0.105825603,-1.64942446,0.044158417,0.016661715,0.011102003,-0.055431286,0.040850675,0.210892361,3.972374217,4.228803145,0.307342276,-0.006084763,0.007161574,0.530706044,-0.2280448046323021,-0.6978147124249979,0.5204893440138365,-0.01354107866638325,0.9998511686152751,0.007443784933949715,0.0076726705309533684
1751354977.3287032,-1.644025335,-1.768071372,-1.316386105,1.584594672,-0.105743647,-1.649001302,0.044338698,0.016892742,0.011132132,-0.055829974,0.041105199,0.212265894,3.971124776,4.229201855,0.307333294,-0.006113956,0.007152547,0.530691157,-0.2277609920393857,-0.69789184943962,0.5205773729118852,-0.013712616684568127,0.99984979923029,0.007379000330317898,0.007608776310011397
1751354977.3306365,-1.643936479,-1.768037354,-1.316363812,1.584482613,-0.105661182,-1.648575397,0.044516844,0.017126145,0.011161447,-0.056229358,0.041359398,0.213639258,3.969868472,4.229603078,0.307324251,-0.006143333,0.007143387,0.53067561,-0.2274753302688635,-0.6979694885283323,0.520665975242515,-0.013885271597685876,0.9998483828464267,0.007313793996980058,0.007544466145020858
1751354977.3346477,-1.643936479,-1.768037354,-1.316363812,1.584482613,-0.105661182,-1.648575397,0.044516844,0.017126145,0.011161447,-0.056229358,0.041359398,0.213639258,3.969868472,4.229603078,0.307324251,-0.006143333,0.007143387,0.53067561,-0.2274753302688635,-0.6979694885283323,0.520665975242515,-0.013885271597685876,0.9998483828464267,0.007313793996980058,0.007544466145020858
1751354977.3347394,-1.643757709,-1.767967904,-1.316319053,1.584256095,-0.10549473,-1.647715347,0.044866671,0.017600144,0.011217612,-0.057030233,0.041866802,0.216385461,3.967335383,4.230413056,0.307305986,-0.006202634,0.007124666,0.530642491,-0.22689845948569604,-0.6981262750394983,0.5208449014802145,-0.01423393345326566,0.9998454061293447,0.0071821129858633875,0.007414595980363741
1751354977.3370655,-1.643667804,-1.767932464,-1.31629659,1.584141633,-0.105410743,-1.647281203,0.045038323,0.017840769,0.011244452,-0.057431731,0.042119997,0.217758293,3.966058653,4.230821808,0.307296764,-0.006232558,0.007115102,0.530624896,-0.22660725067515947,-0.6982054221050872,0.5209352240884554,-0.014409939540786213,0.9998438443039304,0.007115639147158576,0.007349035956919198
1751354977.3388667,-1.643577557,-1.76789654,-1.316274075,1.584026368,-0.10532625,-1.646844314,0.045207783,0.018083832,0.011270458,-0.057833942,0.042372848,0.219130941,3.964775168,4.231233064,0.307287482,-0.006262664,0.0071054,0.530606597,-0.22631419315001117,-0.6982850712727116,0.5210261209200003,-0.0145870623307165,0.9998422324942877,0.007048742757109582,0.0072830597239468015
1751354977.34076,-1.643486974,-1.767860127,-1.316251509,1.583910297,-0.105241252,-1.64640468,0.045375034,0.018329347,0.011295625,-0.058236869,0.042625349,0.220503401,3.963484956,4.231646823,0.307278141,-0.006292952,0.007095558,0.53058758,-0.22601928688259712,-0.6983652232647112,0.5211175909845376,-0.014765302147566632,0.9998405699367862,0.006981424290626747,0.007216666532963262
1751354977.3426976,-1.643396059,-1.767823221,-1.316228893,1.58379342,-0.105155749,-1.645962301,0.045540064,0.01857733,0.011319947,-0.058640517,0.042877496,0.221875669,3.962188045,4.232063084,0.307268739,-0.006323421,0.007085576,0.530567835,-0.22572253141653628,-0.6984458778662885,0.5212096340559818,-0.014944658806097626,0.9998388558643309,0.006913683587970573,0.007149857083923751
1751354977.3447275,-1.643304815,-1.767785816,-1.31620623,1.583675734,-0.105069742,-1.645517177,0.045702857,0.018827796,0.011343421,-0.059044889,0.043129283,0.223247742,3.960884462,4.232481843,0.307259277,-0.006354072,0.007075451,0.53054735,-0.22542392663430283,-0.6985270347846438,0.5213022517203567,-0.0151251326342242,0.999837089510915,0.006845520118870349,0.007082630545344955
1751354977.3467484,-1.643213249,-1.767747908,-1.31618352,1.58355724,-0.104983232,-1.64506931,0.0458634,0.019080759,0.011366041,-0.059449989,0.043380706,0.224619614,3.959574236,4.2329031,0.307249755,-0.006384904,0.007065183,0.530526114,-0.22512347343098743,-0.6986086944690345,0.521395441733943,-0.015306722933390547,0.9998352700970045,0.006776934655588913,0.007014988222681649
1751354977.3487127,-1.643121363,-1.767709491,-1.316160766,1.583437934,-0.104896219,-1.644618699,0.046021677,0.019336236,0.011387803,-0.059855822,0.043631759,0.225991284,3.958257395,4.233326851,0.307240174,-0.006415917,0.007054769,0.530504113,-0.2248211710662862,-0.6986908564737774,0.5214892063979042,-0.015489430035250941,0.9998333968537748,0.006707926212844465,0.006946928742130673
1751354977.3506827,-1.643029163,-1.767670561,-1.31613797,1.583317816,-0.104808705,-1.644165345,0.046177674,0.01959424,0.011408702,-0.06026239,0.043882438,0.227362745,3.956933968,4.233753094,0.307230532,-0.00644711,0.007044209,0.530481338,-0.22451701979469882,-0.698773520859813,0.5215835439473461,-0.01567325423864587,0.9998314689766373,0.006638496097423772,0.006878452962306365
1751354977.3527668,-1.642936654,-1.767631113,-1.316115132,1.583196884,-0.10472069,-1.643709248,0.046331377,0.019854787,0.011428732,-0.060669698,0.044132736,0.228733995,3.955603983,4.234181828,0.30722083,-0.006478484,0.0070335,0.530457775,-0.22421101940857752,-0.6988566880468933,0.5216784542348031,-0.01585819536133761,0.9998294856847024,0.006568643719849165,0.006809560560483233
1751354977.3547733,-1.642843839,-1.76759114,-1.316092255,1.583075136,-0.104632174,-1.643250409,0.046482771,0.020117892,0.01144789,-0.06107775,0.044382649,0.23010503,3.95426747,4.23461305,0.307211068,-0.006510037,0.007022642,0.530433412,-0.22390317035473342,-0.6989403577202029,0.5217739395251016,-0.01604425272247607,0.9998274462036857,0.006498367984375256,0.0067402511772859915
1751354977.3567932,-1.642750724,-1.767550639,-1.316069341,1.582952572,-0.104543159,-1.642788828,0.046631842,0.020383569,0.01146617,-0.06148655,0.044632171,0.231475844,3.952924458,4.235046758,0.307201245,-0.006541771,0.007011633,0.530408238,-0.2235934721455259,-0.6990245298517722,0.5218699973889952,-0.016231427113334033,0.9998253497036366,0.006427670687138728,0.006670525721638841
1751354977.3586235,-1.642657314,-1.767509604,-1.316046391,1.58282919,-0.104453646,-1.642324506,0.046778576,0.020651835,0.011483569,-0.061896101,0.044881297,0.232846435,3.951574977,4.23548295,0.307191363,-0.006573684,0.007000471,0.53038224,-0.2232819252590897,-0.6991092047441801,0.5219666282351352,-0.016419718346769273,0.9998231953893376,0.006356551218707821,0.00660038388817924
1751354977.3606071,-1.642563612,-1.76746803,-1.316023407,1.582704987,-0.104363635,-1.641857442,0.046922957,0.020922704,0.01150008,-0.062306407,0.045130021,0.234216798,3.950219055,4.235921623,0.30718142,-0.006605776,0.006989154,0.530355406,-0.22296852880680257,-0.6991943820554501,0.5220638331116574,-0.016609126737165907,0.9998209824552875,0.006285009018662773,0.00652982486806842
1751354977.362628,-1.642469623,-1.767425912,-1.316000391,1.582579964,-0.104273126,-1.641387639,0.047064972,0.02119619,0.011515699,-0.062717472,0.045378338,0.235586928,3.948856724,4.236362776,0.307171417,-0.006638047,0.006977682,0.530327723,-0.22265328427300582,-0.6992800612501563,0.5221616116473212,-0.016799650577539092,0.9998187101059725,0.006213044329505667,0.006458849948836953
1751354977.3646371,-1.642375353,-1.767383244,-1.315977345,1.582454117,-0.104182121,-1.640915095,0.047204606,0.02147231,0.011530423,-0.0631293,0.045626242,0.236956821,3.947488013,4.236806405,0.307161353,-0.006670498,0.006966053,0.53029918,-0.22233619026203408,-0.6993662434612886,0.5222599634218092,-0.016991291676062795,0.9998163774976367,0.006140657618326611,0.006387457921307805
1751354977.366619,-1.642280807,-1.767340021,-1.31595427,1.582327446,-0.104090621,-1.640439812,0.047341844,0.021751077,0.011544245,-0.063541894,0.045873727,0.238326473,3.946112952,4.237252509,0.307151229,-0.006703126,0.006954265,0.530269763,-0.22201724766659614,-0.6994529284573485,0.5223588881843093,-0.01718404932896901,0.9998139838150675,0.006067848665139813,0.006315649537500007
1751354977.3741148,-1.642090902,-1.767251889,-1.315908042,1.582071624,-0.103906139,-1.639481028,0.047609076,0.022316616,0.011569167,-0.064369398,0.04636742,0.241065036,3.943343907,4.23815213,0.3071308,-0.006768918,0.006930205,0.53020826,-0.22137381474779244,-0.6996278057156554,0.5225584593116877,-0.01757291550391777,0.9998090099008595,0.0059209630140210365,0.006170782668484985
1751354977.3745215,-1.642090902,-1.767251889,-1.315908042,1.582071624,-0.103906139,-1.639481028,0.047609076,0.022316616,0.011569167,-0.064369398,0.04636742,0.241065036,3.943343907,4.23815213,0.3071308,-0.006768918,0.006930205,0.53020826,-0.22137381474779244,-0.6996278057156554,0.5225584593116877,-0.01757291550391777,0.9998090099008595,0.0059209630140210365,0.006170782668484985
1751354977.3751109,-1.641995553,-1.767206969,-1.315884893,1.581942471,-0.103813157,-1.638997529,0.04773904,0.022603417,0.011580257,-0.064784314,0.046613616,0.242433937,3.941949983,4.238605644,0.307120494,-0.00680208,0.006917931,0.530176148,-0.2210493250059891,-0.69971599790284,0.5226591056135856,-0.017769022614110588,0.9998064280185136,0.005846886452974287,0.006097724740092084
1751354977.3772311,-1.641899947,-1.767161473,-1.315861722,1.581812487,-0.103719684,-1.638511293,0.047866551,0.022892926,0.011590428,-0.065200012,0.04685937,0.243802579,3.940549835,4.239061622,0.307110128,-0.006835419,0.006905492,0.530143111,-0.2207229867575157,-0.6998046926542761,0.522760324935785,-0.01796624646728174,0.9998037817198695,0.005772387549354379,0.006024250036691374
1751354977.3795576,-1.641707982,-1.767068731,-1.315815324,1.58155002,-0.103531266,-1.637530609,0.048114154,0.023480127,0.011607991,-0.066033767,0.04734953,0.246539067,3.937730989,4.239980963,0.307089214,-0.006902629,0.006880111,0.530074215,-0.22006476248147516,-0.6999835897109861,0.5229644837219012,-0.018364044566510845,0.9997982924724648,0.005622123038117575,0.005876050446271318
1751354977.3838716,-1.641611634,-1.767021474,-1.3157921,1.581417535,-0.103436322,-1.637036163,0.048234217,0.023777848,0.011615375,-0.066451832,0.047593923,0.247906903,3.936312355,4.240444322,0.307078666,-0.006936499,0.006867167,0.530038329,-0.2197328769981002,-0.7000737922840552,0.5230674225425316,-0.018564617887549626,0.9997954478271031,0.005546357529919475,0.005801326145107213
1751354977.3839612,-1.641515047,-1.766973618,-1.315768863,1.581284212,-0.103340891,-1.636538982,0.048351769,0.024078338,0.011621819,-0.066870692,0.047837852,0.249274461,3.934887624,4.240910135,0.307068057,-0.006970545,0.006854051,0.530001467,-0.21939914294843466,-0.7001644969247001,0.5231709362601314,-0.01876630811568178,0.9997925353491803,0.005470169009328837,0.005726184661235415
