mathias31415/motion_primitives_from_planned_trajectory/data/trajectory_20250626_121340_executed.csv
timestamp,shoulder_lift_joint_pos,elbow_joint_pos,wrist_1_joint_pos,wrist_2_joint_pos,wrist_3_joint_pos,shoulder_pan_joint_pos,shoulder_lift_joint_vel,elbow_joint_vel,wrist_1_joint_vel,wrist_2_joint_vel,wrist_3_joint_vel,shoulder_pan_joint_vel,shoulder_lift_joint_eff,elbow_joint_eff,wrist_1_joint_eff,wrist_2_joint_eff,wrist_3_joint_eff,shoulder_pan_joint_eff,pose_x,pose_y,pose_z,pose_qx,pose_qy,pose_qz,pose_qw
1750932842.9779916,-1.644703,-1.896188,-1.187753,1.576227,-0.315355,-1.885113,0.0,0.0,0.0,0.0,0.0,0.0,3.770654945,3.97947963,0.301393326,0.000448269,0.0,-0.0,-0.3782698773125843,-0.6023306288834519,0.4510438295853789,-0.0004970757651887238,0.999963162267268,0.0068871032930346455,0.005098512759661819
1750932842.9795928,-1.644703,-1.896188,-1.187753,1.576227,-0.315355,-1.885113,0.0,0.0,0.0,0.0,0.0,0.0,3.770654945,3.97947963,0.301393326,0.000448269,0.0,-0.0,-0.3782698773125843,-0.6023306288834519,0.4510438295853789,-0.0004970757651887238,0.999963162267268,0.0068871032930346455,0.005098512759661819
1750932842.9815843,-1.644703,-1.896188,-1.187753,1.576227,-0.315355,-1.885113,0.0,0.0,0.0,0.0,0.0,0.0,3.770654945,3.97947963,0.301393326,0.000448269,0.0,-0.0,-0.3782698773125843,-0.6023306288834519,0.4510438295853789,-0.0004970757651887238,0.999963162267268,0.0068871032930346455,0.005098512759661819
1750932842.983549,-1.644703,-1.896188,-1.187753,1.576227,-0.315355,-1.885113,0.0,0.0,0.0,0.0,0.0,0.0,3.770654945,3.97947963,0.301393326,0.000448269,0.0,-0.0,-0.3782698773125843,-0.6023306288834519,0.4510438295853789,-0.0004970757651887238,0.999963162267268,0.0068871032930346455,0.005098512759661819
1750932842.9856155,-1.644703,-1.896188,-1.187753,1.576227,-0.315355,-1.885113,0.0,0.0,0.0,0.0,0.0,0.0,3.770654945,3.97947963,0.301393326,0.000448269,0.0,-0.0,-0.3782698773125843,-0.6023306288834519,0.4510438295853789,-0.0004970757651887238,0.999963162267268,0.0068871032930346455,0.005098512759661819
1750932842.9879851,-1.644703,-1.896188,-1.187753,1.576227,-0.315355,-1.885113,0.0,0.0,0.0,0.0,0.0,0.0,3.770654945,3.97947963,0.301393326,0.000448269,0.0,-0.0,-0.3782698773125843,-0.6023306288834519,0.4510438295853789,-0.0004970757651887238,0.999963162267268,0.0068871032930346455,0.005098512759661819
1750932842.991324,-1.644703,-1.896188,-1.187753,1.576227,-0.315355,-1.885113,0.0,0.0,0.0,0.0,0.0,0.0,3.770654945,3.97947963,0.301393326,0.000448269,0.0,-0.0,-0.3782698773125843,-0.6023306288834519,0.4510438295853789,-0.0004970757651887238,0.999963162267268,0.0068871032930346455,0.005098512759661819
1750932842.9918127,-1.644703,-1.896188,-1.187753,1.576227,-0.315355,-1.885113,0.0,0.0,0.0,0.0,0.0,0.0,3.770654945,3.97947963,0.301393326,0.000448269,0.0,-0.0,-0.3782698773125843,-0.6023306288834519,0.4510438295853789,-0.0004970757651887238,0.999963162267268,0.0068871032930346455,0.005098512759661819
1750932842.9936428,-1.644703,-1.896188,-1.187753,1.576227,-0.315355,-1.885113,0.0,0.0,0.0,0.0,0.0,0.0,3.770654945,3.97947963,0.301393326,0.000448269,0.0,-0.0,-0.3782698773125843,-0.6023306288834519,0.4510438295853789,-0.0004970757651887238,0.999963162267268,0.0068871032930346455,0.005098512759661819
1750932842.9955933,-1.644703,-1.896188,-1.187753,1.576227,-0.315355,-1.885113,0.0,0.0,0.0,0.0,0.0,0.0,3.770654945,3.97947963,0.301393326,0.000448269,0.0,-0.0,-0.3782698773125843,-0.6023306288834519,0.4510438295853789,-0.0004970757651887238,0.999963162267268,0.0068871032930346455,0.005098512759661819
1750932842.997696,-1.644703,-1.896188,-1.187753,1.576227,-0.315355,-1.885113,0.0,0.0,0.0,0.0,0.0,0.0,3.770654945,3.97947963,0.301393326,0.000448269,0.0,-0.0,-0.3782698773125843,-0.6023306288834519,0.4510438295853789,-0.0004970757651887238,0.999963162267268,0.0068871032930346455,0.005098512759661819
1750932842.9995513,-1.644703,-1.896188,-1.187753,1.576227,-0.315355,-1.885113,0.0,0.0,0.0,0.0,0.0,0.0,3.770654945,3.97947963,0.301393326,0.000448269,0.0,-0.0,-0.3782698773125843,-0.6023306288834519,0.4510438295853789,-0.0004970757651887238,0.999963162267268,0.0068871032930346455,0.005098512759661819
1750932843.001537,-1.644703,-1.896188,-1.187753,1.576227,-0.315355,-1.885113,0.0,0.0,0.0,0.0,0.0,0.0,3.770654945,3.97947963,0.301393326,0.000448269,0.0,-0.0,-0.3782698773125843,-0.6023306288834519,0.4510438295853789,-0.0004970757651887238,0.999963162267268,0.0068871032930346455,0.005098512759661819
1750932843.0035667,-1.644703,-1.896188,-1.187753,1.576227,-0.315355,-1.885113,0.0,0.0,0.0,0.0,0.0,0.0,3.770654945,3.97947963,0.301393326,0.000448269,0.0,-0.0,-0.3782698773125843,-0.6023306288834519,0.4510438295853789,-0.0004970757651887238,0.999963162267268,0.0068871032930346455,0.005098512759661819
1750932843.0098178,-1.644703,-1.896188,-1.187753,1.576227,-0.315355,-1.885113,0.0,0.0,0.0,0.0,0.0,0.0,3.770654945,3.97947963,0.301393326,0.000448269,0.0,-0.0,-0.3782698773125843,-0.6023306288834519,0.4510438295853789,-0.0004970757651887238,0.999963162267268,0.0068871032930346455,0.005098512759661819
1750932843.0098803,-1.644703,-1.896188,-1.187753,1.576227,-0.315355,-1.885113,0.0,0.0,0.0,0.0,0.0,0.0,3.770654945,3.97947963,0.301393326,0.000448269,0.0,-0.0,-0.3782698773125843,-0.6023306288834519,0.4510438295853789,-0.0004970757651887238,0.999963162267268,0.0068871032930346455,0.005098512759661819
1750932843.012758,-1.644703,-1.896188,-1.187753,1.576227,-0.315355,-1.885113,0.0,0.0,0.0,0.0,0.0,0.0,3.770654945,3.97947963,0.301393326,0.000448269,0.0,-0.0,-0.3782698773125843,-0.6023306288834519,0.4510438295853789,-0.0004970757651887238,0.999963162267268,0.0068871032930346455,0.005098512759661819
1750932843.0128105,-1.644703,-1.896188,-1.187753,1.576227,-0.315355,-1.885113,0.0,0.0,0.0,0.0,0.0,0.0,3.770654945,3.97947963,0.301393326,0.000448269,0.0,-0.0,-0.3782698773125843,-0.6023306288834519,0.4510438295853789,-0.0004970757651887238,0.999963162267268,0.0068871032930346455,0.005098512759661819
1750932843.014772,-1.644703,-1.896188,-1.187753,1.576227,-0.315355,-1.885113,0.0,0.0,0.0,0.0,0.0,0.0,3.770654945,3.97947963,0.301393326,0.000448269,0.0,-0.0,-0.3782698773125843,-0.6023306288834519,0.4510438295853789,-0.0004970757651887238,0.999963162267268,0.0068871032930346455,0.005098512759661819
1750932843.0156567,-1.644703,-1.896188,-1.187753,1.576227,-0.315355,-1.885113,0.0,0.0,0.0,0.0,0.0,0.0,3.770654945,3.97947963,0.301393326,0.000448269,0.0,-0.0,-0.3782698773125843,-0.6023306288834519,0.4510438295853789,-0.0004970757651887238,0.999963162267268,0.0068871032930346455,0.005098512759661819
1750932843.0177124,-1.644703,-1.896188,-1.187753,1.576227,-0.315355,-1.885113,0.0,0.0,0.0,0.0,0.0,0.0,3.770654945,3.97947963,0.301393326,0.000448269,0.0,-0.0,-0.3782698773125843,-0.6023306288834519,0.4510438295853789,-0.0004970757651887238,0.999963162267268,0.0068871032930346455,0.005098512759661819
1750932843.019758,-1.644703,-1.896188,-1.187753,1.576227,-0.315355,-1.885113,0.0,0.0,0.0,0.0,0.0,0.0,3.770654945,3.97947963,0.301393326,0.000448269,0.0,-0.0,-0.3782698773125843,-0.6023306288834519,0.4510438295853789,-0.0004970757651887238,0.999963162267268,0.0068871032930346455,0.005098512759661819
1750932843.0217848,-1.644703,-1.896188,-1.187753,1.576227,-0.315355,-1.885113,0.0,0.0,0.0,0.0,0.0,0.0,3.770654945,3.97947963,0.301393326,0.000448269,0.0,-0.0,-0.3782698773125843,-0.6023306288834519,0.4510438295853789,-0.0004970757651887238,0.999963162267268,0.0068871032930346455,0.005098512759661819
1750932843.0238476,-1.644703,-1.896188,-1.187753,1.576227,-0.315355,-1.885113,0.0,0.0,0.0,0.0,0.0,0.0,3.770654945,3.97947963,0.301393326,0.000448269,0.0,-0.0,-0.3782698773125843,-0.6023306288834519,0.4510438295853789,-0.0004970757651887238,0.999963162267268,0.0068871032930346455,0.005098512759661819
1750932843.0279331,-1.644703,-1.896188,-1.187753,1.576227,-0.315355,-1.885113,0.0,0.0,0.0,0.0,0.0,0.0,3.770654945,3.97947963,0.301393326,0.000448269,0.0,-0.0,-0.3782698773125843,-0.6023306288834519,0.4510438295853789,-0.0004970757651887238,0.999963162267268,0.0068871032930346455,0.005098512759661819
1750932843.0279944,-1.644703,-1.896188,-1.187753,1.576227,-0.315355,-1.885113,0.0,0.0,0.0,0.0,0.0,0.0,3.770654945,3.97947963,0.301393326,0.000448269,0.0,-0.0,-0.3782698773125843,-0.6023306288834519,0.4510438295853789,-0.0004970757651887238,0.999963162267268,0.0068871032930346455,0.005098512759661819
1750932843.029938,-1.644703,-1.896188,-1.187753,1.576227,-0.315355,-1.885113,0.0,0.0,0.0,0.0,0.0,0.0,3.770654945,3.97947963,0.301393326,0.000448269,0.0,-0.0,-0.3782698773125843,-0.6023306288834519,0.4510438295853789,-0.0004970757651887238,0.999963162267268,0.0068871032930346455,0.005098512759661819
1750932843.0318017,-1.644703,-1.896188,-1.187753,1.576227,-0.315355,-1.885113,0.0,0.0,0.0,0.0,0.0,0.0,3.770654945,3.97947963,0.301393326,0.000448269,0.0,-0.0,-0.3782698773125843,-0.6023306288834519,0.4510438295853789,-0.0004970757651887238,0.999963162267268,0.0068871032930346455,0.005098512759661819
1750932843.0336635,-1.644703,-1.896188,-1.187753,1.576227,-0.315355,-1.885113,0.0,0.0,0.0,0.0,0.0,0.0,3.770654945,3.97947963,0.301393326,0.000448269,0.0,-0.0,-0.3782698773125843,-0.6023306288834519,0.4510438295853789,-0.0004970757651887238,0.999963162267268,0.0068871032930346455,0.005098512759661819
1750932843.0360951,-1.644703,-1.896188,-1.187753,1.576227,-0.315355,-1.885113,0.0,0.0,0.0,0.0,0.0,0.0,3.770654945,3.97947963,0.301393326,0.000448269,0.0,-0.0,-0.3782698773125843,-0.6023306288834519,0.4510438295853789,-0.0004970757651887238,0.999963162267268,0.0068871032930346455,0.005098512759661819
1750932843.0377507,-1.644703,-1.896188,-1.187753,1.576227,-0.315355,-1.885113,0.0,0.0,0.0,0.0,0.0,0.0,3.770654945,3.97947963,0.301393326,0.000448269,0.0,-0.0,-0.3782698773125843,-0.6023306288834519,0.4510438295853789,-0.0004970757651887238,0.999963162267268,0.0068871032930346455,0.005098512759661819
1750932843.0396168,-1.644703,-1.896188,-1.187753,1.576227,-0.315355,-1.885113,0.0,0.0,0.0,0.0,0.0,0.0,3.770654945,3.97947963,0.301393326,0.000448269,0.0,-0.0,-0.3782698773125843,-0.6023306288834519,0.4510438295853789,-0.0004970757651887238,0.999963162267268,0.0068871032930346455,0.005098512759661819
1750932843.0415487,-1.644703,-1.896188,-1.187753,1.576227,-0.315355,-1.885113,0.0,0.0,0.0,0.0,0.0,0.0,3.770654945,3.97947963,0.301393326,0.000448269,0.0,-0.0,-0.3782698773125843,-0.6023306288834519,0.4510438295853789,-0.0004970757651887238,0.999963162267268,0.0068871032930346455,0.005098512759661819
1750932843.0437315,-1.644703,-1.896188,-1.187753,1.576227,-0.315355,-1.885113,0.0,0.0,0.0,0.0,0.0,0.0,3.770654945,3.97947963,0.301393326,0.000448269,0.0,-0.0,-0.3782698773125843,-0.6023306288834519,0.4510438295853789,-0.0004970757651887238,0.999963162267268,0.0068871032930346455,0.005098512759661819
1750932843.0457203,-1.644703,-1.896188,-1.187753,1.576227,-0.315355,-1.885113,0.0,0.0,0.0,0.0,0.0,0.0,3.770654945,3.97947963,0.301393326,0.000448269,0.0,-0.0,-0.3782698773125843,-0.6023306288834519,0.4510438295853789,-0.0004970757651887238,0.999963162267268,0.0068871032930346455,0.005098512759661819
1750932843.0477517,-1.644703,-1.896188,-1.187753,1.576227,-0.315355,-1.885113,0.0,0.0,0.0,0.0,0.0,0.0,3.770654945,3.97947963,0.301393326,0.000448269,0.0,-0.0,-0.3782698773125843,-0.6023306288834519,0.4510438295853789,-0.0004970757651887238,0.999963162267268,0.0068871032930346455,0.005098512759661819
1750932843.0495667,-1.644703,-1.896188,-1.187753,1.576227,-0.315355,-1.885113,0.0,0.0,0.0,0.0,0.0,0.0,3.770654945,3.97947963,0.301393326,0.000448269,0.0,-0.0,-0.3782698773125843,-0.6023306288834519,0.4510438295853789,-0.0004970757651887238,0.999963162267268,0.0068871032930346455,0.005098512759661819
1750932843.051931,-1.644703,-1.896188,-1.187753,1.576227,-0.315355,-1.885113,0.0,0.0,0.0,0.0,0.0,0.0,3.770654945,3.97947963,0.301393326,0.000448269,0.0,-0.0,-0.3782698773125843,-0.6023306288834519,0.4510438295853789,-0.0004970757651887238,0.999963162267268,0.0068871032930346455,0.005098512759661819
1750932843.0539007,-1.644703,-1.896188,-1.187753,1.576227,-0.315355,-1.885113,0.0,0.0,0.0,0.0,0.0,0.0,3.770654945,3.97947963,0.301393326,0.000448269,0.0,-0.0,-0.3782698773125843,-0.6023306288834519,0.4510438295853789,-0.0004970757651887238,0.999963162267268,0.0068871032930346455,0.005098512759661819
1750932843.0567048,-1.644703,-1.896188,-1.187753,1.576227,-0.315355,-1.885113,0.0,0.0,0.0,0.0,0.0,0.0,3.770654945,3.97947963,0.301393326,0.000448269,0.0,-0.0,-0.3782698773125843,-0.6023306288834519,0.4510438295853789,-0.0004970757651887238,0.999963162267268,0.0068871032930346455,0.005098512759661819
1750932843.057952,-1.644703,-1.896188,-1.187753,1.576227,-0.315355,-1.885113,0.0,0.0,0.0,0.0,0.0,0.0,3.770654945,3.97947963,0.301393326,0.000448269,0.0,-0.0,-0.3782698773125843,-0.6023306288834519,0.4510438295853789,-0.0004970757651887238,0.999963162267268,0.0068871032930346455,0.005098512759661819
1750932843.0600717,-1.644703,-1.896188,-1.187753,1.576227,-0.315355,-1.885113,0.0,0.0,0.0,0.0,0.0,0.0,3.770654945,3.97947963,0.301393326,0.000448269,0.0,-0.0,-0.3782698773125843,-0.6023306288834519,0.4510438295853789,-0.0004970757651887238,0.999963162267268,0.0068871032930346455,0.005098512759661819
1750932843.0632567,-1.644703,-1.896188,-1.187753,1.576227,-0.315355,-1.885113,0.0,0.0,0.0,0.0,0.0,0.0,3.770654945,3.97947963,0.301393326,0.000448269,0.0,-0.0,-0.3782698773125843,-0.6023306288834519,0.4510438295853789,-0.0004970757651887238,0.999963162267268,0.0068871032930346455,0.005098512759661819
1750932843.0642483,-1.644703,-1.896188,-1.187753,1.576227,-0.315355,-1.885113,0.0,0.0,0.0,0.0,0.0,0.0,3.770654945,3.97947963,0.301393326,0.000448269,0.0,-0.0,-0.3782698773125843,-0.6023306288834519,0.4510438295853789,-0.0004970757651887238,0.999963162267268,0.0068871032930346455,0.005098512759661819
1750932843.0793705,-1.644703,-1.896188,-1.187753,1.576227,-0.315355,-1.885113,0.0,0.0,0.0,0.0,0.0,0.0,3.770654945,3.97947963,0.301393326,0.000448269,0.0,-0.0,-0.3782698773125843,-0.6023306288834519,0.4510438295853789,-0.0004970757651887238,0.999963162267268,0.0068871032930346455,0.005098512759661819
1750932843.0794363,-1.644703,-1.896188,-1.187753,1.576227,-0.315355,-1.885113,0.0,0.0,0.0,0.0,0.0,0.0,3.770654945,3.97947963,0.301393326,0.000448269,0.0,-0.0,-0.3782698773125843,-0.6023306288834519,0.4510438295853789,-0.0004970757651887238,0.999963162267268,0.0068871032930346455,0.005098512759661819
1750932843.0851092,-1.644703,-1.896188,-1.187753,1.576227,-0.315355,-1.885113,0.0,0.0,0.0,0.0,0.0,0.0,3.770654945,3.97947963,0.301393326,0.000448269,0.0,-0.0,-0.3782698773125843,-0.6023306288834519,0.4510438295853789,-0.0004970757651887238,0.999963162267268,0.0068871032930346455,0.005098512759661819
1750932843.0889091,-1.644703,-1.896188,-1.187753,1.576227,-0.315355,-1.885113,0.0,0.0,0.0,0.0,0.0,0.0,3.770654945,3.97947963,0.301393326,0.000448269,0.0,-0.0,-0.3782698773125843,-0.6023306288834519,0.4510438295853789,-0.0004970757651887238,0.999963162267268,0.0068871032930346455,0.005098512759661819
1750932843.0889595,-1.644703,-1.896188,-1.187753,1.576227,-0.315355,-1.885113,0.0,0.0,0.0,0.0,0.0,0.0,3.770654945,3.97947963,0.301393326,0.000448269,0.0,-0.0,-0.3782698773125843,-0.6023306288834519,0.4510438295853789,-0.0004970757651887238,0.999963162267268,0.0068871032930346455,0.005098512759661819
1750932843.0920167,-1.644703,-1.896188,-1.187753,1.576227,-0.315355,-1.885113,0.0,0.0,0.0,0.0,0.0,0.0,3.770654945,3.97947963,0.301393326,0.000448269,0.0,-0.0,-0.3782698773125843,-0.6023306288834519,0.4510438295853789,-0.0004970757651887238,0.999963162267268,0.0068871032930346455,0.005098512759661819
1750932843.092319,-1.644703,-1.896188,-1.187753,1.576227,-0.315355,-1.885113,0.0,0.0,0.0,0.0,0.0,0.0,3.770654945,3.97947963,0.301393326,0.000448269,0.0,-0.0,-0.3782698773125843,-0.6023306288834519,0.4510438295853789,-0.0004970757651887238,0.999963162267268,0.0068871032930346455,0.005098512759661819
1750932843.0938704,-1.644703,-1.896188,-1.187753,1.576227,-0.315355,-1.885113,0.0,0.0,0.0,0.0,0.0,0.0,3.770654945,3.97947963,0.301393326,0.000448269,0.0,-0.0,-0.3782698773125843,-0.6023306288834519,0.4510438295853789,-0.0004970757651887238,0.999963162267268,0.0068871032930346455,0.005098512759661819
1750932843.0960033,-1.644703,-1.896188,-1.187753,1.576227,-0.315355,-1.885113,0.0,0.0,0.0,0.0,0.0,0.0,3.770654945,3.97947963,0.301393326,0.000448269,0.0,-0.0,-0.3782698773125843,-0.6023306288834519,0.4510438295853789,-0.0004970757651887238,0.999963162267268,0.0068871032930346455,0.005098512759661819
1750932843.0996003,-1.644703,-1.896188,-1.187753,1.576227,-0.315355,-1.885113,0.0,0.0,0.0,0.0,0.0,0.0,3.770654945,3.97947963,0.301393326,0.000448269,0.0,-0.0,-0.3782698773125843,-0.6023306288834519,0.4510438295853789,-0.0004970757651887238,0.999963162267268,0.0068871032930346455,0.005098512759661819
1750932843.0997946,-1.644703,-1.896188,-1.187753,1.576227,-0.315355,-1.885113,0.0,0.0,0.0,0.0,0.0,0.0,3.770654945,3.97947963,0.301393326,0.000448269,0.0,-0.0,-0.3782698773125843,-0.6023306288834519,0.4510438295853789,-0.0004970757651887238,0.999963162267268,0.0068871032930346455,0.005098512759661819
1750932843.1017876,-1.644703,-1.896188,-1.187753,1.576227,-0.315355,-1.885113,0.0,0.0,0.0,0.0,0.0,0.0,3.770654945,3.97947963,0.301393326,0.000448269,0.0,-0.0,-0.3782698773125843,-0.6023306288834519,0.4510438295853789,-0.0004970757651887238,0.999963162267268,0.0068871032930346455,0.005098512759661819
1750932843.1037536,-1.644703,-1.896188,-1.187753,1.576227,-0.315355,-1.885113,0.0,0.0,0.0,0.0,0.0,0.0,3.770654945,3.97947963,0.301393326,0.000448269,0.0,-0.0,-0.3782698773125843,-0.6023306288834519,0.4510438295853789,-0.0004970757651887238,0.999963162267268,0.0068871032930346455,0.005098512759661819
1750932843.106258,-1.644703,-1.896188,-1.187753,1.576227,-0.315355,-1.885113,0.0,0.0,0.0,0.0,0.0,0.0,3.770654945,3.97947963,0.301393326,0.000448269,0.0,-0.0,-0.3782698773125843,-0.6023306288834519,0.4510438295853789,-0.0004970757651887238,0.999963162267268,0.0068871032930346455,0.005098512759661819
1750932843.107916,-1.644703,-1.896188,-1.187753,1.576227,-0.315355,-1.885113,0.0,0.0,0.0,0.0,0.0,0.0,3.770654945,3.97947963,0.301393326,0.000448269,0.0,-0.0,-0.3782698773125843,-0.6023306288834519,0.4510438295853789,-0.0004970757651887238,0.999963162267268,0.0068871032930346455,0.005098512759661819
1750932843.109697,-1.644703,-1.896188,-1.187753,1.576227,-0.315355,-1.885113,0.0,0.0,0.0,0.0,0.0,0.0,3.770654945,3.97947963,0.301393326,0.000448269,0.0,-0.0,-0.3782698773125843,-0.6023306288834519,0.4510438295853789,-0.0004970757651887238,0.999963162267268,0.0068871032930346455,0.005098512759661819
1750932843.111712,-1.644703,-1.896188,-1.187753,1.576227,-0.315355,-1.885113,0.0,0.0,0.0,0.0,0.0,0.0,3.770654945,3.97947963,0.301393326,0.000448269,0.0,-0.0,-0.3782698773125843,-0.6023306288834519,0.4510438295853789,-0.0004970757651887238,0.999963162267268,0.0068871032930346455,0.005098512759661819
1750932843.1136863,-1.644703,-1.896188,-1.187753,1.576227,-0.315355,-1.885113,0.0,0.0,0.0,0.0,0.0,0.0,3.770654945,3.97947963,0.301393326,0.000448269,0.0,-0.0,-0.3782698773125843,-0.6023306288834519,0.4510438295853789,-0.0004970757651887238,0.999963162267268,0.0068871032930346455,0.005098512759661819
1750932843.1157885,-1.644703,-1.896188,-1.187753,1.576227,-0.315355,-1.885113,0.0,0.0,0.0,0.0,0.0,0.0,3.770654945,3.97947963,0.301393326,0.000448269,0.0,-0.0,-0.3782698773125843,-0.6023306288834519,0.4510438295853789,-0.0004970757651887238,0.999963162267268,0.0068871032930346455,0.005098512759661819
1750932843.118215,-1.644703,-1.896188,-1.187753,1.576227,-0.315355,-1.885113,0.0,0.0,0.0,0.0,0.0,0.0,3.770654945,3.97947963,0.301393326,0.000448269,0.0,-0.0,-0.3782698773125843,-0.6023306288834519,0.4510438295853789,-0.0004970757651887238,0.999963162267268,0.0068871032930346455,0.005098512759661819
1750932843.119756,-1.644703,-1.896188,-1.187753,1.576227,-0.315355,-1.885113,0.0,0.0,0.0,0.0,0.0,0.0,3.770654945,3.97947963,0.301393326,0.000448269,0.0,-0.0,-0.3782698773125843,-0.6023306288834519,0.4510438295853789,-0.0004970757651887238,0.999963162267268,0.0068871032930346455,0.005098512759661819
1750932843.1216307,-1.644703,-1.896188,-1.187753,1.576227,-0.315355,-1.885113,0.0,0.0,0.0,0.0,0.0,0.0,3.770654945,3.97947963,0.301393326,0.000448269,0.0,-0.0,-0.3782698773125843,-0.6023306288834519,0.4510438295853789,-0.0004970757651887238,0.999963162267268,0.0068871032930346455,0.005098512759661819
1750932843.124,-1.644702394,-1.896187575,-1.187752396,1.576227251,-0.315355126,-1.885112152,0.000606353,0.000425146,0.000603904,0.000250804,-0.000126414,0.000847796,4.073812387,4.154028286,0.330651766,0.010067746,-0.003576496,0.309036905,-0.3782693549551417,-0.6023310086537276,0.4510445929048784,-0.0004975639503505591,0.9999631683274857,0.006886288975306551,0.005098376478885927
1750932843.1285822,-1.644702394,-1.896187575,-1.187752396,1.576227251,-0.315355126,-1.885112152,0.000606353,0.000425146,0.000603904,0.000250804,-0.000126414,0.000847796,4.073812387,4.154028286,0.330651766,0.010067746,-0.003576496,0.309036905,-0.3782693549551417,-0.6023310086537276,0.4510445929048784,-0.0004975639503505591,0.9999631683274857,0.006886288975306551,0.005098376478885927
1750932843.1295311,-1.644700575,-1.896186299,-1.187750584,1.576228003,-0.315355506,-1.885109609,0.001212691,0.000850305,0.001207813,0.000501601,-0.000252825,0.001695591,4.073799028,4.154034505,0.330652288,0.010067609,-0.003576441,0.309036655,-0.37826778861383814,-0.6023321476093257,0.4510468841990592,-0.0004990290138657056,0.9999631865118332,0.006883845217876993,0.00509796686537583
1750932843.1296995,-1.644700575,-1.896186299,-1.187750584,1.576228003,-0.315355506,-1.885109609,0.001212691,0.000850305,0.001207813,0.000501601,-0.000252825,0.001695591,4.073799028,4.154034505,0.330652288,0.010067609,-0.003576441,0.309036655,-0.37826778861383814,-0.6023321476093257,0.4510468841990592,-0.0004990290138657056,0.9999631865118332,0.006883845217876993,0.00509796686537583
1750932843.1317987,-1.644693299,-1.896181197,-1.187743337,1.576231013,-0.315357023,-1.885099435,0.002425262,0.001700708,0.002415657,0.001003145,-0.000505635,0.003391176,4.073739227,4.15406086,0.330654493,0.010066857,-0.003576169,0.309036067,-0.37826152151670295,-0.602336703382533,0.4510560480002912,-0.0005048887747069108,0.9999632591515101,0.006874071308264259,0.005096329862153331
1750932843.1357195,-1.644687842,-1.896177371,-1.187737902,1.57623327,-0.31535816,-1.885091805,0.003031464,0.002125978,0.0030196,0.001253878,-0.00063203,0.004238965,4.073692788,4.154080995,0.330656176,0.010066241,-0.003575951,0.309035729,-0.3782568214274073,-0.6023401196921269,0.4510629205308944,-0.0005092829912844837,0.999963313542009,0.006866741301006735,0.005095102042709453
1750932843.135991,-1.644681173,-1.896172693,-1.187731259,1.576236028,-0.315359551,-1.885082479,0.003637591,0.002551309,0.003623562,0.001504575,-0.000758414,0.005086751,4.073635323,4.154105769,0.330658245,0.010065466,-0.003575678,0.309035363,-0.37825107684752457,-0.6023442959589566,0.45107132103933734,-0.000514654616534025,0.9999633799234738,0.006857781841874267,0.005093600971539656
1750932843.1379032,-1.644681173,-1.896172693,-1.187731259,1.576236028,-0.315359551,-1.885082479,0.003637591,0.002551309,0.003623562,0.001504575,-0.000758414,0.005086751,4.073635323,4.154105769,0.330658245,0.010065466,-0.003575678,0.309035363,-0.37825107684752457,-0.6023442959589566,0.45107132103933734,-0.000514654616534025,0.9999633799234738,0.006857781841874267,0.005093600971539656
1750932843.1396916,-1.644673292,-1.896167165,-1.187723408,1.576239288,-0.315361194,-1.885071458,0.004243627,0.002976714,0.004227548,0.00175523,-0.000884787,0.005934533,4.073566834,4.15413518,0.330660701,0.010064532,-0.003575352,0.309034967,-0.3782442880151767,-0.6023492311069567,0.45108124825935486,-0.0005210021576392024,0.9999634582263006,0.006847193722662675,0.005091827468940125
1750932843.141806,-1.644664198,-1.896160787,-1.187714349,1.576243049,-0.31536309,-1.885058741,0.004849558,0.003402205,0.004831561,0.002005835,-0.001011147,0.00678231,4.07348732,4.154169229,0.330663544,0.010063438,-0.00357497,0.309034541,-0.37823645430475966,-0.6023549251196867,0.451092702906284,-0.0005283266364015161,0.9999635483833982,0.006834976614817499,0.005089780950445803
1750932843.1498291,-1.644653893,-1.896153557,-1.187704082,1.576247311,-0.315365238,-1.885044329,0.005455367,0.003827796,0.005435605,0.002256384,-0.001137491,0.007630082,4.073396784,4.154207915,0.330666774,0.010062184,-0.003574535,0.309034087,-0.37822757663809053,-0.6023613786639679,0.4511056849199297,-0.0005366270718027731,0.9999636503122332,0.0068211305091399055,0.005087461468844843
1750932843.149897,-1.644642377,-1.896145475,-1.187692606,1.576252075,-0.31536764,-1.885028221,0.006061041,0.004253497,0.006039684,0.002506869,-0.001263817,0.008477848,4.073295227,4.154251236,0.33067039,0.010060771,-0.003574046,0.309033603,-0.3782176542724943,-0.6023685921339704,0.4511201944531836,-0.000545904982598757,0.9999637639205275,0.006805654762429769,0.005084869407978227
1750932843.1499166,-1.644642377,-1.896145475,-1.187692606,1.576252075,-0.31536764,-1.885028221,0.006061041,0.004253497,0.006039684,0.002506869,-0.001263817,0.008477848,4.073295227,4.154251236,0.33067039,0.010060771,-0.003574046,0.309033603,-0.3782176542724943,-0.6023685921339704,0.4511201944531836,-0.000545904982598757,0.9999637639205275,0.006805654762429769,0.005084869407978227
1750932843.1505647,-1.644615711,-1.896126758,-1.187666031,1.576263104,-0.3153732,-1.884990919,0.00727192,0.005105281,0.007247962,0.003007618,-0.001516411,0.010173359,4.073059052,4.154351784,0.330678781,0.010057466,-0.003572904,0.309032547,-0.3781946763543806,-0.6023852956257855,0.4511537945168831,-0.0005673893409313895,0.9999640257284015,0.0067698179348659486,0.005078866361044317
1750932843.1517196,-1.644600562,-1.896116121,-1.187650931,1.576269369,-0.315376359,-1.884969724,0.007877096,0.005531389,0.007852169,0.003257869,-0.001642674,0.011021103,4.072924438,4.154409009,0.330683557,0.010055574,-0.003572253,0.309031975,-0.37818162035920094,-0.6023947866998872,0.45117288585341075,-0.0005795968466622495,0.9999641736918268,0.0067494558762019995,0.005075455220241382
1750932843.1537545,-1.644584203,-1.896104632,-1.187634622,1.576276135,-0.315379771,-1.884946834,0.008482075,0.005957657,0.008456426,0.003508027,-0.001768912,0.011868839,4.072778808,4.154470867,0.330688718,0.010053522,-0.003571547,0.309031374,-0.3781675201198317,-0.6024050368554581,0.4511935041966492,-0.000592780941525178,0.9999643328452852,0.006727464752816721,0.0050717714892135985
1750932843.1564686,-1.644566634,-1.896092291,-1.187617105,1.576283401,-0.315383435,-1.884922249,0.009086842,0.006384098,0.009060738,0.003758087,-0.001895123,0.012716565,4.072622165,4.154537356,0.330694266,0.010051311,-0.003570788,0.309030743,-0.37815237560560283,-0.6024160457330235,0.45121564948244014,-0.0006069411621911911,0.9999645030369629,0.006703845180938173,0.005067814938954272
1750932843.1579292,-1.644547855,-1.896079096,-1.187598379,1.576291167,-0.315387351,-1.884895968,0.009691383,0.006810724,0.009665108,0.004008039,-0.002021305,0.013564281,4.07245451,4.154608476,0.3307002,0.01004894,-0.003569976,0.309030082,-0.37813618634842205,-0.6024278142446182,0.4512393231765184,-0.0006220780492953266,0.9999646841178969,0.00667859571906604,0.005063585203848698
1750932843.1598628,-1.644527868,-1.896065048,-1.187578445,1.576299433,-0.31539152,-1.884867992,0.010295682,0.007237547,0.01026954,0.004257879,-0.002147457,0.014411987,4.072275845,4.154684225,0.330706519,0.010046409,-0.00356911,0.309029392,-0.3781189528555788,-0.6024403418481119,0.4512645231992671,-0.0006381916363730265,0.9999648759005666,0.006651718244848261,0.005059083018771286
1750932843.161764,-1.644527868,-1.896065048,-1.187578445,1.576299433,-0.31539152,-1.884867992,0.010295682,0.007237547,0.01026954,0.004257879,-0.002147457,0.014411987,4.072275845,4.154684225,0.330706519,0.010046409,-0.00356911,0.309029392,-0.3781189528555788,-0.6024403418481119,0.4512645231992671,-0.0006381916363730265,0.9999648759005666,0.006651718244848261,0.005059083018771286
1750932843.1637387,-1.644506673,-1.896050145,-1.187557301,1.576308199,-0.315395941,-1.88483832,0.010899725,0.007664579,0.010874038,0.004507598,-0.002273576,0.015259681,4.072086172,4.154764601,0.330713224,0.010043719,-0.00356819,0.309028671,-0.3781006746799055,-0.6024536295368792,0.45129125114257945,-0.0006552819704743216,0.9999650782180359,0.006623210841446638,0.005054307874116206
1750932843.1656435,-1.644460659,-1.896017778,-1.187511387,1.576327227,-0.31540554,-1.884773891,0.012106979,0.008519322,0.012083247,0.005006645,-0.002525708,0.016955033,4.071673815,4.154939233,0.330727792,0.010037858,-0.003566193,0.309027141,-0.37806098541181005,-0.6024824810372721,0.4513492880243643,-0.000692392063030328,0.9999655136456703,0.0065613105725970435,0.005043938555498923
1750932843.1677604,-1.644435842,-1.896000312,-1.187486616,1.57633749,-0.315410717,-1.884739133,0.012710161,0.008947057,0.012687966,0.005255959,-0.002651717,0.01780269,4.071451135,4.155033485,0.330735654,0.010034689,-0.003565114,0.30902633,-0.37803957372476127,-0.6024980459445335,0.45138059714467993,-0.000712411914426534,0.9999657463375807,0.006527917035495151,0.00503834496307226
1750932843.1698384,-1.644435842,-1.896000312,-1.187486616,1.57633749,-0.315410717,-1.884739133,0.012710161,0.008947057,0.012687966,0.005255959,-0.002651717,0.01780269,4.071451135,4.155033485,0.330735654,0.010034689,-0.003565114,0.30902633,-0.37803957372476127,-0.6024980459445335,0.45138059714467993,-0.000712411914426534,0.9999657463375807,0.006527917035495151,0.00503834496307226
1750932843.1718855,-1.64438259,-1.895962811,-1.187433444,1.57635951,-0.315421828,-1.884664531,0.013915558,0.009803316,0.013897653,0.005754134,-0.002903614,0.01949796,4.070972788,4.155235853,0.330752532,0.010027869,-0.0035628,0.309024618,-0.3779936171543522,-0.6025314539853046,0.45144779859096323,-0.0007553820058694966,0.9999662405629965,0.0064562417402860735,0.005026338122685024
1750932843.1736524,-1.644354157,-1.895942776,-1.187405044,1.576371268,-0.315427761,-1.884624688,0.014517743,0.010231864,0.014502628,0.006002981,-0.003029498,0.020345573,4.070717126,4.155343966,0.330761549,0.010024219,-0.003561565,0.309023717,-0.3779690725512356,-0.6025492964920802,0.45148368959773877,-0.0007783313482499252,0.9999665015969573,0.006417961199953478,0.005019926124024011
1750932843.1757147,-1.644324519,-1.895921884,-1.187375434,1.576383522,-0.315433946,-1.884583149,0.015119565,0.010660709,0.015107697,0.006251657,-0.003155336,0.021193169,4.070450476,4.155456695,0.33077095,0.01002041,-0.003560278,0.309022784,-0.3779434830539765,-0.6025678981186939,0.451521108322255,-0.0008022578119042719,0.9999667715779174,0.006378051649329251,0.005013240428993984
1750932843.1777363,-1.644293679,-1.895900133,-1.187344613,1.576396274,-0.315440382,-1.884539915,0.01572101,0.011089861,0.015712863,0.006500155,-0.003281126,0.022040749,4.070172841,4.155574039,0.330780736,0.01001644,-0.003558938,0.309021821,-0.37791684935027603,-0.6025872597091095,0.45156005420309475,-0.0008271604505127737,0.9999670502325043,0.006336512748996069,0.005006282160968803
1750932843.1798265,-1.644261635,-1.895877524,-1.187312582,1.576409523,-0.31544707,-1.884494986,0.016322061,0.011519333,0.01631813,0.00674847,-0.003406867,0.022888311,4.069884225,4.155695996,0.330790906,0.01001231,-0.003557548,0.309020827,-0.3778891710440132,-0.6026073798777146,0.4516005279594697,-0.0008530398316398262,0.9999673372792566,0.006293344620035983,0.004999051027199324
1750932843.1817465,-1.644228391,-1.895854055,-1.187279341,1.576423268,-0.31545401,-1.884448362,0.016922705,0.011949138,0.016923501,0.006996592,-0.003532557,0.023735856,4.069584632,4.155822563,0.33080146,0.01000802,-0.003556106,0.309019802,-0.37786044858436363,-0.6026282598525288,0.4516425282283081,-0.0008798960224236153,0.999967632418546,0.0062485483357177084,0.004991547048114846
1750932843.1837828,-1.644193945,-1.895829727,-1.187244888,1.576437509,-0.315461201,-1.884400043,0.017522927,0.012379288,0.017528982,0.007244516,-0.003658194,0.024583381,4.069274065,4.155953739,0.330812398,0.010003569,-0.003554612,0.309018745,-0.3778306815584262,-0.6026498985903866,0.4516860560917909,-0.0009077285957022414,0.9999679353574982,0.006202122438609102,0.004983769950087354
1750932843.185739,-1.644158299,-1.895804538,-1.187209225,1.576452246,-0.315468643,-1.884350029,0.01812271,0.012809795,0.018134575,0.007492235,-0.003783776,0.025430888,4.068952529,4.156089521,0.33082372,0.009998959,-0.003553069,0.309017657,-0.3777998700486735,-0.6026722965836143,0.4517311113391416,-0.0009365376197034292,0.9999682457729896,0.006154067844850531,0.004975720243121108
1750932843.1877832,-1.644121454,-1.895778488,-1.18717235,1.576467478,-0.315476336,-1.884298319,0.018722039,0.013240671,0.018740286,0.00773974,-0.003909301,0.026278374,4.068620026,4.156229906,0.330835424,0.009994188,-0.003551474,0.309016538,-0.37776801349051387,-0.6026954541962984,0.45177769363548514,-0.0009663236729911653,0.9999685633429461,0.006104384200174885,0.004967397501718237
1750932843.190048,-1.644121454,-1.895778488,-1.18717235,1.576467478,-0.315476336,-1.884298319,0.018722039,0.013240671,0.018740286,0.00773974,-0.003909301,0.026278374,4.068620026,4.156229906,0.330835424,0.009994188,-0.003551474,0.309016538,-0.37776801349051387,-0.6026954541962984,0.45177769363548514,-0.0009663236729911653,0.9999685633429461,0.006104384200174885,0.004967397501718237
1750932843.191935,-1.644083411,-1.895751575,-1.187134264,1.576483205,-0.31548428,-1.884244915,0.019320901,0.013671929,0.019346116,0.007987026,-0.004034769,0.027125839,4.068276562,4.156374893,0.330847512,0.009989257,-0.003549829,0.309015386,-0.37773511310899127,-0.6027193709887954,0.45182580358621394,-0.0009970858314597615,0.9999688877304976,0.006053071462423723,0.004958801946733816
1750932843.197392,-1.644044171,-1.8957238,-1.187094965,1.576499426,-0.315492475,-1.884189816,0.019919279,0.014103582,0.019952071,0.008234084,-0.004160175,0.027973283,4.06792214,4.15652448,0.330859983,0.009984165,-0.003548134,0.309014203,-0.3777011682191,-0.6027440469707074,0.4518754402197203,-0.00102882467700925,0.9999692185876906,0.006000129750359157,0.0049499333213911196
1750932843.1977985,-1.644003735,-1.895695161,-1.187054455,1.576516141,-0.31550092,-1.884133022,0.020517159,0.01453564,0.020558155,0.008480908,-0.00428552,0.028820704,4.067556766,4.156678662,0.330872837,0.009978913,-0.00354639,0.309012987,-0.3776661787884372,-0.6027694823142807,0.45192660403144996,-0.0010615397888636892,0.9999695555514843,0.005945559502336433,0.004940792006131275
1750932843.199731,-1.643962103,-1.895665657,-1.187012733,1.576533349,-0.315509617,-1.884074533,0.021114524,0.014968117,0.021164371,0.008727491,-0.004410802,0.029668103,4.067180443,4.156837438,0.330886072,0.0099735,-0.003544596,0.309011739,-0.3776301448085988,-0.6027956768962869,0.4519792959196298,-0.0010952322564828161,0.9999698982584017,0.005889359876310733,0.004931377458043962
1750932843.206888,-1.643919277,-1.895635288,-1.186969798,1.576551051,-0.315518564,-1.88401435,0.021711362,0.015401025,0.021770723,0.008973826,-0.004536017,0.030515478,4.066793176,4.157000805,0.33089969,0.009967927,-0.003542753,0.309010459,-0.3775930667069168,-0.6028226304649478,0.4520335147632608,-0.0011299006603374664,0.9999702463228896,0.005831531153628278,0.0049216905471026915
1750932843.2090497,-1.643919277,-1.895635288,-1.186969798,1.576551051,-0.315518564,-1.88401435,0.021711362,0.015401025,0.021770723,0.008973826,-0.004536017,0.030515478,4.066793176,4.157000805,0.33089969,0.009967927,-0.003542753,0.309010459,-0.3775930667069168,-0.6028226304649478,0.4520335147632608,-0.0011299006603374664,0.9999702463228896,0.005831531153628278,0.0049216905471026915
1750932843.2097867,-1.643783645,-1.895538979,-1.186833714,1.576607107,-0.315546906,-1.883823631,0.023498549,0.016702456,0.023590637,0.009711269,-0.004911255,0.033057454,4.065565764,4.157518425,0.330942833,0.009950243,-0.003536933,0.309006419,-0.3774755649356753,-0.6029080478058435,0.45220533543786867,-0.0012397659326696634,0.9999713187011927,0.005648270718288676,0.004890991036868505
1750932843.2117188,-1.643736053,-1.89550514,-1.186785926,1.576626775,-0.315556853,-1.883756668,0.02409312,0.01713721,0.024197574,0.009956539,-0.005036192,0.033904727,4.065134772,4.157700127,0.330957976,0.009944027,-0.003534896,0.309005005,-0.37743430812519935,-0.6029380387001831,0.4522656632473719,-0.001278341019433807,0.9999716841689059,0.005583926245654648,0.0048802123235648035
1750932843.2136989,-1.643687272,-1.89547043,-1.186736924,1.576646933,-0.31556705,-1.883688012,0.024687086,0.017572456,0.024804667,0.010201525,-0.005161055,0.034751973,4.064692863,4.157886406,0.3309735,0.009937649,-0.003532813,0.309003558,-0.37739200786359944,-0.6029687884753437,0.45232751931002724,-0.0013178920216679762,0.9999720529307247,0.005517952113465131,0.004869160359304952
1750932843.2156668,-1.643637305,-1.89543485,-1.186686707,1.576667581,-0.315577497,-1.883617661,0.025280433,0.018008206,0.025411919,0.010446221,-0.005285842,0.035599191,4.064240041,4.158077257,0.330989404,0.009931111,-0.003530682,0.309002077,-0.37734866281278207,-0.6030002978187468,0.45239090119375847,-0.0013584200343916485,0.9999724245266002,0.005450349703983683,0.004857835887236045
1750932843.217677,-1.643586151,-1.895398397,-1.186635276,1.576688718,-0.315588194,-1.883545615,0.025873145,0.018444473,0.026019336,0.010690618,-0.005410553,0.036446381,4.063776312,4.158272679,0.331005688,0.009924412,-0.003528505,0.309000561,-0.37730427295430075,-0.6030325666446233,0.4524558115737997,-0.0013999251671270153,0.9999727985083406,0.005381117694897658,0.004846238260517523
1750932843.2197812,-1.643533813,-1.895361071,-1.18658263,1.576710343,-0.31559914,-1.883471875,0.026465207,0.018881269,0.02662692,0.01093471,-0.005535184,0.037293541,4.063301682,4.158472667,0.331022351,0.009917551,-0.003526282,0.308999011,-0.37725883895871015,-0.6030655947643361,0.4525222486708805,-0.0014424065242848061,0.9999731744013516,0.005310257140233862,0.004834367611931149
1750932843.2224379,-1.643533813,-1.895361071,-1.18658263,1.576710343,-0.31559914,-1.883471875,0.026465207,0.018881269,0.02662692,0.01093471,-0.005535184,0.037293541,4.063301682,4.158472667,0.331022351,0.009917551,-0.003526282,0.308999011,-0.37725883895871015,-0.6030655947643361,0.4525222486708805,-0.0014424065242848061,0.9999731744013516,0.005310257140233862,0.004834367611931149
1750932843.2241273,-1.643480291,-1.895322872,-1.186528768,1.576732456,-0.315610334,-1.883396441,0.027056605,0.019318605,0.027234676,0.011178489,-0.005659734,0.038140671,4.062816157,4.158677217,0.331039394,0.009910529,-0.003524012,0.308997426,-0.3772123605241824,-0.6030993816114671,0.45259021278007094,-0.0014858637136449945,0.9999735517279001,0.005237767514188908,0.004822224090656797
1750932843.2259223,-1.643425587,-1.895283797,-1.186473691,1.576755057,-0.315621778,-1.883319312,0.027647322,0.019756495,0.027842608,0.011421949,-0.005784203,0.038987771,4.062319743,4.158886327,0.331056815,0.009903346,-0.003521697,0.308995806,-0.37716483714549737,-0.6031339282419733,0.45265970452032417,-0.0015302983437968593,0.9999739299928463,0.005163648760489059,0.00480980801274372
1750932843.2307787,-1.643369702,-1.895243845,-1.186417398,1.576778144,-0.315633471,-1.88324049,0.028237345,0.02019495,0.028450719,0.011665083,-0.005908587,0.039834839,4.061812447,4.159099993,0.331074615,0.009896002,-0.003519337,0.30899415,-0.3771162701210115,-0.6031692338133962,0.45273072414926524,-0.0015757090335637022,0.9999743087005508,0.005087900655117249,0.004797118595635036
1750932843.2308254,-1.643254396,-1.895161309,-1.186301161,1.576825775,-0.315657603,-1.883077762,0.029415243,0.021073606,0.029667497,0.012150342,-0.006157099,0.041528876,4.060765231,4.159540978,0.331111349,0.009880828,-0.003514484,0.308990731,-0.37701600157400006,-0.6032421231820385,0.45287734400493423,-0.0016694610450030116,0.9999750653615872,0.004931517758704815,0.004770921033129865
1750932843.235046,-1.643254396,-1.895161309,-1.186301161,1.576825775,-0.315657603,-1.883077762,0.029415243,0.021073606,0.029667497,0.012150342,-0.006157099,0.041528876,4.060765231,4.159540978,0.331111349,0.009880828,-0.003514484,0.308990731,-0.37701600157400006,-0.6032421231820385,0.45287734400493423,-0.0016694610450030116,0.9999750653615872,0.004931517758704815,0.004770921033129865
1750932843.23512,-1.643254396,-1.895161309,-1.186301161,1.576825775,-0.315657603,-1.883077762,0.029415243,0.021073606,0.029667497,0.012150342,-0.006157099,0.041528876,4.060765231,4.159540978,0.331111349,0.009880828,-0.003514484,0.308990731,-0.37701600157400006,-0.6032421231820385,0.45287734400493423,-0.0016694610450030116,0.9999750653615872,0.004931517758704815,0.004770921033129865
1750932843.2357528,-1.643134384,-1.895075253,-1.186180057,1.576875345,-0.315682728,-1.882908259,0.030590179,0.021954671,0.030885041,0.012634209,-0.006405257,0.043222779,4.059674564,4.16000014,0.331149593,0.009865008,-0.003509455,0.308987166,-0.37691155561272055,-0.6033180492241452,0.45303007341948526,-0.0017671186918294813,0.9999758174666348,0.004768618978859579,0.004743632205277346
1750932843.23777,-1.643072617,-1.895030903,-1.186117678,1.576900855,-0.315695662,-1.882820966,0.031176499,0.022396137,0.031494111,0.012875603,-0.006529199,0.044069678,4.059112952,4.160236529,0.331169279,0.009856856,-0.003506876,0.308985328,-0.3768577654320624,-0.6033571511376942,0.45310872864261276,-0.001817412435903427,0.9999761904365647,0.004684726255425774,0.0047295784087734195
1750932843.2397707,-1.643009678,-1.894985668,-1.18605408,1.576926847,-0.315708844,-1.88273198,0.031762032,0.022838241,0.032103384,0.013116628,-0.006653048,0.044916541,4.058540498,4.160477449,0.331189342,0.009848541,-0.003504254,0.308983453,-0.3768029314570472,-0.6033970125089961,0.4531889122600199,-0.0018686824665547054,0.9999765606052158,0.004599203494310211,0.004715251130129832
1750932843.2416985,-1.64294557,-1.894939549,-1.185989264,1.576953321,-0.315722274,-1.8826413,0.032346764,0.023280997,0.032712864,0.013357276,-0.006776803,0.045763367,4.057957209,4.160722899,0.331209781,0.009840065,-0.003501591,0.30898154,-0.3767470527867015,-0.6034376332391682,0.45327062165198717,-0.001920929402352963,0.9999769273754469,0.00451205301250987,0.004700651508445997
1750932843.2437747,-1.642880292,-1.894892544,-1.185923228,1.576980276,-0.315735951,-1.882548927,0.03293068,0.023724415,0.033322556,0.013597541,-0.006900461,0.046610155,4.057363093,4.160972872,0.331230594,0.009831426,-0.003498886,0.308979589,-0.37669012991589984,-0.603479012690604,0.4533538592544561,-0.001974152382360676,0.9999772901725273,0.004423272522126086,0.004685778673308604
1750932843.2459495,-1.642813847,-1.894844651,-1.185855973,1.577007711,-0.315749876,-1.88245486,0.033513765,0.024168509,0.033932463,0.013837416,-0.007024023,0.047456906,4.056758156,4.161227366,0.331251783,0.009822625,-0.00349614,0.3089776,-0.3766321623506021,-0.603521151664282,0.4534386243925343,-0.002028352536879968,0.9999776483864632,0.004332863063093519,0.00467063284166183
1750932843.2476585,-1.642746237,-1.894795869,-1.185787498,1.577035625,-0.315764047,-1.882359099,0.034096003,0.02461329,0.03454259,0.014076892,-0.007147485,0.048303616,4.056142407,4.161486375,0.331273346,0.009813662,-0.003493354,0.308975571,-0.3765731500771744,-0.6035640502119106,0.4535249166767197,-0.0020835290013779205,0.999978001405954,0.004240824727677161,0.004655213924555775
1750932843.249669,-1.642677464,-1.894746197,-1.185717803,1.577064018,-0.315778466,-1.882261645,0.034677379,0.02505877,0.035152941,0.014315964,-0.007270847,0.049150288,4.055515853,4.161749895,0.331295283,0.009804537,-0.003490528,0.308973503,-0.3765130935307154,-0.6036077079169119,0.4536127356038708,-0.0021396824090513635,0.9999783486013857,0.004147157916650238,0.0046395224806428425
1750932843.2518516,-1.642607529,-1.894695634,-1.185646887,1.577092889,-0.315793131,-1.882162498,0.035257879,0.025504962,0.035763519,0.014554624,-0.007394107,0.049996918,4.054878502,4.162017922,0.331317593,0.009795249,-0.003487662,0.308971396,-0.3764519925984775,-0.6036521245406528,0.4537020814828246,-0.0021968119011074156,0.9999786893422519,0.0040518622443886316,0.004623558280798319
1750932843.253915,-1.642536433,-1.894644177,-1.185574749,1.577122236,-0.315808042,-1.882061658,0.035837486,0.025951878,0.036374328,0.014792864,-0.007517264,0.050843507,4.054230362,4.16229045,0.331340276,0.009785799,-0.003484758,0.308969249,-0.37638984747789056,-0.6036973004366778,0.4537929559180188,-0.0022549176265306264,0.9999790229915024,0.003954936522381844,0.004607320323314013
1750932843.2558997,-1.642464179,-1.894591826,-1.185501389,1.57715206,-0.3158232,-1.881959124,0.036416186,0.02639953,0.036985373,0.015030679,-0.007640317,0.051690054,4.053571442,4.162567476,0.331363332,0.009776186,-0.003481815,0.308967061,-0.37632665724233766,-0.6037432358685592,0.4538853570838719,-0.0023140007189560844,0.9999793488781519,0.0038563819519483494,0.00459080996566921
1750932843.265594,-1.642390769,-1.894538578,-1.185426807,1.577182359,-0.315838603,-1.881854897,0.036993964,0.02684793,0.037596658,0.01526806,-0.007763264,0.052536557,4.05290175,4.162848994,0.331386759,0.00976641,-0.003478834,0.308964832,-0.37626242272450594,-0.6037899309301403,0.45397928578492175,-0.0023740598282439573,0.9999796663410847,0.0037561982957778103,0.004574026526772755
1750932843.2656484,-1.642390769,-1.894538578,-1.185426807,1.577182359,-0.315838603,-1.881854897,0.036993964,0.02684793,0.037596658,0.01526806,-0.007763264,0.052536557,4.05290175,4.162848994,0.331386759,0.00976641,-0.003478834,0.308964832,-0.37626242272450594,-0.6037899309301403,0.45397928578492175,-0.0023740598282439573,0.9999796663410847,0.0037561982957778103,0.004574026526772755
1750932843.2717454,-1.642390769,-1.894538578,-1.185426807,1.577182359,-0.315838603,-1.881854897,0.036993964,0.02684793,0.037596658,0.01526806,-0.007763264,0.052536557,4.05290175,4.162848994,0.331386759,0.00976641,-0.003478834,0.308964832,-0.37626242272450594,-0.6037899309301403,0.45397928578492175,-0.0023740598282439573,0.9999796663410847,0.0037561982957778103,0.004574026526772755
1750932843.2717967,-1.642316204,-1.894484434,-1.185351002,1.577213132,-0.315854253,-1.881748978,0.037570805,0.027297091,0.038208186,0.015505001,-0.007886103,0.053383017,4.052221295,4.163135,0.331410558,0.009756471,-0.003475816,0.308962562,-0.37619714417710276,-0.6038373843009405,0.4540747410548812,-0.002435095600332172,0.9999799746969508,0.003654386103264985,0.004556970124033698
1750932843.2719011,-1.642163618,-1.894373445,-1.185195722,1.577276098,-0.315886288,-1.88153206,0.038721613,0.028197741,0.03943199,0.015977532,-0.008131456,0.055075802,4.050828128,4.163720455,0.331459268,0.009736105,-0.00346967,0.308957897,-0.37606345298041555,-0.6039345701240271,0.45427023463804217,-0.0025600967361866065,0.9999805613245335,0.0034458737623153076,0.004522038454755358
1750932843.2719178,-1.642163618,-1.894373445,-1.185195722,1.577276098,-0.315886288,-1.88153206,0.038721613,0.028197741,0.03943199,0.015977532,-0.008131456,0.055075802,4.050828128,4.163720455,0.331459268,0.009736105,-0.00346967,0.308957897,-0.37606345298041555,-0.6039345701240271,0.45427023463804217,-0.0025600967361866065,0.9999805613245335,0.0034458737623153076,0.004522038454755358
1750932843.2735803,-1.641926127,-1.894200191,-1.184953619,1.577374081,-0.315936179,-1.881193989,0.040440415,0.02955472,0.041269623,0.016682847,-0.00849865,0.05761463,4.048657871,4.164632168,0.331535106,0.009704332,-0.003460186,0.308950577,-0.3758550832905029,-0.6040860426198689,0.45457492984202896,-0.002754922219647912,0.9999813553632069,0.0031208876081512895,0.004467593319098164
1750932843.273974,-1.641926127,-1.894200191,-1.184953619,1.577374081,-0.315936179,-1.881193989,0.040440415,0.02955472,0.041269623,0.016682847,-0.00849865,0.05761463,4.048657871,4.164632168,0.331535106,0.009704332,-0.003460186,0.308950577,-0.3758550832905029,-0.6040860426198689,0.45457492984202896,-0.002754922219647912,0.9999813553632069,0.0031208876081512895,0.004467593319098164
1750932843.2757947,-1.641844675,-1.894140628,-1.184870466,1.577407681,-0.315953298,-1.881077913,0.041011313,0.030008696,0.041882697,0.016916995,-0.00862082,0.05846081,4.047913022,4.164944994,0.331561122,0.009693414,-0.003456957,0.30894805,-0.37578353734890174,-0.6041380522476091,0.4546795493463974,-0.0028218171829302707,0.9999815942087643,0.003009300494396718,0.004448898967017771
1750932843.2780454,-1.641678351,-1.894018773,-1.184700482,1.577476283,-0.31598827,-1.880840686,0.042149962,0.030919195,0.043109666,0.017383813,-0.008864812,0.06015302,4.046391232,4.165583993,0.331614257,0.009671088,-0.003450399,0.308942861,-0.37563731327824756,-0.6042443487183627,0.4548933704975131,-0.0029585365248976344,0.999982028623643,0.0027812396533752584,0.004410691257026989
1750932843.281482,-1.641593484,-1.893956479,-1.184613649,1.577511283,-0.316006121,-1.880719533,0.042717683,0.031375742,0.043723569,0.017616469,-0.008986631,0.060999048,4.045614312,4.165910156,0.331641374,0.009659679,-0.003447072,0.308940198,-0.3755626337694016,-0.6042986362301015,0.45500257079943957,-0.003028361229156609,0.9999822226432503,0.002664766552485928,0.004391178082412173
1750932843.281768,-1.641593484,-1.893956479,-1.184613649,1.577511283,-0.316006121,-1.880719533,0.042717683,0.031375742,0.043723569,0.017616469,-0.008986631,0.060999048,4.045614312,4.165910156,0.331641374,0.009659679,-0.003447072,0.308940198,-0.3755626337694016,-0.6042986362301015,0.45500257079943957,-0.003028361229156609,0.9999822226432503,0.002664766552485928,0.004391178082412173
1750932843.2836645,-1.641420347,-1.893829145,-1.184436298,1.577582678,-0.316042554,-1.880472153,0.043849843,0.032291491,0.04495223,0.018080238,-0.009229911,0.062690948,4.04402847,4.166575781,0.331696706,0.00963637,-0.003440326,0.308934734,-0.37541014240646225,-0.6044094885830976,0.45522555625932876,-0.003170939547410581,0.9999825603741221,0.00242693073358645,0.0043513328091738905
1750932843.2857456,-1.641332083,-1.893764103,-1.184345778,1.577619069,-0.316061136,-1.880345926,0.044414251,0.032750718,0.045566997,0.018311337,-0.00935137,0.063536818,4.043219569,4.166915232,0.331724919,0.009624469,-0.003436907,0.308931932,-0.3753323306393009,-0.6044660534395667,0.4553393394072004,-0.0032436934998175083,0.9999827024703608,0.0023055694099081724,0.0043310001442130545
1750932843.2880397,-1.641242691,-1.893698142,-1.184254029,1.577655923,-0.31607996,-1.880218006,0.044977525,0.033210862,0.046182061,0.018541903,-0.009472706,0.064382633,4.042400029,4.167259099,0.331753496,0.009612404,-0.003433459,0.308929081,-0.3752534733740401,-0.6045233778059743,0.45545464972896216,-0.00331742420457958,0.9999828256211916,0.002182579248217782,0.0043103952405338245
1750932843.2897055,-1.641152173,-1.893631259,-1.18416105,1.577693236,-0.316099026,-1.880088395,0.045539649,0.033671935,0.046797425,0.018771928,-0.009593919,0.065228392,4.04156986,4.167607379,0.331782436,0.009600175,-0.003429983,0.308926183,-0.3751735721866716,-0.6045814612093063,0.4555714882127137,-0.0033921308436573806,0.9999829290035844,0.0020579598189744966,0.004289516422069598
1750932843.2919602,-1.641060533,-1.893563453,-1.184066839,1.57773101,-0.316118335,-1.879957093,0.046100608,0.034133949,0.047413093,0.019001406,-0.009715007,0.066074095,4.040729073,4.167960063,0.331811739,0.009587781,-0.003426479,0.308923235,-0.37509262676839994,-0.6046403041194034,0.45568985330087347,-0.0034678140852988596,0.9999830117630452,0.0019317111979126526,0.004268365334285457
1750932843.2940185,-1.640967772,-1.893494723,-1.183971397,1.577769242,-0.316137886,-1.879824099,0.046660388,0.034596917,0.04802907,0.019230329,-0.00983597,0.06691974,4.039877678,4.168317148,0.331841404,0.009575223,-0.003422948,0.308920238,-0.37501063639497334,-0.604699906067909,0.45580974514906075,-0.003544474107751084,0.9999830730444331,0.0018038342352535875,0.004246941247880802
1750932843.296029,-1.640873892,-1.893425065,-1.183874723,1.577807931,-0.316157679,-1.879689414,0.047218971,0.03506085,0.04864536,0.019458691,-0.009956807,0.067765328,4.039015688,4.168678625,0.33187143,0.0095625,-0.003419391,0.308917191,-0.37492760178321827,-0.6047602673374483,0.45593116540842815,-0.0036221105945074997,0.9999831119859236,0.0016743275629509354,0.0042252437800635746
1750932843.3003533,-1.640873892,-1.893425065,-1.183874723,1.577807931,-0.316157679,-1.879689414,0.047218971,0.03506085,0.04864536,0.019458691,-0.009956807,0.067765328,4.039015688,4.168678625,0.33187143,0.0095625,-0.003419391,0.308917191,-0.37492760178321827,-0.6047602673374483,0.45593116540842815,-0.0036221105945074997,0.9999831119859236,0.0016743275629509354,0.0042252437800635746
1750932843.3019428,-1.640682788,-1.893282961,-1.183677675,1.577886676,-0.316197989,-1.87941497,0.048332492,0.035991659,0.049878894,0.019913701,-0.010198098,0.069456325,4.037259962,4.169414734,0.331932564,0.00953656,-0.0034122,0.308910944,-0.37475839884013074,-0.6048832682370875,0.4561785865717813,-0.003780313173420684,0.9999831193153635,0.001410427714643309,0.004181029811897994
1750932843.3039684,-1.640585568,-1.893210511,-1.1835773,1.577926731,-0.316218506,-1.879275212,0.048887399,0.03645856,0.050496147,0.020140335,-0.01031855,0.070301732,4.03636625,4.169789353,0.33196367,0.009523342,-0.003408568,0.308907744,-0.3746722307424797,-0.6049459073738802,0.4563045880936332,-0.003860879130740814,0.9999830859130947,0.001276034024429462,0.004158513824749855
1750932843.3059933,-1.640487239,-1.893137126,-1.18347569,1.577967237,-0.316239263,-1.879133763,0.04944105,0.036926474,0.051113728,0.020366378,-0.010438873,0.071147078,4.035461988,4.17016834,0.331995134,0.009509959,-0.003404912,0.30890449,-0.3745850182089297,-0.6050093057685993,0.4564321173510927,-0.003942421284208374,0.9999830265944035,0.0011400111706479795,0.004135723884050766
1750932843.3095224,-1.640387804,-1.893062805,-1.183372845,1.578008196,-0.316260261,-1.878990624,0.049993429,0.037395413,0.051731644,0.020591824,-0.010559065,0.071992361,4.034547186,4.170551688,0.332026956,0.009496411,-0.003401234,0.308901183,-0.3744967613255095,-0.6050734629243792,0.456561173269087,-0.004024939812757982,0.9999829404280586,0.001002359695797535,0.004112661838469396
1750932843.3096664,-1.640287266,-1.892987544,-1.183268763,1.578049604,-0.316281499,-1.878845794,0.050544522,0.03786539,0.052349896,0.020816666,-0.010679126,0.07283758,4.033621858,4.170939391,0.332059136,0.009482698,-0.003397534,0.308897823,-0.37440746000284686,-0.6051383800480555,0.4566917569532551,-0.0041084349129806436,0.9999828264881697,0.0008630786922309382,0.0040893259185400994
1750932843.31257,-1.640287266,-1.892987544,-1.183268763,1.578049604,-0.316281499,-1.878845794,0.050544522,0.03786539,0.052349896,0.020816666,-0.010679126,0.07283758,4.033621858,4.170939391,0.332059136,0.009482698,-0.003397534,0.308897823,-0.37440746000284686,-0.6051383800480555,0.4566917569532551,-0.0041084349129806436,0.9999828264881697,0.0008630786922309382,0.0040893259185400994
1750932843.315905,-1.640185627,-1.892911343,-1.183163445,1.578091462,-0.316302978,-1.878699274,0.051094314,0.038336415,0.052968491,0.021040896,-0.010799055,0.073682735,4.032686015,4.171331441,0.332091672,0.009468819,-0.003393812,0.308894407,-0.37431711420136027,-0.6052040558831316,0.45682386725983504,-0.004192906766428482,0.9999826838221652,0.0007221693299437267,0.004065717664404561
1750932843.315977,-1.64008289,-1.892834198,-1.183056889,1.578133767,-0.316324696,-1.878551063,0.051642789,0.038808502,0.053587431,0.021264507,-0.010918851,0.074527824,4.03173967,4.171727833,0.332124563,0.009454775,-0.003390071,0.308890937,-0.37422572370417334,-0.6052704916405676,0.45695750530460716,-0.00427835507125174,0.9999825114819291,0.0005796305473392249,0.004041835796555113
1750932843.3179235,-1.639979057,-1.892756108,-1.182949095,1.57817652,-0.316346653,-1.878401162,0.052189932,0.039281661,0.054206721,0.021487492,-0.011038513,0.075372846,4.030782834,4.172128559,0.332157809,0.009440565,-0.00338631,0.308887411,-0.3741332885930973,-0.605337686464141,0.4570926707197287,-0.004364779515912335,0.9999823084970063,0.0004354625628012785,0.00401768156181015
1750932843.3199155,-1.639874131,-1.89267707,-1.182840062,1.578219717,-0.31636885,-1.878249572,0.052735727,0.039755906,0.054826364,0.021709844,-0.011158042,0.076217802,4.029815521,4.172533612,0.332191409,0.009426189,-0.00338253,0.308883828,-0.37403980981966933,-0.6054056403193205,0.45722936386234786,-0.004452180298375991,0.9999820738947308,0.0002896654074754868,0.003993253527606521
1750932843.3298454,-1.639768115,-1.892597083,-1.182729789,1.578263358,-0.316391285,-1.878096291,0.053280161,0.040231247,0.055446367,0.021931556,-0.011277435,0.077062689,4.028837743,4.172942985,0.332225362,0.009411647,-0.003378732,0.308880187,-0.37394528586422776,-0.6054743537816,0.4573675838018757,-0.004540557610731939,0.999981806682377,0.00014223946119592965,0.003968552477712674
1750932843.3299177,-1.639661011,-1.892516145,-1.182618276,1.578307443,-0.316413959,-1.877941321,0.053823216,0.040707697,0.056066731,0.02215262,-0.011396693,0.077907506,4.027849513,4.173356671,0.332259668,0.009396939,-0.003374917,0.308876489,-0.3738497176031692,-0.6055438258590982,0.45750733083072204,-0.004629911148627626,0.9999815058592723,-6.8153869549196956e-06,0.003943579050617084
1750932843.3299367,-1.639661011,-1.892516145,-1.182618276,1.578307443,-0.316413959,-1.877941321,0.053823216,0.040707697,0.056066731,0.02215262,-0.011396693,0.077907506,4.027849513,4.173356671,0.332259668,0.009396939,-0.003374917,0.308876489,-0.3738497176031692,-0.6055438258590982,0.45750733083072204,-0.004629911148627626,0.9999815058592723,-6.8153869549196956e-06,0.003943579050617084
1750932843.329975,-1.639552823,-1.892434252,-1.182505522,1.578351969,-0.316436872,-1.877784661,0.054364879,0.041185267,0.056687462,0.02237303,-0.011515815,0.078752253,4.026850844,4.173774664,0.332294325,0.009382065,-0.003371086,0.308872731,-0.3737531048267086,-0.6056140578372802,0.4576486052785369,-0.004720241612886751,0.9999811704152266,-0.0001574992566620538,0.0039183323102430015
1750932843.329994,-1.639443553,-1.892351403,-1.182391526,1.578396934,-0.316460022,-1.877626312,0.054905134,0.04166397,0.057308564,0.022592778,-0.011634801,0.079596929,4.025841749,4.174196955,0.332329333,0.009367024,-0.00336724,0.308868914,-0.3736554479461927,-0.6056850487897922,0.45779140691676157,-0.0048115477028245176,0.9999807993358313,-0.0003098119463704629,0.0038928119570923424
1750932843.331987,-1.639333203,-1.892267595,-1.182276288,1.578442339,-0.316483411,-1.877466274,0.055443966,0.042143817,0.057930041,0.022811858,-0.011753649,0.080441533,4.024822242,4.174623537,0.332364691,0.009351818,-0.003363379,0.308865037,-0.37355674659300125,-0.6057567987801616,0.4579357367007122,-0.004903830619521537,0.9999803915785369,-0.00046375419727679633,0.0038670189727402515
1750932843.3357503,-1.639221778,-1.892182827,-1.182159806,1.578488181,-0.316507037,-1.877304546,0.05598136,0.04262482,0.058551897,0.023030261,-0.01187236,0.081286064,4.023792335,4.175054404,0.332400398,0.009336444,-0.003359504,0.308861099,-0.37345700034886153,-0.6058293084676519,0.45808159245875424,-0.004997090061521667,0.9999799461032353,-0.0006193247008633606,0.003840952902926507
1750932843.336244,-1.639109279,-1.892097095,-1.18204208,1.57853446,-0.3165309,-1.877141129,0.0565173,0.043106992,0.059174136,0.023247982,-0.011990933,0.08213052,4.022752044,4.175489547,0.332436454,0.009320904,-0.003355616,0.308857098,-0.37335620956279075,-0.6059025775301632,0.45822897649326355,-0.005091325736969006,0.9999794618548403,-0.0007765249969305604,0.003814613961212493
1750932843.337622,-1.638995709,-1.892010398,-1.181923109,1.578581173,-0.316555001,-1.876976024,0.057051771,0.043590343,0.059796762,0.023465012,-0.012109367,0.082974901,4.021701381,4.175928959,0.332472857,0.009305198,-0.003351717,0.308853035,-0.3732543748097051,-0.6059766052097675,0.45837788790261047,-0.00518653784838392,0.999978937769083,-0.0009353542647440922,0.003788001552688667
1750932843.340792,-1.638881073,-1.891922733,-1.181802892,1.578628319,-0.316579338,-1.87680923,0.057584759,0.044074886,0.06041978,0.023681345,-0.012227663,0.083819205,4.02064036,4.176372632,0.332509606,0.009289324,-0.003347807,0.308848908,-0.373151495591216,-0.6060513927167,0.4585283257078236,-0.005282726098748643,0.9999783727697192,-0.0010958119815600105,0.003761116043271082
1750932843.3417356,-1.638765371,-1.891834098,-1.18168143,1.578675898,-0.316603911,-1.876640747,0.058116247,0.044560633,0.061043194,0.023896973,-0.012345819,0.084663433,4.019568997,4.176820559,0.332546701,0.009273283,-0.003343886,0.308844717,-0.37304757130624505,-0.6061269390429589,0.45868029149882955,-0.005379890696183653,0.9999777657651745,-0.0012578987363913788,0.003733957974585796
1750932843.3437986,-1.638648609,-1.89174449,-1.181558719,1.578723907,-0.316628721,-1.876470576,0.058646221,0.045047595,0.061667009,0.02411189,-0.012463836,0.085507582,4.018487304,4.177272732,0.33258414,0.009257076,-0.003339956,0.308840461,-0.3729426030633382,-0.6062032451501067,0.4588337839735019,-0.005478031850103717,0.9999771156583303,-0.0014216146636021087,0.003706526466075447
1750932843.3457315,-1.638530788,-1.891653907,-1.181434761,1.578772345,-0.316653766,-1.876298717,0.059174665,0.045535784,0.062291227,0.024326088,-0.012581714,0.086351652,4.017395296,4.177729143,0.332621924,0.009240701,-0.003336018,0.308836138,-0.37283659040527534,-0.6062803101181423,0.4589888039199725,-0.005577148766908545,0.9999764213427121,-0.0015869592454588895,0.0036788219048441003
1750932843.347659,-1.638411911,-1.891562346,-1.181309554,1.578821211,-0.316679048,-1.87612517,0.059701564,0.046025212,0.062915854,0.02453956,-0.012699451,0.087195641,4.016292988,4.178189784,0.33266005,0.009224158,-0.003332073,0.308831748,-0.37272953327468855,-0.6063581343037032,0.4591453518787393,-0.005677242660087923,0.999975681689242,-0.0017539334005785368,0.0036508442230049603
1750932843.3496351,-1.638291982,-1.891469805,-1.181183098,1.578870503,-0.316704564,-1.875949934,0.060226904,0.04651589,0.063540893,0.024752299,-0.012817048,0.088039549,4.015180396,4.178654647,0.332698519,0.009207449,-0.003328121,0.308827291,-0.3726214310242763,-0.6064367181116365,0.4593034268149823,-0.005778312736004945,0.9999748955717115,-0.0019225359805844576,0.003622593500929133
1750932843.35255,-1.638171004,-1.891376281,-1.18105539,1.578920219,-0.316730316,-1.875773011,0.060750668,0.047007832,0.06416635,0.024964297,-0.012934504,0.088883374,4.014057532,4.179123724,0.332737328,0.009190571,-0.003324163,0.308822765,-0.3725122849391191,-0.6065160611987199,0.4594630293979236,-0.005880359211832044,0.9999740618457554,-0.0020927682328569916,0.003594069053976322
1750932843.3538723,-1.638048981,-1.891281773,-1.180926432,1.578970359,-0.316756302,-1.875594401,0.061272842,0.047501047,0.064792228,0.025175549,-0.01305182,0.089727116,4.012924414,4.179597007,0.332776477,0.009173526,-0.003320201,0.308818169,-0.37240209457051626,-0.6065961630987663,0.4596241577145921,-0.00598338129038478,0.999973179361156,-0.0022646278925159626,0.0035652723856245943
1750932843.355772,-1.637925914,-1.891186276,-1.180796221,1.579020921,-0.316782523,-1.875414103,0.061793411,0.047995549,0.065418531,0.025386046,-0.013168995,0.090570773,4.011781055,4.180074487,0.332815966,0.009156313,-0.003316236,0.308813502,-0.37229085940010004,-0.6066770246578667,0.45978681512297326,-0.006087380199019455,0.9999722469430299,-0.0024381181058212875,0.0035362022174598817
1750932843.3579955,-1.637925914,-1.891186276,-1.180796221,1.579020921,-0.316782523,-1.875414103,0.061793411,0.047995549,0.065418531,0.025386046,-0.013168995,0.090570773,4.011781055,4.180074487,0.332815966,0.009156313,-0.003316236,0.308813502,-0.37229085940010004,-0.6066770246578667,0.45978681512297326,-0.006087380199019455,0.9999722469430299,-0.0024381181058212875,0.0035362022174598817
1750932843.3596015,-1.637676666,-1.89099231,-1.18053204,1.579123304,-0.316835667,-1.875048446,0.06282967,0.048988458,0.06667243,0.025804748,-0.013402922,0.092257829,4.009463681,4.181042008,0.332895956,0.009121384,-0.003308298,0.308803954,-0.3720652559310417,-0.6068410251263744,0.4601167098270585,-0.006298306336972711,0.9999702276120972,-0.002789983418951974,0.003477243048468078
1750932843.3616188,-1.637550491,-1.890893835,-1.180398067,1.579175121,-0.316862589,-1.874863087,0.06334533,0.049486888,0.067300035,0.026012939,-0.013519674,0.093101225,4.008289695,4.181532031,0.332936456,0.009103667,-0.003304328,0.30879907,-0.37195088759903433,-0.6069241643698429,0.4602839481441743,-0.006405233502376967,0.9999691383142988,-0.0029683595785027854,0.003447353209565257
1750932843.363651,-1.637423286,-1.890794362,-1.180262839,1.579227355,-0.316889745,-1.874676041,0.063859323,0.049986651,0.067928082,0.026220347,-0.013636286,0.093944533,4.007105533,4.182026218,0.33297729,0.009085782,-0.003300358,0.308794111,-0.37183547440032805,-0.6070080628098868,0.4604527137895358,-0.006513137354235723,0.9999679943117782,-0.003148364588345461,0.003417190996039337
1750932843.3657863,-1.637295054,-1.890693887,-1.180126355,1.579280002,-0.316917135,-1.874487309,0.064371636,0.050487759,0.068556575,0.026426964,-0.013752756,0.09478775,4.005911209,4.182524561,0.333018459,0.009067728,-0.00329639,0.308789077,-0.37171901720893014,-0.6070927203940961,0.4606230078736142,-0.0066220176118821856,0.9999667943890448,-0.0033299989160193813,0.0033867549756455744
1750932843.368122,-1.637295054,-1.890693887,-1.180126355,1.579280002,-0.316917135,-1.874487309,0.064371636,0.050487759,0.068556575,0.026426964,-0.013752756,0.09478775,4.005911209,4.182524561,0.333018459,0.009067728,-0.00329639,0.308789077,-0.37171901720893014,-0.6070927203940961,0.4606230078736142,-0.0066220176118821856,0.9999667943890448,-0.0033299989160193813,0.0033867549756455744
1750932843.3697667,-1.6371658,-1.89059241,-1.179988613,1.579333062,-0.316944756,-1.87429689,0.064882251,0.050990223,0.06918552,0.026632785,-0.013869086,0.095630876,4.00470674,4.18302705,0.333059961,0.009049506,-0.003292423,0.308783967,-0.3716015150373362,-0.6071781373178176,0.4607948276561378,-0.006731873488552932,0.9999655373197991,-0.0035132612519461945,0.003356046399432715
1750932843.373773,-1.637035526,-1.890489926,-1.179849612,1.579386533,-0.316972611,-1.874104785,0.065391154,0.051494055,0.06981492,0.026837801,-0.013985275,0.09647391,4.003492143,4.183533678,0.333101795,0.009031115,-0.003288461,0.308778779,-0.37148296853619595,-0.6072643136173245,0.46096817559956527,-0.006842706211027855,0.9999642218498609,-0.003698153328454721,0.003325064491249737
1750932843.3740475,-1.636904237,-1.890386432,-1.179709353,1.579440413,-0.317000697,-1.873910994,0.065898329,0.051999267,0.070444779,0.027042006,-0.014101323,0.09731685,4.002267433,4.184044434,0.333143959,0.009012556,-0.003284503,0.308773512,-0.3713633777243439,-0.607351249633305,0.4611430505595423,-0.006954514491818186,0.9999628467389581,-0.0038846735342687577,0.003293809562568548
1750932843.3757622,-1.636771934,-1.890281928,-1.179567833,1.5794947,-0.317029016,-1.873715518,0.066403763,0.052505871,0.071075102,0.027245392,-0.014217231,0.098159696,4.001032629,4.184559311,0.333186454,0.008993828,-0.00328055,0.308768166,-0.3712427427274318,-0.6074389437451858,0.46131945269000224,-0.00706729905450772,0.9999614107161267,-0.004072822649772661,0.0032622811576519697
1750932843.3778567,-1.636638623,-1.890176408,-1.179425052,1.579549394,-0.317057566,-1.873518356,0.066907438,0.053013877,0.071705893,0.027447952,-0.014333,0.099002445,3.999787746,4.185078299,0.333229277,0.008974931,-0.003276604,0.308762739,-0.37112106313297777,-0.6075273980306837,0.46149738223817566,-0.007181059621948287,0.9999599125042342,-0.004262600799170859,0.003230480097014561
1750932843.3798404,-1.636504306,-1.890069871,-1.179281009,1.579604492,-0.317086348,-1.873319508,0.06740934,0.053523298,0.072337156,0.027649679,-0.014448628,0.099845098,3.998532801,4.185601389,0.333272427,0.008955865,-0.003272666,0.30875723,-0.37099833866741655,-0.6076166115373355,0.46167683908523766,-0.007295796913277066,0.9999583508145292,-0.004454007656656369,0.0031984057718906812
1750932843.3816855,-1.636368987,-1.889962314,-1.179135703,1.579659992,-0.317115361,-1.873118975,0.067909454,0.054034145,0.072968895,0.027850566,-0.014564117,0.100687652,3.997267813,4.186128572,0.333315904,0.00893663,-0.003268737,0.308751639,-0.37087456991034035,-0.6077065841286479,0.46185782303733036,-0.007411510149407017,0.9999567243559003,-0.0046470430483264375,0.003166058058571927
1750932843.38428,-1.636232669,-1.889853734,-1.178989133,1.579715893,-0.317144604,-1.872916758,0.068407765,0.054546431,0.073601116,0.028050607,-0.014679467,0.101530107,3.995992798,4.186659839,0.333359707,0.008917225,-0.003264817,0.308745963,-0.3707497572384352,-0.6077973154197835,0.4620403345971351,-0.007528198555635251,0.9999550318225361,-0.0048417074298319025,0.003133437164166703
1750932843.3918796,-1.636095357,-1.889744127,-1.178841298,1.579772194,-0.317174078,-1.872712855,0.068904257,0.055060165,0.074233821,0.028249793,-0.014794678,0.102372462,3.994707774,4.187195181,0.333403833,0.008897652,-0.003260908,0.308740202,-0.3706238994622845,-0.6078888069750387,0.4622243735417567,-0.0076458638556836205,0.9999532718803955,-0.0050380007799206445,0.003100543457795588
1750932843.3919587,-1.635957053,-1.889633492,-1.178692198,1.579828892,-0.317203783,-1.872507268,0.069398915,0.055575361,0.074867016,0.028448117,-0.01490975,0.103214714,3.993412758,4.187734588,0.333448283,0.008877909,-0.003257012,0.308734355,-0.3704969974580639,-0.6079810569299303,0.4624099396503788,-0.007764505267812254,0.9999514432095947,-0.0052359223020646195,0.003067376507921359
1750932843.3919764,-1.635677488,-1.889409123,-1.178390194,1.579943474,-0.317263881,-1.87209104,0.070382669,0.056610183,0.076134892,0.028842154,-0.015139482,0.104898909,3.990792825,4.188825561,0.333538147,0.008837914,-0.003249259,0.308722397,-0.3702400596815797,-0.6081678358701972,0.4627856531549719,-0.008004715836156143,0.9999475742954335,-0.0056366520102893,0.0030002231876424526
1750932843.3939672,-1.635536233,-1.889295383,-1.17823729,1.580001354,-0.317294275,-1.871880401,0.070871735,0.057129832,0.076769581,0.029037852,-0.015254143,0.105740849,3.989467944,4.189377107,0.333583558,0.008817662,-0.003245406,0.308716284,-0.3701100247431435,-0.6082623636598754,0.46297580135719035,-0.00812628493857712,0.9999455313374828,-0.0058394598635586265,0.002966236638975324
1750932843.396059,-1.635394002,-1.889180603,-1.178083116,1.580059624,-0.317324898,-1.871668077,0.071358905,0.057650988,0.077404776,0.02923266,-0.015368668,0.106582682,3.988133144,4.189932681,0.333629288,0.00879724,-0.003241568,0.30871008,-0.36997894459957503,-0.608357650972844,0.4631674761779118,-0.008248830549368685,0.9999434142137665,-0.00604389583811755,0.002931976838534821
1750932843.3979423,-1.635394002,-1.889180603,-1.178083116,1.580059624,-0.317324898,-1.871668077,0.071358905,0.057650988,0.077404776,0.02923266,-0.015368668,0.106582682,3.988133144,4.189932681,0.333629288,0.00879724,-0.003241568,0.30871008,-0.36997894459957503,-0.608357650972844,0.4631674761779118,-0.008248830549368685,0.9999434142137665,-0.00604389583811755,0.002931976838534821
1750932843.4017067,-1.635250799,-1.889064778,-1.177927671,1.580118284,-0.31735575,-1.87145407,0.071844166,0.058173663,0.078040483,0.029426572,-0.015483057,0.107424408,3.986788444,4.190492272,0.333675335,0.008776648,-0.003237749,0.308703784,-0.3698468203461432,-0.6084536978810696,0.4633606787671374,-0.008372351901702574,0.9999412215360282,-0.006249961027316474,0.002897444361324508
1750932843.402134,-1.635106627,-1.888947907,-1.177770954,1.58017733,-0.31738683,-1.87123838,0.072327501,0.058697868,0.078676704,0.029619579,-0.01559731,0.108266024,3.985433863,4.191055871,0.333721698,0.008755887,-0.003233949,0.308697393,-0.36971365182512306,-0.6085505035170877,0.4635554083617062,-0.008496848712317966,0.9999389519176699,-0.006457654483828422,0.00286263834938553
1750932843.4038732,-1.63496149,-1.888829986,-1.177612963,1.580236762,-0.317418139,-1.871021006,0.072808896,0.059223616,0.079313445,0.029811675,-0.01571143,0.109107529,3.98406942,4.191623468,0.333768375,0.008734955,-0.003230168,0.308690909,-0.36957943822673356,-0.6086480688281352,0.463751665591679,-0.008622322214959783,0.9999366039310472,-0.006666977299844896,0.002827559397933476
1750932843.4058995,-1.634815392,-1.888711011,-1.177453699,1.580296576,-0.317449676,-1.870801949,0.073288335,0.059750917,0.079950711,0.030002853,-0.015825417,0.109948923,3.982695134,4.192195052,0.333815365,0.008713853,-0.003226409,0.308684327,-0.36944418029259685,-0.6087463935383033,0.46394945072478594,-0.008748771626108492,0.9999341761716701,-0.006877928531575465,0.0027922066599919996
1750932843.4118712,-1.634668338,-1.888590981,-1.17729316,1.580356772,-0.31748144,-1.87058121,0.073765804,0.060279782,0.080588504,0.030193106,-0.01593927,0.110790204,3.981311023,4.192770615,0.333862668,0.008692581,-0.003222672,0.308677649,-0.3693078782060561,-0.6088454771554481,0.4641487617561116,-0.008876196170745995,0.9999316672183434,-0.007090507367545495,0.002756581352600594
1750932843.4131713,-1.634221473,-1.888224521,-1.176803882,1.580539631,-0.317578099,-1.869908899,0.075186232,0.061875885,0.082505096,0.030758242,-0.016280044,0.113313355,3.977099946,4.194521071,0.334006434,0.008627742,-0.003211609,0.308657015,-0.3688927049554872,-0.6091472838276931,0.46475586044095196,-0.009264326388058788,0.9999236386364251,-0.0077380163135575344,0.002648066501922928
1750932843.413976,-1.634221473,-1.888224521,-1.176803882,1.580539631,-0.317578099,-1.869908899,0.075186232,0.061875885,0.082505096,0.030758242,-0.016280044,0.113313355,3.977099946,4.194521071,0.334006434,0.008627742,-0.003211609,0.308657015,-0.3688927049554872,-0.6091472838276931,0.46475586044095196,-0.009264326388058788,0.9999236386364251,-0.0077380163135575344,0.002648066501922928
1750932843.4157407,-1.634070631,-1.888100234,-1.176638232,1.580601334,-0.317610772,-1.869681432,0.075655665,0.062411125,0.083145045,0.030944723,-0.016393376,0.11415417,3.975676737,4.195112445,0.334054971,0.008605788,-0.003207974,0.308649934,-0.36875222531921054,-0.6092494045096115,0.4649612812652407,-0.009395654234685382,0.9999207903375594,-0.00795710952303506,0.002611348358820072
1750932843.4177463,-1.633918851,-1.887974875,-1.176471301,1.580663409,-0.317643672,-1.869452283,0.076123051,0.062947988,0.083785544,0.031130243,-0.01650658,0.114994866,3.974243803,4.195707745,0.334103814,0.008583664,-0.003204367,0.308642748,-0.3686107008346585,-0.6093522843422362,0.46516823019713194,-0.009527958347682957,0.9999178535069414,-0.008177831918598425,0.002574356794799542
1750932843.4197583,-1.63376614,-1.887848441,-1.176303089,1.580725854,-0.317676799,-1.869221452,0.076588375,0.063486485,0.084426598,0.031314795,-0.016619657,0.115835441,3.972801165,4.196306962,0.33415296,0.008561368,-0.003200791,0.308635456,-0.36846813154306374,-0.6094559239962962,0.46537670493833566,-0.00966123894115114,0.9999148266607516,-0.008400181437216776,0.002537092419043315
1750932843.4217649,-1.633612499,-1.887720928,-1.176133595,1.580788667,-0.317710151,-1.868988941,0.077051621,0.064026626,0.085068209,0.031498373,-0.016732608,0.116675894,3.971348843,4.196910086,0.33420241,0.008538902,-0.003197245,0.308628057,-0.3683245183241981,-0.6095603221817467,0.46558670811431585,-0.009795494248606297,0.9999117082954444,-0.008624159828128324,0.002499554634409603
1750932843.423746,-1.633457935,-1.887592334,-1.175962816,1.580851847,-0.317743729,-1.868754749,0.077512775,0.064568425,0.085710384,0.031680969,-0.016845434,0.117516222,3.969886859,4.197517105,0.33425216,0.008516265,-0.003193732,0.30862055,-0.36817986048742213,-0.6096654799606281,0.46579823715020285,-0.009930725492246238,0.9999084968865284,-0.008849766134330746,0.0024617442370415644
1750932843.4257627,-1.63330245,-1.887462654,-1.175790753,1.580915391,-0.317777533,-1.868518876,0.077971821,0.065111891,0.086353126,0.031862575,-0.016958137,0.118356426,3.968415232,4.198128008,0.33430221,0.008493457,-0.003190252,0.308612933,-0.36803415790032756,-0.609771397079384,0.46601129439922684,-0.010066932896492038,0.9999051908980079,-0.009077001002426031,0.0024236604708389765
1750932843.4276416,-1.633146049,-1.887331885,-1.175617403,1.580979297,-0.317811561,-1.868281323,0.078428744,0.065657036,0.086996439,0.032043186,-0.017070718,0.119196503,3.966933984,4.198742786,0.334352559,0.008470478,-0.003186807,0.308605204,-0.367887411114385,-0.6098780735668657,0.46622587933002474,-0.010204115186785776,0.9999017887987742,-0.009305864753861599,0.002385303219553553
1750932843.4298935,-1.633146049,-1.887331885,-1.175617403,1.580979297,-0.317811561,-1.868281323,0.078428744,0.065657036,0.086996439,0.032043186,-0.017070718,0.119196503,3.966933984,4.198742786,0.334352559,0.008470478,-0.003186807,0.308605204,-0.367887411114385,-0.6098780735668657,0.46622587933002474,-0.010204115186785776,0.9999017887987742,-0.009305864753861599,0.002385303219553553
1750932843.433302,-1.632988736,-1.887200024,-1.175442767,1.581043563,-0.317845815,-1.86804209,0.078883529,0.066203872,0.087640328,0.032222794,-0.017183177,0.120036452,3.965443136,4.199361428,0.334403204,0.008447328,-0.003183398,0.308597362,-0.3677396198451181,-0.6099855090946597,0.46644199162034805,-0.010342273580474112,0.9998982890337866,-0.009536356285044184,0.002346672814352386
1750932843.4338872,-1.632830516,-1.887067068,-1.175266842,1.581108187,-0.317880294,-1.867801177,0.07933616,0.06675241,0.088284797,0.032401391,-0.017295517,0.120876272,3.96394271,4.199983922,0.334454145,0.008424007,-0.003180027,0.308589406,-0.36759078401789996,-0.6100937040310419,0.4666596307488815,-0.010481407802132843,0.9998946900400272,-0.00976847591904954,0.002307769152713513
1750932843.4357803,-1.632671393,-1.886933014,-1.175089627,1.581173168,-0.317914997,-1.867558585,0.079786623,0.067302661,0.088929851,0.032578972,-0.017407739,0.121715961,3.962432728,4.200610258,0.33450538,0.008400515,-0.003176695,0.308581334,-0.3674409038977336,-0.6102026579040518,0.4668787966480281,-0.010621517077871118,0.9998909902503287,-0.010002223655733876,0.002268592762541019
1750932843.4377012,-1.632511371,-1.886797857,-1.174911122,1.581238502,-0.317949925,-1.867314314,0.080234901,0.067854637,0.089575494,0.032755528,-0.017519844,0.122555517,3.96091321,4.201240425,0.334556908,0.008376852,-0.003173402,0.308573144,-0.3672899796225371,-0.6103123710050292,0.4670994904360001,-0.010762602122666758,0.9998871880741973,-0.010237599519685205,0.0022291425926917775
1750932843.4397297,-1.632350455,-1.886661594,-1.174731325,1.581304189,-0.317985077,-1.867068363,0.080680981,0.068408349,0.09022173,0.032931053,-0.017631833,0.123394941,3.95938418,4.201874411,0.334608727,0.008353017,-0.003170151,0.308564834,-0.3671380102255852,-0.6104228439837268,0.46732171148786184,-0.010904663166111023,0.9998832819088797,-0.010474603661345491,0.0021894196717875485
1750932843.441702,-1.632188649,-1.886524222,-1.174550234,1.581370226,-0.318020452,-1.866820734,0.081124847,0.068963808,0.090868564,0.03310554,-0.017743709,0.124234229,3.957845659,4.202512206,0.334660835,0.008329011,-0.003166943,0.308556404,-0.3669849968136705,-0.6105340759976244,0.4675454598711843,-0.011047698926722388,0.9998792701602413,-0.010713236258271584,0.002149423439470557
1750932843.4437523,-1.632025957,-1.886385737,-1.17436785,1.58143661,-0.318056051,-1.866571426,0.081566483,0.069521026,0.091515999,0.033278982,-0.017855472,0.12507338,3.956297669,4.203153798,0.334713231,0.008304833,-0.003163779,0.308547852,-0.36683093864899663,-0.6106460672736634,0.46777073594591656,-0.011191710616527984,0.9998751512054,-0.01095349653473999,0.0021091536496158697
1750932843.4478707,-1.631862384,-1.886246137,-1.17418417,1.581503341,-0.318091874,-1.866320441,0.082005874,0.070080014,0.092164041,0.033451371,-0.017967124,0.125912393,3.954740234,4.203799177,0.334765913,0.008280485,-0.003160661,0.308539175,-0.3666758365105234,-0.6107588171158129,0.46799753857094806,-0.011336697464242795,0.9998709234197988,-0.011195384647554332,0.002068611330439731
1750932843.450464,-1.631862384,-1.886246137,-1.17418417,1.581503341,-0.318091874,-1.866320441,0.082005874,0.070080014,0.092164041,0.033451371,-0.017967124,0.125912393,3.954740234,4.203799177,0.334765913,0.008280485,-0.003160661,0.308539175,-0.3666758365105234,-0.6107588171158129,0.46799753857094806,-0.011336697464242795,0.9998709234197988,-0.011195384647554332,0.002068611330439731
1750932843.4518795,-1.631366425,-1.885820602,-1.173625345,1.581705586,-0.31820068,-1.865557417,0.083310428,0.071767709,0.094111847,0.033962155,-0.018301434,0.12842859,3.950011481,4.205757916,0.334925664,0.008206409,-0.003151591,0.308512384,-0.36620426210216367,-0.6111016241116255,0.4686871109187952,-0.01177751110603136,0.999857570595728,-0.011930816830513702,0.0019453442659453915
1750932843.4536333,-1.631199373,-1.8856765,-1.173436471,1.581773679,-0.318237394,-1.865299721,0.083740689,0.072333889,0.094762358,0.034130265,-0.018412661,0.129267036,3.948416491,4.206418325,0.334979476,0.008181375,-0.003148668,0.308503194,-0.36604498153863235,-0.6112174117877719,0.46892002380006004,-0.011926399750198971,0.9998528909536186,-0.012179217252863365,0.0019037089581161056
1750932843.4557242,-1.631031464,-1.885531265,-1.173246295,1.581842107,-0.318274331,-1.865040349,0.084168629,0.072901895,0.095413496,0.034297288,-0.018523786,0.130105336,3.946812171,4.207082464,0.335033567,0.008156168,-0.003145798,0.308493871,-0.3658846569862894,-0.611333958452075,0.46915446241054176,-0.012076263626231164,0.9998480941805733,-0.01242924448438645,0.0018618007016272396
1750932843.4577186,-1.6308627,-1.885384892,-1.173054817,1.581910867,-0.318311489,-1.8647793,0.084594233,0.073471738,0.096065267,0.034463216,-0.018634811,0.130943489,3.945198545,4.207750319,0.335087935,0.00813079,-0.003142981,0.308484414,-0.36572328760790895,-0.611451264093527,0.4693904293051412,-0.012227102450778125,0.9998431785721373,-0.01268089965894222,0.0018196187136459178
1750932843.4596002,-1.630693088,-1.885237377,-1.172862034,1.581979959,-0.31834887,-1.864516575,0.085017486,0.07404343,0.096717674,0.034628043,-0.018745738,0.131781493,3.943575636,4.20842188,0.335142577,0.008105241,-0.003140219,0.30847482,-0.3655608738688116,-0.6115693294526758,0.469627923305606,-0.012378916948562775,0.9998381424084495,-0.012934182938724795,0.0017771640637398
1750932843.461773,-1.630522632,-1.885088717,-1.172667945,1.582049379,-0.318386472,-1.864252174,0.085438373,0.074616981,0.097370723,0.034791762,-0.018856568,0.132619347,3.941943468,4.209097135,0.335197494,0.008079519,-0.003137515,0.308465089,-0.3653974156502831,-0.6116881541313997,0.4698669444079638,-0.012531706320692523,0.999832983988454,-0.013189093879439246,0.0017344359529729704
1750932843.463705,-1.630351336,-1.884938908,-1.17247255,1.582119125,-0.318424296,-1.863986098,0.085856879,0.075192404,0.098024417,0.034954366,-0.018967305,0.133457049,3.940302065,4.209776071,0.335252682,0.008053627,-0.003134868,0.308455218,-0.36523291327456703,-0.6118077376186868,0.4701074931478723,-0.012685470778398412,0.9998277015822861,-0.013445632342451405,0.001691434516879418
1750932843.4658897,-1.630179206,-1.884787946,-1.172275847,1.582189196,-0.318462341,-1.863718346,0.086272988,0.075769708,0.09867876,0.035115848,-0.01907795,0.134294598,3.938651452,4.210458678,0.33530814,0.008027562,-0.003132281,0.308445205,-0.3650673659532926,-0.6119280809243363,0.4703495689304655,-0.01284021053817664,0.9998222934460766,-0.013703798336773446,0.001648160401084704
1750932843.4680915,-1.630179206,-1.884787946,-1.172275847,1.582189196,-0.318462341,-1.863718346,0.086272988,0.075769708,0.09867876,0.035115848,-0.01907795,0.134294598,3.938651452,4.210458678,0.33530814,0.008027562,-0.003132281,0.308445205,-0.3650673659532926,-0.6119280809243363,0.4703495689304655,-0.01284021053817664,0.9998222934460766,-0.013703798336773446,0.001648160401084704
1750932843.4698746,-1.629832461,-1.884482549,-1.171878512,1.5823303,-0.318539095,-1.863177818,0.087097955,0.076930008,0.099989414,0.035435417,-0.019298974,0.135969227,3.935322696,4.211834852,0.33541986,0.007974918,-0.003127291,0.308424746,-0.36473313830667164,-0.6121710448502938,0.4708383024202187,-0.013152615274685074,0.9998110929855477,-0.01422501256940269,0.001560792068442754
1750932843.4716694,-1.629657856,-1.884328106,-1.171677877,1.582401329,-0.318577804,-1.862905043,0.087506784,0.077513025,0.100645733,0.035593491,-0.019409357,0.136806305,3.933644601,4.212528396,0.335476118,0.007948339,-0.003124891,0.308414296,-0.36456445822090416,-0.6122936655919481,0.47108496022174934,-0.013310280169116692,0.9998052971239273,-0.014488061009413928,0.0015166980393259224
1750932843.473838,-1.629482436,-1.884172495,-1.171475929,1.582472673,-0.318616733,-1.862630593,0.087913155,0.078097969,0.101302719,0.035750415,-0.019519656,0.137643223,3.931957396,4.213225562,0.335532639,0.007921588,-0.003122557,0.308403697,-0.36439473306971576,-0.6124170459974764,0.47133314516552355,-0.013468920185872067,0.9997993684701734,-0.014752736604988994,0.001472330918233549
1750932843.475692,-1.629306205,-1.884015713,-1.171272666,1.58254433,-0.318655882,-1.86235447,0.088317053,0.07868485,0.101960376,0.035906182,-0.019629876,0.138479979,3.930261106,4.213926337,0.335589421,0.007894665,-0.00312029,0.308392947,-0.36422396371053983,-0.6125411850127813,0.47158285740953476,-0.013628534532425733,0.9997933052347462,-0.015019039698262848,0.001427690730585692
1750932843.4777448,-1.629129169,-1.883857755,-1.171068087,1.582616297,-0.318695252,-1.862076673,0.088718464,0.07927368,0.102618709,0.036060785,-0.019740017,0.139316571,3.928555757,4.214630709,0.335646463,0.007867571,-0.003118091,0.308382043,-0.3640521495860829,-0.612666083692121,0.4718340969210286,-0.013789124404798106,0.9997871055997293,-0.015286970003558898,0.0013827771964527577
1750932843.4796207,-1.628951333,-1.883698617,-1.17086219,1.582688572,-0.318734842,-1.861797204,0.089117373,0.07986447,0.103277722,0.036214218,-0.019850083,0.140152999,3.926841374,4.215338665,0.335703762,0.007840305,-0.003115962,0.308370984,-0.3638792917129663,-0.6127917415387546,0.47208686383317544,-0.013950688507790516,0.999780767760118,-0.015556527863619139,0.0013375903617718675
1750932843.4816186,-1.628772701,-1.883538296,-1.170654975,1.582761153,-0.318774653,-1.861516061,0.089513763,0.080457231,0.10393742,0.036366473,-0.019960076,0.140989259,3.925117983,4.216050194,0.335761318,0.007812867,-0.003113905,0.308359767,-0.36370538840822136,-0.6129181586947191,0.4723411580738026,-0.014113228538556156,0.9997742898727114,-0.015827712666697732,0.0012921305950103525
1750932843.4838467,-1.628593279,-1.883376787,-1.17044644,1.582834037,-0.318814683,-1.861233247,0.08990762,0.081051974,0.104597806,0.036517544,-0.020069998,0.141825351,3.92338561,4.216765282,0.335819127,0.007785258,-0.003111921,0.308348391,-0.3635304415719838,-0.6130453348233704,0.4725969797498022,-0.014276742192101758,0.9997676701279603,-0.01610052460682247,0.001246397478850501
1750932843.4857,-1.628413072,-1.883214086,-1.170236584,1.582907222,-0.318854932,-1.86094876,0.09029893,0.08164871,0.105258885,0.036667424,-0.020179853,0.142661273,3.921644283,4.217483918,0.335877188,0.007757478,-0.003110011,0.308336854,-0.3633544497116494,-0.6131732707313814,0.4728543288874187,-0.014441230665471823,0.9997609066604084,-0.0163749635499456,0.0012003912539508119
1750932843.4878247,-1.628232085,-1.883050191,-1.170025404,1.582980706,-0.318895402,-1.860662602,0.090687675,0.08224745,0.105920661,0.036816106,-0.020289642,0.143497022,3.919894026,4.218206087,0.3359355,0.007729526,-0.003108178,0.308325152,-0.3631774136601239,-0.6133019653607423,0.4731132044523817,-0.01460669415451667,0.9997539976074803,-0.016651029366244338,0.0011541121190331433
1750932843.4897811,-1.628232085,-1.883050191,-1.170025404,1.582980706,-0.318895402,-1.860662602,0.090687675,0.08224745,0.105920661,0.036816106,-0.020289642,0.143497022,3.919894026,4.218206087,0.3359355,0.007729526,-0.003108178,0.308325152,-0.3631774136601239,-0.6133019653607423,0.4731132044523817,-0.01460669415451667,0.9997539976074803,-0.016651029366244338,0.0011541121190331433
1750932843.4918275,-1.628050323,-1.882885095,-1.1698129,1.583054486,-0.318936091,-1.860374772,0.091073843,0.082848204,0.106583139,0.036963582,-0.02039937,0.144332598,3.918134868,4.218931779,0.335994059,0.007701402,-0.003106422,0.308313285,-0.36299933287396363,-0.61343141990184,0.4733736083257639,-0.014773132351791455,0.9997469410901891,-0.016928722726394608,0.0011075595601544126
1750932843.4936492,-1.627867792,-1.882718796,-1.169599071,1.58312856,-0.318976999,-1.860085272,0.091457417,0.083450985,0.107246323,0.037109847,-0.020509037,0.145167998,3.916366834,4.219660979,0.336052865,0.007673108,-0.003104745,0.30830125,-0.36282020818890687,-0.6135616333331698,0.4736355385456315,-0.014940544441254998,0.9997397352625154,-0.017208042069756898,0.0010607342551207598
1750932843.5019045,-1.627684496,-1.88255129,-1.169383915,1.583202924,-0.319018127,-1.8597941,0.091838382,0.084055803,0.107910218,0.037254893,-0.020618648,0.146003221,3.914589953,4.220393676,0.336111916,0.007644641,-0.003103149,0.308289044,-0.3626400382495789,-0.6136926061633804,0.4738989959716279,-0.01510893210311149,0.9997323781972333,-0.017488987920053177,0.0010136352105326913
1750932843.5019996,-1.627684496,-1.88255129,-1.169383915,1.583202924,-0.319018127,-1.8597941,0.091838382,0.084055803,0.107910218,0.037254893,-0.020618648,0.146003221,3.914589953,4.220393676,0.336111916,0.007644641,-0.003103149,0.308289044,-0.3626400382495789,-0.6136926061633804,0.4738989959716279,-0.01510893210311149,0.9997323781972333,-0.017488987920053177,0.0010136352105326913
1750932843.502128,-1.627684496,-1.88255129,-1.169383915,1.583202924,-0.319018127,-1.8597941,0.091838382,0.084055803,0.107910218,0.037254893,-0.020618648,0.146003221,3.914589953,4.220393676,0.336111916,0.007644641,-0.003103149,0.308289044,-0.3626400382495789,-0.6136926061633804,0.4738989959716279,-0.01510893210311149,0.9997323781972333,-0.017488987920053177,0.0010136352105326913
1750932843.5098956,-1.627130072,-1.882041484,-1.168730469,1.583427743,-0.319142825,-1.858910566,0.092965473,0.085882588,0.109906204,0.037682652,-0.020947171,0.148507807,3.909206497,4.222612613,0.336290513,0.007558216,-0.003098863,0.308251385,-0.36209326265141034,-0.6140900797991986,0.4746985339714076,-0.015619940487696464,0.9997093805134407,-0.01834158808621796,0.0008707003325661958
1750932843.511818,-1.62675673,-1.8816955,-1.168288176,1.583579033,-0.319227051,-1.858313197,0.093703547,0.087110831,0.111240492,0.037961606,-0.021165958,0.150176611,3.905573795,4.224109147,0.336410763,0.007499743,-0.003096439,0.308225386,-0.3617235234578723,-0.6143588584718421,0.4752391957771567,-0.015965484189603123,0.9996932573854569,-0.01891812115571222,0.0007740443036429996
1750932843.5139387,-1.626568958,-1.881520661,-1.168065027,1.583655094,-0.319269492,-1.85801201,0.094068542,0.087728101,0.111908738,0.038099198,-0.021275293,0.151010731,3.903744408,4.224862547,0.336471238,0.007470251,-0.003095362,0.308212112,-0.3615370874524328,-0.614494386882632,0.4755118173562642,-0.016139717208781473,0.9996849525841557,-0.019208827017341702,0.0007253067301649171
1750932843.5156553,-1.626380458,-1.881344586,-1.167840541,1.583731429,-0.319312152,-1.857709154,0.094430823,0.088347484,0.112577723,0.038235523,-0.021384592,0.151844661,3.901906369,4.225619351,0.336531943,0.007440587,-0.003094378,0.308198653,-0.3613496062671604,-0.6146306744746138,0.4757859662698715,-0.016314925073550736,0.9996764829860506,-0.01950115914683137,0.0006762960999610963
1750932843.5176597,-1.626191236,-1.88116727,-1.167614716,1.583808035,-0.319355031,-1.857404631,0.094790374,0.088968992,0.113247453,0.038370575,-0.021493861,0.152678399,3.900059707,4.226379547,0.336592876,0.007410753,-0.003093486,0.308185004,-0.36116108107889094,-0.6147677210918395,0.47606164269765927,-0.016491106953679006,0.9996678466174043,-0.019795117747161625,0.0006270120734615783
1750932843.519634,-1.626001298,-1.880988709,-1.16738755,1.58388491,-0.319398128,-1.857098441,0.09514718,0.089592636,0.113917932,0.038504348,-0.0216031,0.153511943,3.89820445,4.227143121,0.336654035,0.007380748,-0.003092691,0.308171165,-0.36097151162524177,-0.6149055270167436,0.476338846168827,-0.016668262522690203,0.9996590414914142,-0.020090702692925445,0.0005774549734471663
1750932843.521777,-1.62581065,-1.880808898,-1.167159044,1.583962052,-0.319441443,-1.856790584,0.095501227,0.090218425,0.114589164,0.038636834,-0.021712315,0.154345291,3.896340628,4.227910059,0.336715417,0.007350573,-0.003091992,0.308157132,-0.36078089762951765,-0.6150440924990567,0.47661757650342185,-0.016846391945738254,0.9996500656215642,-0.02038791290522497,0.0005276254181640615
1750932843.5237815,-1.625619295,-1.880627834,-1.166929193,1.584039457,-0.319484977,-1.85648106,0.095852499,0.090846372,0.115261153,0.038768027,-0.021821509,0.155178441,3.894468271,4.228680348,0.336777022,0.007320227,-0.003091393,0.308142903,-0.3605892387905547,-0.6151834168940508,0.47689783502861216,-0.017025495888200907,0.9996409169409358,-0.020686750348038723,0.00047752202433161206
1750932843.5256517,-1.625427241,-1.880445511,-1.166697998,1.584117123,-0.319528729,-1.85616987,0.096200981,0.091476487,0.115933903,0.03889792,-0.021930685,0.156011391,3.892587407,4.229453974,0.336838846,0.007289711,-0.003090894,0.308128476,-0.3603965356852597,-0.6153235009323041,0.47717962085008625,-0.01720557350757064,0.9996315934672361,-0.020987213466536484,0.0004271455727069991
1750932843.5276768,-1.625234493,-1.880261926,-1.166465457,1.584195048,-0.3195727,-1.855857015,0.096546658,0.09210878,0.116607418,0.039026507,-0.022039847,0.156844139,3.890698066,4.230230923,0.336900887,0.007259025,-0.003090497,0.308113848,-0.360202788459559,-0.6154643438924987,0.4774629335525185,-0.017386624968255746,0.9996220931617916,-0.02128930213806212,0.00037649638219656187
1750932843.5301569,-1.625041057,-1.880077075,-1.166231568,1.584273228,-0.319616888,-1.855542494,0.096889515,0.092743263,0.117281704,0.039153781,-0.022148999,0.157676683,3.888800279,4.231011183,0.336963143,0.007228169,-0.003090203,0.308099016,-0.3600079964162996,-0.6156059462818109,0.47774777268920265,-0.017568649912334842,0.9996124139907626,-0.02159301594193426,0.0003255738768541344
1750932843.5320487,-1.624846937,-1.879890952,-1.16599633,1.584351662,-0.319661296,-1.855226308,0.097229537,0.093379947,0.117956763,0.039279735,-0.022258144,0.158509021,3.886894075,4.231794739,0.337025613,0.007197143,-0.003090016,0.308083979,-0.3598121597233141,-0.6157483078972866,0.4780341404006396,-0.017751649518587563,0.9996025538410708,-0.021898356337247366,0.00027437839816797676
1750932843.5338435,-1.62465214,-1.879703553,-1.165759741,1.584430346,-0.319705921,-1.854908458,0.097566709,0.094018842,0.118632601,0.039404362,-0.022367286,0.159341152,3.884979486,4.232581577,0.337088293,0.007165947,-0.003089936,0.308068733,-0.35961527898013934,-0.6158914287816283,0.47832203555976943,-0.017935621921161,0.9995925106929977,-0.022205322427636492,0.00022290952247436052
1750932843.5368087,-1.624456672,-1.879514875,-1.165521799,1.584509278,-0.319750765,-1.854588944,0.097901016,0.094659958,0.119309221,0.039527657,-0.022476429,0.160173072,3.883056541,4.233371683,0.337151181,0.007134581,-0.003089965,0.308053276,-0.3594173537670569,-0.6160353088031582,0.4786114570808402,-0.018120568270799456,0.999582282456466,-0.022513913615116576,0.00017116774340647132
1750932843.5377638,-1.624260538,-1.879324912,-1.165282503,1.584588456,-0.319795827,-1.854267766,0.098232442,0.095303308,0.119986627,0.039649611,-0.022585577,0.161004781,3.881125272,4.234165045,0.337214275,0.007103046,-0.003090104,0.308037605,-0.35921838380496485,-0.6161799483275521,0.4789024064281361,-0.018306488226231554,0.9995718670248842,-0.02282413073343786,0.00011915314849638608
1750932843.540753,-1.624063744,-1.87913366,-1.165041852,1.584667876,-0.319841107,-1.853944925,0.098560974,0.095948901,0.120664825,0.03977022,-0.022694734,0.161836276,3.879185709,4.234961647,0.337277573,0.007071342,-0.003090357,0.308021717,-0.3590183695533702,-0.6163253469645813,0.47919488305812985,-0.018493381412246396,0.9995612623203647,-0.02313597288838019,6.686530100220975e-05
1750932843.5425167,-1.623866296,-1.878941115,-1.164799843,1.584747536,-0.319886606,-1.853620421,0.098886595,0.096596748,0.121343817,0.039889475,-0.022803904,0.162667554,3.877237885,4.235761475,0.337341073,0.007039469,-0.003090723,0.30800561,-0.3588173106856126,-0.6164715049485198,0.47948888668549616,-0.018681248478316013,0.9995504662066026,-0.023449440437638833,1.4304427867565006e-05
1750932843.5437503,-1.6236682,-1.878747272,-1.164556476,1.584827433,-0.319932323,-1.853294254,0.099209291,0.09724686,0.122023608,0.040007371,-0.022913091,0.163498614,3.875281829,4.236564516,0.337404772,0.007007426,-0.003091205,0.307989281,-0.3586152069724142,-0.6166184224477265,0.4797844173136719,-0.018870089054099287,0.9995394765806664,-0.0237645326363404,-3.852939431744929e-05
1750932843.5456743,-1.623469461,-1.878552126,-1.164311748,1.584907564,-0.319978258,-1.852966426,0.099529047,0.097899248,0.122704202,0.040123901,-0.023022299,0.164329454,3.873317574,4.237370755,0.337468667,0.006975215,-0.003091806,0.307972728,-0.35841205941838583,-0.616766098931547,0.48008147601892454,-0.01905990227957298,0.9995282912929294,-0.02408125064948005,-9.163671114910545e-05
1750932843.54769,-1.623270086,-1.878355673,-1.164065659,1.584987928,-0.320024412,-1.852636937,0.099845847,0.098553923,0.123385603,0.040239059,-0.023131533,0.165160072,3.871345152,4.238180178,0.337532757,0.006942836,-0.003092526,0.307955946,-0.3582078675494263,-0.6169145345923273,0.48038006146723405,-0.01925068879431447,0.9995169082156816,-0.024399593074668713,-0.0001450162054200108
1750932843.5561776,-1.62307008,-1.878157909,-1.163818205,1.58506852,-0.320070784,-1.852305786,0.100159678,0.099210895,0.124067816,0.040352837,-0.023240797,0.165990465,3.869364595,4.238992771,0.337597038,0.006910288,-0.003093367,0.307938935,-0.35800263067032634,-0.6170637296881603,0.4806801742080513,-0.01944244870899031,0.9995053251651336,-0.02471956078173645,-0.0001986693161122613
1750932843.556338,-1.62307008,-1.878157909,-1.163818205,1.58506852,-0.320070784,-1.852305786,0.100159678,0.099210895,0.124067816,0.040352837,-0.023240797,0.165990465,3.869364595,4.238992771,0.337597038,0.006910288,-0.003093367,0.307938935,-0.35800263067032634,-0.6170637296881603,0.4806801742080513,-0.01944244870899031,0.9995053251651336,-0.02471956078173645,-0.0001986693161122613
1750932843.5579271,-1.622466338,-1.877556699,-1.163067648,1.585311642,-0.320211213,-1.851302373,0.101083198,0.1011957,0.126119363,0.040685833,-0.023568812,0.168480275,3.863374436,4.241449426,0.33779101,0.006811635,-0.003096638,0.30788649,-0.35738065428801635,-0.6175158703046355,0.4815896770462047,-0.02002356661984247,0.9994693545410196,-0.02568921173705513,-0.00036126653200924564
1750932843.5602472,-1.622263869,-1.877353642,-1.162814724,1.585393122,-0.32025846,-1.850964583,0.101384998,0.101861968,0.126804862,0.04079403,-0.02367824,0.169309748,3.861361663,4.242274554,0.337856035,0.006778415,-0.003097983,0.307868528,-0.3571712398244945,-0.6176681021448693,0.4818958991799058,-0.02021921837234332,0.9994569498725888,-0.02601567785282903,-0.0004160115992824897
1750932843.5617695,-1.6220608,-1.87714925,-1.162560428,1.585474817,-0.320305926,-1.850625134,0.101683754,0.102530586,0.127491193,0.040900816,-0.02378772,0.170138986,3.859340919,4.24310278,0.337921239,0.006745029,-0.003099459,0.307850322,-0.35696078078119187,-0.6178210935652754,0.4822036483182226,-0.020415843119274926,0.9994443342961549,-0.026343768222556067,-0.0004710295969465344
1750932843.563871,-1.621857136,-1.876943518,-1.162304758,1.585556724,-0.320353611,-1.850284027,0.101979449,0.103201565,0.128178359,0.041006184,-0.023897258,0.170967985,3.857312236,4.243934089,0.33798662,0.006711475,-0.003101067,0.307831867,-0.3567492774452775,-0.6179748441733031,0.4825129254582759,-0.020613440471824337,0.999431505574164,-0.02667348353756535,-0.0005263208578159176
