mathias31415/motion_primitives_from_planned_trajectory/data/trajectory_20250701_160020_executed.csv
timestamp,shoulder_lift_joint_pos,elbow_joint_pos,wrist_1_joint_pos,wrist_2_joint_pos,wrist_3_joint_pos,shoulder_pan_joint_pos,shoulder_lift_joint_vel,elbow_joint_vel,wrist_1_joint_vel,wrist_2_joint_vel,wrist_3_joint_vel,shoulder_pan_joint_vel,shoulder_lift_joint_eff,elbow_joint_eff,wrist_1_joint_eff,wrist_2_joint_eff,wrist_3_joint_eff,shoulder_pan_joint_eff
1751378445.461547852,-1.655704000,1.448555000,-1.363712000,-1.570675000,-3.799444000,0.970329000,0.000000000,0.000000000,0.000000000,0.000000000,0.000000000,0.000000000,-2.881181566,-4.207934635,-0.302780521,0.000010016,0.000000000,0.000000000
1751378445.463322878,-1.655704000,1.448555000,-1.363712000,-1.570675000,-3.799444000,0.970329000,0.000000000,0.000000000,0.000000000,0.000000000,0.000000000,0.000000000,-2.881181566,-4.207934635,-0.302780521,0.000010016,0.000000000,0.000000000
1751378445.465289116,-1.655704000,1.448555000,-1.363712000,-1.570675000,-3.799444000,0.970329000,0.000000000,0.000000000,0.000000000,0.000000000,0.000000000,0.000000000,-2.881181566,-4.207934635,-0.302780521,0.000010016,0.000000000,0.000000000
1751378445.467363119,-1.655704000,1.448555000,-1.363712000,-1.570675000,-3.799444000,0.970329000,0.000000000,0.000000000,0.000000000,0.000000000,0.000000000,0.000000000,-2.881181566,-4.207934635,-0.302780521,0.000010016,0.000000000,0.000000000
1751378445.469326496,-1.655704000,1.448555000,-1.363712000,-1.570675000,-3.799444000,0.970329000,0.000000000,0.000000000,0.000000000,0.000000000,0.000000000,0.000000000,-2.881181566,-4.207934635,-0.302780521,0.000010016,0.000000000,0.000000000
1751378445.471832514,-1.655704000,1.448555000,-1.363712000,-1.570675000,-3.799444000,0.970329000,0.000000000,0.000000000,0.000000000,0.000000000,0.000000000,0.000000000,-2.881181566,-4.207934635,-0.302780521,0.000010016,0.000000000,0.000000000
1751378445.473979950,-1.655704000,1.448555000,-1.363712000,-1.570675000,-3.799444000,0.970329000,0.000000000,0.000000000,0.000000000,0.000000000,0.000000000,0.000000000,-2.881181566,-4.207934635,-0.302780521,0.000010016,0.000000000,0.000000000
1751378445.481572390,-1.655704000,1.448555000,-1.363712000,-1.570675000,-3.799444000,0.970329000,0.000000000,0.000000000,0.000000000,0.000000000,0.000000000,0.000000000,-2.881181566,-4.207934635,-0.302780521,0.000010016,0.000000000,0.000000000
1751378445.481642723,-1.655704000,1.448555000,-1.363712000,-1.570675000,-3.799444000,0.970329000,0.000000000,0.000000000,0.000000000,0.000000000,0.000000000,0.000000000,-2.881181566,-4.207934635,-0.302780521,0.000010016,0.000000000,0.000000000
1751378445.481665373,-1.655704000,1.448555000,-1.363712000,-1.570675000,-3.799444000,0.970329000,0.000000000,0.000000000,0.000000000,0.000000000,0.000000000,0.000000000,-2.881181566,-4.207934635,-0.302780521,0.000010016,0.000000000,0.000000000
1751378445.485150099,-1.655704000,1.448555000,-1.363712000,-1.570675000,-3.799444000,0.970329000,0.000000000,0.000000000,0.000000000,0.000000000,0.000000000,0.000000000,-2.881181566,-4.207934635,-0.302780521,0.000010016,0.000000000,0.000000000
1751378445.489965916,-1.655704000,1.448555000,-1.363712000,-1.570675000,-3.799444000,0.970329000,0.000000000,0.000000000,0.000000000,0.000000000,0.000000000,0.000000000,-2.881181566,-4.207934635,-0.302780521,0.000010016,0.000000000,0.000000000
1751378445.494477510,-1.655704000,1.448555000,-1.363712000,-1.570675000,-3.799444000,0.970329000,0.000000000,0.000000000,0.000000000,0.000000000,0.000000000,0.000000000,-2.881181566,-4.207934635,-0.302780521,0.000010016,0.000000000,0.000000000
1751378445.494544268,-1.655704000,1.448555000,-1.363712000,-1.570675000,-3.799444000,0.970329000,0.000000000,0.000000000,0.000000000,0.000000000,0.000000000,0.000000000,-2.881181566,-4.207934635,-0.302780521,0.000010016,0.000000000,0.000000000
1751378445.494587421,-1.655704000,1.448555000,-1.363712000,-1.570675000,-3.799444000,0.970329000,0.000000000,0.000000000,0.000000000,0.000000000,0.000000000,0.000000000,-2.881181566,-4.207934635,-0.302780521,0.000010016,0.000000000,0.000000000
1751378445.495683670,-1.655704000,1.448555000,-1.363712000,-1.570675000,-3.799444000,0.970329000,0.000000000,0.000000000,0.000000000,0.000000000,0.000000000,0.000000000,-2.881181566,-4.207934635,-0.302780521,0.000010016,0.000000000,0.000000000
1751378445.495741129,-1.655704000,1.448555000,-1.363712000,-1.570675000,-3.799444000,0.970329000,0.000000000,0.000000000,0.000000000,0.000000000,0.000000000,0.000000000,-2.881181566,-4.207934635,-0.302780521,0.000010016,0.000000000,0.000000000
1751378445.497989416,-1.655704000,1.448555000,-1.363712000,-1.570675000,-3.799444000,0.970329000,0.000000000,0.000000000,0.000000000,0.000000000,0.000000000,0.000000000,-2.881181566,-4.207934635,-0.302780521,0.000010016,0.000000000,0.000000000
1751378445.499655485,-1.655704000,1.448555000,-1.363712000,-1.570675000,-3.799444000,0.970329000,0.000000000,0.000000000,0.000000000,0.000000000,0.000000000,0.000000000,-2.881181566,-4.207934635,-0.302780521,0.000010016,0.000000000,0.000000000
1751378445.505924463,-1.655704000,1.448555000,-1.363712000,-1.570675000,-3.799444000,0.970329000,0.000000000,0.000000000,0.000000000,0.000000000,0.000000000,0.000000000,-2.881181566,-4.207934635,-0.302780521,0.000010016,0.000000000,0.000000000
1751378445.506208658,-1.655704000,1.448555000,-1.363712000,-1.570675000,-3.799444000,0.970329000,0.000000000,0.000000000,0.000000000,0.000000000,0.000000000,0.000000000,-2.881181566,-4.207934635,-0.302780521,0.000010016,0.000000000,0.000000000
1751378445.507417440,-1.655704000,1.448555000,-1.363712000,-1.570675000,-3.799444000,0.970329000,0.000000000,0.000000000,0.000000000,0.000000000,0.000000000,0.000000000,-2.881181566,-4.207934635,-0.302780521,0.000010016,0.000000000,0.000000000
1751378445.509477377,-1.655704000,1.448555000,-1.363712000,-1.570675000,-3.799444000,0.970329000,0.000000000,0.000000000,0.000000000,0.000000000,0.000000000,0.000000000,-2.881181566,-4.207934635,-0.302780521,0.000010016,0.000000000,0.000000000
1751378445.511442184,-1.655704000,1.448555000,-1.363712000,-1.570675000,-3.799444000,0.970329000,0.000000000,0.000000000,0.000000000,0.000000000,0.000000000,0.000000000,-2.881181566,-4.207934635,-0.302780521,0.000010016,0.000000000,0.000000000
1751378445.513352633,-1.655704000,1.448555000,-1.363712000,-1.570675000,-3.799444000,0.970329000,0.000000000,0.000000000,0.000000000,0.000000000,0.000000000,0.000000000,-2.881181566,-4.207934635,-0.302780521,0.000010016,0.000000000,0.000000000
1751378445.515404701,-1.655704000,1.448555000,-1.363712000,-1.570675000,-3.799444000,0.970329000,0.000000000,0.000000000,0.000000000,0.000000000,0.000000000,0.000000000,-2.881181566,-4.207934635,-0.302780521,0.000010016,0.000000000,0.000000000
1751378445.518332005,-1.655704000,1.448555000,-1.363712000,-1.570675000,-3.799444000,0.970329000,0.000000000,0.000000000,0.000000000,0.000000000,0.000000000,0.000000000,-2.881181566,-4.207934635,-0.302780521,0.000010016,0.000000000,0.000000000
1751378445.520505428,-1.655704000,1.448555000,-1.363712000,-1.570675000,-3.799444000,0.970329000,0.000000000,0.000000000,0.000000000,0.000000000,0.000000000,0.000000000,-2.881181566,-4.207934635,-0.302780521,0.000010016,0.000000000,0.000000000
1751378445.521703959,-1.655704000,1.448555000,-1.363712000,-1.570675000,-3.799444000,0.970329000,0.000000000,0.000000000,0.000000000,0.000000000,0.000000000,0.000000000,-2.881181566,-4.207934635,-0.302780521,0.000010016,0.000000000,0.000000000
1751378445.523698330,-1.655704000,1.448555000,-1.363712000,-1.570675000,-3.799444000,0.970329000,0.000000000,0.000000000,0.000000000,0.000000000,0.000000000,0.000000000,-2.881181566,-4.207934635,-0.302780521,0.000010016,0.000000000,0.000000000
1751378445.525686741,-1.655703769,1.448555420,-1.363712651,-1.570675000,-3.799442509,0.970330491,0.000231299,0.000420217,-0.000651357,-0.000000254,0.001491048,0.001490587,-2.778247540,-4.091915804,-0.315520022,0.003898926,0.042003298,0.527023963
1751378445.527481794,-1.655703075,1.448556681,-1.363714605,-1.570675001,-3.799438036,0.970334962,0.000462613,0.000840420,-0.001302714,-0.000000509,0.002982093,0.002981172,-2.778248142,-4.091918718,-0.315520030,0.003898931,0.042003227,0.527023315
1751378445.529593229,-1.655701918,1.448558782,-1.363717862,-1.570675002,-3.799430581,0.970342415,0.000693957,0.001260593,-0.001954072,-0.000000763,0.004473132,0.004471752,-2.778246785,-4.091923961,-0.315520064,0.003898936,0.042003086,0.527021693
1751378445.531515837,-1.655700299,1.448561723,-1.363722422,-1.570675004,-3.799420143,0.970352849,0.000925346,0.001680722,-0.002605432,-0.000001017,0.005964165,0.005962324,-2.778243468,-4.091931535,-0.315520126,0.003898941,0.042002873,0.527019097
1751378445.533620119,-1.655698217,1.448565505,-1.363728284,-1.570675006,-3.799406724,0.970366265,0.001156797,0.002100793,-0.003256793,-0.000001272,0.007455187,0.007452886,-2.778238192,-4.091941438,-0.315520213,0.003898947,0.042002591,0.527015527
1751378445.535501719,-1.655695672,1.448570126,-1.363735449,-1.570675009,-3.799390323,0.970382661,0.001388323,0.002520790,-0.003908158,-0.000001526,0.008946197,0.008943435,-2.778230958,-4.091953672,-0.315520328,0.003898954,0.042002237,0.527010981
1751378445.537459612,-1.655692663,1.448575588,-1.363743917,-1.570675012,-3.799370939,0.970402038,0.001619941,0.002940700,-0.004559525,-0.000001780,0.010437192,0.010433970,-2.778221768,-4.091968235,-0.315520468,0.003898962,0.042001812,0.527005460
1751378445.539501667,-1.655689192,1.448581889,-1.363753687,-1.570675016,-3.799348574,0.970424397,0.001851665,0.003360506,-0.005210897,-0.000002034,0.011928169,0.011924487,-2.778210623,-4.091985128,-0.315520636,0.003898970,0.042001317,0.526998963
1751378445.541388988,-1.655685257,1.448589030,-1.363764760,-1.570675021,-3.799323226,0.970449736,0.002083510,0.003780196,-0.005862272,-0.000002288,0.013419126,0.013414983,-2.778197524,-4.092004350,-0.315520829,0.003898979,0.042000751,0.526991490
1751378445.543498516,-1.655685257,1.448589030,-1.363764760,-1.570675021,-3.799323226,0.970449736,0.002083510,0.003780196,-0.005862272,-0.000002288,0.013419126,0.013414983,-2.778197524,-4.092004350,-0.315520829,0.003898979,0.042000751,0.526991490
1751378445.545579195,-1.655675995,1.448605829,-1.363790815,-1.570675031,-3.799263586,0.970509358,0.002547626,0.004619164,-0.007165037,-0.000002797,0.016400970,0.016395907,-2.778165474,-4.092049784,-0.315521296,0.003898999,0.041999404,0.526973610
1751378445.547617435,-1.655670667,1.448615486,-1.363805796,-1.570675037,-3.799229293,0.970543640,0.002779927,0.005038414,-0.007816428,-0.000003051,0.017891852,0.017886328,-2.778146528,-4.092075995,-0.315521569,0.003899010,0.041998624,0.526963201
1751378445.549910069,-1.655664875,1.448625982,-1.363822080,-1.570675043,-3.799192019,0.970580903,0.003012410,0.005457487,-0.008467825,-0.000003305,0.019382703,0.019376719,-2.778125637,-4.092104534,-0.315521868,0.003899021,0.041997773,0.526951813
1751378445.551932573,-1.655658617,1.448637316,-1.363839668,-1.570675050,-3.799151763,0.970621147,0.003245090,0.005876370,-0.009119229,-0.000003558,0.020873522,0.020867077,-2.778102804,-4.092135403,-0.315522193,0.003899034,0.041996850,0.526939444
1751378445.554002523,-1.655658617,1.448637316,-1.363839668,-1.570675050,-3.799151763,0.970621147,0.003245090,0.005876370,-0.009119229,-0.000003558,0.020873522,0.020867077,-2.778102804,-4.092135403,-0.315522193,0.003899034,0.041996850,0.526939444
1751378445.555927753,-1.655651894,1.448649488,-1.363858557,-1.570675057,-3.799108525,0.970664372,0.003477983,0.006295048,-0.009770640,-0.000003812,0.022364305,0.022357400,-2.778078033,-4.092168600,-0.315522545,0.003899047,0.041995856,0.526926092
1751378445.558441162,-1.655644705,1.448662496,-1.363878750,-1.570675065,-3.799062305,0.970710577,0.003711104,0.006713506,-0.010422059,-0.000004066,0.023855050,0.023847685,-2.778051327,-4.092204126,-0.315522923,0.003899060,0.041994789,0.526911756
1751378445.564463615,-1.655637050,1.448676341,-1.363900246,-1.570675073,-3.799013105,0.970759762,0.003944467,0.007131729,-0.011073486,-0.000004320,0.025345755,0.025337930,-2.778022689,-4.092241981,-0.315523327,0.003899074,0.041993651,0.526896435
1751378445.564516306,-1.655620337,1.448706540,-1.363947145,-1.570675092,-3.798905759,0.970867075,0.004411984,0.007967413,-0.012376367,-0.000004827,0.028327034,0.028318288,-2.777959634,-4.092324673,-0.315524214,0.003899105,0.041991158,0.526862832
1751378445.566768169,-1.655611279,1.448722892,-1.363972550,-1.570675102,-3.798847614,0.970925202,0.004646167,0.008384845,-0.013027821,-0.000005080,0.029817603,0.029808396,-2.777925224,-4.092369511,-0.315524696,0.003899121,0.041989803,0.526844546
1751378445.568505526,-1.655601752,1.448740079,-1.363999257,-1.570675112,-3.798786489,0.970986308,0.004880654,0.008801983,-0.013679286,-0.000005334,0.031308120,0.031298454,-2.777888899,-4.092416677,-0.315525204,0.003899138,0.041988375,0.526825269
1751378445.569836378,-1.655601752,1.448740079,-1.363999257,-1.570675112,-3.798786489,0.970986308,0.004880654,0.008801983,-0.013679286,-0.000005334,0.031308120,0.031298454,-2.777888899,-4.092416677,-0.315525204,0.003899138,0.041988375,0.526825269
1751378445.572637081,-1.655581290,1.448776954,-1.364056580,-1.570675134,-3.798655294,0.971117462,0.005350599,0.009635322,-0.014982249,-0.000005840,0.034288993,0.034278406,-2.777810522,-4.092517989,-0.315526298,0.003899174,0.041985300,0.526783732
1751378445.573487043,-1.655570354,1.448796641,-1.364087196,-1.570675146,-3.798585226,0.971187509,0.005586088,0.010051492,-0.015633748,-0.000006093,0.035779344,0.035768296,-2.777768480,-4.092572135,-0.315526884,0.003899193,0.041983653,0.526761467
1751378445.576743841,-1.655558946,1.448817160,-1.364119115,-1.570675159,-3.798512177,0.971260535,0.005821940,0.010467311,-0.016285259,-0.000006346,0.037269633,0.037258125,-2.777724543,-4.092628607,-0.315527495,0.003899212,0.041981933,0.526738204
1751378445.579331875,-1.655547066,1.448838510,-1.364152337,-1.570675172,-3.798436147,0.971336541,0.006058172,0.010882763,-0.016936783,-0.000006599,0.038759858,0.038747890,-2.777678716,-4.092687405,-0.315528132,0.003899233,0.041980138,0.526713938
1751378445.582077742,-1.655534713,1.448860691,-1.364186862,-1.570675185,-3.798357138,0.971415527,0.006294799,0.011297834,-0.017588320,-0.000006852,0.040250017,0.040237589,-2.777631005,-4.092748529,-0.315528795,0.003899253,0.041978269,0.526688669
1751378445.582449913,-1.655521886,1.448883701,-1.364222690,-1.570675199,-3.798275147,0.971497492,0.006531835,0.011712509,-0.018239870,-0.000007104,0.041740107,0.041727219,-2.777581416,-4.092811978,-0.315529482,0.003899275,0.041976326,0.526662392
1751378445.583518982,-1.655521886,1.448883701,-1.364222690,-1.570675199,-3.798275147,0.971497492,0.006531835,0.011712509,-0.018239870,-0.000007104,0.041740107,0.041727219,-2.777581416,-4.092811978,-0.315529482,0.003899275,0.041976326,0.526662392
1751378445.585444689,-1.655508585,1.448907541,-1.364259821,-1.570675214,-3.798190177,0.971582436,0.006769296,0.012126774,-0.018891435,-0.000007357,0.043230126,0.043216777,-2.777529955,-4.092877752,-0.315530195,0.003899297,0.041974308,0.526635106
1751378445.593058825,-1.655508585,1.448907541,-1.364259821,-1.570675214,-3.798190177,0.971582436,0.006769296,0.012126774,-0.018891435,-0.000007357,0.043230126,0.043216777,-2.777529955,-4.092877752,-0.315530195,0.003899297,0.041974308,0.526635106
1751378445.593405008,-1.655450618,1.449011170,-1.364421378,-1.570675277,-3.797820498,0.971952001,0.007723691,0.013779434,-0.021497845,-0.000008365,0.049189430,0.049174240,-2.777305529,-4.093164091,-0.315533300,0.003899392,0.041965485,0.526515818
1751378445.595747948,-1.655434931,1.449039141,-1.364465026,-1.570675293,-3.797720630,0.972051838,0.007963503,0.014191426,-0.022149488,-0.000008617,0.050679050,0.050663399,-2.777244811,-4.093241484,-0.315534138,0.003899417,0.041963090,0.526483445
1751378445.597714663,-1.655418764,1.449067936,-1.364509976,-1.570675311,-3.797617782,0.972154654,0.008203831,0.014602920,-0.022801148,-0.000008868,0.052168582,0.052152472,-2.777182265,-4.093321200,-0.315535001,0.003899443,0.041960618,0.526450046
1751378445.599660397,-1.655402115,1.449097553,-1.364556230,-1.570675329,-3.797511955,0.972260448,0.008444689,0.015013900,-0.023452825,-0.000009120,0.053658024,0.053641453,-2.777117897,-4.093403238,-0.315535889,0.003899470,0.041958069,0.526415617
1751378445.601523399,-1.655384985,1.449127991,-1.364603788,-1.570675347,-3.797403150,0.972369220,0.008686093,0.015424353,-0.024104519,-0.000009371,0.055147373,0.055130342,-2.777051717,-4.093487597,-0.315536802,0.003899497,0.041955443,0.526380156
1751378445.603591681,-1.655367371,1.449159250,-1.364652648,-1.570675366,-3.797291366,0.972480969,0.008928058,0.015834263,-0.024756233,-0.000009622,0.056636626,0.056619134,-2.776983730,-4.093574278,-0.315537738,0.003899525,0.041952739,0.526343659
1751378445.605498075,-1.655349272,1.449191328,-1.364702812,-1.570675386,-3.797176604,0.972595696,0.009170599,0.016243616,-0.025407965,-0.000009873,0.058125780,0.058107828,-2.776913948,-4.093663279,-0.315538699,0.003899553,0.041949957,0.526306122
1751378445.607667685,-1.655330688,1.449224224,-1.364754280,-1.570675406,-3.797058863,0.972713401,0.009413732,0.016652397,-0.026059716,-0.000010124,0.059614832,0.059596420,-2.776842377,-4.093754601,-0.315539685,0.003899582,0.041947097,0.526267542
1751378445.609428644,-1.655311617,1.449257937,-1.364807051,-1.570675426,-3.796938144,0.972834082,0.009657470,0.017060592,-0.026711486,-0.000010374,0.061103780,0.061084908,-2.776769029,-4.093848243,-0.315540694,0.003899612,0.041944158,0.526227915
1751378445.611465693,-1.655292058,1.449292466,-1.364861126,-1.570675447,-3.796814448,0.972957740,0.009901830,0.017468186,-0.027363277,-0.000010624,0.062592621,0.062573288,-2.776693911,-4.093944203,-0.315541727,0.003899643,0.041941139,0.526187239
1751378445.613445520,-1.655272009,1.449327809,-1.364916504,-1.570675469,-3.796687774,0.973084375,0.010146826,0.017875163,-0.028015088,-0.000010875,0.064081352,0.064061559,-2.776617032,-4.094042483,-0.315542784,0.003899673,0.041938042,0.526145508
1751378445.615486383,-1.655251470,1.449363966,-1.364973186,-1.570675491,-3.796558123,0.973213986,0.010392474,0.018281511,-0.028666920,-0.000011124,0.065569971,0.065549717,-2.776538404,-4.094143081,-0.315543865,0.003899705,0.041934863,0.526102718
1751378445.617356777,-1.655230439,1.449400935,-1.365031172,-1.570675513,-3.796425494,0.973346574,0.010638789,0.018687213,-0.029318774,-0.000011374,0.067058473,0.067037759,-2.776458036,-4.094245996,-0.315544969,0.003899737,0.041931605,0.526058867
1751378445.619336843,-1.655208914,1.449438714,-1.365090462,-1.570675536,-3.796289889,0.973482137,0.010885785,0.019092255,-0.029970649,-0.000011624,0.068546857,0.068525683,-2.776375937,-4.094351229,-0.315546096,0.003899770,0.041928265,0.526013950
1751378445.621340275,-1.655186895,1.449477303,-1.365151055,-1.570675560,-3.796151307,0.973620676,0.011133478,0.019496623,-0.030622546,-0.000011873,0.070035120,0.070013485,-2.776292119,-4.094458777,-0.315547247,0.003899803,0.041924844,0.525967962
1751378445.623347759,-1.655164380,1.449516700,-1.365212952,-1.570675584,-3.796009748,0.973762191,0.011381882,0.019900302,-0.031274466,-0.000012122,0.071523258,0.071501163,-2.776206591,-4.094568642,-0.315548420,0.003899837,0.041921341,0.525920899
1751378445.625496864,-1.655164380,1.449516700,-1.365212952,-1.570675584,-3.796009748,0.973762191,0.011381882,0.019900302,-0.031274466,-0.000012122,0.071523258,0.071501163,-2.776206591,-4.094568642,-0.315548420,0.003899837,0.041921341,0.525920899
1751378445.627351284,-1.655141367,1.449556904,-1.365276153,-1.570675608,-3.795865214,0.973906681,0.011631014,0.020303277,-0.031926409,-0.000012371,0.073011269,0.072988714,-2.776119365,-4.094680823,-0.315549617,0.003899872,0.041917756,0.525872758
1751378445.629391909,-1.655117855,1.449597913,-1.365340657,-1.570675633,-3.795717703,0.974054146,0.011880887,0.020705534,-0.032578374,-0.000012620,0.074499149,0.074476134,-2.776030453,-4.094795318,-0.315550836,0.003899907,0.041914088,0.525823533
1751378445.638043404,-1.655093843,1.449639726,-1.365406466,-1.570675659,-3.795567217,0.974204585,0.012131518,0.021107057,-0.033230364,-0.000012868,0.075986897,0.075963421,-2.775939864,-4.094912127,-0.315552078,0.003899942,0.041910336,0.525773221
1751378445.638098240,-1.655093843,1.449639726,-1.365406466,-1.570675659,-3.795567217,0.974204585,0.012131518,0.021107057,-0.033230364,-0.000012868,0.075986897,0.075963421,-2.775939864,-4.094912127,-0.315552078,0.003899942,0.041910336,0.525773221
1751378445.638115168,-1.655044311,1.449725757,-1.365541996,-1.570675711,-3.795257319,0.974514388,0.012635110,0.021907846,-0.034534416,-0.000013364,0.078961980,0.078937584,-2.775753706,-4.095152684,-0.315554629,0.003900015,0.041902580,0.525669313
1751378445.639689207,-1.655018788,1.449769972,-1.365611717,-1.570675738,-3.795097908,0.974673750,0.012888101,0.022307082,-0.035186478,-0.000013612,0.080449310,0.080424454,-2.775658160,-4.095276432,-0.315555938,0.003900053,0.041898575,0.525615709
1751378445.639914036,-1.654992758,1.449814984,-1.365682742,-1.570675766,-3.794935522,0.974836085,0.013141910,0.022705526,-0.035838566,-0.000013859,0.081936495,0.081911178,-2.775560987,-4.095402491,-0.315557268,0.003900090,0.041894484,0.525560997
1751378445.641528606,-1.654966220,1.449860793,-1.365755071,-1.570675794,-3.794770162,0.975001394,0.013396551,0.023103164,-0.036490680,-0.000014106,0.083423532,0.083397755,-2.775462197,-4.095530861,-0.315558620,0.003900129,0.041890307,0.525505174
1751378445.643524885,-1.654939171,1.449907396,-1.365828704,-1.570675822,-3.794601828,0.975169676,0.013652039,0.023499981,-0.037142819,-0.000014353,0.084910417,0.084884179,-2.775361805,-4.095661540,-0.315559994,0.003900168,0.041886044,0.525448233
1751378445.645409584,-1.654911611,1.449954792,-1.365903642,-1.570675851,-3.794430521,0.975340931,0.013908389,0.023895962,-0.037794984,-0.000014600,0.086397148,0.086370450,-2.775259823,-4.095794530,-0.315561389,0.003900208,0.041881693,0.525390170
1751378445.647577047,-1.654883537,1.450002980,-1.365979884,-1.570675881,-3.794256240,0.975515158,0.014165616,0.024291093,-0.038447176,-0.000014846,0.087883721,0.087856563,-2.775156263,-4.095929828,-0.315562805,0.003900248,0.041877255,0.525330981
1751378445.649420738,-1.654854948,1.450051956,-1.366057431,-1.570675911,-3.794078986,0.975692357,0.014423736,0.024685358,-0.039099395,-0.000015092,0.089370133,0.089342515,-2.775051140,-4.096067434,-0.315564242,0.003900288,0.041872728,0.525270658
1751378445.651401997,-1.654825841,1.450101721,-1.366136282,-1.570675941,-3.793898759,0.975872528,0.014682762,0.025078744,-0.039751641,-0.000015338,0.090856382,0.090828303,-2.774944468,-4.096207347,-0.315565700,0.003900329,0.041868112,0.525209197
1751378445.657358170,-1.654796216,1.450152271,-1.366216437,-1.570675972,-3.793715560,0.976055670,0.014942711,0.025471236,-0.040403914,-0.000015584,0.092342464,0.092313925,-2.774836260,-4.096349566,-0.315567178,0.003900371,0.041863406,0.525146592
1751378445.657504559,-1.654766070,1.450203605,-1.366297898,-1.570676003,-3.793529389,0.976241784,0.015203597,0.025862818,-0.041056215,-0.000015829,0.093828375,0.093799376,-2.774726530,-4.096494091,-0.315568677,0.003900413,0.041858610,0.525082839
1751378445.659735441,-1.654704208,1.450308618,-1.366464732,-1.570676068,-3.793148133,0.976622922,0.015728239,0.026643196,-0.042360901,-0.000016318,0.096799674,0.096769754,-2.774502561,-4.096790056,-0.315571735,0.003900499,0.041848745,0.524951861
1751378445.661455154,-1.654672487,1.450362293,-1.366550106,-1.570676100,-3.792953048,0.976817947,0.015992026,0.027031963,-0.043013287,-0.000016563,0.098285055,0.098254675,-2.774388353,-4.096941493,-0.315573293,0.003900543,0.041843675,0.524884624
1751378445.663428307,-1.654640239,1.450416745,-1.366636785,-1.570676134,-3.792754993,0.977015941,0.016256810,0.027419762,-0.043665702,-0.000016807,0.099770253,0.099739412,-2.774272681,-4.097095234,-0.315574871,0.003900587,0.041838511,0.524816216
1751378445.665337563,-1.654607460,1.450471972,-1.366724769,-1.570676168,-3.792553968,0.977216904,0.016522605,0.027806579,-0.044318146,-0.000017050,0.101255264,0.101223963,-2.774155562,-4.097251275,-0.315576468,0.003900632,0.041833254,0.524746629
1751378445.667568684,-1.654574148,1.450527971,-1.366814058,-1.570676202,-3.792349972,0.977420836,0.016789428,0.028192399,-0.044970619,-0.000017294,0.102740085,0.102708324,-2.774037010,-4.097409618,-0.315578084,0.003900677,0.041827903,0.524675857
1751378445.669372082,-1.654540301,1.450584741,-1.366904651,-1.570676237,-3.792143007,0.977627737,0.017057292,0.028577206,-0.045623122,-0.000017537,0.104224713,0.104192492,-2.773917042,-4.097570260,-0.315579719,0.003900723,0.041822457,0.524603895
1751378445.671242952,-1.654505918,1.450642279,-1.366996550,-1.570676272,-3.791933073,0.977837606,0.017326212,0.028960988,-0.046275655,-0.000017780,0.105709145,0.105676463,-2.773795673,-4.097733202,-0.315581372,0.003900769,0.041816915,0.524530735
1751378445.673262596,-1.654470996,1.450700584,-1.367089754,-1.570676308,-3.791720171,0.978050443,0.017596204,0.029343728,-0.046928218,-0.000018022,0.107193376,0.107160234,-2.773672921,-4.097898441,-0.315583044,0.003900816,0.041811278,0.524456372
1751378445.675351143,-1.654435532,1.450759653,-1.367184263,-1.570676344,-3.791504300,0.978266247,0.017867282,0.029725412,-0.047580811,-0.000018264,0.108677403,0.108643801,-2.773548800,-4.098065979,-0.315584733,0.003900863,0.041805542,0.524380800
1751378445.677234411,-1.654399526,1.450819485,-1.367280077,-1.570676381,-3.791285461,0.978485018,0.018139462,0.030106026,-0.048233435,-0.000018506,0.110161224,0.110127161,-2.773423328,-4.098235813,-0.315586440,0.003900910,0.041799710,0.524304010
1751378445.679290533,-1.654362974,1.450880077,-1.367377197,-1.570676418,-3.791063655,0.978706755,0.018412758,0.030485555,-0.048886089,-0.000018747,0.111644834,0.111610311,-2.773296522,-4.098407942,-0.315588165,0.003900958,0.041793778,0.524225998
1751378445.681279898,-1.654362974,1.450880077,-1.367377197,-1.570676418,-3.791063655,0.978706755,0.018412758,0.030485555,-0.048886089,-0.000018747,0.111644834,0.111610311,-2.773296522,-4.098407942,-0.315588165,0.003900958,0.041793778,0.524225998
1751378445.683222771,-1.654325874,1.450941426,-1.367475622,-1.570676456,-3.790838882,0.978931459,0.018687185,0.030863984,-0.049538774,-0.000018988,0.113128229,0.113093246,-2.773168399,-4.098582365,-0.315589907,0.003901007,0.041787748,0.524146755
1751378445.685221434,-1.654288224,1.451003532,-1.367575352,-1.570676494,-3.790611143,0.979159128,0.018962758,0.031241299,-0.050191491,-0.000019229,0.114611408,0.114575964,-2.773038976,-4.098759083,-0.315591666,0.003901055,0.041781617,0.524066277
1751378445.687201500,-1.654250022,1.451066391,-1.367676388,-1.570676533,-3.790380437,0.979389763,0.019239491,0.031617484,-0.050844239,-0.000019469,0.116094365,0.116058461,-2.772908270,-4.098938093,-0.315593442,0.003901105,0.041775386,0.523984555
1751378445.689317942,-1.654211265,1.451130001,-1.367778729,-1.570676572,-3.790146765,0.979623362,0.019517400,0.031992526,-0.051497018,-0.000019709,0.117577097,0.117540733,-2.772776301,-4.099119395,-0.315595234,0.003901154,0.041769053,0.523901582
1751378445.691261292,-1.654171952,1.451194360,-1.367882376,-1.570676612,-3.789910128,0.979859926,0.019796500,0.032366409,-0.052149829,-0.000019949,0.119059601,0.119022776,-2.772643086,-4.099302988,-0.315597043,0.003901205,0.041762617,0.523817352
1751378445.696204662,-1.654132079,1.451259466,-1.367987328,-1.570676652,-3.789670527,0.980099453,0.020076804,0.032739119,-0.052802671,-0.000020188,0.120541872,0.120504587,-2.772508643,-4.099488870,-0.315598867,0.003901255,0.041756079,0.523731857
1751378445.696275234,-1.654132079,1.451259466,-1.367987328,-1.570676652,-3.789670527,0.980099453,0.020076804,0.032739119,-0.052802671,-0.000020188,0.120541872,0.120504587,-2.772508643,-4.099488870,-0.315598867,0.003901255,0.041756079,0.523731857
1751378445.700124502,-1.654050644,1.451391908,-1.368201150,-1.570676734,-3.789182431,0.980587397,0.020641089,0.033480960,-0.054108452,-0.000020665,0.123505704,0.123467499,-2.772236148,-4.099867501,-0.315602562,0.003901357,0.041742689,0.523557046
1751378445.700301170,-1.654009078,1.451459239,-1.368310020,-1.570676775,-3.788933938,0.980835814,0.020925098,0.033850063,-0.054761391,-0.000020903,0.124987257,0.124948592,-2.772098134,-4.100060247,-0.315604432,0.003901409,0.041735836,0.523467715
1751378445.701842070,-1.653966943,1.451527307,-1.368420196,-1.570676817,-3.788682483,0.981087192,0.021210372,0.034217933,-0.055414361,-0.000021141,0.126468563,0.126429437,-2.771958968,-4.100255279,-0.315606316,0.003901461,0.041728877,0.523377089
1751378445.704313278,-1.653924236,1.451596110,-1.368531678,-1.570676860,-3.788428064,0.981341531,0.021496924,0.034584557,-0.056067364,-0.000021378,0.127949619,0.127910032,-2.771818669,-4.100452595,-0.315608215,0.003901514,0.041721810,0.523285163
1751378445.706371546,-1.653880955,1.451665645,-1.368644465,-1.570676903,-3.788170684,0.981598832,0.021784771,0.034949919,-0.056720400,-0.000021615,0.129430419,0.129390372,-2.771677258,-4.100652195,-0.315610128,0.003901566,0.041714636,0.523191928
1751378445.709012032,-1.653837096,1.451735909,-1.368758559,-1.570676946,-3.787910343,0.981859092,0.022073927,0.035314006,-0.057373468,-0.000021851,0.130910961,0.130870454,-2.771534753,-4.100854078,-0.315612055,0.003901620,0.041707352,0.523097376
1751378445.709522724,-1.653792658,1.451806900,-1.368873959,-1.570676990,-3.787647041,0.982122313,0.022364406,0.035676802,-0.058026568,-0.000022087,0.132391240,0.132350273,-2.771391177,-4.101058243,-0.315613995,0.003901673,0.041699959,0.523001499
1751378445.711392879,-1.653747638,1.451878615,-1.368990666,-1.570677035,-3.787380778,0.982388493,0.022656223,0.036038293,-0.058679701,-0.000022323,0.133871254,0.133829826,-2.771246548,-4.101264687,-0.315615949,0.003901727,0.041692454,0.522904291
1751378445.713300228,-1.653702032,1.451951052,-1.369108678,-1.570677079,-3.787111556,0.982657632,0.022949393,0.036398464,-0.059332867,-0.000022558,0.135350996,0.135309108,-2.771100887,-4.101473412,-0.315617915,0.003901781,0.041684838,0.522805743
1751378445.715260267,-1.653655839,1.452024208,-1.369227997,-1.570677125,-3.786839374,0.982929730,0.023243931,0.036757300,-0.059986065,-0.000022792,0.136830465,0.136788116,-2.770954217,-4.101684414,-0.315619894,0.003901836,0.041677110,0.522705846
1751378445.720122576,-1.653609056,1.452098080,-1.369348622,-1.570677171,-3.786564234,0.983204785,0.023539851,0.037114787,-0.060639295,-0.000023027,0.138309655,0.138266846,-2.770806556,-4.101897694,-0.315621884,0.003901891,0.041669268,0.522604594
1751378445.720664024,-1.653609056,1.452098080,-1.369348622,-1.570677171,-3.786564234,0.983204785,0.023539851,0.037114787,-0.060639295,-0.000023027,0.138309655,0.138266846,-2.770806556,-4.101897694,-0.315621884,0.003901891,0.041669268,0.522604594
1751378445.721347094,-1.653513706,1.452247963,-1.369593793,-1.570677264,-3.786005080,0.983763766,0.024135896,0.037825654,-0.061945855,-0.000023494,0.141267183,0.141223454,-2.770508354,-4.102331079,-0.315625900,0.003902001,0.041653240,0.522397987
1751378445.723334312,-1.653465134,1.452323968,-1.369718338,-1.570677311,-3.785721067,0.984047690,0.024436051,0.038179005,-0.062599184,-0.000023727,0.142745514,0.142701324,-2.770357855,-4.102551183,-0.315627925,0.003902057,0.041645053,0.522292617
1751378445.725361586,-1.653415961,1.452400678,-1.369844189,-1.570677359,-3.785434098,0.984334571,0.024737647,0.038530948,-0.063252545,-0.000023959,0.144223549,0.144178900,-2.770206455,-4.102773560,-0.315629960,0.003902113,0.041636748,0.522185858
1751378445.727311134,-1.653366183,1.452478091,-1.369971348,-1.570677407,-3.785144173,0.984624406,0.025040699,0.038881468,-0.063905938,-0.000024191,0.145701286,0.145656176,-2.770054174,-4.102998208,-0.315632006,0.003902169,0.041628325,0.522077701
1751378445.729285717,-1.653315797,1.452556203,-1.370099813,-1.570677455,-3.784851293,0.984917195,0.025345221,0.039230550,-0.064559364,-0.000024423,0.147178719,0.147133149,-2.769901036,-4.103225126,-0.315634061,0.003902226,0.041619783,0.521968139
1751378445.731328964,-1.653264801,1.452635012,-1.370229585,-1.570677504,-3.784555459,0.985212938,0.025651227,0.039578180,-0.065212823,-0.000024654,0.148655845,0.148609814,-2.769747065,-4.103454312,-0.315636127,0.003902283,0.041611121,0.521857161
1751378445.733422995,-1.653213191,1.452714515,-1.370360665,-1.570677554,-3.784256670,0.985511634,0.025958734,0.039924344,-0.065866314,-0.000024884,0.150132659,0.150086168,-2.769592281,-4.103685767,-0.315638201,0.003902340,0.041602338,0.521744761
1751378445.735466719,-1.653160965,1.452794708,-1.370493051,-1.570677604,-3.783954928,0.985813283,0.026267754,0.040269026,-0.066519836,-0.000025114,0.151609157,0.151562206,-2.769436710,-4.103919488,-0.315640284,0.003902397,0.041593433,0.521630928
1751378445.737339020,-1.653108119,1.452875590,-1.370626744,-1.570677654,-3.783650234,0.986117883,0.026578303,0.040612212,-0.067173391,-0.000025344,0.153085335,0.153037923,-2.769280375,-4.104155474,-0.315642376,0.003902455,0.041584405,0.521515654
1751378445.739454269,-1.653108119,1.452875590,-1.370626744,-1.570677654,-3.783650234,0.986117883,0.026578303,0.040612212,-0.067173391,-0.000025344,0.153085335,0.153037923,-2.769280375,-4.104155474,-0.315642376,0.003902455,0.041584405,0.521515654
1751378445.741319180,-1.653054651,1.452957156,-1.370761744,-1.570677705,-3.783342587,0.986425434,0.026890395,0.040953887,-0.067826978,-0.000025573,0.154561187,0.154513315,-2.769123299,-4.104393725,-0.315644475,0.003902512,0.041575253,0.521398931
1751378445.743407011,-1.653000557,1.453039404,-1.370898052,-1.570677757,-3.783031989,0.986735936,0.027204045,0.041294036,-0.068480597,-0.000025802,0.156036711,0.155988378,-2.768965507,-4.104634238,-0.315646582,0.003902570,0.041565976,0.521280748
1751378445.745391130,-1.652945833,1.453122331,-1.371035667,-1.570677809,-3.782718441,0.987049387,0.027519267,0.041632645,-0.069134247,-0.000026030,0.157511900,0.157463108,-2.768807022,-4.104877012,-0.315648697,0.003902628,0.041556573,0.521161098
1751378445.747318268,-1.652890478,1.453205934,-1.371174589,-1.570677861,-3.782401942,0.987365788,0.027836076,0.041969699,-0.069787928,-0.000026258,0.158986751,0.158937499,-2.768647870,-4.105122047,-0.315650818,0.003902687,0.041547044,0.521039972
1751378445.749598503,-1.652834488,1.453290209,-1.371314818,-1.570677914,-3.782082494,0.987685137,0.028154486,0.042305184,-0.070441641,-0.000026485,0.160461260,0.160411547,-2.768488075,-4.105369341,-0.315652945,0.003902745,0.041537386,0.520917359
1751378445.753864288,-1.652777859,1.453375154,-1.371456355,-1.570677967,-3.781760097,0.988007434,0.028474512,0.042639083,-0.071095385,-0.000026711,0.161935421,0.161885247,-2.768327663,-4.105618892,-0.315655078,0.003902804,0.041527599,0.520793251
1751378445.753933430,-1.652720589,1.453460764,-1.371599200,-1.570678020,-3.781434752,0.988332678,0.028796169,0.042971384,-0.071749160,-0.000026937,0.163409230,0.163358596,-2.768166658,-4.105870699,-0.315657217,0.003902863,0.041517682,0.520667638
1751378445.757737398,-1.652604110,1.453633972,-1.371888812,-1.570678129,-3.780775222,0.988992004,0.029444430,0.043631130,-0.073056800,-0.000027388,0.166355773,0.166304218,-2.767842973,-4.106381077,-0.315661509,0.003902981,0.041497452,0.520411862
1751378445.757790565,-1.652604110,1.453633972,-1.371888812,-1.570678129,-3.780775222,0.988992004,0.029444430,0.043631130,-0.073056800,-0.000027388,0.166355773,0.166304218,-2.767842973,-4.106381077,-0.315661509,0.003902981,0.041497452,0.520411862
1751378445.759937048,-1.652544895,1.453721562,-1.372035579,-1.570678184,-3.780441037,0.989326085,0.029771065,0.043958545,-0.073710666,-0.000027612,0.167828497,0.167776483,-2.767680344,-4.106639646,-0.315663662,0.003903040,0.041487138,0.520281679
1751378445.765027523,-1.652485025,1.453809805,-1.372183655,-1.570678240,-3.780103908,0.989663110,0.030099387,0.044284303,-0.074364561,-0.000027836,0.169300851,0.169248376,-2.767517227,-4.106900465,-0.315665818,0.003903100,0.041476690,0.520149954
1751378445.765098333,-1.652485025,1.453809805,-1.372183655,-1.570678240,-3.780103908,0.989663110,0.030099387,0.044284303,-0.074364561,-0.000027836,0.169300851,0.169248376,-2.767517227,-4.106900465,-0.315665818,0.003903100,0.041476690,0.520149954
1751378445.765494347,-1.652485025,1.453809805,-1.372183655,-1.570678240,-3.780103908,0.989663110,0.030099387,0.044284303,-0.074364561,-0.000027836,0.169300851,0.169248376,-2.767517227,-4.106900465,-0.315665818,0.003903100,0.041476690,0.520149954
1751378445.767449856,-1.652424496,1.453898698,-1.372333038,-1.570678295,-3.779763834,0.990003078,0.030429411,0.044608388,-0.075018486,-0.000028060,0.170772829,0.170719894,-2.767353647,-4.107163533,-0.315667978,0.003903159,0.041466106,0.520016677
1751378445.769392967,-1.652363306,1.453988237,-1.372483728,-1.570678352,-3.779420817,0.990345989,0.030761153,0.044930785,-0.075672440,-0.000028282,0.172244427,0.172191031,-2.767189631,-4.107428850,-0.315670140,0.003903219,0.041455385,0.519881838
1751378445.771344662,-1.652301450,1.454078420,-1.372635727,-1.570678409,-3.779074857,0.990691842,0.031094626,0.045251481,-0.076326423,-0.000028505,0.173715639,0.173661783,-2.767025207,-4.107696413,-0.315672304,0.003903279,0.041444527,0.519745427
1751378445.775055170,-1.652238926,1.454169242,-1.372789034,-1.570678466,-3.778725955,0.991040636,0.031429845,0.045570459,-0.076980434,-0.000028726,0.175186460,0.175132144,-2.766860401,-4.107966222,-0.315674471,0.003903339,0.041433529,0.519607435
1751378445.776137114,-1.652175730,1.454260700,-1.372943649,-1.570678523,-3.778374111,0.991392370,0.031766823,0.045887707,-0.077634473,-0.000028948,0.176656887,0.176602110,-2.766695241,-4.108238274,-0.315676639,0.003903398,0.041422392,0.519467851
1751378445.777689695,-1.652111858,1.454352791,-1.373099572,-1.570678582,-3.778019327,0.991747044,0.032105576,0.046203208,-0.078288540,-0.000029168,0.178126913,0.178071676,-2.766529755,-4.108512569,-0.315678807,0.003903458,0.041411114,0.519326667
1751378445.779478550,-1.652047306,1.454445512,-1.373256803,-1.570678640,-3.777661604,0.992104657,0.032446118,0.046516948,-0.078942634,-0.000029388,0.179596533,0.179540836,-2.766363970,-4.108789105,-0.315680976,0.003903519,0.041399693,0.519183871
1751378445.781509876,-1.651982072,1.454538858,-1.373415343,-1.570678699,-3.777300942,0.992465207,0.032788462,0.046828913,-0.079596756,-0.000029607,0.181065743,0.181009586,-2.766197915,-4.109067881,-0.315683145,0.003903578,0.041388130,0.519039453
1751378445.783408403,-1.651916151,1.454632826,-1.373575190,-1.570678759,-3.776937341,0.992828695,0.033132624,0.047139087,-0.080250903,-0.000029826,0.182534538,0.182477920,-2.766031618,-4.109348894,-0.315685313,0.003903638,0.041376421,0.518893404
1751378445.785570621,-1.651916151,1.454632826,-1.373575190,-1.570678759,-3.776937341,0.992828695,0.033132624,0.047139087,-0.080250903,-0.000029826,0.182534538,0.182477920,-2.766031618,-4.109348894,-0.315685313,0.003903638,0.041376421,0.518893404
1751378445.787423372,-1.651849540,1.454727413,-1.373736346,-1.570678818,-3.776570804,0.993195119,0.033478617,0.047447456,-0.080905077,-0.000030044,0.184002911,0.183945833,-2.765865108,-4.109632144,-0.315687481,0.003903699,0.041364567,0.518745713
1751378445.789452791,-1.651782235,1.454822615,-1.373898811,-1.570678879,-3.776201330,0.993564478,0.033826456,0.047754005,-0.081559276,-0.000030262,0.185470859,0.185413321,-2.765698413,-4.109917630,-0.315689646,0.003903759,0.041352566,0.518596371
1751378445.791450977,-1.651714233,1.454918428,-1.374062583,-1.570678939,-3.775828921,0.993936772,0.034176155,0.048058720,-0.082213500,-0.000030479,0.186938375,0.186880377,-2.765531565,-4.110205349,-0.315691809,0.003903819,0.041340417,0.518445365
1751378445.793326616,-1.651645530,1.455014849,-1.374227665,-1.570679001,-3.775453577,0.994311999,0.034527728,0.048361586,-0.082867749,-0.000030695,0.188405455,0.188346996,-2.765364590,-4.110495300,-0.315693969,0.003903879,0.041328119,0.518292687
1751378445.795375586,-1.651576121,1.455111873,-1.374394054,-1.570679062,-3.775075299,0.994690159,0.034881190,0.048662588,-0.083522021,-0.000030911,0.189872093,0.189813174,-2.765197519,-4.110787482,-0.315696127,0.003903939,0.041315670,0.518138326
1751378445.797403097,-1.651506004,1.455209498,-1.374561753,-1.570679124,-3.774694089,0.995071251,0.035236554,0.048961711,-0.084176317,-0.000031126,0.191338283,0.191278904,-2.765030383,-4.111081892,-0.315698280,0.003903999,0.041303070,0.517982271
1751378445.799647093,-1.651435174,1.455307719,-1.374730760,-1.570679187,-3.774309946,0.995455275,0.035593836,0.049258940,-0.084830636,-0.000031341,0.192804021,0.192744181,-2.764863210,-4.111378530,-0.315700429,0.003904059,0.041290316,0.517824512
1751378445.801390409,-1.651363627,1.455406532,-1.374901075,-1.570679250,-3.773922873,0.995842228,0.035953048,0.049554262,-0.085484978,-0.000031555,0.194269301,0.194209001,-2.764696032,-4.111677394,-0.315702573,0.003904119,0.041277409,0.517665037
1751378445.803469419,-1.651291360,1.455505934,-1.375072700,-1.570679313,-3.773532869,0.996232110,0.036314205,0.049847660,-0.086139341,-0.000031768,0.195734117,0.195673356,-2.764528880,-4.111978483,-0.315704712,0.003904179,0.041264347,0.517503837
1751378445.805390596,-1.651218369,1.455605922,-1.375245633,-1.570679377,-3.773139937,0.996624921,0.036677321,0.050139121,-0.086793725,-0.000031981,0.197198464,0.197137243,-2.764361783,-4.112281795,-0.315706844,0.003904238,0.041251128,0.517340901
1751378445.807592154,-1.651144649,1.455706490,-1.375419875,-1.570679441,-3.772744076,0.997020659,0.037042411,0.050428629,-0.087448129,-0.000032193,0.198662336,0.198600654,-2.764194774,-4.112587327,-0.315708970,0.003904298,0.041237752,0.517176218
1751378445.812333107,-1.651144649,1.455706490,-1.375419875,-1.570679441,-3.772744076,0.997020659,0.037042411,0.050428629,-0.087448129,-0.000032193,0.198662336,0.198600654,-2.764194774,-4.112587327,-0.315708970,0.003904298,0.041237752,0.517176218
1751378445.813625813,-1.651070198,1.455807635,-1.375595425,-1.570679505,-3.772345288,0.997419323,0.037409487,0.050716171,-0.088102553,-0.000032404,0.200125727,0.200063586,-2.764027884,-4.112895079,-0.315711088,0.003904358,0.041224216,0.517009776
1751378445.815762997,-1.650995010,1.455909353,-1.375772285,-1.570679571,-3.771943573,0.997820913,0.037778566,0.051001730,-0.088756996,-0.000032615,0.201588632,0.201526030,-2.763861144,-4.113205049,-0.315713199,0.003904417,0.041210521,0.516841566
1751378445.818688631,-1.650842410,1.456114493,-1.376129931,-1.570679702,-3.771131369,0.998632865,0.038522783,0.051566844,-0.090065937,-0.000033034,0.204512961,0.204449439,-2.763528244,-4.113831637,-0.315717395,0.003904535,0.041182644,0.516499795
1751378445.820099592,-1.650764990,1.456217906,-1.376310717,-1.570679768,-3.770720882,0.999043225,0.038897950,0.051846370,-0.090720432,-0.000033243,0.205974373,0.205910391,-2.763362147,-4.114148252,-0.315719478,0.003904594,0.041168460,0.516326212
1751378445.823248863,-1.650764990,1.456217906,-1.376310717,-1.570679768,-3.770720882,0.999043225,0.038897950,0.051846370,-0.090720432,-0.000033243,0.205974373,0.205910391,-2.763362147,-4.114148252,-0.315719478,0.003904594,0.041168460,0.516326212
1751378445.825588942,-1.650607888,1.456426400,-1.376676217,-1.570679902,-3.769891141,0.999872708,0.039654469,0.052399283,-0.092029472,-0.000033658,0.208895664,0.208830760,-2.763030827,-4.114788114,-0.315723614,0.003904712,0.041139596,0.515973595
1751378445.826009512,-1.650607888,1.456426400,-1.376676217,-1.570679902,-3.769891141,0.999872708,0.039654469,0.052399283,-0.092029472,-0.000033658,0.208895664,0.208830760,-2.763030827,-4.114788114,-0.315723614,0.003904712,0.041139596,0.515973595
1751378445.827324867,-1.650528198,1.456531473,-1.376860930,-1.570679969,-3.769471890,1.000291829,0.040035850,0.052672641,-0.092684013,-0.000033865,0.210355530,0.210290166,-2.762865668,-4.115111357,-0.315725665,0.003904770,0.041124913,0.515794540
1751378445.833330393,-1.650447743,1.456637090,-1.377046953,-1.570680037,-3.769049719,1.000713868,0.040419331,0.052943914,-0.093338568,-0.000034070,0.211814869,0.211749045,-2.762700888,-4.115436808,-0.315727704,0.003904828,0.041110060,0.515613638
1751378445.833591223,-1.650447743,1.456637090,-1.377046953,-1.570680037,-3.769049719,1.000713868,0.040419331,0.052943914,-0.093338568,-0.000034070,0.211814869,0.211749045,-2.762700888,-4.115436808,-0.315727704,0.003904828,0.041110060,0.515613638
1751378445.835647583,-1.650366519,1.456743247,-1.377234285,-1.570680106,-3.768624631,1.001138824,0.040804924,0.053213087,-0.093993136,-0.000034276,0.213273675,0.213207391,-2.762536521,-4.115764463,-0.315729730,0.003904886,0.041095038,0.515430878
1751378445.837547302,-1.650284522,1.456849941,-1.377422925,-1.570680174,-3.768196625,1.001566697,0.041192645,0.053480146,-0.094647716,-0.000034480,0.214731941,0.214665197,-2.762372601,-4.116094321,-0.315731742,0.003904944,0.041079843,0.515246249
1751378445.839384794,-1.650201747,1.456957166,-1.377612875,-1.570680244,-3.767765703,1.001997485,0.041582506,0.053745075,-0.095302307,-0.000034684,0.216189662,0.216122457,-2.762209161,-4.116426380,-0.315733741,0.003905001,0.041064476,0.515059738
1751378445.841495275,-1.650118190,1.457064919,-1.377804135,-1.570680313,-3.767331867,1.002431186,0.041974523,0.054007860,-0.095956908,-0.000034887,0.217646831,0.217579166,-2.762046236,-4.116760639,-0.315735724,0.003905059,0.041048934,0.514871336
1751378445.843417645,-1.650033847,1.457173196,-1.377996703,-1.570680383,-3.766895116,1.002867801,0.042368708,0.054268486,-0.096611518,-0.000035089,0.219103442,0.219035317,-2.761883862,-4.117097095,-0.315737692,0.003905116,0.041033217,0.514681031
1751378445.845413685,-1.649948714,1.457281992,-1.378190581,-1.570680454,-3.766455453,1.003307327,0.042765075,0.054526937,-0.097266135,-0.000035291,0.220559489,0.220490904,-2.761722071,-4.117435748,-0.315739644,0.003905172,0.041017323,0.514488810
1751378445.847494125,-1.649862786,1.457391302,-1.378385768,-1.570680524,-3.766012879,1.003749764,0.043163639,0.054783201,-0.097920760,-0.000035492,0.222014966,0.221945920,-2.761560901,-4.117776595,-0.315741579,0.003905229,0.041001251,0.514294663
1751378445.849593878,-1.649776058,1.457501123,-1.378582264,-1.570680596,-3.765567394,1.004195111,0.043564412,0.055037261,-0.098575391,-0.000035692,0.223469865,0.223400359,-2.761400386,-4.118119634,-0.315743497,0.003905285,0.040984999,0.514098577
1751378445.851476192,-1.649688527,1.457611450,-1.378780069,-1.570680667,-3.765119000,1.004643365,0.043967409,0.055289103,-0.099230027,-0.000035891,0.224924182,0.224854215,-2.761240562,-4.118464865,-0.315745396,0.003905340,0.040968565,0.513900541
1751378445.853457451,-1.649600187,1.457722278,-1.378979184,-1.570680739,-3.764667698,1.005094527,0.044372644,0.055538711,-0.099884667,-0.000036090,0.226377908,0.226307481,-2.761081464,-4.118812284,-0.315747276,0.003905396,0.040951950,0.513700544
1751378445.855339289,-1.649511034,1.457833603,-1.379179608,-1.570680811,-3.764213488,1.005548595,0.044780129,0.055786073,-0.100539309,-0.000036288,0.227831038,0.227760151,-2.760923130,-4.119161890,-0.315749137,0.003905451,0.040935151,0.513498574
1751378445.857289791,-1.649421065,1.457945421,-1.379381341,-1.570680884,-3.763756374,1.006005567,0.045189880,0.056031171,-0.101193953,-0.000036485,0.229283565,0.229212218,-2.760765595,-4.119513682,-0.315750977,0.003905505,0.040918167,0.513294618
1751378445.859265327,-1.649330273,1.458057727,-1.379584384,-1.570680957,-3.763296355,1.006465443,0.045601908,0.056273992,-0.101848598,-0.000036682,0.230735483,0.230663675,-2.760608896,-4.119867657,-0.315752796,0.003905560,0.040900997,0.513088666
1751378445.861355066,-1.649238656,1.458170515,-1.379788735,-1.570681031,-3.762833432,1.006928222,0.046016229,0.056514521,-0.102503242,-0.000036877,0.232186784,0.232114516,-2.760453071,-4.120223813,-0.315754593,0.003905613,0.040883639,0.512880705
1751378445.863326311,-1.649146207,1.458283783,-1.379994397,-1.570681105,-3.762367608,1.007393901,0.046432856,0.056752743,-0.103157884,-0.000037072,0.233637463,0.233564734,-2.760298154,-4.120582150,-0.315756367,0.003905667,0.040866092,0.512670723
1751378445.865386486,-1.649052923,1.458397525,-1.380201367,-1.570681179,-3.761898883,1.007862480,0.046851801,0.056988643,-0.103812523,-0.000037266,0.235087512,0.235014323,-2.760144187,-4.120942664,-0.315758118,0.003905720,0.040848354,0.512458709
1751378445.868864298,-1.648958798,1.458511736,-1.380409647,-1.570681254,-3.761427258,1.008333958,0.047273079,0.057222207,-0.104467157,-0.000037459,0.236536924,0.236463275,-2.759991204,-4.121305354,-0.315759845,0.003905772,0.040830424,0.512244650
1751378445.872377872,-1.648863829,1.458626412,-1.380619236,-1.570681329,-3.760952736,1.008808333,0.047696704,0.057453419,-0.105121786,-0.000037652,0.237985693,0.237911584,-2.759839245,-4.121670218,-0.315761547,0.003905825,0.040812301,0.512028535
1751378445.872431517,-1.648863829,1.458626412,-1.380619236,-1.570681329,-3.760952736,1.008808333,0.047696704,0.057453419,-0.105121786,-0.000037652,0.237985693,0.237911584,-2.759839245,-4.121670218,-0.315761547,0.003905825,0.040812301,0.512028535
1751378445.874159336,-1.648863829,1.458626412,-1.380619236,-1.570681329,-3.760952736,1.008808333,0.047696704,0.057453419,-0.105121786,-0.000037652,0.237985693,0.237911584,-2.759839245,-4.121670218,-0.315761547,0.003905825,0.040812301,0.512028535
1751378445.875961304,-1.648768010,1.458741548,-1.380830134,-1.570681405,-3.760475316,1.009285604,0.048122688,0.057682265,-0.105776407,-0.000037844,0.239433812,0.239359242,-2.759688347,-4.122037255,-0.315763223,0.003905876,0.040793983,0.511810352
1751378445.878059149,-1.648671337,1.458857140,-1.381042341,-1.570681480,-3.759995001,1.009765769,0.048551046,0.057908730,-0.106431020,-0.000038034,0.240881274,0.240806244,-2.759538550,-4.122406462,-0.315764873,0.003905927,0.040775470,0.511590087
1751378445.879895210,-1.648573804,1.458973182,-1.381255858,-1.570681557,-3.759511791,1.010248828,0.048981790,0.058132799,-0.107085624,-0.000038224,0.242328071,0.242252581,-2.759389891,-4.122777837,-0.315766495,0.003905978,0.040756759,0.511367731
1751378445.882303476,-1.648475408,1.459089669,-1.381470684,-1.570681633,-3.759025689,1.010734779,0.049414934,0.058354458,-0.107740216,-0.000038414,0.243774197,0.243698247,-2.759242409,-4.123151379,-0.315768089,0.003906028,0.040737849,0.511143270
1751378445.883678913,-1.648376143,1.459206598,-1.381686819,-1.570681710,-3.758536695,1.011223621,0.049850492,0.058573690,-0.108394796,-0.000038602,0.245219645,0.245143234,-2.759096145,-4.123527085,-0.315769654,0.003906078,0.040718738,0.510916692
1751378445.885425091,-1.648276004,1.459323962,-1.381904263,-1.570681788,-3.758044811,1.011715352,0.050288477,0.058790483,-0.109049361,-0.000038790,0.246664407,0.246587536,-2.758951136,-4.123904954,-0.315771189,0.003906127,0.040699426,0.510687985
1751378445.887604237,-1.648174987,1.459441758,-1.382123016,-1.570681866,-3.757550038,1.012209971,0.050728902,0.059004820,-0.109703911,-0.000038976,0.248108477,0.248031145,-2.758807425,-4.124284984,-0.315772693,0.003906175,0.040679911,0.510457137
1751378445.891662598,-1.648073087,1.459559980,-1.382343079,-1.570681944,-3.757052377,1.012707476,0.051171781,0.059216687,-0.110358444,-0.000039162,0.249551846,0.249474054,-2.758665049,-4.124667172,-0.315774166,0.003906223,0.040660191,0.510224136
1751378445.891712427,-1.647970298,1.459678623,-1.382564450,-1.570682022,-3.756551831,1.013207866,0.051617127,0.059426069,-0.111012958,-0.000039348,0.250994508,0.250916256,-2.758524049,-4.125051516,-0.315775607,0.003906271,0.040640265,0.509988969
1751378445.893644094,-1.647866617,1.459797683,-1.382787130,-1.570682101,-3.756048400,1.013711140,0.052064952,0.059632951,-0.111667452,-0.000039532,0.252436456,0.252357743,-2.758384466,-4.125438016,-0.315777014,0.003906317,0.040620132,0.509751624
1751378445.895501852,-1.647762037,1.459917153,-1.383011120,-1.570682180,-3.755542086,1.014217297,0.052515272,0.059837319,-0.112321924,-0.000039715,0.253877681,0.253798508,-2.758246341,-4.125826668,-0.315778388,0.003906364,0.040599790,0.509512090
1751378445.897464037,-1.647656554,1.460037030,-1.383236418,-1.570682260,-3.755032890,1.014726334,0.052968097,0.060039157,-0.112976373,-0.000039898,0.255318177,0.255238544,-2.758109714,-4.126217470,-0.315779726,0.003906409,0.040579237,0.509270353
1751378445.899474859,-1.647550163,1.460157308,-1.383463025,-1.570682340,-3.754520813,1.015238250,0.053423443,0.060238450,-0.113630796,-0.000040079,0.256757935,0.256677842,-2.757974628,-4.126610421,-0.315781029,0.003906454,0.040558473,0.509026401
1751378445.901551962,-1.647550163,1.460157308,-1.383463025,-1.570682340,-3.754520813,1.015238250,0.053423443,0.060238450,-0.113630796,-0.000040079,0.256757935,0.256677842,-2.757974628,-4.126610421,-0.315781029,0.003906454,0.040558473,0.509026401
1751378445.903445721,-1.647442859,1.460277982,-1.383690941,-1.570682420,-3.754005858,1.015753045,0.053881322,0.060435185,-0.114285193,-0.000040260,0.258196949,0.258116396,-2.757841122,-4.127005519,-0.315782295,0.003906498,0.040537496,0.508780223
1751378445.905465603,-1.647334636,1.460399047,-1.383920166,-1.570682501,-3.753488026,1.016270716,0.054341747,0.060629345,-0.114939561,-0.000040440,0.259635211,0.259554197,-2.757709240,-4.127402761,-0.315783523,0.003906542,0.040516304,0.508531804
1751378445.907381535,-1.647225490,1.460520498,-1.384150699,-1.570682582,-3.752967318,1.016791261,0.054804731,0.060820916,-0.115593899,-0.000040619,0.261072713,0.260991238,-2.757579024,-4.127802146,-0.315784713,0.003906584,0.040494896,0.508281134
1751378445.909380436,-1.647115415,1.460642329,-1.384382542,-1.570682663,-3.752443736,1.017314680,0.055270287,0.061009883,-0.116248204,-0.000040797,0.262509447,0.262427512,-2.757450514,-4.128203671,-0.315785863,0.003906626,0.040473270,0.508028201
1751378445.911422491,-1.647004407,1.460764536,-1.384615692,-1.570682745,-3.751917281,1.017840971,0.055738429,0.061196232,-0.116902475,-0.000040974,0.263945405,0.263863010,-2.757323755,-4.128607334,-0.315786973,0.003906668,0.040451425,0.507772990
1751378445.913390875,-1.646892460,1.460887112,-1.384850151,-1.570682827,-3.751387955,1.018370131,0.056209169,0.061379946,-0.117556711,-0.000041151,0.265380581,0.265297725,-2.757198789,-4.129013133,-0.315788042,0.003906708,0.040429360,0.507515491
1751378445.915587187,-1.646779569,1.461010054,-1.385085919,-1.570682910,-3.750855759,1.018902161,0.056682521,0.061561013,-0.118210908,-0.000041326,0.266814965,0.266731649,-2.757075659,-4.129421067,-0.315789068,0.003906748,0.040407073,0.507255690
1751378445.917421579,-1.646665728,1.461133355,-1.385322995,-1.570682993,-3.750320695,1.019437058,0.057158497,0.061739415,-0.118865066,-0.000041501,0.268248550,0.268164774,-2.756954408,-4.129831131,-0.315790051,0.003906787,0.040384562,0.506993575
1751378445.919343472,-1.646550933,1.461257010,-1.385561379,-1.570683076,-3.749782765,1.019974820,0.057637111,0.061915139,-0.119519183,-0.000041674,0.269681328,0.269597092,-2.756835081,-4.130243326,-0.315790990,0.003906826,0.040361826,0.506729134
1751378445.921325922,-1.646435178,1.461381013,-1.385801072,-1.570683159,-3.749241971,1.020515445,0.058118375,0.062088170,-0.120173255,-0.000041847,0.271113291,0.271028594,-2.756717719,-4.130657649,-0.315791883,0.003906863,0.040338864,0.506462355
1751378445.926234007,-1.646318458,1.461505360,-1.386042072,-1.570683243,-3.748698313,1.021058933,0.058602301,0.062258493,-0.120827282,-0.000042019,0.272544430,0.272459273,-2.756602370,-4.131074097,-0.315792731,0.003906900,0.040315674,0.506193224
1751378445.926308393,-1.646318458,1.461505360,-1.386042072,-1.570683243,-3.748698313,1.021058933,0.058602301,0.062258493,-0.120827282,-0.000042019,0.272544430,0.272459273,-2.756602370,-4.131074097,-0.315792731,0.003906900,0.040315674,0.506193224
1751378445.928389788,-1.646200767,1.461630045,-1.386284381,-1.570683327,-3.748151793,1.021605282,0.059088904,0.062426092,-0.121481261,-0.000042190,0.273974739,0.273889121,-2.756489075,-4.131492668,-0.315793531,0.003906935,0.040292255,0.505921729
1751378445.934075117,-1.646082100,1.461755063,-1.386527997,-1.570683412,-3.747602414,1.022154489,0.059578196,0.062590953,-0.122135190,-0.000042360,0.275404207,0.275318130,-2.756377880,-4.131913361,-0.315794284,0.003906970,0.040268605,0.505647858
1751378445.934147596,-1.645841818,1.462006073,-1.387019154,-1.570683582,-3.746495084,1.023261474,0.060564897,0.062912401,-0.123442889,-0.000042697,0.278260593,0.278173595,-2.756161971,-4.132761100,-0.315795640,0.003907038,0.040220606,0.505092938
1751378445.934162855,-1.645841818,1.462006073,-1.387019154,-1.570683582,-3.746495084,1.023261474,0.060564897,0.062912401,-0.123442889,-0.000042697,0.278260593,0.278173595,-2.756161971,-4.132761100,-0.315795640,0.003907038,0.040220606,0.505092938
1751378445.936326742,-1.645720191,1.462132055,-1.387266693,-1.570683668,-3.745937135,1.023819248,0.061062332,0.063068959,-0.124096656,-0.000042864,0.279687494,0.279600035,-2.756057346,-4.133188143,-0.315796241,0.003907070,0.040196254,0.504811864
1751378445.938071489,-1.645597566,1.462258347,-1.387515540,-1.570683753,-3.745376334,1.024379873,0.061562507,0.063222718,-0.124750363,-0.000043030,0.281113521,0.281025603,-2.755955002,-4.133617298,-0.315796790,0.003907101,0.040171666,0.504528363
1751378445.939602137,-1.645473939,1.462384944,-1.387765694,-1.570683840,-3.744812682,1.024943349,0.062065434,0.063373664,-0.125404009,-0.000043195,0.282538667,0.282450289,-2.755854985,-4.134048563,-0.315797286,0.003907131,0.040146839,0.504242424
1751378445.941413641,-1.645349303,1.462511840,-1.388017156,-1.570683926,-3.744246180,1.025509674,0.062571126,0.063521783,-0.126057592,-0.000043359,0.283962924,0.283874085,-2.755757342,-4.134481936,-0.315797728,0.003907161,0.040121773,0.503954034
1751378445.946862698,-1.645223653,1.462639029,-1.388269925,-1.570684013,-3.743676831,1.026078845,0.063079596,0.063667059,-0.126711110,-0.000043522,0.285386282,0.285296983,-2.755662118,-4.134917414,-0.315798114,0.003907189,0.040096465,0.503663180
1751378445.946915150,-1.645096983,1.462766506,-1.388524001,-1.570684100,-3.743104636,1.026650861,0.063590856,0.063809477,-0.127364559,-0.000043684,0.286808733,0.286718973,-2.755569361,-4.135354995,-0.315798444,0.003907217,0.040070915,0.503369850
1751378445.947382450,-1.644969287,1.462894265,-1.388779383,-1.570684188,-3.742529596,1.027225721,0.064104920,0.063949022,-0.128017938,-0.000043846,0.288230269,0.288140048,-2.755479117,-4.135794678,-0.315798716,0.003907243,0.040045119,0.503074031
1751378445.949548006,-1.644840561,1.463022301,-1.389036072,-1.570684276,-3.741951715,1.027803421,0.064621798,0.064085680,-0.128671243,-0.000044006,0.289650880,0.289560199,-2.755391434,-4.136236459,-0.315798929,0.003907268,0.040019079,0.502775711
1751378445.951452494,-1.644840561,1.463022301,-1.389036072,-1.570684276,-3.741951715,1.027803421,0.064621798,0.064085680,-0.128671243,-0.000044006,0.289650880,0.289560199,-2.755391434,-4.136236459,-0.315798929,0.003907268,0.040019079,0.502775711
1751378445.953271389,-1.644710798,1.463150606,-1.389294068,-1.570684364,-3.741370993,1.028383961,0.065141504,0.064219435,-0.129324473,-0.000044165,0.291070557,0.290979417,-2.755306358,-4.136680337,-0.315799083,0.003907293,0.039992791,0.502474877
1751378445.955284119,-1.644579993,1.463279176,-1.389553370,-1.570684452,-3.740787433,1.028967338,0.065664051,0.064350272,-0.129977625,-0.000044323,0.292489293,0.292397692,-2.755223939,-4.137126309,-0.315799175,0.003907316,0.039966254,0.502171517
1751378445.957257748,-1.644448140,1.463408005,-1.389813978,-1.570684541,-3.740201037,1.029553551,0.066189450,0.064478176,-0.130630696,-0.000044480,0.293907078,0.293815017,-2.755144223,-4.137574373,-0.315799206,0.003907338,0.039939467,0.501865619
1751378445.959254026,-1.644315233,1.463537087,-1.390075893,-1.570684630,-3.739611806,1.030142597,0.066717714,0.064603133,-0.131283684,-0.000044636,0.295323903,0.295231381,-2.755067259,-4.138024526,-0.315799173,0.003907359,0.039912428,0.501557170
1751378445.961243629,-1.644181267,1.463666416,-1.390339113,-1.570684720,-3.739019742,1.030734476,0.067248856,0.064725127,-0.131936586,-0.000044792,0.296739759,0.296646777,-2.754993096,-4.138476766,-0.315799076,0.003907379,0.039885136,0.501246157
1751378445.963272333,-1.644046236,1.463795986,-1.390603639,-1.570684809,-3.738424847,1.031329184,0.067782887,0.064844143,-0.132589399,-0.000044946,0.298154638,0.298061195,-2.754921782,-4.138931091,-0.315798914,0.003907398,0.039857589,0.500932568
1751378445.965260029,-1.643910134,1.463925790,-1.390869471,-1.570684900,-3.737827124,1.031926720,0.068319820,0.064960167,-0.133242120,-0.000045099,0.299568529,0.299474627,-2.754853366,-4.139387498,-0.315798685,0.003907416,0.039829785,0.500616391
1751378445.967350245,-1.643772955,1.464055824,-1.391136607,-1.570684990,-3.737226574,1.032527082,0.068859667,0.065073182,-0.133894747,-0.000045251,0.300981424,0.300887062,-2.754787899,-4.139845985,-0.315798388,0.003907432,0.039801724,0.500297613
1751378445.969265461,-1.643634693,1.464186081,-1.391405050,-1.570685081,-3.736623199,1.033130267,0.069402441,0.065183175,-0.134547277,-0.000045402,0.302393314,0.302298491,-2.754725429,-4.140306550,-0.315798022,0.003907447,0.039773403,0.499976223
1751378445.971362114,-1.643495343,1.464316555,-1.391674797,-1.570685171,-3.736017001,1.033736275,0.069948153,0.065290130,-0.135199707,-0.000045552,0.303804190,0.303708906,-2.754666006,-4.140769190,-0.315797585,0.003907461,0.039744821,0.499652206
1751378445.973260403,-1.643354899,1.464447240,-1.391945848,-1.570685263,-3.735407983,1.034345102,0.070496816,0.065394032,-0.135852034,-0.000045701,0.305214041,0.305118297,-2.754609680,-4.141233902,-0.315797077,0.003907474,0.039715977,0.499325552
1751378445.975259304,-1.643213354,1.464578129,-1.392218205,-1.570685354,-3.734796146,1.034956747,0.071048442,0.065494865,-0.136504255,-0.000045848,0.306622859,0.306526655,-2.754556502,-4.141700685,-0.315796497,0.003907486,0.039686869,0.498996248
1751378445.980211258,-1.642926940,1.464840497,-1.392766830,-1.570685538,-3.733564024,1.036188483,0.072160630,0.065687268,-0.137808367,-0.000046141,0.309437358,0.309340233,-2.754459791,-4.142640452,-0.315795113,0.003907505,0.039627855,0.498329640
1751378445.980274439,-1.642926940,1.464840497,-1.392766830,-1.570685538,-3.733564024,1.036188483,0.072160630,0.065687268,-0.137808367,-0.000046141,0.309437358,0.309340233,-2.754459791,-4.142640452,-0.315795113,0.003907505,0.039627855,0.498329640
1751378445.983702898,-1.642926940,1.464840497,-1.392766830,-1.570685538,-3.733564024,1.036188483,0.072160630,0.065687268,-0.137808367,-0.000046141,0.309437358,0.309340233,-2.754459791,-4.142640452,-0.315795113,0.003907505,0.039627855,0.498329640
1751378445.983757734,-1.642926940,1.464840497,-1.392766830,-1.570685538,-3.733564024,1.036188483,0.072160630,0.065687268,-0.137808367,-0.000046141,0.309437358,0.309340233,-2.754459791,-4.142640452,-0.315795113,0.003907505,0.039627855,0.498329640
1751378445.986905098,-1.642926940,1.464840497,-1.392766830,-1.570685538,-3.733564024,1.036188483,0.072160630,0.065687268,-0.137808367,-0.000046141,0.309437358,0.309340233,-2.754459791,-4.142640452,-0.315795113,0.003907505,0.039627855,0.498329640
1751378445.987465143,-1.642488917,1.465235431,-1.393599547,-1.570685816,-3.731694754,1.038057166,0.073851432,0.065952486,-0.139763663,-0.000046571,0.313651119,0.313552613,-2.754339607,-4.144065568,-0.315792461,0.003907524,0.039537318,0.497309545
1751378445.990493298,-1.642340645,1.465367418,-1.393879725,-1.570685910,-3.731066049,1.038685673,0.074421086,0.066034595,-0.140415183,-0.000046712,0.315053537,0.314954571,-2.754306386,-4.144544721,-0.315791418,0.003907528,0.039506595,0.496964082
1751378445.991567612,-1.642191231,1.465499567,-1.394161207,-1.570686003,-3.730434540,1.039316984,0.074993787,0.066113530,-0.141066575,-0.000046853,0.316454856,0.316355429,-2.754276674,-4.145025926,-0.315790295,0.003907530,0.039475597,0.496615884
1751378445.993350029,-1.642040668,1.465631870,-1.394443992,-1.570686097,-3.729800230,1.039951094,0.075569545,0.066189277,-0.141717836,-0.000046992,0.317855064,0.317755177,-2.754250521,-4.145509183,-0.315789087,0.003907531,0.039444324,0.496264937
1751378445.999067068,-1.641888950,1.465764322,-1.394728079,-1.570686191,-3.729163121,1.040588004,0.076148373,0.066261819,-0.142368963,-0.000047130,0.319254152,0.319153805,-2.754227981,-4.145994487,-0.315787796,0.003907530,0.039412773,0.495911231
1751378445.999409676,-1.641888950,1.465764322,-1.394728079,-1.570686191,-3.729163121,1.040588004,0.076148373,0.066261819,-0.142368963,-0.000047130,0.319254152,0.319153805,-2.754227981,-4.145994487,-0.315787796,0.003907530,0.039412773,0.495911231
1751378445.999445677,-1.641582027,1.466029645,-1.395300158,-1.570686380,-3.727880513,1.041870208,0.077315287,0.066397232,-0.143670797,-0.000047402,0.322048929,0.321947661,-2.754193951,-4.146971229,-0.315784957,0.003907525,0.039348832,0.495195491
1751378446.001441002,-1.641582027,1.466029645,-1.395300158,-1.570686380,-3.727880513,1.041870208,0.077315287,0.066397232,-0.143670797,-0.000047402,0.322048929,0.321947661,-2.754193951,-4.146971229,-0.315784957,0.003907525,0.039348832,0.495195491
1751378446.003507614,-1.641426809,1.466162502,-1.395588151,-1.570686475,-3.727235019,1.042515499,0.077903395,0.066460072,-0.144321499,-0.000047537,0.323444597,0.323342869,-2.754182568,-4.147462661,-0.315783405,0.003907520,0.039316440,0.494833432
1751378446.005390406,-1.641270412,1.466295483,-1.395877444,-1.570686570,-3.726586736,1.043163579,0.078494620,0.066519648,-0.144972051,-0.000047670,0.324839106,0.324736917,-2.754175011,-4.147956132,-0.315781764,0.003907514,0.039283764,0.494468566
1751378446.007478952,-1.641112829,1.466428579,-1.396168039,-1.570686666,-3.725935664,1.043814446,0.079088972,0.066575944,-0.145622452,-0.000047802,0.326232444,0.326129796,-2.754171333,-4.148451637,-0.315780033,0.003907506,0.039250803,0.494100880
1751378446.009390593,-1.640954054,1.466561784,-1.396459934,-1.570686762,-3.725281807,1.044468097,0.079686465,0.066628945,-0.146272696,-0.000047933,0.327624602,0.327521494,-2.754171591,-4.148949174,-0.315778209,0.003907496,0.039217555,0.493730363
1751378446.011408567,-1.640794081,1.466695092,-1.396753129,-1.570686858,-3.724625166,1.045124531,0.080287108,0.066678636,-0.146922781,-0.000048063,0.329015570,0.328912001,-2.754175837,-4.149448741,-0.315776291,0.003907485,0.039184020,0.493357001
1751378446.013285398,-1.640632903,1.466828497,-1.397047625,-1.570686954,-3.723965745,1.045783744,0.080890914,0.066725002,-0.147572703,-0.000048192,0.330405337,0.330301308,-2.754184127,-4.149950336,-0.315774279,0.003907473,0.039150195,0.492980785
1751378446.015333652,-1.640470515,1.466961990,-1.397343420,-1.570687050,-3.723303546,1.046445735,0.081497893,0.066768028,-0.148222457,-0.000048320,0.331793893,0.331689404,-2.754196516,-4.150453955,-0.315772170,0.003907459,0.039116080,0.492601702
1751378446.017346859,-1.640306909,1.467095566,-1.397640515,-1.570687147,-3.722638570,1.047110501,0.082108058,0.066807698,-0.148872040,-0.000048446,0.333181228,0.333076278,-2.754213058,-4.150959596,-0.315769963,0.003907443,0.039081671,0.492219740
1751378446.019368172,-1.640142080,1.467229219,-1.397938908,-1.570687244,-3.721970822,1.047778040,0.082721419,0.066843997,-0.149521448,-0.000048572,0.334567331,0.334461920,-2.754233810,-4.151467256,-0.315767657,0.003907425,0.039046969,0.491834887
1751378446.021378517,-1.639976022,1.467362940,-1.398238600,-1.570687341,-3.721300302,1.048448348,0.083337988,0.066876911,-0.150170678,-0.000048696,0.335952191,0.335846320,-2.754258828,-4.151976932,-0.315765250,0.003907406,0.039011972,0.491447133
1751378446.023483753,-1.639808726,1.467496724,-1.398539591,-1.570687439,-3.720627014,1.049121424,0.083957777,0.066906423,-0.150819724,-0.000048819,0.337335798,0.337229467,-2.754288167,-4.152488622,-0.315762741,0.003907386,0.038976678,0.491056465
1751378446.025358677,-1.639640188,1.467630564,-1.398841879,-1.570687537,-3.719950959,1.049797265,0.084580795,0.066932518,-0.151468583,-0.000048940,0.338718142,0.338611351,-2.754321884,-4.153002324,-0.315760128,0.003907363,0.038941085,0.490662873
1751378446.027318954,-1.639470401,1.467764452,-1.399145465,-1.570687635,-3.719272142,1.050475869,0.085207054,0.066955182,-0.152117251,-0.000049061,0.340099212,0.339991961,-2.754360037,-4.153518033,-0.315757411,0.003907339,0.038905192,0.490266344
1751378446.036166668,-1.639299358,1.467898382,-1.399450348,-1.570687733,-3.718590563,1.051157232,0.085836566,0.066974399,-0.152765724,-0.000049180,0.341478997,0.341371285,-2.754402680,-4.154035749,-0.315754586,0.003907313,0.038868998,0.489866867
1751378446.036222935,-1.639127053,1.468032347,-1.399756528,-1.570687831,-3.717906227,1.051841353,0.086469341,0.066990154,-0.153413997,-0.000049298,0.342857487,0.342749315,-2.754449871,-4.154555467,-0.315751654,0.003907285,0.038832502,0.489464432
1751378446.036239624,-1.639127053,1.468032347,-1.399756528,-1.570687831,-3.717906227,1.051841353,0.086469341,0.066990154,-0.153413997,-0.000049298,0.342857487,0.342749315,-2.754449871,-4.154555467,-0.315751654,0.003907285,0.038832502,0.489464432
1751378446.039704561,-1.638778629,1.468300355,-1.400372776,-1.570688029,-3.716529289,1.053217856,0.087744726,0.067011216,-0.154709928,-0.000049530,0.345610536,0.345501443,-2.754558130,-4.155600901,-0.315745458,0.003907225,0.038758595,0.488650638
1751378446.039833307,-1.638778629,1.468300355,-1.400372776,-1.570688029,-3.716529289,1.053217856,0.087744726,0.067011216,-0.154709928,-0.000049530,0.345610536,0.345501443,-2.754558130,-4.155600901,-0.315745458,0.003907225,0.038758595,0.488650638
1751378446.041588068,-1.638602497,1.468434383,-1.400682843,-1.570688128,-3.715836693,1.053910233,0.088387358,0.067016492,-0.155357577,-0.000049645,0.346985074,0.346875520,-2.754619313,-4.156126611,-0.315742192,0.003907192,0.038721182,0.488239258
1751378446.043685198,-1.638425077,1.468568418,-1.400994206,-1.570688228,-3.715141350,1.054605357,0.089033296,0.067018245,-0.156005009,-0.000049758,0.348358272,0.348248259,-2.754685275,-4.156654313,-0.315738812,0.003907157,0.038683459,0.487824875
1751378446.045322180,-1.638246362,1.468702453,-1.401306863,-1.570688327,-3.714443261,1.055303225,0.089682553,0.067016460,-0.156652220,-0.000049870,0.349730121,0.349619647,-2.754756076,-4.157184004,-0.315735316,0.003907120,0.038645427,0.487407476
1751378446.047300339,-1.638066345,1.468836482,-1.401620815,-1.570688427,-3.713742430,1.056003835,0.090335138,0.067011120,-0.157299204,-0.000049980,0.351100609,0.350989674,-2.754831773,-4.157715681,-0.315731703,0.003907081,0.038607084,0.486987052
1751378446.049299717,-1.637885019,1.468970496,-1.401936060,-1.570688527,-3.713038859,1.056707183,0.090991062,0.067002212,-0.157945959,-0.000050090,0.352469724,0.352358329,-2.754912425,-4.158249341,-0.315727971,0.003907041,0.038568427,0.486563592
1751378446.054183006,-1.637885019,1.468970496,-1.401936060,-1.570688527,-3.713038859,1.056707183,0.090991062,0.067002212,-0.157945959,-0.000050090,0.352469724,0.352358329,-2.754912425,-4.158249341,-0.315727971,0.003907041,0.038568427,0.486563592
1751378446.054244041,-1.637885019,1.468970496,-1.401936060,-1.570688527,-3.713038859,1.056707183,0.090991062,0.067002212,-0.157945959,-0.000050090,0.352469724,0.352358329,-2.754912425,-4.158249341,-0.315727971,0.003907041,0.038568427,0.486563592
1751378446.055413008,-1.637518416,1.469238452,-1.402570430,-1.570688728,-3.711623511,1.058122085,0.092312973,0.066973625,-0.159238756,-0.000050305,0.355203793,0.355091478,-2.755088836,-4.159322600,-0.315720143,0.003906954,0.038490170,0.485707518
1751378446.057312489,-1.637333124,1.469372380,-1.402889553,-1.570688829,-3.710911738,1.058833632,0.092978980,0.066953916,-0.159884791,-0.000050410,0.356568724,0.356455949,-2.755184712,-4.159862194,-0.315716044,0.003906907,0.038450567,0.485274884
1751378446.059342146,-1.637146497,1.469506265,-1.403209969,-1.570688930,-3.710197237,1.059547907,0.093648369,0.066930577,-0.160530575,-0.000050514,0.357932239,0.357819003,-2.755285782,-4.160403759,-0.315711820,0.003906859,0.038410645,0.484839170
1751378446.061269999,-1.636958528,1.469640100,-1.403531675,-1.570689031,-3.709480010,1.060264907,0.094321150,0.066903591,-0.161176106,-0.000050617,0.359294324,0.359180628,-2.755392107,-4.160947293,-0.315707469,0.003906809,0.038370403,0.484400367
1751378446.063351154,-1.636769210,1.469773877,-1.403854673,-1.570689132,-3.708760060,1.060984629,0.094997334,0.066872944,-0.161821377,-0.000050719,0.360654970,0.360540814,-2.755503746,-4.161492793,-0.315702990,0.003906756,0.038329839,0.483958463
1751378446.065306425,-1.636578537,1.469907589,-1.404178961,-1.570689234,-3.708037391,1.061707070,0.095676931,0.066838620,-0.162466383,-0.000050820,0.362014165,0.361899548,-2.755620761,-4.162040256,-0.315698380,0.003906702,0.038288953,0.483513449
1751378446.067421436,-1.636386500,1.470041229,-1.404504538,-1.570689335,-3.707312005,1.062432226,0.096359952,0.066800604,-0.163111121,-0.000050919,0.363371896,0.363256819,-2.755743211,-4.162589679,-0.315693637,0.003906645,0.038247742,0.483065314
1751378446.069406986,-1.636193095,1.470174789,-1.404831405,-1.570689437,-3.706583904,1.063160096,0.097046407,0.066758881,-0.163755583,-0.000051016,0.364728153,0.364612616,-2.755871161,-4.163141059,-0.315688762,0.003906587,0.038206206,0.482614047
1751378446.071373224,-1.635998313,1.470308262,-1.405159560,-1.570689539,-3.705853093,1.063890676,0.097736306,0.066713434,-0.164399766,-0.000051113,0.366082924,0.365966926,-2.756004668,-4.163694394,-0.315683751,0.003906526,0.038164343,0.482159640
1751378446.073381424,-1.635802147,1.470441641,-1.405489004,-1.570689642,-3.705119574,1.064623963,0.098429659,0.066664249,-0.165043665,-0.000051208,0.367436197,0.367319739,-2.756143797,-4.164249680,-0.315678603,0.003906463,0.038122152,0.481702082
1751378446.075333595,-1.635604592,1.470574917,-1.405819735,-1.570689744,-3.704383349,1.065359954,0.099126477,0.066611309,-0.165687272,-0.000051302,0.368787961,0.368671043,-2.756288609,-4.164806915,-0.315673316,0.003906398,0.038079631,0.481241362
1751378446.077228546,-1.635405639,1.470708083,-1.406151753,-1.570689847,-3.703644423,1.066098646,0.099826769,0.066554601,-0.166330585,-0.000051394,0.370138204,0.370020825,-2.756439167,-4.165366094,-0.315667888,0.003906331,0.038036779,0.480777471
1751378446.079260349,-1.635205282,1.470841133,-1.406485057,-1.570689950,-3.702902797,1.066840036,0.100530545,0.066494107,-0.166973596,-0.000051485,0.371486913,0.371369075,-2.756595531,-4.165927216,-0.315662318,0.003906261,0.037993595,0.480310400
1751378446.081244469,-1.635003514,1.470974057,-1.406819647,-1.570690053,-3.702158476,1.067584121,0.101237817,0.066429813,-0.167616301,-0.000051575,0.372834078,0.372715779,-2.756757766,-4.166490278,-0.315656604,0.003906190,0.037950076,0.479840138
1751378446.083261013,-1.634800329,1.471106849,-1.407155522,-1.570690156,-3.701411462,1.068330898,0.101948593,0.066361704,-0.168258694,-0.000051664,0.374179686,0.374060927,-2.756925935,-4.167055275,-0.315650745,0.003906116,0.037906223,0.479366676
1751378446.091134310,-1.634800329,1.471106849,-1.407155522,-1.570690156,-3.701411462,1.068330898,0.101948593,0.066361704,-0.168258694,-0.000051664,0.374179686,0.374060927,-2.756925935,-4.167055275,-0.315650745,0.003906116,0.037906223,0.479366676
1751378446.091192007,-1.634800329,1.471106849,-1.407155522,-1.570690156,-3.701411462,1.068330898,0.101948593,0.066361704,-0.168258694,-0.000051664,0.374179686,0.374060927,-2.756925935,-4.167055275,-0.315650745,0.003906116,0.037906223,0.479366676
1751378446.091208458,-1.634182193,1.471504355,-1.408170851,-1.570690467,-3.699154295,1.070587349,0.104102046,0.066134325,-0.170183943,-0.000051921,0.378207051,0.378086910,-2.757466677,-4.168761854,-0.315632273,0.003905881,0.037772639,0.477926996
1751378446.093342543,-1.633973264,1.471636541,-1.408511860,-1.570690571,-3.698396541,1.071344862,0.104826938,0.066050797,-0.170825031,-0.000052004,0.379546312,0.379425711,-2.757659215,-4.169334566,-0.315625813,0.003905797,0.037727432,0.477440640
1751378446.093389034,-1.633973264,1.471636541,-1.408511860,-1.570690571,-3.698396541,1.071344862,0.104826938,0.066050797,-0.170825031,-0.000052004,0.379546312,0.379425711,-2.757659215,-4.169334566,-0.315625813,0.003905797,0.037727432,0.477440640
1751378446.095646381,-1.633973264,1.471636541,-1.408511860,-1.570690571,-3.698396541,1.071344862,0.104826938,0.066050797,-0.170825031,-0.000052004,0.379546312,0.379425711,-2.757659215,-4.169334566,-0.315625813,0.003905797,0.037727432,0.477440640
1751378446.097517490,-1.633551040,1.471900391,-1.409197723,-1.570690779,-3.696873006,1.072867912,0.106287393,0.065872045,-0.172106179,-0.000052165,0.382219972,0.382098450,-2.758063112,-4.170485748,-0.315612425,0.003905624,0.037635991,0.476458180
1751378446.099693775,-1.633337731,1.472032041,-1.409542576,-1.570690884,-3.696107232,1.073633443,0.107022974,0.065776790,-0.172746227,-0.000052244,0.383554346,0.383432364,-2.758274601,-4.171064213,-0.315605494,0.003905534,0.037589755,0.475962058
1751378446.101460934,-1.633122946,1.472163496,-1.409888708,-1.570690988,-3.695338790,1.074401640,0.107762138,0.065677595,-0.173385916,-0.000052322,0.384887066,0.384764624,-2.758492537,-4.171644589,-0.315598403,0.003905441,0.037543173,0.475462662
1751378446.103522062,-1.632906680,1.472294749,-1.410236119,-1.570691093,-3.694567685,1.075172501,0.108504893,0.065574444,-0.174025241,-0.000052398,0.386218121,0.386095218,-2.758716983,-4.172226874,-0.315591149,0.003905346,0.037496245,0.474959986
1751378446.108008385,-1.632688924,1.472425791,-1.410584809,-1.570691198,-3.693793919,1.075946020,0.109251249,0.065467322,-0.174664194,-0.000052472,0.387547497,0.387424134,-2.758948009,-4.172811063,-0.315583732,0.003905249,0.037448968,0.474454018
1751378446.109724045,-1.632248917,1.472687213,-1.411286019,-1.570691408,-3.692238419,1.077501024,0.110754802,0.065241102,-0.175940963,-0.000052617,0.390201165,0.390076882,-2.759430054,-4.173985145,-0.315568397,0.003905046,0.037353365,0.473432178
1751378446.111575365,-1.632026651,1.472817577,-1.411638539,-1.570691513,-3.691456692,1.078282502,0.111512017,0.065121973,-0.176578766,-0.000052687,0.391525432,0.391400689,-2.759681206,-4.174575030,-0.315560476,0.003904941,0.037305036,0.472916289
1751378446.113349915,-1.631802866,1.472947698,-1.411992334,-1.570691619,-3.690672319,1.079066626,0.112272870,0.064998809,-0.177216172,-0.000052756,0.392847971,0.392722767,-2.759939200,-4.175166808,-0.315552382,0.003904833,0.037256355,0.472397077
1751378446.115331173,-1.631577557,1.473077570,-1.412347404,-1.570691724,-3.689885302,1.079853392,0.113037370,0.064871597,-0.177853176,-0.000052824,0.394168769,0.394043105,-2.760204104,-4.175760475,-0.315544116,0.003904723,0.037207318,0.471874532
1751378446.117362022,-1.631350714,1.473207182,-1.412703747,-1.570691830,-3.689095645,1.080642797,0.113805527,0.064740319,-0.178489769,-0.000052890,0.395487814,0.395361690,-2.760475982,-4.176356028,-0.315535673,0.003904610,0.037157927,0.471348649
1751378446.119280815,-1.631122332,1.473336528,-1.413061362,-1.570691936,-3.688303351,1.081434838,0.114577349,0.064604961,-0.179125947,-0.000052954,0.396805093,0.396678508,-2.760754904,-4.176953463,-0.315527053,0.003904495,0.037108178,0.470819418
1751378446.121270895,-1.630892402,1.473465599,-1.413420250,-1.570692042,-3.687508425,1.082229510,0.115352845,0.064465506,-0.179761702,-0.000053017,0.398120593,0.397993548,-2.761040935,-4.177552777,-0.315518253,0.003904377,0.037058072,0.470286833
1751378446.123316526,-1.630660918,1.473594387,-1.413780409,-1.570692148,-3.686710870,1.083026811,0.116132025,0.064321939,-0.180397027,-0.000053079,0.399434302,0.399306796,-2.761334145,-4.178153967,-0.315509271,0.003904256,0.037007606,0.469750885
1751378446.125260115,-1.630427872,1.473722884,-1.414141838,-1.570692254,-3.685910689,1.083826736,0.116914896,0.064174244,-0.181031915,-0.000053139,0.400746206,0.400618240,-2.761634601,-4.178757030,-0.315500106,0.003904132,0.036956781,0.469211567
1751378446.127316236,-1.630193256,1.473851082,-1.414504536,-1.570692360,-3.685107887,1.084629283,0.117701468,0.064022405,-0.181666360,-0.000053198,0.402056294,0.401927868,-2.761942371,-4.179361962,-0.315490755,0.003904006,0.036905594,0.468668873
1751378446.129289865,-1.629957064,1.473978971,-1.414868503,-1.570692467,-3.684302466,1.085434446,0.118491750,0.063866407,-0.182300354,-0.000053255,0.403364551,0.403235665,-2.762257523,-4.179968760,-0.315481217,0.003903877,0.036854043,0.468122794
1751378446.131424665,-1.629719287,1.474106544,-1.415233737,-1.570692573,-3.683494430,1.086242224,0.119285749,0.063706234,-0.182933891,-0.000053311,0.404670966,0.404541619,-2.762580126,-4.180577421,-0.315471488,0.003903745,0.036802130,0.467573324
1751378446.133402824,-1.629479918,1.474233793,-1.415600238,-1.570692680,-3.682683783,1.087052612,0.120083476,0.063541871,-0.183566963,-0.000053365,0.405975524,0.405845718,-2.762910250,-4.181187941,-0.315461568,0.003903611,0.036749851,0.467020456
1751378446.135260105,-1.629238950,1.474360709,-1.415968005,-1.570692787,-3.681870529,1.087865606,0.120884938,0.063373300,-0.184199563,-0.000053418,0.407278215,0.407147947,-2.763247962,-4.181800316,-0.315451454,0.003903474,0.036697207,0.466464183
1751378446.137243986,-1.628996376,1.474487284,-1.416337036,-1.570692894,-3.681054671,1.088681202,0.121690143,0.063200507,-0.184831683,-0.000053469,0.408579023,0.408448295,-2.763593334,-4.182414544,-0.315441144,0.003903334,0.036644195,0.465904499
1751378446.139249325,-1.628752187,1.474613508,-1.416707331,-1.570693001,-3.680236214,1.089499398,0.122499101,0.063023476,-0.185463317,-0.000053519,0.409877936,0.409746748,-2.763946433,-4.183030622,-0.315430636,0.003903190,0.036590815,0.465341397
1751378446.141311169,-1.628752187,1.474613508,-1.416707331,-1.570693001,-3.680236214,1.089499398,0.122499101,0.063023476,-0.185463317,-0.000053519,0.409877936,0.409746748,-2.763946433,-4.183030622,-0.315430636,0.003903190,0.036590815,0.465341397
1751378446.143368244,-1.628506377,1.474739375,-1.417078889,-1.570693108,-3.679415161,1.090320188,0.123311820,0.062842191,-0.186094456,-0.000053567,0.411174941,0.411043293,-2.764307331,-4.183648544,-0.315419928,0.003903045,0.036537066,0.464774870
1751378446.149713993,-1.628009861,1.474989998,-1.417825789,-1.570693322,-3.677765282,1.091969538,0.124948571,0.062466796,-0.187355222,-0.000053659,0.413763175,0.413630606,-2.765052800,-4.184889913,-0.315397903,0.003902744,0.036428455,0.463631521
1751378446.151410341,-1.628009861,1.474989998,-1.417825789,-1.570693322,-3.677765282,1.091969538,0.124948571,0.062466796,-0.187355222,-0.000053659,0.413763175,0.413630606,-2.765052800,-4.184889913,-0.315397903,0.003902744,0.036428455,0.463631521
1751378446.152017832,-1.627759141,1.475114739,-1.418201129,-1.570693430,-3.676936464,1.092798091,0.125772621,0.062272654,-0.187984834,-0.000053702,0.415054377,0.414921348,-2.765437513,-4.185513352,-0.315386582,0.003902590,0.036373592,0.463054685
1751378446.153530121,-1.627506768,1.475239086,-1.418577728,-1.570693537,-3.676105066,1.093629222,0.126600464,0.062074194,-0.188613920,-0.000053744,0.416343619,0.416210129,-2.765830306,-4.186138623,-0.315375052,0.003902432,0.036318355,0.462474402
1751378446.158114910,-1.626997037,1.475486569,-1.419334698,-1.570693752,-3.674434544,1.095299209,0.128267562,0.061664259,-0.189870488,-0.000053824,0.418916166,0.418781756,-2.766640413,-4.187394646,-0.315351357,0.003902107,0.036206756,0.461303468
1751378446.159880161,-1.626739663,1.475609687,-1.419715066,-1.570693860,-3.673595428,1.096138055,0.129106833,0.061452752,-0.190497953,-0.000053862,0.420199445,0.420064575,-2.767057872,-4.188025391,-0.315339188,0.003901941,0.036150392,0.460712806
1751378446.161509514,-1.626480607,1.475732377,-1.420096689,-1.570693968,-3.672753747,1.096979466,0.129949929,0.061236864,-0.191124862,-0.000053897,0.421480710,0.421345379,-2.767483695,-4.188657954,-0.315326802,0.003901771,0.036093650,0.460118675
1751378446.163363695,-1.626219861,1.475854631,-1.420479565,-1.570694076,-3.671909506,1.097823436,0.130796858,0.061016579,-0.191751206,-0.000053932,0.422759947,0.422624156,-2.767917955,-4.189292332,-0.315314196,0.003901598,0.036036530,0.459521069
1751378446.165461779,-1.625957417,1.475976440,-1.420863694,-1.570694183,-3.671062709,1.098669961,0.131647628,0.060791881,-0.192376977,-0.000053965,0.424037143,0.423900891,-2.768360725,-4.189928520,-0.315301368,0.003901422,0.035979030,0.458919984
1751378446.169507980,-1.625693268,1.476097796,-1.421249073,-1.570694291,-3.670213359,1.099519038,0.132502247,0.060562754,-0.193002167,-0.000053996,0.425312284,0.425175572,-2.768812075,-4.190566515,-0.315288317,0.003901243,0.035921150,0.458315414
1751378446.170697212,-1.625427406,1.476218688,-1.421635702,-1.570694399,-3.669361461,1.100370662,0.133360721,0.060329183,-0.193626767,-0.000054025,0.426585357,0.426448185,-2.769272079,-4.191206313,-0.315275038,0.003901061,0.035862888,0.457707355
1751378446.171390057,-1.625159823,1.476339109,-1.422023580,-1.570694508,-3.668507019,1.101224829,0.134223059,0.060091150,-0.194250769,-0.000054053,0.427856348,0.427718716,-2.769740811,-4.191847912,-0.315261532,0.003900875,0.035804244,0.457095803
1751378446.173431396,-1.624890511,1.476459050,-1.422412705,-1.570694616,-3.667650037,1.102081535,0.135089268,0.059848641,-0.194874165,-0.000054080,0.429125244,0.428987152,-2.770218342,-4.192491306,-0.315247794,0.003900687,0.035745217,0.456480753
1751378446.175327063,-1.624619463,1.476578501,-1.422803076,-1.570694724,-3.666790519,1.102940776,0.135959356,0.059601639,-0.195496946,-0.000054105,0.430392031,0.430253478,-2.770704745,-4.193136494,-0.315233824,0.003900495,0.035685805,0.455862202
1751378446.177259207,-1.624346671,1.476697454,-1.423194692,-1.570694832,-3.665928470,1.103802548,0.136833329,0.059350128,-0.196119103,-0.000054128,0.431656696,0.431517682,-2.771200096,-4.193783470,-0.315219618,0.003900299,0.035626009,0.455240145
1751378446.179307699,-1.624072127,1.476815898,-1.423587552,-1.570694940,-3.665063894,1.104666846,0.137711195,0.059094092,-0.196740627,-0.000054150,0.432919224,0.432779750,-2.771704466,-4.194432232,-0.315205174,0.003900101,0.035565826,0.454614579
1751378446.181413651,-1.623795824,1.476933827,-1.423981654,-1.570695049,-3.664196795,1.105533665,0.138592961,0.058833515,-0.197361510,-0.000054170,0.434179601,0.434039667,-2.772217930,-4.195082776,-0.315190490,0.003899899,0.035505257,0.453985500
1751378446.183435440,-1.623517753,1.477051230,-1.424376997,-1.570695157,-3.663327177,1.106403003,0.139478635,0.058568381,-0.197981742,-0.000054188,0.435437815,0.435297421,-2.772740562,-4.195735097,-0.315175564,0.003899694,0.035444300,0.453352905
1751378446.185429096,-1.623237906,1.477168097,-1.424773581,-1.570695265,-3.662455045,1.107274854,0.140368223,0.058298674,-0.198601315,-0.000054205,0.436693851,0.436552997,-2.773272436,-4.196389193,-0.315160394,0.003899486,0.035382955,0.452716790
1751378446.187410593,-1.622956277,1.477284421,-1.425171402,-1.570695374,-3.661580403,1.108149213,0.141261732,0.058024377,-0.199220219,-0.000054220,0.437947696,0.437806381,-2.773813628,-4.197045060,-0.315144976,0.003899274,0.035321220,0.452077152
1751378446.189402819,-1.622672857,1.477400192,-1.425570461,-1.570695482,-3.660703256,1.109026078,0.142159170,0.057745476,-0.199838446,-0.000054233,0.439199336,0.439057561,-2.774364211,-4.197702693,-0.315129309,0.003899059,0.035259095,0.451433989
1751378446.191351891,-1.622387746,1.477515357,-1.425970605,-1.570695591,-3.659823939,1.109905110,0.142736952,0.057332222,-0.200002814,-0.000054123,0.439453072,0.439311158,-2.921629177,-4.266317553,-0.305890069,0.001187131,0.007147845,0.097807653
1751378446.193362474,-1.622102298,1.477629367,-1.426369930,-1.570695699,-3.658946634,1.110782132,0.142710027,0.056678835,-0.199322624,-0.000053784,0.437851901,0.437710448,-3.197983856,-4.393014970,-0.288691540,-0.003863564,-0.045105511,-0.559671725
1751378446.195384979,-1.621816909,1.477742075,-1.426767895,-1.570695806,-3.658072531,1.111655953,0.142678552,0.056029959,-0.198642394,-0.000053447,0.436252022,0.436111028,-3.201888715,-4.392822996,-0.288686625,-0.003863104,-0.045069139,-0.559229137
1751378446.197355986,-1.621531587,1.477853490,-1.427164499,-1.570695912,-3.657201626,1.112526577,0.142642519,0.055385568,-0.197962093,-0.000053112,0.434653359,0.434512826,-3.205796181,-4.392636176,-0.288681142,-0.003862860,-0.045034855,-0.558813879
1751378446.199455023,-1.621246342,1.477963620,-1.427559743,-1.570696018,-3.656333916,1.113394005,0.142601948,0.054745648,-0.197281727,-0.000052778,0.433055918,0.432915846,-3.209694442,-4.392449067,-0.288675829,-0.003862614,-0.045000416,-0.558397683
1751378446.210697412,-1.620676117,1.478180064,-1.428346148,-1.570696228,-3.654608077,1.115119286,0.142507270,0.053479169,-0.195920822,-0.000052115,0.429864727,0.429725575,-3.217463107,-4.392073988,-0.288665718,-0.003862117,-0.044931076,-0.557562475
1751378446.210765600,-1.620391156,1.478286395,-1.428737310,-1.570696332,-3.653749941,1.115977144,0.142453203,0.052852581,-0.195240295,-0.000051785,0.428270987,0.428132296,-3.221333421,-4.391886036,-0.288660917,-0.003861866,-0.044896181,-0.557143528
1751378446.210783482,-1.620391156,1.478286395,-1.428737310,-1.570696332,-3.653749941,1.115977144,0.142453203,0.052852581,-0.195240295,-0.000051785,0.428270987,0.428132296,-3.221333421,-4.391886036,-0.288660917,-0.003861866,-0.044896181,-0.557143528
1751378446.211431980,-1.620106307,1.478391477,-1.429127110,-1.570696435,-3.652894992,1.116831816,0.142394676,0.052230409,-0.194559725,-0.000051457,0.426678491,0.426540260,-3.225194329,-4.391697817,-0.288656285,-0.003861613,-0.044861142,-0.556723729
1751378446.213462114,-1.619821580,1.478495320,-1.429515548,-1.570696538,-3.652043226,1.117683306,0.142331708,0.051612640,-0.193879117,-0.000051131,0.425087244,0.424949473,-3.229045786,-4.391509343,-0.288651821,-0.003861358,-0.044825961,-0.556303111
1751378446.217087030,-1.619536983,1.478597931,-1.429902626,-1.570696640,-3.651194642,1.118531615,0.142264320,0.050999258,-0.193198478,-0.000050806,0.423497250,0.423359939,-3.232887749,-4.391320621,-0.288647523,-0.003861101,-0.044790643,-0.555881705
1751378446.217360497,-1.619252526,1.478699319,-1.430288342,-1.570696741,-3.650349237,1.119376746,0.142192530,0.050390250,-0.192517812,-0.000050483,0.421908515,0.421771664,-3.236720175,-4.391131659,-0.288643391,-0.003860843,-0.044755190,-0.555459544
1751378446.219376326,-1.618968216,1.478799495,-1.430672697,-1.570696842,-3.649507007,1.120218703,0.142116357,0.049785602,-0.191837125,-0.000050161,0.420321043,0.420184653,-3.240543018,-4.390942466,-0.288639423,-0.003860583,-0.044719606,-0.555036659
1751378446.221365690,-1.618684063,1.478898465,-1.431055691,-1.570696942,-3.648667952,1.121057486,0.142035822,0.049185301,-0.191156423,-0.000049841,0.418734839,0.418598909,-3.244356237,-4.390753049,-0.288635620,-0.003860321,-0.044683895,-0.554613081
1751378446.227086067,-1.618116262,1.479092825,-1.431817594,-1.570697140,-3.646999351,1.122725545,0.141861741,0.047997681,-0.189794993,-0.000049205,0.415566251,0.415431241,-3.251953632,-4.390373579,-0.288628500,-0.003859792,-0.044612104,-0.553763973
1751378446.227287292,-1.617832632,1.479188232,-1.432196503,-1.570697238,-3.646169801,1.123554825,0.141768232,0.047410334,-0.189114275,-0.000048889,0.413983875,0.413849326,-3.255737722,-4.390183543,-0.288625182,-0.003859526,-0.044576031,-0.553338503
1751378446.229657173,-1.617832632,1.479188232,-1.432196503,-1.570697238,-3.646169801,1.123554825,0.141768232,0.047410334,-0.189114275,-0.000048889,0.413983875,0.413849326,-3.255737722,-4.390183543,-0.288625182,-0.003859526,-0.044576031,-0.553338503
1751378446.231757164,-1.617549192,1.479282469,-1.432574051,-1.570697335,-3.645343415,1.124380943,0.141670438,0.046827278,-0.188433563,-0.000048575,0.412402785,0.412268696,-3.259512020,-4.389993315,-0.288622024,-0.003859258,-0.044539843,-0.552912463
1751378446.233621359,-1.617265953,1.479375544,-1.432950237,-1.570697432,-3.644520189,1.125203901,0.141568378,0.046248498,-0.187752862,-0.000048262,0.410822983,0.410689354,-3.263276483,-4.389802907,-0.288619024,-0.003858988,-0.044503545,-0.552485884
1751378446.235512733,-1.616982922,1.479467466,-1.433325062,-1.570697528,-3.643700122,1.126023701,0.141462069,0.045673980,-0.187072177,-0.000047951,0.409244473,0.409111305,-3.267031069,-4.389612324,-0.288616182,-0.003858717,-0.044467140,-0.552058795
1751378446.237476110,-1.616700107,1.479558243,-1.433698526,-1.570697624,-3.642883210,1.126840347,0.141351532,0.045103711,-0.186391512,-0.000047641,0.407667259,0.407534551,-3.270775739,-4.389421576,-0.288613497,-0.003858444,-0.044430630,-0.551631225
1751378446.239466667,-1.616417518,1.479647884,-1.434070628,-1.570697719,-3.642069452,1.127653840,0.141236785,0.044537677,-0.185710873,-0.000047333,0.406091345,0.405959097,-3.274510452,-4.389230670,-0.288610967,-0.003858170,-0.044394019,-0.551203205
1751378446.241316080,-1.616135163,1.479736397,-1.434441369,-1.570697813,-3.641258844,1.128464184,0.141117848,0.043975862,-0.185030265,-0.000047026,0.404516734,0.404384947,-3.278235167,-4.389039615,-0.288608592,-0.003857894,-0.044357311,-0.550774762
1751378446.243448973,-1.615853050,1.479823790,-1.434810749,-1.570697907,-3.640451384,1.129271381,0.140994740,0.043418255,-0.184349693,-0.000046720,0.402943429,0.402812102,-3.281949846,-4.388848419,-0.288606371,-0.003857617,-0.044320507,-0.550345926
1751378446.245397091,-1.615571187,1.479910072,-1.435178768,-1.570698000,-3.639647070,1.130075433,0.140867479,0.042864839,-0.183669162,-0.000046416,0.401371434,0.401240568,-3.285654448,-4.388657089,-0.288604302,-0.003857339,-0.044283612,-0.549916726
1751378446.247411728,-1.615289583,1.479995252,-1.435545426,-1.570698093,-3.638845898,1.130876344,0.140736084,0.042315603,-0.182988677,-0.000046114,0.399800752,0.399670346,-3.289348933,-4.388465635,-0.288602384,-0.003857059,-0.044246629,-0.549487189
1751378446.249362469,-1.615008245,1.480079338,-1.435910723,-1.570698185,-3.638047866,1.131674115,0.140600574,0.041770530,-0.182308243,-0.000045813,0.398231386,0.398101440,-3.293033264,-4.388274065,-0.288600616,-0.003856778,-0.044209560,-0.549057343
1751378446.251477718,-1.614727183,1.480162337,-1.436274659,-1.570698276,-3.637252971,1.132468750,0.140460969,0.041229609,-0.181627864,-0.000045513,0.396663339,0.396533853,-3.296707402,-4.388082385,-0.288598998,-0.003856496,-0.044172410,-0.548627218
1751378446.253331661,-1.614446404,1.480244259,-1.436637235,-1.570698367,-3.636461212,1.133260252,0.140317286,0.040692823,-0.180947546,-0.000045215,0.395096613,0.394967587,-3.300371308,-4.387890605,-0.288597528,-0.003856212,-0.044135180,-0.548196838
1751378446.255373716,-1.614165917,1.480325111,-1.436998449,-1.570698457,-3.635672584,1.134048622,0.140169545,0.040160161,-0.180267293,-0.000044918,0.393531211,0.393402646,-3.304024944,-4.387698732,-0.288596205,-0.003855927,-0.044097874,-0.547766234
1751378446.257331610,-1.613885729,1.480404902,-1.437358304,-1.570698546,-3.634887086,1.134833863,0.140017765,0.039631607,-0.179587109,-0.000044623,0.391967137,0.391839032,-3.307668272,-4.387506774,-0.288595028,-0.003855641,-0.044060494,-0.547335431
1751378446.262547016,-1.613605848,1.480483640,-1.437716798,-1.570698635,-3.634104714,1.135615979,0.139861963,0.039107147,-0.178907000,-0.000044329,0.390404392,0.390276747,-3.311301257,-4.387314740,-0.288593996,-0.003855354,-0.044023045,-0.546904456
1751378446.264924765,-1.613047042,1.480637990,-1.438429706,-1.570698812,-3.632549342,1.137170843,0.139538373,0.038070455,-0.177547025,-0.000043745,0.387282899,0.387156175,-3.318536041,-4.386930474,-0.288592361,-0.003854776,-0.043947947,-0.546042096
1751378446.265452623,-1.612768132,1.480713618,-1.438784120,-1.570698899,-3.631776335,1.137943597,0.139370620,0.037558195,-0.176867168,-0.000043456,0.385724156,0.385597892,-3.322137770,-4.386738258,-0.288591757,-0.003854486,-0.043910305,-0.545610765
1751378446.271234274,-1.612489562,1.480788225,-1.439137175,-1.570698985,-3.631006444,1.138713235,0.139198922,0.037049973,-0.176187403,-0.000043167,0.384166751,0.384040948,-3.325729006,-4.386545997,-0.288591292,-0.003854194,-0.043872604,-0.545179366
1751378446.271689415,-1.611933472,1.480934411,-1.439839206,-1.570699157,-3.629476001,1.140243178,0.138843759,0.036045589,-0.174828171,-0.000042595,0.381055964,0.380931082,-3.332879860,-4.386161373,-0.288590780,-0.003853607,-0.043797037,-0.544316472
1751378446.273563147,-1.611655967,1.481006006,-1.440188182,-1.570699242,-3.628715442,1.141003487,0.138660333,0.035549398,-0.174148712,-0.000042311,0.379502586,0.379378163,-3.336439408,-4.385969025,-0.288590730,-0.003853312,-0.043759178,-0.543885026
1751378446.276399612,-1.611378833,1.481076611,-1.440535800,-1.570699326,-3.627957989,1.141760691,0.138473033,0.035057190,-0.173469364,-0.000042029,0.377950553,0.377826591,-3.339988320,-4.385776664,-0.288590816,-0.003853017,-0.043721271,-0.543453615
1751378446.277693033,-1.611378833,1.481076611,-1.440535800,-1.570699326,-3.627957989,1.141760691,0.138473033,0.035057190,-0.173469364,-0.000042029,0.377950553,0.377826591,-3.339988320,-4.385776664,-0.288590816,-0.003853017,-0.043721271,-0.543453615
1751378446.279583454,-1.611102077,1.481146237,-1.440882060,-1.570699410,-3.627203639,1.142514794,0.138281880,0.034568950,-0.172790131,-0.000041747,0.376399868,0.376276366,-3.343526565,-4.385584298,-0.288591036,-0.003852720,-0.043683320,-0.543022263
1751378446.281557083,-1.610825708,1.481214890,-1.441226961,-1.570699493,-3.626452389,1.143265797,0.138086890,0.034084664,-0.172111017,-0.000041468,0.374850531,0.374727489,-3.347054107,-4.385391933,-0.288591390,-0.003852422,-0.043645327,-0.542590995
1751378446.288125038,-1.610549732,1.481282578,-1.441570504,-1.570699576,-3.625704236,1.144013705,0.137888083,0.033604318,-0.171432027,-0.000041189,0.373302544,0.373179963,-3.350570911,-4.385199580,-0.288591876,-0.003852124,-0.043607295,-0.542159835
1751378446.289590836,-1.609724244,1.481479934,-1.442592987,-1.570699820,-3.623478334,1.146238875,0.137268941,0.032186781,-0.169395839,-0.000040362,0.368666697,0.368545496,-3.361056559,-4.384622657,-0.288594116,-0.003851223,-0.043492992,-0.540867241
1751378446.291345596,-1.609449920,1.481543842,-1.442931100,-1.570699901,-3.622742544,1.146974424,0.137055046,0.031722055,-0.168717384,-0.000040089,0.367124122,0.367003382,-3.364530076,-4.384430422,-0.288595120,-0.003850921,-0.043454831,-0.540436751
1751378446.293406487,-1.609176027,1.481606825,-1.443267857,-1.570699981,-3.622009837,1.147706889,0.136837425,0.031261199,-0.168039074,-0.000039817,0.365582903,0.365462624,-3.367992687,-4.384238235,-0.288596249,-0.003850618,-0.043416643,-0.540006488
1751378446.295396805,-1.608902573,1.481668890,-1.443603257,-1.570700060,-3.621280211,1.148436275,0.136616096,0.030804199,-0.167360912,-0.000039547,0.364043041,0.363923221,-3.371444361,-4.384046105,-0.288597505,-0.003850314,-0.043378433,-0.539576473
1751378446.297364473,-1.608629565,1.481730044,-1.443937300,-1.570700139,-3.620553664,1.149162583,0.136391077,0.030351040,-0.166682901,-0.000039278,0.362504535,0.362385176,-3.374885065,-4.383854039,-0.288598884,-0.003850010,-0.043340202,-0.539146730
1751378446.299423695,-1.608357011,1.481790296,-1.444269988,-1.570700217,-3.619830192,1.149885817,0.136162385,0.029901709,-0.166005047,-0.000039010,0.360967388,0.360848489,-3.378314767,-4.383662045,-0.288600386,-0.003849705,-0.043301954,-0.538717281
1751378446.301407337,-1.608084918,1.481849653,-1.444601321,-1.570700295,-3.619109794,1.150605978,0.135930039,0.029456191,-0.165327353,-0.000038744,0.359431598,0.359313160,-3.381733434,-4.383470130,-0.288602010,-0.003849399,-0.043263689,-0.538288149
1751378446.303295851,-1.607813293,1.481908124,-1.444931298,-1.570700372,-3.618392465,1.151323070,0.135694056,0.029014473,-0.164649823,-0.000038479,0.357897168,0.357779190,-3.385141036,-4.383278302,-0.288603754,-0.003849093,-0.043225412,-0.537859356
1751378446.305425882,-1.607542144,1.481965714,-1.445259920,-1.570700449,-3.617678204,1.152037096,0.135454455,0.028576539,-0.163972460,-0.000038216,0.356364096,0.356246579,-3.388537540,-4.383086568,-0.288605618,-0.003848786,-0.043187124,-0.537430923
