mathias31415/motion_primitives_from_planned_trajectory/data/trajectory_20250626_095502_executed.csv
timestamp,shoulder_lift_joint_pos,elbow_joint_pos,wrist_1_joint_pos,wrist_2_joint_pos,wrist_3_joint_pos,shoulder_pan_joint_pos,shoulder_lift_joint_vel,elbow_joint_vel,wrist_1_joint_vel,wrist_2_joint_vel,wrist_3_joint_vel,shoulder_pan_joint_vel,shoulder_lift_joint_eff,elbow_joint_eff,wrist_1_joint_eff,wrist_2_joint_eff,wrist_3_joint_eff,shoulder_pan_joint_eff
1750924513.637402773,-1.420270515,-1.552078874,-1.753009328,1.558743820,-1.671069663,-3.241045962,0.000000000,0.000000000,0.000000000,0.000000000,0.000000000,0.000000000,2.460902619,4.234820992,0.301679106,-0.000994889,0.000000000,-0.000000000
1750924513.639160395,-1.420270515,-1.552078874,-1.753009328,1.558743820,-1.671069663,-3.241045962,0.000000000,0.000000000,0.000000000,0.000000000,0.000000000,0.000000000,2.460902619,4.234820992,0.301679106,-0.000994889,0.000000000,-0.000000000
1750924513.644465923,-1.420270515,-1.552078874,-1.753009328,1.558743820,-1.671069663,-3.241045962,0.000000000,0.000000000,0.000000000,0.000000000,0.000000000,0.000000000,2.460902619,4.234820992,0.301679106,-0.000994889,0.000000000,-0.000000000
1750924513.645506859,-1.420270429,-1.552078566,-1.753009696,1.558743808,-1.671070663,-3.241046962,0.000085462,0.000307962,-0.000367762,-0.000011882,-0.001000000,-0.000999757,2.589629652,4.317340133,0.293492790,-0.003802349,-0.028170325,-0.358576960
1750924513.650633335,-1.420269746,-1.552076103,-1.753012638,1.558743713,-1.671078663,-3.241054960,0.000256386,0.000923885,-0.001103287,-0.000035645,-0.003000000,-0.002999270,2.589625215,4.317338371,0.293492752,-0.003802330,-0.028170325,-0.358576456
1750924513.651408672,-1.420269746,-1.552076103,-1.753012638,1.558743713,-1.671078663,-3.241054960,0.000256386,0.000923885,-0.001103287,-0.000035645,-0.003000000,-0.002999270,2.589625215,4.317338371,0.293492752,-0.003802330,-0.028170325,-0.358576456
1750924513.654053926,-1.420269147,-1.552073947,-1.753015212,1.558743630,-1.671085663,-3.241061958,0.000341848,0.001231847,-0.001471050,-0.000047527,-0.004000000,-0.003999026,2.589621333,4.317336830,0.293492718,-0.003802314,-0.028170325,-0.358576015
1750924513.656658649,-1.420268378,-1.552071175,-1.753018522,1.558743523,-1.671094663,-3.241070956,0.000427310,0.001539808,-0.001838812,-0.000059409,-0.005000000,-0.004998783,2.589616342,4.317334848,0.293492674,-0.003802293,-0.028170325,-0.358575449
1750924513.657703161,-1.420267438,-1.552067788,-1.753022568,1.558743393,-1.671105663,-3.241081953,0.000512772,0.001847770,-0.002206575,-0.000071290,-0.006000000,-0.005998539,2.589610242,4.317332426,0.293492621,-0.003802267,-0.028170325,-0.358574756
1750924513.659173965,-1.420266327,-1.552063784,-1.753027349,1.558743238,-1.671118663,-3.241094950,0.000598234,0.002155731,-0.002574337,-0.000083172,-0.007000000,-0.006998296,2.589603032,4.317329563,0.293492558,-0.003802237,-0.028170325,-0.358573938
1750924513.661035061,-1.420265045,-1.552059165,-1.753032865,1.558743060,-1.671133663,-3.241109947,0.000683696,0.002463693,-0.002942100,-0.000095054,-0.008000000,-0.007998052,2.589594713,4.317326259,0.293492485,-0.003802203,-0.028170325,-0.358572994
1750924513.663020372,-1.420263592,-1.552053930,-1.753039117,1.558742858,-1.671150663,-3.241126942,0.000769157,0.002771655,-0.003309862,-0.000106935,-0.009000000,-0.008997809,2.589585285,4.317322515,0.293492402,-0.003802163,-0.028170325,-0.358571923
1750924513.665288687,-1.420261968,-1.552048078,-1.753046104,1.558742632,-1.671169663,-3.241145938,0.000854619,0.003079616,-0.003677625,-0.000118817,-0.010000000,-0.009997565,2.589574747,4.317318331,0.293492310,-0.003802119,-0.028170325,-0.358570727
1750924513.666999578,-1.420260174,-1.552041611,-1.753053827,1.558742383,-1.671190663,-3.241166933,0.000940081,0.003387578,-0.004045387,-0.000130699,-0.011000000,-0.010997322,2.589563100,4.317313706,0.293492208,-0.003802070,-0.028170325,-0.358569405
1750924513.668920040,-1.420258208,-1.552034528,-1.753062286,1.558742109,-1.671213663,-3.241189927,0.001025543,0.003695540,-0.004413150,-0.000142581,-0.012000000,-0.011997078,2.589550343,4.317308640,0.293492097,-0.003802017,-0.028170325,-0.358567957
1750924513.670999050,-1.420256072,-1.552026829,-1.753071480,1.558741812,-1.671238663,-3.241214921,0.001111005,0.004003501,-0.004780912,-0.000154462,-0.013000000,-0.012996835,2.589536477,4.317303133,0.293491975,-0.003801959,-0.028170325,-0.358566383
1750924513.672923326,-1.420253764,-1.552018514,-1.753081410,1.558741491,-1.671265663,-3.241241914,0.001196467,0.004311463,-0.005148675,-0.000166344,-0.014000000,-0.013996591,2.589521501,4.317297185,0.293491844,-0.003801896,-0.028170325,-0.358564683
1750924513.674924612,-1.420251286,-1.552009583,-1.753092075,1.558741147,-1.671294663,-3.241270907,0.001281929,0.004619424,-0.005516437,-0.000178226,-0.015000000,-0.014996348,2.589505416,4.317290796,0.293491704,-0.003801829,-0.028170325,-0.358562857
1750924513.676914454,-1.420248636,-1.552000036,-1.753103475,1.558740779,-1.671325663,-3.241301900,0.001367391,0.004927386,-0.005884200,-0.000190107,-0.016000000,-0.015996104,2.589488221,4.317283967,0.293491553,-0.003801757,-0.028170325,-0.358560904
1750924513.678938866,-1.420245816,-1.551989874,-1.753115612,1.558740386,-1.671358663,-3.241334892,0.001452853,0.005235348,-0.006251962,-0.000201989,-0.017000000,-0.016995861,2.589469915,4.317276696,0.293491393,-0.003801680,-0.028170325,-0.358558826
1750924513.681009293,-1.420242825,-1.551979095,-1.753128483,1.558739971,-1.671393663,-3.241369883,0.001538315,0.005543309,-0.006619725,-0.000213871,-0.018000000,-0.017995617,2.589450500,4.317268984,0.293491223,-0.003801599,-0.028170325,-0.358556622
1750924513.683099747,-1.420239663,-1.551967700,-1.753142090,1.558739531,-1.671430663,-3.241406874,0.001623777,0.005851271,-0.006987487,-0.000225753,-0.019000000,-0.018995374,2.589429975,4.317260831,0.293491044,-0.003801513,-0.028170325,-0.358554292
1750924513.691495657,-1.420239663,-1.551967700,-1.753142090,1.558739531,-1.671430663,-3.241406874,0.001623777,0.005851271,-0.006987487,-0.000225753,-0.019000000,-0.018995374,2.589429975,4.317260831,0.293491044,-0.003801513,-0.028170325,-0.358554292
1750924513.691544771,-1.420229151,-1.551929821,-1.753187325,1.558738070,-1.671553663,-3.241529844,0.001880163,0.006775156,-0.008090775,-0.000261398,-0.022000000,-0.021994643,2.589361739,4.317233722,0.293490447,-0.003801228,-0.028170325,-0.358546544
1750924513.693192482,-1.420225305,-1.551915963,-1.753203875,1.558737535,-1.671598663,-3.241574833,0.001965625,0.007083118,-0.008458537,-0.000273279,-0.023000000,-0.022994400,2.589336772,4.317223803,0.293490229,-0.003801123,-0.028170325,-0.358543709
1750924513.695403814,-1.420221289,-1.551901489,-1.753221159,1.558736976,-1.671645663,-3.241621822,0.002051087,0.007391079,-0.008826300,-0.000285161,-0.024000000,-0.023994156,2.589310695,4.317213441,0.293490001,-0.003801014,-0.028170325,-0.358540747
1750924513.697323561,-1.420221289,-1.551901489,-1.753221159,1.558736976,-1.671645663,-3.241621822,0.002051087,0.007391079,-0.008826300,-0.000285161,-0.024000000,-0.023994156,2.589310695,4.317213441,0.293490001,-0.003801014,-0.028170325,-0.358540747
1750924513.699759722,-1.420217101,-1.551886398,-1.753239180,1.558736394,-1.671694663,-3.241670810,0.002136549,0.007699041,-0.009194062,-0.000297043,-0.025000000,-0.024993913,2.589283508,4.317202638,0.293489763,-0.003800900,-0.028170325,-0.358537660
1750924513.701118469,-1.420212742,-1.551870692,-1.753257936,1.558735788,-1.671745663,-3.241721797,0.002222010,0.008007002,-0.009561825,-0.000308925,-0.026000000,-0.025993669,2.589255209,4.317191393,0.293489516,-0.003800782,-0.028170325,-0.358534446
1750924513.701383114,-1.420208213,-1.551854370,-1.753277427,1.558735159,-1.671798663,-3.241774785,0.002307472,0.008314964,-0.009929587,-0.000320806,-0.027000000,-0.026993426,2.589225799,4.317179705,0.293489258,-0.003800658,-0.028170325,-0.358531106
1750924513.705545187,-1.420198641,-1.551819879,-1.753318616,1.558733828,-1.671910663,-3.241886757,0.002478396,0.008930887,-0.010665112,-0.000344570,-0.029000000,-0.028992939,2.589163646,4.317155002,0.293488715,-0.003800398,-0.028170325,-0.358524047
1750924513.706068993,-1.420198641,-1.551819879,-1.753318616,1.558733828,-1.671910663,-3.241886757,0.002478396,0.008930887,-0.010665112,-0.000344570,-0.029000000,-0.028992939,2.589163646,4.317155002,0.293488715,-0.003800398,-0.028170325,-0.358524047
1750924513.707396746,-1.420193599,-1.551801709,-1.753340314,1.558733127,-1.671969663,-3.241945743,0.002563858,0.009238849,-0.011032874,-0.000356451,-0.030000000,-0.029992695,2.589130903,4.317141987,0.293488429,-0.003800261,-0.028170325,-0.358520328
1750924513.709509611,-1.420188386,-1.551782923,-1.753362748,1.558732402,-1.672030663,-3.242006728,0.002649320,0.009546811,-0.011400637,-0.000368333,-0.031000000,-0.030992452,2.589097047,4.317128529,0.293488133,-0.003800119,-0.028170325,-0.358516482
1750924513.711182117,-1.420183002,-1.551763522,-1.753385917,1.558731653,-1.672093663,-3.242069713,0.002734782,0.009854772,-0.011768399,-0.000380215,-0.032000000,-0.031992208,2.589062080,4.317114628,0.293487827,-0.003799973,-0.028170325,-0.358512510
1750924513.713152170,-1.420177447,-1.551743504,-1.753409821,1.558730881,-1.672158663,-3.242134697,0.002820244,0.010162734,-0.012136162,-0.000392097,-0.033000000,-0.032991965,2.589026001,4.317100283,0.293487512,-0.003799822,-0.028170325,-0.358508411
1750924513.715173483,-1.420177447,-1.551743504,-1.753409821,1.558730881,-1.672158663,-3.242134697,0.002820244,0.010162734,-0.012136162,-0.000392097,-0.033000000,-0.032991965,2.589026001,4.317100283,0.293487512,-0.003799822,-0.028170325,-0.358508411
1750924513.719421148,-1.420171721,-1.551722871,-1.753434462,1.558730085,-1.672225663,-3.242201681,0.002905706,0.010470695,-0.012503924,-0.000403978,-0.034000000,-0.033991721,2.588988810,4.317085495,0.293487187,-0.003799666,-0.028170325,-0.358504186
1750924513.719493151,-1.420165824,-1.551701621,-1.753459837,1.558729265,-1.672294663,-3.242270664,0.002991168,0.010778657,-0.012871687,-0.000415860,-0.035000000,-0.034991478,2.588950506,4.317070264,0.293486852,-0.003799506,-0.028170325,-0.358499834
1750924513.721183538,-1.420159756,-1.551679756,-1.753485948,1.558728422,-1.672365663,-3.242341647,0.003076630,0.011086619,-0.013239449,-0.000427742,-0.036000000,-0.035991234,2.588911090,4.317054589,0.293486507,-0.003799341,-0.028170325,-0.358495356
1750924513.722958326,-1.420153517,-1.551657275,-1.753512795,1.558727554,-1.672438663,-3.242414629,0.003162092,0.011394580,-0.013607212,-0.000439623,-0.037000000,-0.036990991,2.588870561,4.317038470,0.293486153,-0.003799171,-0.028170325,-0.358490751
1750924513.725110054,-1.420147108,-1.551634178,-1.753540377,1.558726663,-1.672513663,-3.242489610,0.003247554,0.011702542,-0.013974974,-0.000451505,-0.038000000,-0.037990748,2.588828919,4.317021906,0.293485789,-0.003798997,-0.028170325,-0.358486019
1750924513.727085352,-1.420140527,-1.551610465,-1.753568695,1.558725748,-1.672590663,-3.242566592,0.003333016,0.012010504,-0.014342737,-0.000463387,-0.039000000,-0.038990504,2.588786164,4.317004899,0.293485416,-0.003798818,-0.028170325,-0.358481160
1750924513.729346514,-1.420133776,-1.551586136,-1.753597748,1.558724810,-1.672669663,-3.242645573,0.003418478,0.012318465,-0.014710499,-0.000475269,-0.040000000,-0.039990261,2.588742295,4.316987447,0.293485032,-0.003798634,-0.028170325,-0.358476175
1750924513.731147289,-1.420126853,-1.551561191,-1.753627537,1.558723847,-1.672750663,-3.242726553,0.003503940,0.012626427,-0.015078262,-0.000487150,-0.041000000,-0.040990017,2.588697313,4.316969550,0.293484639,-0.003798446,-0.028170325,-0.358471063
1750924513.733126402,-1.420119760,-1.551535630,-1.753658061,1.558722861,-1.672833663,-3.242809533,0.003589401,0.012934389,-0.015446024,-0.000499032,-0.042000000,-0.041989774,2.588651217,4.316951208,0.293484237,-0.003798252,-0.028170325,-0.358465823
1750924513.735194683,-1.420112496,-1.551509453,-1.753689321,1.558721851,-1.672918663,-3.242894512,0.003674863,0.013242350,-0.015813787,-0.000510914,-0.043000000,-0.042989530,2.588604008,4.316932420,0.293483824,-0.003798055,-0.028170325,-0.358460457
1750924513.737190723,-1.420105060,-1.551482661,-1.753721316,1.558720817,-1.673005663,-3.242981491,0.003760325,0.013550312,-0.016181549,-0.000522795,-0.044000000,-0.043989287,2.588555683,4.316913188,0.293483402,-0.003797852,-0.028170325,-0.358454964
1750924513.739078760,-1.420097454,-1.551455252,-1.753754047,1.558719760,-1.673094663,-3.243070469,0.003845787,0.013858273,-0.016549312,-0.000534677,-0.045000000,-0.044989043,2.588506245,4.316893509,0.293482970,-0.003797645,-0.028170325,-0.358449344
1750924513.741046429,-1.420089677,-1.551427228,-1.753787514,1.558718679,-1.673185663,-3.243161447,0.003931249,0.014166235,-0.016917074,-0.000546559,-0.046000000,-0.045988800,2.588455691,4.316873385,0.293482529,-0.003797433,-0.028170325,-0.358443596
1750924513.742937803,-1.420081729,-1.551398587,-1.753821715,1.558717574,-1.673278663,-3.243254424,0.004016711,0.014474197,-0.017284837,-0.000558441,-0.047000000,-0.046988556,2.588404022,4.316852815,0.293482078,-0.003797217,-0.028170325,-0.358437722
1750924513.745094299,-1.420073610,-1.551369331,-1.753856653,1.558716445,-1.673373663,-3.243349401,0.004102173,0.014782158,-0.017652599,-0.000570322,-0.048000000,-0.047988313,2.588351238,4.316831798,0.293481617,-0.003796996,-0.028170325,-0.358431720
1750924513.747151852,-1.420065321,-1.551339459,-1.753892326,1.558715292,-1.673470663,-3.243446377,0.004187635,0.015090120,-0.018020362,-0.000582204,-0.049000000,-0.048988069,2.588297339,4.316810334,0.293481146,-0.003796770,-0.028170325,-0.358425591
1750924513.749083042,-1.420056860,-1.551308970,-1.753928734,1.558714116,-1.673569663,-3.243545353,0.004273097,0.015398082,-0.018388124,-0.000594086,-0.050000000,-0.049987826,2.588242324,4.316788423,0.293480666,-0.003796539,-0.028170325,-0.358419334
1750924513.751148462,-1.420048228,-1.551277866,-1.753965878,1.558712916,-1.673670663,-3.243646329,0.004358559,0.015706043,-0.018755887,-0.000605967,-0.051000000,-0.050987582,2.588186192,4.316766065,0.293480176,-0.003796304,-0.028170325,-0.358412950
1750924513.755795479,-1.420039426,-1.551246146,-1.754003758,1.558711692,-1.673773663,-3.243749304,0.004444021,0.016014005,-0.019123649,-0.000617849,-0.052000000,-0.051987339,2.588128944,4.316743260,0.293479676,-0.003796064,-0.028170325,-0.358406439
1750924513.755861998,-1.420039426,-1.551246146,-1.754003758,1.558711692,-1.673773663,-3.243749304,0.004444021,0.016014005,-0.019123649,-0.000617849,-0.052000000,-0.051987339,2.588128944,4.316743260,0.293479676,-0.003796064,-0.028170325,-0.358406439
1750924513.762172699,-1.420011992,-1.551147291,-1.754121810,1.558707878,-1.674094663,-3.244070226,0.004700407,0.016937890,-0.020226937,-0.000653494,-0.055000000,-0.054986608,2.587950500,4.316672156,0.293478119,-0.003795316,-0.028170325,-0.358386139
1750924513.762250662,-1.420011992,-1.551147291,-1.754121810,1.558707878,-1.674094663,-3.244070226,0.004700407,0.016937890,-0.020226937,-0.000653494,-0.055000000,-0.054986608,2.587950500,4.316672156,0.293478119,-0.003795316,-0.028170325,-0.358386139
1750924513.762271166,-1.420011992,-1.551147291,-1.754121810,1.558707878,-1.674094663,-3.244070226,0.004700407,0.016937890,-0.020226937,-0.000653494,-0.055000000,-0.054986608,2.587950500,4.316672156,0.293478119,-0.003795316,-0.028170325,-0.358386139
1750924513.763151407,-1.420002506,-1.551113107,-1.754162631,1.558706559,-1.674205663,-3.244181199,0.004785869,0.017245851,-0.020594699,-0.000665376,-0.056000000,-0.055986365,2.587888784,4.316647557,0.293477580,-0.003795058,-0.028170325,-0.358379117
1750924513.765009403,-1.419992849,-1.551078307,-1.754204188,1.558705217,-1.674318663,-3.244294171,0.004871331,0.017553813,-0.020962461,-0.000677258,-0.057000000,-0.056986121,2.587825949,4.316622510,0.293477032,-0.003794794,-0.028170325,-0.358371968
1750924513.767091513,-1.419983021,-1.551042892,-1.754246481,1.558703850,-1.674433663,-3.244409143,0.004956793,0.017861775,-0.021330224,-0.000689139,-0.058000000,-0.057985878,2.587761997,4.316597013,0.293476474,-0.003794526,-0.028170325,-0.358364690
1750924513.769080877,-1.419973022,-1.551006860,-1.754289509,1.558702460,-1.674550663,-3.244526115,0.005042254,0.018169736,-0.021697986,-0.000701021,-0.059000000,-0.058985634,2.587696926,4.316571067,0.293475906,-0.003794253,-0.028170325,-0.358357285
1750924513.771031857,-1.419962852,-1.550970213,-1.754333273,1.558701046,-1.674669663,-3.244645086,0.005127716,0.018477698,-0.022065749,-0.000712903,-0.060000000,-0.059985391,2.587630737,4.316544670,0.293475329,-0.003793976,-0.028170325,-0.358349751
1750924513.773001909,-1.419952511,-1.550932949,-1.754377772,1.558699608,-1.674790663,-3.244766056,0.005213178,0.018785660,-0.022433511,-0.000724785,-0.061000000,-0.060985147,2.587563428,4.316517824,0.293474742,-0.003793693,-0.028170325,-0.358342089
1750924513.776151896,-1.419952511,-1.550932949,-1.754377772,1.558699608,-1.674790663,-3.244766056,0.005213178,0.018785660,-0.022433511,-0.000724785,-0.061000000,-0.060985147,2.587563428,4.316517824,0.293474742,-0.003793693,-0.028170325,-0.358342089
1750924513.777197599,-1.419941999,-1.550895070,-1.754423007,1.558698147,-1.674913663,-3.244889026,0.005298640,0.019093621,-0.022801274,-0.000736666,-0.062000000,-0.061984904,2.587494999,4.316490527,0.293474145,-0.003793406,-0.028170325,-0.358334300
1750924513.779155493,-1.419931316,-1.550856575,-1.754468977,1.558696662,-1.675038663,-3.245013996,0.005384102,0.019401583,-0.023169036,-0.000748548,-0.063000000,-0.062984660,2.587425451,4.316462779,0.293473538,-0.003793115,-0.028170325,-0.358326382
1750924513.781193495,-1.419920463,-1.550817464,-1.754515683,1.558695153,-1.675165663,-3.245140965,0.005469564,0.019709544,-0.023536799,-0.000760430,-0.064000000,-0.063984417,2.587354783,4.316434579,0.293472922,-0.003792818,-0.028170325,-0.358318335
1750924513.783050299,-1.419909438,-1.550777737,-1.754563125,1.558693620,-1.675294663,-3.245269933,0.005555026,0.020017506,-0.023904561,-0.000772311,-0.065000000,-0.064984173,2.587282994,4.316405928,0.293472296,-0.003792517,-0.028170325,-0.358310161
1750924513.785174131,-1.419898242,-1.550737394,-1.754611302,1.558692064,-1.675425663,-3.245400901,0.005640488,0.020325468,-0.024272324,-0.000784193,-0.066000000,-0.065983930,2.587210084,4.316376825,0.293471661,-0.003792211,-0.028170325,-0.358301858
1750924513.787209511,-1.419886876,-1.550696435,-1.754660214,1.558690483,-1.675558663,-3.245533869,0.005725950,0.020633429,-0.024640086,-0.000796075,-0.067000000,-0.066983686,2.587136053,4.316347270,0.293471015,-0.003791901,-0.028170325,-0.358293426
1750924513.789059639,-1.419875339,-1.550654860,-1.754709862,1.558688879,-1.675693663,-3.245668836,0.005811412,0.020941391,-0.025007849,-0.000807957,-0.068000000,-0.067983443,2.587060900,4.316317262,0.293470360,-0.003791586,-0.028170325,-0.358284866
1750924513.791102409,-1.419863630,-1.550612669,-1.754760245,1.558687251,-1.675830663,-3.245805803,0.005896874,0.021249353,-0.025375611,-0.000819838,-0.069000000,-0.068983199,2.586984625,4.316286801,0.293469696,-0.003791265,-0.028170325,-0.358276177
1750924513.793113947,-1.419851751,-1.550569862,-1.754811364,1.558685600,-1.675969663,-3.245944769,0.005982336,0.021557314,-0.025743374,-0.000831720,-0.070000000,-0.069982956,2.586907228,4.316255887,0.293469021,-0.003790941,-0.028170325,-0.358267359
1750924513.795171022,-1.419839701,-1.550526440,-1.754863219,1.558683925,-1.676110663,-3.246085735,0.006067798,0.021865276,-0.026111136,-0.000843602,-0.071000000,-0.070982712,2.586828708,4.316224518,0.293468337,-0.003790611,-0.028170325,-0.358258412
1750924513.797067881,-1.419827480,-1.550482401,-1.754915809,1.558682225,-1.676253663,-3.246228700,0.006153260,0.022173238,-0.026478899,-0.000855483,-0.072000000,-0.071982469,2.586749064,4.316192696,0.293467643,-0.003790277,-0.028170325,-0.358249336
1750924513.799151897,-1.419815088,-1.550437747,-1.754969134,1.558680503,-1.676398663,-3.246373665,0.006238722,0.022481199,-0.026846661,-0.000867365,-0.073000000,-0.072982225,2.586668298,4.316160419,0.293466940,-0.003789938,-0.028170325,-0.358240132
1750924513.801062822,-1.419802525,-1.550392477,-1.755023196,1.558678756,-1.676545663,-3.246520629,0.006324184,0.022789161,-0.027214424,-0.000879247,-0.074000000,-0.073981982,2.586586407,4.316127687,0.293466227,-0.003789594,-0.028170325,-0.358230798
1750924513.803198576,-1.419789791,-1.550346590,-1.755077992,1.558676986,-1.676694663,-3.246669592,0.006409646,0.023097122,-0.027582186,-0.000891129,-0.075000000,-0.074981739,2.586503391,4.316094499,0.293465504,-0.003789246,-0.028170325,-0.358221335
1750924513.805209637,-1.419789791,-1.550346590,-1.755077992,1.558676986,-1.676694663,-3.246669592,0.006409646,0.023097122,-0.027582186,-0.000891129,-0.075000000,-0.074981739,2.586503391,4.316094499,0.293465504,-0.003789246,-0.028170325,-0.358221335
1750924513.807178497,-1.419776887,-1.550300088,-1.755133524,1.558675192,-1.676845663,-3.246820556,0.006495107,0.023405084,-0.027949949,-0.000903010,-0.076000000,-0.075981495,2.586419251,4.316060856,0.293464771,-0.003788892,-0.028170325,-0.358211743
1750924513.815771341,-1.419763811,-1.550252970,-1.755189792,1.558673374,-1.676998663,-3.246973518,0.006580569,0.023713046,-0.028317711,-0.000914892,-0.077000000,-0.076981252,2.586333986,4.316026756,0.293464029,-0.003788534,-0.028170325,-0.358202021
1750924513.815838099,-1.419750564,-1.550205236,-1.755246795,1.558671532,-1.677153663,-3.247128481,0.006666031,0.024021007,-0.028685474,-0.000926774,-0.078000000,-0.077981008,2.586247595,4.315992200,0.293463277,-0.003788172,-0.028170325,-0.358192170
1750924513.815857410,-1.419750564,-1.550205236,-1.755246795,1.558671532,-1.677153663,-3.247128481,0.006666031,0.024021007,-0.028685474,-0.000926774,-0.078000000,-0.077981008,2.586247595,4.315992200,0.293463277,-0.003788172,-0.028170325,-0.358192170
1750924513.815875530,-1.419737147,-1.550156886,-1.755304534,1.558669667,-1.677310663,-3.247285442,0.006751493,0.024328969,-0.029053236,-0.000938655,-0.079000000,-0.078980765,2.586160078,4.315957187,0.293462515,-0.003787804,-0.028170325,-0.358182189
1750924513.817324400,-1.419737147,-1.550156886,-1.755304534,1.558669667,-1.677310663,-3.247285442,0.006751493,0.024328969,-0.029053236,-0.000938655,-0.079000000,-0.078980765,2.586160078,4.315957187,0.293462515,-0.003787804,-0.028170325,-0.358182189
1750924513.819036961,-1.419723558,-1.550107920,-1.755363008,1.558667777,-1.677469663,-3.247444404,0.006836955,0.024636931,-0.029420999,-0.000950537,-0.080000000,-0.079980521,2.586071434,4.315921716,0.293461743,-0.003787432,-0.028170325,-0.358172079
1750924513.821108818,-1.419709799,-1.550058338,-1.755422218,1.558665864,-1.677630663,-3.247605365,0.006922417,0.024944892,-0.029788761,-0.000962419,-0.081000000,-0.080980278,2.585981664,4.315885787,0.293460962,-0.003787055,-0.028170325,-0.358161839
1750924513.823098183,-1.419695869,-1.550008140,-1.755482163,1.558663928,-1.677793663,-3.247768325,0.007007879,0.025252854,-0.030156524,-0.000974301,-0.082000000,-0.081980034,2.585890766,4.315849400,0.293460171,-0.003786673,-0.028170325,-0.358151469
1750924513.825107574,-1.419681767,-1.549957327,-1.755542844,1.558661967,-1.677958663,-3.247933285,0.007093341,0.025560815,-0.030524286,-0.000986182,-0.083000000,-0.082979791,2.585798740,4.315812554,0.293459371,-0.003786286,-0.028170325,-0.358140969
1750924513.827091694,-1.419667495,-1.549905897,-1.755604260,1.558659983,-1.678125663,-3.248100244,0.007178803,0.025868777,-0.030892049,-0.000998064,-0.084000000,-0.083979547,2.585705586,4.315775249,0.293458561,-0.003785895,-0.028170325,-0.358130339
1750924513.830788136,-1.419653052,-1.549853852,-1.755666412,1.558657975,-1.678294663,-3.248269203,0.007264265,0.026176739,-0.031259811,-0.001009946,-0.085000000,-0.084979304,2.585611303,4.315737484,0.293457741,-0.003785499,-0.028170325,-0.358119578
1750924513.830924988,-1.419638438,-1.549801190,-1.755729299,1.558655943,-1.678465663,-3.248440161,0.007349727,0.026484700,-0.031627573,-0.001021827,-0.086000000,-0.085979060,2.585515890,4.315699259,0.293456911,-0.003785098,-0.028170325,-0.358108688
1750924513.833207846,-1.419623653,-1.549747913,-1.755792922,1.558653888,-1.678638663,-3.248613119,0.007435189,0.026792662,-0.031995336,-0.001033709,-0.087000000,-0.086978817,2.585419348,4.315660573,0.293456071,-0.003784692,-0.028170325,-0.358097667
1750924513.835227728,-1.419608697,-1.549694020,-1.755857281,1.558651808,-1.678813663,-3.248788077,0.007520651,0.027100624,-0.032363098,-0.001045591,-0.088000000,-0.087978573,2.585321676,4.315621426,0.293455222,-0.003784282,-0.028170325,-0.358086516
1750924513.837314367,-1.419593571,-1.549639510,-1.755922375,1.558649705,-1.678990663,-3.248965033,0.007606113,0.027408585,-0.032730861,-0.001057473,-0.089000000,-0.088978330,2.585222873,4.315581817,0.293454364,-0.003783866,-0.028170325,-0.358075234
1750924513.839344740,-1.419578273,-1.549584385,-1.755988204,1.558647578,-1.679169663,-3.249143990,0.007691575,0.027716547,-0.033098623,-0.001069354,-0.090000000,-0.089978086,2.585122938,4.315541746,0.293453495,-0.003783446,-0.028170325,-0.358063821
1750924513.841164351,-1.419562804,-1.549528644,-1.756054769,1.558645428,-1.679350663,-3.249324946,0.007777037,0.028024509,-0.033466386,-0.001081236,-0.091000000,-0.090977843,2.585021872,4.315501213,0.293452617,-0.003783021,-0.028170325,-0.358052278
1750924513.843153954,-1.419547165,-1.549472287,-1.756122070,1.558643253,-1.679533663,-3.249507901,0.007862498,0.028332470,-0.033834148,-0.001093118,-0.092000000,-0.091977599,2.584919674,4.315460217,0.293451729,-0.003782592,-0.028170325,-0.358040603
1750924513.845155239,-1.419531354,-1.549415314,-1.756190106,1.558641055,-1.679718663,-3.249692856,0.007947960,0.028640432,-0.034201911,-0.001104999,-0.093000000,-0.092977356,2.584816343,4.315418757,0.293450831,-0.003782157,-0.028170325,-0.358028798
1750924513.847123623,-1.419515373,-1.549357725,-1.756258877,1.558638833,-1.679905663,-3.249879811,0.008033422,0.028948393,-0.034569673,-0.001116881,-0.094000000,-0.093977112,2.584711878,4.315376833,0.293449924,-0.003781718,-0.028170325,-0.358016862
1750924513.849050999,-1.419499221,-1.549299521,-1.756328385,1.558636588,-1.680094663,-3.250068765,0.008118884,0.029256355,-0.034937436,-0.001128763,-0.095000000,-0.094976869,2.584606280,4.315334444,0.293449007,-0.003781274,-0.028170325,-0.358004794
1750924513.851058006,-1.419482897,-1.549240700,-1.756398627,1.558634318,-1.680285663,-3.250259718,0.008204346,0.029564317,-0.035305198,-0.001140645,-0.096000000,-0.095976625,2.584499548,4.315291590,0.293448080,-0.003780825,-0.028170325,-0.357992595
1750924513.853052616,-1.419466403,-1.549181263,-1.756469605,1.558632025,-1.680478663,-3.250452671,0.008289808,0.029872278,-0.035672961,-0.001152526,-0.097000000,-0.096976382,2.584391681,4.315248270,0.293447144,-0.003780371,-0.028170325,-0.357980264
1750924513.855024576,-1.419449738,-1.549121211,-1.756541319,1.558629708,-1.680673663,-3.250647624,0.008375270,0.030180240,-0.036040723,-0.001164408,-0.098000000,-0.097976138,2.584282678,4.315204485,0.293446198,-0.003779912,-0.028170325,-0.357967802
1750924513.856999159,-1.419432902,-1.549060542,-1.756613768,1.558627368,-1.680870663,-3.250844576,0.008460732,0.030488202,-0.036408486,-0.001176290,-0.099000000,-0.098975895,2.584172539,4.315160232,0.293445242,-0.003779449,-0.028170325,-0.357955209
1750924513.859048605,-1.419415895,-1.548999258,-1.756686953,1.558625003,-1.681069663,-3.251043527,0.008546194,0.030796163,-0.036776248,-0.001188171,-0.100000000,-0.099975651,2.584061264,4.315115512,0.293444276,-0.003778981,-0.028170325,-0.357942483
1750924513.868823528,-1.419398717,-1.548937358,-1.756760873,1.558622615,-1.681270663,-3.251244478,0.008631656,0.031104125,-0.037144011,-0.001200053,-0.101000000,-0.100975408,2.583948852,4.315070325,0.293443301,-0.003778507,-0.028170325,-0.357929626
1750924513.868925333,-1.419381369,-1.548874842,-1.756835529,1.558620203,-1.681473663,-3.251447429,0.008717118,0.031412086,-0.037511773,-0.001211935,-0.102000000,-0.101975164,2.583835302,4.315024669,0.293442316,-0.003778029,-0.028170325,-0.357916636
1750924513.868949175,-1.419363849,-1.548811709,-1.756910920,1.558617767,-1.681678663,-3.251652379,0.008802580,0.031720048,-0.037879536,-0.001223817,-0.103000000,-0.102974921,2.583720614,4.314978544,0.293441321,-0.003777547,-0.028170325,-0.357903514
1750924513.869265556,-1.419346158,-1.548747961,-1.756987047,1.558615308,-1.681885663,-3.251859329,0.008888042,0.032028010,-0.038247298,-0.001235698,-0.104000000,-0.103974677,2.583604788,4.314931950,0.293440317,-0.003777059,-0.028170325,-0.357890260
1750924513.870985031,-1.419328297,-1.548683597,-1.757063910,1.558612824,-1.682094663,-3.252068278,0.008973504,0.032335971,-0.038615061,-0.001247580,-0.105000000,-0.104974434,2.583487822,4.314884885,0.293439303,-0.003776566,-0.028170325,-0.357876874
1750924513.873084068,-1.419310264,-1.548618618,-1.757141507,1.558610317,-1.682305663,-3.252279226,0.009058966,0.032643933,-0.038982823,-0.001259462,-0.106000000,-0.105974190,2.583369716,4.314837350,0.293438279,-0.003776069,-0.028170325,-0.357863355
1750924513.875097513,-1.419292061,-1.548553022,-1.757219841,1.558607787,-1.682518663,-3.252492174,0.009144428,0.032951895,-0.039350586,-0.001271343,-0.107000000,-0.106973947,2.583250469,4.314789344,0.293437246,-0.003775567,-0.028170325,-0.357849703
1750924513.877117395,-1.419273687,-1.548486810,-1.757298910,1.558605232,-1.682733663,-3.252707122,0.009229890,0.033259856,-0.039718348,-0.001283225,-0.108000000,-0.107973703,2.583130082,4.314740866,0.293436202,-0.003775060,-0.028170325,-0.357835919
1750924513.879139662,-1.419255141,-1.548419982,-1.757378714,1.558602654,-1.682950663,-3.252924069,0.009315351,0.033567818,-0.040086111,-0.001295107,-0.109000000,-0.108973460,2.583008552,4.314691916,0.293435149,-0.003774548,-0.028170325,-0.357822002
1750924513.881113052,-1.419236425,-1.548352539,-1.757459254,1.558600052,-1.683169663,-3.253143016,0.009400813,0.033875780,-0.040453873,-0.001306989,-0.110000000,-0.109973216,2.582885881,4.314642492,0.293434087,-0.003774031,-0.028170325,-0.357807951
1750924513.884505033,-1.419217538,-1.548284479,-1.757540530,1.558597426,-1.683390663,-3.253363962,0.009486275,0.034183741,-0.040821636,-0.001318870,-0.111000000,-0.110972973,2.582762066,4.314592595,0.293433015,-0.003773509,-0.028170325,-0.357793768
1750924513.885136127,-1.419198480,-1.548215804,-1.757622541,1.558594776,-1.683613663,-3.253586908,0.009571737,0.034491703,-0.041189398,-0.001330752,-0.112000000,-0.111972730,2.582637108,4.314542224,0.293431933,-0.003772982,-0.028170325,-0.357779451
1750924513.887389183,-1.419179251,-1.548146512,-1.757705287,1.558592103,-1.683838663,-3.253811853,0.009657199,0.034799664,-0.041557161,-0.001342634,-0.113000000,-0.112972486,2.582511006,4.314491378,0.293430841,-0.003772451,-0.028170325,-0.357765000
1750924513.889121294,-1.419159851,-1.548076605,-1.757788769,1.558589406,-1.684065663,-3.254038798,0.009742661,0.035107626,-0.041924923,-0.001354515,-0.114000000,-0.113972243,2.582383759,4.314440057,0.293429739,-0.003771915,-0.028170325,-0.357750416
1750924513.891098261,-1.419140281,-1.548006082,-1.757872987,1.558586685,-1.684294663,-3.254267742,0.009828123,0.035415588,-0.042292685,-0.001366397,-0.115000000,-0.114971999,2.582255367,4.314388259,0.293428628,-0.003771373,-0.028170325,-0.357735699
1750924513.893099785,-1.419120539,-1.547934943,-1.757957940,1.558583940,-1.684525663,-3.254498686,0.009913585,0.035723549,-0.042660448,-0.001378279,-0.116000000,-0.115971756,2.582125828,4.314335985,0.293427507,-0.003770827,-0.028170325,-0.357720847
1750924513.895037651,-1.419100626,-1.547863188,-1.758043629,1.558581172,-1.684758663,-3.254731629,0.009999047,0.036031511,-0.043028210,-0.001390161,-0.117000000,-0.116971512,2.581995143,4.314283234,0.293426377,-0.003770276,-0.028170325,-0.357705862
1750924513.897111177,-1.419080543,-1.547790817,-1.758130053,1.558578379,-1.684993663,-3.254966572,0.010084509,0.036339473,-0.043395973,-0.001402042,-0.118000000,-0.117971269,2.581863311,4.314230004,0.293425237,-0.003769720,-0.028170325,-0.357690742
1750924513.899101257,-1.419060288,-1.547717830,-1.758217213,1.558575563,-1.685230663,-3.255203514,0.010169971,0.036647434,-0.043763735,-0.001413924,-0.119000000,-0.118971025,2.581730330,4.314176296,0.293424087,-0.003769159,-0.028170325,-0.357675488
1750924513.901192427,-1.419060288,-1.547717830,-1.758217213,1.558575563,-1.685230663,-3.255203514,0.010169971,0.036647434,-0.043763735,-0.001413924,-0.119000000,-0.118971025,2.581730330,4.314176296,0.293424087,-0.003769159,-0.028170325,-0.357675488
1750924513.903239012,-1.419039863,-1.547644227,-1.758305108,1.558572724,-1.685469663,-3.255442456,0.010255433,0.036955396,-0.044131498,-0.001425806,-0.120000000,-0.119970782,2.581596201,4.314122109,0.293422927,-0.003768593,-0.028170325,-0.357660100
1750924513.905138493,-1.419019266,-1.547570008,-1.758393739,1.558569860,-1.685710663,-3.255683397,0.010340895,0.037263357,-0.044499260,-0.001437687,-0.121000000,-0.120970538,2.581460922,4.314067442,0.293421758,-0.003768022,-0.028170325,-0.357644577
1750924513.907183170,-1.418998499,-1.547495174,-1.758483105,1.558566973,-1.685953663,-3.255926338,0.010426357,0.037571319,-0.044867023,-0.001449569,-0.122000000,-0.121970295,2.581324493,4.314012294,0.293420579,-0.003767447,-0.028170325,-0.357628920
1750924513.909152746,-1.418977561,-1.547419723,-1.758573207,1.558564062,-1.686198663,-3.256171278,0.010511819,0.037879281,-0.045234785,-0.001461451,-0.123000000,-0.122970051,2.581186914,4.313956666,0.293419390,-0.003766866,-0.028170325,-0.357613127
1750924513.911162615,-1.418956452,-1.547343656,-1.758664044,1.558561127,-1.686445663,-3.256418218,0.010597281,0.038187242,-0.045602548,-0.001473333,-0.124000000,-0.123969808,2.581048183,4.313900555,0.293418191,-0.003766280,-0.028170325,-0.357597200
1750924513.913187504,-1.418935172,-1.547266974,-1.758755617,1.558558169,-1.686694663,-3.256667158,0.010682743,0.038495204,-0.045970310,-0.001485214,-0.125000000,-0.124969564,2.580908300,4.313843961,0.293416983,-0.003765690,-0.028170325,-0.357581138
1750924513.922778845,-1.418913721,-1.547189676,-1.758847925,1.558555186,-1.686945663,-3.256918096,0.010768204,0.038803166,-0.046338073,-0.001497096,-0.126000000,-0.125969321,2.580767264,4.313786885,0.293415765,-0.003765094,-0.028170325,-0.357564940
1750924513.922841549,-1.418848343,-1.546954085,-1.759129264,1.558546097,-1.687710663,-3.257682910,0.011024590,0.039727051,-0.047441360,-0.001532741,-0.129000000,-0.128968590,2.580337233,4.313612748,0.293412054,-0.003763278,-0.028170325,-0.357515533
1750924513.923212767,-1.418848343,-1.546954085,-1.759129264,1.558546097,-1.687710663,-3.257682910,0.011024590,0.039727051,-0.047441360,-0.001532741,-0.129000000,-0.128968590,2.580337233,4.313612748,0.293412054,-0.003763278,-0.028170325,-0.357515533
1750924513.925104141,-1.418826208,-1.546874323,-1.759224514,1.558543019,-1.687969663,-3.257941847,0.011110052,0.040035012,-0.047809123,-0.001544623,-0.130000000,-0.129968347,2.580191579,4.313553732,0.293410797,-0.003762663,-0.028170325,-0.357498793
1750924513.926984549,-1.418803902,-1.546793945,-1.759320500,1.558539918,-1.688230663,-3.258202784,0.011195514,0.040342974,-0.048176885,-0.001556505,-0.131000000,-0.130968103,2.580044768,4.313494228,0.293409530,-0.003762042,-0.028170325,-0.357481917
1750924513.929005384,-1.418781426,-1.546712951,-1.759417222,1.558536793,-1.688493663,-3.258465720,0.011280976,0.040650935,-0.048544648,-0.001568386,-0.132000000,-0.131967860,2.579896801,4.313434237,0.293408254,-0.003761417,-0.028170325,-0.357464904
1750924513.931001425,-1.418758778,-1.546631341,-1.759514679,1.558533645,-1.688758663,-3.258730655,0.011366438,0.040958897,-0.048912410,-0.001580268,-0.133000000,-0.132967616,2.579747675,4.313373758,0.293406969,-0.003760787,-0.028170325,-0.357447755
1750924513.933057070,-1.418735960,-1.546549115,-1.759612871,1.558530472,-1.689025663,-3.258997590,0.011451900,0.041266859,-0.049280173,-0.001592150,-0.134000000,-0.133967373,2.579597391,4.313312790,0.293405673,-0.003760151,-0.028170325,-0.357430470
1750924513.935023308,-1.418712971,-1.546466274,-1.759711799,1.558527276,-1.689294663,-3.259266525,0.011537362,0.041574820,-0.049647935,-0.001604031,-0.135000000,-0.134967129,2.579445948,4.313251332,0.293404368,-0.003759511,-0.028170325,-0.357413048
1750924513.938033819,-1.418712971,-1.546466274,-1.759711799,1.558527276,-1.689294663,-3.259266525,0.011537362,0.041574820,-0.049647935,-0.001604031,-0.135000000,-0.134967129,2.579445948,4.313251332,0.293404368,-0.003759511,-0.028170325,-0.357413048
1750924513.939208269,-1.418689811,-1.546382816,-1.759811463,1.558524056,-1.689565663,-3.259537459,0.011622824,0.041882782,-0.050015698,-0.001615913,-0.136000000,-0.135966886,2.579293344,4.313189384,0.293403053,-0.003758866,-0.028170325,-0.357395489
1750924513.941380024,-1.418666480,-1.546298743,-1.759911862,1.558520812,-1.689838663,-3.259810392,0.011708286,0.042190744,-0.050383460,-0.001627795,-0.137000000,-0.136966642,2.579139580,4.313126944,0.293401728,-0.003758216,-0.028170325,-0.357377793
1750924513.943060160,-1.418642977,-1.546214053,-1.760012997,1.558517545,-1.690113663,-3.260085325,0.011793748,0.042498705,-0.050751223,-0.001639677,-0.138000000,-0.137966399,2.578984653,4.313064013,0.293400394,-0.003757560,-0.028170325,-0.357359960
1750924513.945136309,-1.418619305,-1.546128748,-1.760114867,1.558514254,-1.690390663,-3.260362258,0.011879210,0.042806667,-0.051118985,-0.001651558,-0.139000000,-0.138966155,2.578828565,4.313000589,0.293399050,-0.003756900,-0.028170325,-0.357341990
1750924513.947183371,-1.418595461,-1.546042826,-1.760217473,1.558510939,-1.690669663,-3.260641190,0.011964672,0.043114628,-0.051486748,-0.001663440,-0.140000000,-0.139965912,2.578671313,4.312936672,0.293397696,-0.003756235,-0.028170325,-0.357323882
1750924513.949213266,-1.418571446,-1.545956289,-1.760320814,1.558507600,-1.690950663,-3.260922121,0.012050134,0.043422590,-0.051854510,-0.001675322,-0.141000000,-0.140965668,2.578512898,4.312872260,0.293396333,-0.003755564,-0.028170325,-0.357305637
1750924513.951215029,-1.418547260,-1.545869136,-1.760424891,1.558504237,-1.691233663,-3.261205052,0.012135595,0.043730552,-0.052222272,-0.001687203,-0.142000000,-0.141965425,2.578353317,4.312807353,0.293394960,-0.003754889,-0.028170325,-0.357287253
1750924513.953086615,-1.418522903,-1.545781367,-1.760529703,1.558500851,-1.691518663,-3.261489983,0.012221057,0.044038513,-0.052590035,-0.001699085,-0.143000000,-0.142965181,2.578192571,4.312741951,0.293393577,-0.003754208,-0.028170325,-0.357268732
1750924513.955158949,-1.418498376,-1.545692982,-1.760635251,1.558497441,-1.691805663,-3.261776913,0.012306519,0.044346475,-0.052957797,-0.001710967,-0.144000000,-0.143964938,2.578030659,4.312676052,0.293392184,-0.003753523,-0.028170324,-0.357250073
1750924513.957130909,-1.418473677,-1.545603981,-1.760741534,1.558494007,-1.692094663,-3.262065843,0.012391981,0.044654437,-0.053325560,-0.001722849,-0.145000000,-0.144964694,2.577867579,4.312609656,0.293390782,-0.003752832,-0.028170324,-0.357231276
1750924513.959105730,-1.418448808,-1.545514364,-1.760848553,1.558490550,-1.692385663,-3.262356772,0.012477443,0.044962398,-0.053693322,-0.001734730,-0.146000000,-0.145964451,2.577703332,4.312542762,0.293389370,-0.003752137,-0.028170324,-0.357212340
1750924513.961159229,-1.418423768,-1.545424132,-1.760956308,1.558487068,-1.692678663,-3.262649701,0.012562905,0.045270360,-0.054061085,-0.001746612,-0.147000000,-0.146964207,2.577537916,4.312475368,0.293387948,-0.003751436,-0.028170324,-0.357193265
1750924513.963165045,-1.418398556,-1.545333283,-1.761064798,1.558483563,-1.692973663,-3.262944629,0.012648367,0.045578322,-0.054428847,-0.001758494,-0.148000000,-0.147963964,2.577371330,4.312407475,0.293386517,-0.003750730,-0.028170324,-0.357174052
1750924513.965139627,-1.418373174,-1.545241818,-1.761174023,1.558480034,-1.693270663,-3.263241556,0.012733829,0.045886283,-0.054796610,-0.001770375,-0.149000000,-0.148963721,2.577203573,4.312339082,0.293385076,-0.003750020,-0.028170324,-0.357154699
1750924513.969914675,-1.418347621,-1.545149738,-1.761283984,1.558476482,-1.693569663,-3.263540484,0.012819291,0.046194245,-0.055164372,-0.001782257,-0.150000000,-0.149963477,2.577034646,4.312270187,0.293383625,-0.003749304,-0.028170324,-0.357135208
1750924513.973213434,-1.418347621,-1.545149738,-1.761283984,1.558476482,-1.693569663,-3.263540484,0.012819291,0.046194245,-0.055164372,-0.001782257,-0.150000000,-0.149963477,2.577034646,4.312270187,0.293383625,-0.003749304,-0.028170324,-0.357135208
1750924513.973298073,-1.418321897,-1.545057041,-1.761394681,1.558472905,-1.693870663,-3.263841410,0.012904753,0.046502206,-0.055532135,-0.001794139,-0.151000000,-0.150963234,2.576864546,4.312200790,0.293382165,-0.003748583,-0.028170324,-0.357115577
1750924513.975521803,-1.418296002,-1.544963729,-1.761506113,1.558469305,-1.694173663,-3.264144337,0.012990215,0.046810168,-0.055899897,-0.001806021,-0.152000000,-0.151962990,2.576693273,4.312130890,0.293380695,-0.003747857,-0.028170324,-0.357095806
1750924513.977661371,-1.418269936,-1.544869801,-1.761618280,1.558465681,-1.694478663,-3.264449262,0.013075677,0.047118130,-0.056267660,-0.001817902,-0.153000000,-0.152962747,2.576520826,4.312060486,0.293379215,-0.003747126,-0.028170324,-0.357075896
1750924513.979265690,-1.418243699,-1.544775256,-1.761731183,1.558462034,-1.694785663,-3.264756188,0.013161139,0.047426091,-0.056635422,-0.001829784,-0.154000000,-0.153962503,2.576347205,4.311989577,0.293377725,-0.003746389,-0.028170324,-0.357055847
1750924513.981051207,-1.418217292,-1.544680096,-1.761844822,1.558458362,-1.695094663,-3.265065112,0.013246601,0.047734053,-0.057003185,-0.001841666,-0.155000000,-0.154962260,2.576172408,4.311918163,0.293376226,-0.003745648,-0.028170324,-0.357035657
1750924513.983017683,-1.418190713,-1.544584320,-1.761959196,1.558454667,-1.695405663,-3.265376037,0.013332063,0.048042015,-0.057370947,-0.001853547,-0.156000000,-0.155962016,2.575996435,4.311846242,0.293374717,-0.003744901,-0.028170324,-0.357015327
1750924513.985038757,-1.418163963,-1.544487928,-1.762074306,1.558450948,-1.695718663,-3.265688960,0.013417525,0.048349976,-0.057738710,-0.001865429,-0.157000000,-0.156961773,2.575819284,4.311773814,0.293373198,-0.003744150,-0.028170324,-0.356994856
1750924513.987018347,-1.418137043,-1.544390920,-1.762190151,1.558447205,-1.696033663,-3.266003884,0.013502987,0.048657938,-0.058106472,-0.001877311,-0.158000000,-0.157961529,2.575640955,4.311700878,0.293371670,-0.003743393,-0.028170324,-0.356974245
1750924513.989077568,-1.418109951,-1.544293296,-1.762306731,1.558443439,-1.696350663,-3.266320807,0.013588448,0.048965899,-0.058474235,-0.001889193,-0.159000000,-0.158961286,2.575461447,4.311627433,0.293370132,-0.003742631,-0.028170324,-0.356953493
1750924513.993146181,-1.418055256,-1.544096201,-1.762542099,1.558435834,-1.696990663,-3.266960651,0.013759372,0.049581823,-0.059209760,-0.001912956,-0.161000000,-0.160960799,2.575098890,4.311479013,0.293367026,-0.003741092,-0.028170324,-0.356911566
1750924513.993202209,-1.418055256,-1.544096201,-1.762542099,1.558435834,-1.696990663,-3.266960651,0.013759372,0.049581823,-0.059209760,-0.001912956,-0.161000000,-0.160960799,2.575098890,4.311479013,0.293367026,-0.003741092,-0.028170324,-0.356911566
1750924513.995269299,-1.418027652,-1.543996729,-1.762660887,1.558431997,-1.697313663,-3.267283572,0.013844834,0.049889784,-0.059577522,-0.001924838,-0.162000000,-0.161960555,2.574915839,4.311404036,0.293365459,-0.003740315,-0.028170324,-0.356890391
1750924513.997219324,-1.417999876,-1.543896642,-1.762780410,1.558428135,-1.697638663,-3.267608493,0.013930296,0.050197746,-0.059945285,-0.001936719,-0.163000000,-0.162960312,2.574731606,4.311328546,0.293363882,-0.003739532,-0.028170324,-0.356869074
1750924513.999152422,-1.417971930,-1.543795938,-1.762900668,1.558424250,-1.697965663,-3.267935413,0.014015758,0.050505708,-0.060313047,-0.001948601,-0.164000000,-0.163960068,2.574546189,4.311252543,0.293362296,-0.003738745,-0.028170324,-0.356847616
1750924514.001159430,-1.417943813,-1.543694619,-1.763021662,1.558420341,-1.698294663,-3.268264333,0.014101220,0.050813669,-0.060680810,-0.001960483,-0.165000000,-0.164959825,2.574359588,4.311176025,0.293360699,-0.003737952,-0.028170324,-0.356826016
1750924514.003151655,-1.417915525,-1.543592684,-1.763143391,1.558416408,-1.698625663,-3.268595253,0.014186682,0.051121631,-0.061048572,-0.001972365,-0.166000000,-0.165959581,2.574171801,4.311098993,0.293359093,-0.003737154,-0.028170324,-0.356804273
1750924514.004947901,-1.417887067,-1.543490132,-1.763265856,1.558412451,-1.698958663,-3.268928171,0.014272144,0.051429593,-0.061416335,-0.001984246,-0.167000000,-0.166959338,2.573982827,4.311021444,0.293357478,-0.003736351,-0.028170324,-0.356782389
1750924514.007055283,-1.417858437,-1.543386965,-1.763389056,1.558408471,-1.699293663,-3.269263090,0.014357606,0.051737554,-0.061784097,-0.001996128,-0.168000000,-0.167959094,2.573792667,4.310943378,0.293355852,-0.003735542,-0.028170324,-0.356760361
1750924514.009007692,-1.417829636,-1.543283182,-1.763512992,1.558404467,-1.699630663,-3.269600008,0.014443068,0.052045516,-0.062151860,-0.002008010,-0.169000000,-0.168958851,2.573601318,4.310864795,0.293354217,-0.003734729,-0.028170324,-0.356738192
1750924514.011049747,-1.417800665,-1.543178783,-1.763637664,1.558400439,-1.699969663,-3.269938925,0.014528530,0.052353477,-0.062519622,-0.002019891,-0.170000000,-0.169958607,2.573408779,4.310785692,0.293352572,-0.003733910,-0.028170324,-0.356715879
1750924514.013129234,-1.417771522,-1.543073768,-1.763763071,1.558396387,-1.700310663,-3.270279842,0.014613992,0.052661439,-0.062887384,-0.002031773,-0.171000000,-0.170958364,2.573215051,4.310706069,0.293350918,-0.003733086,-0.028170324,-0.356693423
1750924514.015031338,-1.417742209,-1.542968138,-1.763889213,1.558392312,-1.700653663,-3.270622759,0.014699454,0.052969401,-0.063255147,-0.002043655,-0.172000000,-0.171958120,2.573020131,4.310625926,0.293349254,-0.003732257,-0.028170324,-0.356670824
1750924514.017041206,-1.417712724,-1.542861891,-1.764016091,1.558388212,-1.700998663,-3.270967675,0.014784916,0.053277362,-0.063622909,-0.002055537,-0.173000000,-0.172957877,2.572824019,4.310545261,0.293347580,-0.003731422,-0.028170324,-0.356648082
1750924514.019103289,-1.417683069,-1.542755028,-1.764143705,1.558384090,-1.701345663,-3.271314590,0.014870378,0.053585324,-0.063990672,-0.002067418,-0.174000000,-0.173957633,2.572626714,4.310464074,0.293345896,-0.003730583,-0.028170324,-0.356625196
1750924514.020941973,-1.417653243,-1.542647549,-1.764272054,1.558379943,-1.701694663,-3.271663505,0.014955840,0.053893286,-0.064358434,-0.002079300,-0.175000000,-0.174957390,2.572428215,4.310382362,0.293344203,-0.003729738,-0.028170324,-0.356602166
1750924514.028941870,-1.417653243,-1.542647549,-1.764272054,1.558379943,-1.701694663,-3.271663505,0.014955840,0.053893286,-0.064358434,-0.002079300,-0.175000000,-0.174957390,2.572428215,4.310382362,0.293344203,-0.003729738,-0.028170324,-0.356602166
1750924514.029007196,-1.417593078,-1.542430744,-1.764530959,1.558371578,-1.702398663,-3.272367334,0.015126763,0.054509209,-0.065093959,-0.002103063,-0.177000000,-0.176956903,2.572027631,4.310217365,0.293340787,-0.003728032,-0.028170324,-0.356555674
1750924514.029557228,-1.417562739,-1.542321418,-1.764661515,1.558367360,-1.702753663,-3.272722247,0.015212225,0.054817171,-0.065461722,-0.002114945,-0.178000000,-0.177956659,2.571825544,4.310134077,0.293339065,-0.003727172,-0.028170324,-0.356532212
1750924514.031338692,-1.417562739,-1.542321418,-1.764661515,1.558367360,-1.702753663,-3.272722247,0.015212225,0.054817171,-0.065461722,-0.002114945,-0.178000000,-0.177956659,2.571825544,4.310134077,0.293339065,-0.003727172,-0.028170324,-0.356532212
1750924514.033111811,-1.417532229,-1.542211476,-1.764792806,1.558363118,-1.703110663,-3.273079161,0.015297687,0.055125132,-0.065829484,-0.002126827,-0.179000000,-0.178956416,2.571622259,4.310050261,0.293337333,-0.003726306,-0.028170324,-0.356508605
1750924514.035104513,-1.417501548,-1.542100918,-1.764924833,1.558358853,-1.703469663,-3.273438073,0.015383149,0.055433094,-0.066197247,-0.002138709,-0.180000000,-0.179956172,2.571417774,4.309965917,0.293335591,-0.003725435,-0.028170324,-0.356484853
1750924514.037104607,-1.417470696,-1.541989743,-1.765057595,1.558354563,-1.703830663,-3.273798985,0.015468611,0.055741055,-0.066565009,-0.002150590,-0.181000000,-0.180955929,2.571212090,4.309881044,0.293333839,-0.003724558,-0.028170324,-0.356460955
1750924514.039065838,-1.417439673,-1.541877953,-1.765191093,1.558350250,-1.704193663,-3.274161897,0.015554073,0.056049017,-0.066932772,-0.002162472,-0.182000000,-0.181955685,2.571005204,4.309795640,0.293332078,-0.003723676,-0.028170324,-0.356436913
1750924514.041687250,-1.417408480,-1.541765547,-1.765325326,1.558345914,-1.704558663,-3.274526808,0.015639535,0.056356979,-0.067300534,-0.002174354,-0.183000000,-0.182955442,2.570797116,4.309709704,0.293330307,-0.003722789,-0.028170324,-0.356412725
1750924514.043025970,-1.417377115,-1.541652525,-1.765460295,1.558341553,-1.704925663,-3.274893719,0.015724997,0.056664940,-0.067668297,-0.002186235,-0.184000000,-0.183955198,2.570587825,4.309623236,0.293328527,-0.003721897,-0.028170324,-0.356388392
1750924514.046716213,-1.417345580,-1.541538888,-1.765595999,1.558337169,-1.705294663,-3.275262629,0.015810459,0.056972902,-0.068036059,-0.002198117,-0.185000000,-0.184954955,2.570377330,4.309536235,0.293326736,-0.003720999,-0.028170324,-0.356363912
1750924514.047221184,-1.417345580,-1.541538888,-1.765595999,1.558337169,-1.705294663,-3.275262629,0.015810459,0.056972902,-0.068036059,-0.002198117,-0.185000000,-0.184954955,2.570377330,4.309536235,0.293326736,-0.003720999,-0.028170324,-0.356363912
1750924514.049335957,-1.417313873,-1.541424634,-1.765732439,1.558332761,-1.705665663,-3.275633538,0.015895921,0.057280864,-0.068403822,-0.002209999,-0.186000000,-0.185954712,2.570165629,4.309448698,0.293324936,-0.003720096,-0.028170324,-0.356339287
1750924514.051194429,-1.417281996,-1.541309764,-1.765869614,1.558328329,-1.706038663,-3.276006448,0.015981383,0.057588825,-0.068771584,-0.002221881,-0.187000000,-0.186954468,2.569952722,4.309360627,0.293323127,-0.003719188,-0.028170324,-0.356314515
1750924514.053191900,-1.417249948,-1.541194279,-1.766007525,1.558323873,-1.706413663,-3.276381356,0.016066845,0.057896787,-0.069139347,-0.002233762,-0.188000000,-0.187954225,2.569738608,4.309272018,0.293321307,-0.003718274,-0.028170324,-0.356289597
1750924514.055024624,-1.417217729,-1.541078177,-1.766146172,1.558319394,-1.706790663,-3.276758265,0.016152307,0.058204748,-0.069507109,-0.002245644,-0.189000000,-0.188953981,2.569523285,4.309182872,0.293319478,-0.003717355,-0.028170324,-0.356264531
1750924514.056900978,-1.417185339,-1.540961460,-1.766285554,1.558314890,-1.707169663,-3.277137172,0.016237769,0.058512710,-0.069874872,-0.002257526,-0.190000000,-0.189953738,2.569306753,4.309093188,0.293317639,-0.003716431,-0.028170324,-0.356239319
1750924514.058926344,-1.417152778,-1.540844126,-1.766425671,1.558310363,-1.707550663,-3.277518079,0.016323231,0.058820672,-0.070242634,-0.002269407,-0.191000000,-0.190953494,2.569089010,4.309002964,0.293315791,-0.003715501,-0.028170324,-0.356213960
1750924514.061113596,-1.417120046,-1.540726177,-1.766566524,1.558305813,-1.707933663,-3.277900986,0.016408692,0.059128633,-0.070610397,-0.002281289,-0.192000000,-0.191953251,2.568870055,4.308912198,0.293313933,-0.003714566,-0.028170324,-0.356188453
1750924514.063066721,-1.417087143,-1.540607612,-1.766708113,1.558301238,-1.708318663,-3.278285892,0.016494154,0.059436595,-0.070978159,-0.002293171,-0.193000000,-0.192953007,2.568649888,4.308820891,0.293312065,-0.003713626,-0.028170324,-0.356162799
1750924514.065073967,-1.417054069,-1.540488430,-1.766850437,1.558296640,-1.708705663,-3.278672798,0.016579616,0.059744557,-0.071345922,-0.002305053,-0.194000000,-0.193952764,2.568428506,4.308729042,0.293310187,-0.003712680,-0.028170324,-0.356136997
1750924514.067065239,-1.417020824,-1.540368633,-1.766993497,1.558292018,-1.709094663,-3.279061704,0.016665078,0.060052518,-0.071713684,-0.002316934,-0.195000000,-0.194952520,2.568205910,4.308636648,0.293308300,-0.003711729,-0.028170324,-0.356111047
1750924514.069046021,-1.416987409,-1.540248220,-1.767137292,1.558287372,-1.709485663,-3.279452608,0.016750540,0.060360480,-0.072081447,-0.002328816,-0.196000000,-0.195952277,2.567982098,4.308543709,0.293306403,-0.003710772,-0.028170324,-0.356084949
1750924514.070951223,-1.416953822,-1.540127191,-1.767281822,1.558282703,-1.709878663,-3.279845513,0.016836002,0.060668442,-0.072449209,-0.002340698,-0.197000000,-0.196952033,2.567757068,4.308450224,0.293304496,-0.003709810,-0.028170324,-0.356058702
1750924514.072969198,-1.416920065,-1.540005547,-1.767427089,1.558278010,-1.710273663,-3.280240416,0.016921464,0.060976403,-0.072816972,-0.002352579,-0.198000000,-0.197951790,2.567530820,4.308356192,0.293302580,-0.003708843,-0.028170324,-0.356032306
1750924514.080749273,-1.416886136,-1.539883286,-1.767573090,1.558273293,-1.710670663,-3.280637320,0.017006926,0.061284365,-0.073184734,-0.002364461,-0.199000000,-0.198951546,2.567303353,4.308261611,0.293300654,-0.003707870,-0.028170324,-0.356005761
1750924514.080807209,-1.416886136,-1.539883286,-1.767573090,1.558273293,-1.710670663,-3.280637320,0.017006926,0.061284365,-0.073184734,-0.002364461,-0.199000000,-0.198951546,2.567303353,4.308261611,0.293300654,-0.003707870,-0.028170324,-0.356005761
1750924514.081084728,-1.416886136,-1.539883286,-1.767573090,1.558273293,-1.710670663,-3.280637320,0.017006926,0.061284365,-0.073184734,-0.002364461,-0.199000000,-0.198951546,2.567303353,4.308261611,0.293300654,-0.003707870,-0.028170324,-0.356005761
1750924514.083786011,-1.416783326,-1.539512808,-1.768015508,1.558258999,-1.711873663,-3.281840027,0.017263312,0.062208250,-0.074288021,-0.002400106,-0.202000000,-0.201950816,2.566613623,4.307974568,0.293294818,-0.003704919,-0.028170324,-0.355925232
1750924514.085123777,-1.416748714,-1.539388084,-1.768164452,1.558254187,-1.712278663,-3.282244928,0.017348774,0.062516211,-0.074655784,-0.002411988,-0.203000000,-0.202950572,2.566381267,4.307877783,0.293292853,-0.003703925,-0.028170324,-0.355898089
1750924514.087062836,-1.416713931,-1.539262743,-1.768314132,1.558249351,-1.712685663,-3.282651829,0.017434236,0.062824173,-0.075023546,-0.002423870,-0.204000000,-0.203950329,2.566147685,4.307780445,0.293290878,-0.003702925,-0.028170324,-0.355870797
1750924514.089112997,-1.416678977,-1.539136787,-1.768464546,1.558244491,-1.713094663,-3.283060730,0.017519698,0.063132135,-0.075391309,-0.002435751,-0.205000000,-0.204950085,2.565912878,4.307682551,0.293288894,-0.003701919,-0.028170324,-0.355843354
1750924514.091155529,-1.416643852,-1.539010215,-1.768615697,1.558239608,-1.713505663,-3.283471629,0.017605160,0.063440096,-0.075759071,-0.002447633,-0.206000000,-0.205949842,2.565676842,4.307584101,0.293286900,-0.003700908,-0.028170324,-0.355815760
1750924514.093045235,-1.416608556,-1.538883026,-1.768767583,1.558234701,-1.713918663,-3.283884529,0.017690622,0.063748058,-0.076126834,-0.002459515,-0.207000000,-0.206949598,2.565439579,4.307485094,0.293284897,-0.003699892,-0.028170324,-0.355788016
1750924514.095131159,-1.416573089,-1.538755222,-1.768920204,1.558229770,-1.714333663,-3.284299428,0.017776084,0.064056019,-0.076494596,-0.002471397,-0.208000000,-0.207949355,2.565201085,4.307385528,0.293282883,-0.003698870,-0.028170324,-0.355760121
1750924514.097630501,-1.416537452,-1.538626802,-1.769073561,1.558224815,-1.714750663,-3.284716326,0.017861545,0.064363981,-0.076862359,-0.002483278,-0.209000000,-0.208949111,2.564961360,4.307285403,0.293280861,-0.003697843,-0.028170324,-0.355732074
1750924514.099247456,-1.416501643,-1.538497766,-1.769227654,1.558219837,-1.715169663,-3.285135224,0.017947007,0.064671943,-0.077230121,-0.002495160,-0.210000000,-0.209948868,2.564720403,4.307184717,0.293278828,-0.003696810,-0.028170324,-0.355703876
1750924514.101130486,-1.416465664,-1.538368115,-1.769382482,1.558214834,-1.715590663,-3.285556122,0.018032469,0.064979904,-0.077597884,-0.002507042,-0.211000000,-0.210948624,2.564478213,4.307083470,0.293276786,-0.003695772,-0.028170324,-0.355675526
1750924514.103208780,-1.416429513,-1.538237847,-1.769538045,1.558209809,-1.716013663,-3.285979019,0.018117931,0.065287866,-0.077965646,-0.002518923,-0.212000000,-0.211948381,2.564234788,4.306981659,0.293274733,-0.003694728,-0.028170324,-0.355647025
1750924514.105087757,-1.416393192,-1.538106963,-1.769694344,1.558204759,-1.716438663,-3.286403915,0.018203393,0.065595828,-0.078333409,-0.002530805,-0.213000000,-0.212948137,2.563990128,4.306879284,0.293272672,-0.003693678,-0.028170324,-0.355618371
1750924514.107088566,-1.416356700,-1.537975464,-1.769851379,1.558199685,-1.716865663,-3.286830811,0.018288855,0.065903789,-0.078701171,-0.002542687,-0.214000000,-0.213947894,2.563744230,4.306776344,0.293270600,-0.003692623,-0.028170324,-0.355589565
1750924514.109156609,-1.416356700,-1.537975464,-1.769851379,1.558199685,-1.716865663,-3.286830811,0.018288855,0.065903789,-0.078701171,-0.002542687,-0.214000000,-0.213947894,2.563744230,4.306776344,0.293270600,-0.003692623,-0.028170324,-0.355589565
1750924514.111101389,-1.416320037,-1.537843348,-1.770009149,1.558194588,-1.717294663,-3.287259707,0.018374317,0.066211751,-0.079068934,-0.002554569,-0.215000000,-0.214947650,2.563497094,4.306672837,0.293268519,-0.003691563,-0.028170324,-0.355560606
1750924514.113173246,-1.416283202,-1.537710617,-1.770167655,1.558189467,-1.717725663,-3.287690602,0.018459779,0.066519713,-0.079436696,-0.002566450,-0.216000000,-0.215947407,2.563248719,4.306568762,0.293266428,-0.003690497,-0.028170324,-0.355531494
1750924514.115052700,-1.416246197,-1.537577269,-1.770326896,1.558184322,-1.718158663,-3.288123497,0.018545241,0.066827674,-0.079804459,-0.002578332,-0.217000000,-0.216947163,2.562999103,4.306464118,0.293264328,-0.003689425,-0.028170324,-0.355502229
1750924514.117123842,-1.416209021,-1.537443306,-1.770486872,1.558179154,-1.718593663,-3.288558391,0.018630703,0.067135636,-0.080172221,-0.002590214,-0.218000000,-0.217946920,2.562748245,4.306358904,0.293262218,-0.003688348,-0.028170324,-0.355472811
1750924514.119023561,-1.416171675,-1.537308727,-1.770647585,1.558173961,-1.719030663,-3.288995284,0.018716165,0.067443597,-0.080539984,-0.002602095,-0.219000000,-0.218946676,2.562496144,4.306253119,0.293260098,-0.003687265,-0.028170324,-0.355443239
1750924514.121038914,-1.416134157,-1.537173531,-1.770809032,1.558168745,-1.719469663,-3.289434177,0.018801627,0.067751559,-0.080907746,-0.002613977,-0.220000000,-0.219946433,2.562242798,4.306146761,0.293257968,-0.003686177,-0.028170324,-0.355413513
1750924514.123034000,-1.416096468,-1.537037720,-1.770971216,1.558163505,-1.719910663,-3.289875070,0.018887089,0.068059521,-0.081275509,-0.002625859,-0.221000000,-0.220946189,2.561988207,4.306039830,0.293255829,-0.003685083,-0.028170324,-0.355383634
1750924514.125559807,-1.416058608,-1.536901293,-1.771134134,1.558158242,-1.720353663,-3.290317962,0.018972551,0.068367482,-0.081643271,-0.002637741,-0.222000000,-0.221945946,2.561732369,4.305932323,0.293253680,-0.003683983,-0.028170324,-0.355353599
1750924514.129961491,-1.416020578,-1.536764250,-1.771297789,1.558152955,-1.720798663,-3.290762854,0.019058013,0.068675444,-0.082011034,-0.002649622,-0.223000000,-0.222945703,2.561475283,4.305824240,0.293251522,-0.003682878,-0.028170324,-0.355323411
1750924514.130016088,-1.415982376,-1.536626592,-1.771462178,1.558147643,-1.721245663,-3.291209745,0.019143475,0.068983406,-0.082378796,-0.002661504,-0.224000000,-0.223945459,2.561216948,4.305715580,0.293249353,-0.003681767,-0.028170324,-0.355293067
1750924514.131948948,-1.415982376,-1.536626592,-1.771462178,1.558147643,-1.721245663,-3.291209745,0.019143475,0.068983406,-0.082378796,-0.002661504,-0.224000000,-0.223945459,2.561216948,4.305715580,0.293249353,-0.003681767,-0.028170324,-0.355293067
1750924514.133752823,-1.415905461,-1.536349426,-1.771793165,1.558136950,-1.722145663,-3.292109526,0.019314398,0.069599329,-0.083114321,-0.002685267,-0.226000000,-0.225944972,2.560696523,4.305496521,0.293244988,-0.003679529,-0.028170324,-0.355231914
1750924514.135110378,-1.415866746,-1.536209920,-1.771959761,1.558131567,-1.722598663,-3.292562415,0.019399860,0.069907290,-0.083482083,-0.002697149,-0.227000000,-0.226944729,2.560434431,4.305386121,0.293242790,-0.003678401,-0.028170324,-0.355201105
1750924514.137227774,-1.415827861,-1.536069797,-1.772127093,1.558126161,-1.723053663,-3.293017305,0.019485322,0.070215252,-0.083849846,-0.002709031,-0.228000000,-0.227944485,2.560171085,4.305275138,0.293240583,-0.003677268,-0.028170324,-0.355170139
1750924514.139155149,-1.415788805,-1.535929059,-1.772295160,1.558120731,-1.723510663,-3.293474193,0.019570784,0.070523214,-0.084217608,-0.002720913,-0.229000000,-0.228944242,2.559906482,4.305163571,0.293238366,-0.003676129,-0.028170324,-0.355139018
1750924514.141125679,-1.415749578,-1.535787704,-1.772463963,1.558115278,-1.723969663,-3.293933082,0.019656246,0.070831175,-0.084585371,-0.002732794,-0.230000000,-0.229943998,2.559640623,4.305051420,0.293236140,-0.003674984,-0.028170324,-0.355107740
1750924514.143070459,-1.415710180,-1.535645734,-1.772633502,1.558109800,-1.724430663,-3.294393969,0.019741708,0.071139137,-0.084953133,-0.002744676,-0.231000000,-0.230943755,2.559373505,4.304938682,0.293233904,-0.003673834,-0.028170324,-0.355076305
1750924514.145087957,-1.415670611,-1.535503148,-1.772803776,1.558104299,-1.724893663,-3.294856857,0.019827170,0.071447099,-0.085320896,-0.002756558,-0.232000000,-0.231943511,2.559105127,4.304825356,0.293231658,-0.003672677,-0.028170324,-0.355044714
1750924514.148498535,-1.415630871,-1.535359945,-1.772974786,1.558098774,-1.725358663,-3.295321743,0.019912632,0.071755060,-0.085688658,-0.002768439,-0.233000000,-0.232943268,2.558835488,4.304711442,0.293229403,-0.003671516,-0.028170324,-0.355012965
1750924514.149019718,-1.415590961,-1.535216127,-1.773146531,1.558093225,-1.725825663,-3.295788630,0.019998094,0.072063022,-0.086056421,-0.002780321,-0.234000000,-0.233943024,2.558564586,4.304596937,0.293227138,-0.003670348,-0.028170324,-0.354981059
1750924514.151175261,-1.415550879,-1.535071693,-1.773319011,1.558087653,-1.726294663,-3.296257516,0.020083556,0.072370984,-0.086424183,-0.002792203,-0.235000000,-0.234942781,2.558292421,4.304481841,0.293224863,-0.003669175,-0.028170324,-0.354948996
1750924514.152980566,-1.415510626,-1.534926643,-1.773492227,1.558082056,-1.726765663,-3.296728401,0.020169018,0.072678945,-0.086791946,-0.002804085,-0.236000000,-0.235942537,2.558018990,4.304366152,0.293222578,-0.003667996,-0.028170324,-0.354916775
1750924514.155003786,-1.415470203,-1.534780978,-1.773666179,1.558076436,-1.727238663,-3.297201286,0.020254480,0.072986907,-0.087159708,-0.002815966,-0.237000000,-0.236942294,2.557744293,4.304249869,0.293220284,-0.003666811,-0.028170324,-0.354884395
1750924514.156965733,-1.415429609,-1.534634696,-1.773840866,1.558070792,-1.727713663,-3.297676170,0.020339942,0.073294868,-0.087527471,-0.002827848,-0.238000000,-0.237942050,2.557468327,4.304132991,0.293217980,-0.003665621,-0.028170324,-0.354851857
1750924514.158969402,-1.415388843,-1.534487798,-1.774016289,1.558065125,-1.728190663,-3.298153054,0.020425404,0.073602830,-0.087895233,-0.002839730,-0.239000000,-0.238941807,2.557191093,4.304015516,0.293215667,-0.003664425,-0.028170324,-0.354819161
1750924514.161044121,-1.415347907,-1.534340284,-1.774192447,1.558059434,-1.728669663,-3.298631937,0.020510866,0.073910792,-0.088262996,-0.002851611,-0.240000000,-0.239941563,2.556912588,4.303897443,0.293213344,-0.003663223,-0.028170324,-0.354786305
1750924514.163056135,-1.415306800,-1.534192155,-1.774369341,1.558053718,-1.729150663,-3.299112820,0.020596328,0.074218753,-0.088630758,-0.002863493,-0.241000000,-0.240941320,2.556632810,4.303778771,0.293211011,-0.003662015,-0.028170324,-0.354753291
1750924514.165080070,-1.415265522,-1.534043409,-1.774546970,1.558047980,-1.729633663,-3.299595703,0.020681789,0.074526715,-0.088998521,-0.002875375,-0.242000000,-0.241941076,2.556351760,4.303659497,0.293208668,-0.003660801,-0.028170324,-0.354720117
1750924514.167045355,-1.415224073,-1.533894048,-1.774725335,1.558042217,-1.730118663,-3.300080584,0.020767251,0.074834677,-0.089366283,-0.002887257,-0.243000000,-0.242940833,2.556069434,4.303539622,0.293206316,-0.003659582,-0.028170324,-0.354686783
1750924514.169044256,-1.415182453,-1.533744071,-1.774904435,1.558036431,-1.730605663,-3.300567466,0.020852713,0.075142638,-0.089734046,-0.002899138,-0.244000000,-0.243940589,2.555785833,4.303419143,0.293203954,-0.003658357,-0.028170324,-0.354653289
1750924514.171034098,-1.415140662,-1.533593477,-1.775084271,1.558030620,-1.731094663,-3.301056347,0.020938175,0.075450600,-0.090101808,-0.002911020,-0.245000000,-0.244940346,2.555500954,4.303298060,0.293201582,-0.003657126,-0.028170324,-0.354619635
1750924514.173050404,-1.415098700,-1.533442268,-1.775264843,1.558024786,-1.731585663,-3.301547227,0.021023637,0.075758561,-0.090469571,-0.002922902,-0.246000000,-0.245940102,2.555214795,4.303176371,0.293199201,-0.003655889,-0.028170324,-0.354585821
1750924514.175025940,-1.415098700,-1.533442268,-1.775264843,1.558024786,-1.731585663,-3.301547227,0.021023637,0.075758561,-0.090469571,-0.002922902,-0.246000000,-0.245940102,2.555214795,4.303176371,0.293199201,-0.003655889,-0.028170324,-0.354585821
1750924514.176990986,-1.415056567,-1.533290443,-1.775446149,1.558018929,-1.732078663,-3.302040107,0.021109099,0.076066523,-0.090837333,-0.002934783,-0.247000000,-0.246939859,2.554927357,4.303054074,0.293196810,-0.003654647,-0.028170324,-0.354551845
1750924514.182475805,-1.415014264,-1.533138002,-1.775628192,1.558013047,-1.732573663,-3.302534987,0.021194561,0.076374485,-0.091205096,-0.002946665,-0.248000000,-0.247939615,2.554638636,4.302931168,0.293194410,-0.003653398,-0.028170324,-0.354517709
1750924514.183202982,-1.414929143,-1.532831272,-1.775994483,1.558001213,-1.733569663,-3.303530744,0.021365485,0.076990408,-0.091940621,-0.002970429,-0.250000000,-0.249939128,2.554057344,4.302683524,0.293189579,-0.003650884,-0.028170324,-0.354448952
1750924514.185431004,-1.414886327,-1.532676984,-1.776178732,1.557995260,-1.734070663,-3.304031622,0.021450947,0.077298370,-0.092308383,-0.002982310,-0.251000000,-0.250938885,2.553764769,4.302558783,0.293187150,-0.003649618,-0.028170324,-0.354414331
1750924514.187288046,-1.414843340,-1.532522079,-1.776363717,1.557989284,-1.734573663,-3.304534500,0.021536409,0.077606331,-0.092676146,-0.002994192,-0.252000000,-0.251938641,2.553470907,4.302433428,0.293184710,-0.003648346,-0.028170324,-0.354379548
1750924514.189454794,-1.414800181,-1.532366558,-1.776549437,1.557983284,-1.735078663,-3.305039377,0.021621871,0.077914293,-0.093043908,-0.003006074,-0.253000000,-0.252938398,2.553175756,4.302307457,0.293182262,-0.003647068,-0.028170324,-0.354344603
1750924514.191256046,-1.414756852,-1.532210422,-1.776735892,1.557977260,-1.735585663,-3.305546253,0.021707333,0.078222255,-0.093411671,-0.003017955,-0.254000000,-0.253938154,2.552879314,4.302180868,0.293179803,-0.003645784,-0.028170324,-0.354309495
1750924514.193097830,-1.414713352,-1.532053669,-1.776923084,1.557971212,-1.736094663,-3.306055129,0.021792795,0.078530216,-0.093779433,-0.003029837,-0.255000000,-0.254937911,2.552581580,4.302053661,0.293177335,-0.003644495,-0.028170324,-0.354274224
1750924514.195119381,-1.414669681,-1.531896301,-1.777111010,1.557965140,-1.736605663,-3.306566005,0.021878257,0.078838178,-0.094147195,-0.003041719,-0.256000000,-0.255937667,2.552282553,4.301925834,0.293174857,-0.003643199,-0.028170324,-0.354238789
1750924514.197029114,-1.414625839,-1.531738317,-1.777299672,1.557959045,-1.737118663,-3.307078880,0.021963719,0.079146139,-0.094514958,-0.003053601,-0.257000000,-0.256937424,2.551982231,4.301797386,0.293172369,-0.003641898,-0.028170324,-0.354203192
1750924514.198962450,-1.414581826,-1.531579716,-1.777489070,1.557952926,-1.737633663,-3.307593755,0.022049181,0.079454101,-0.094882720,-0.003065482,-0.258000000,-0.257937180,2.551680613,4.301668314,0.293169872,-0.003640590,-0.028170324,-0.354167430
1750924514.201028109,-1.414537642,-1.531420500,-1.777679203,1.557946783,-1.738150663,-3.308110629,0.022134642,0.079762063,-0.095250483,-0.003077364,-0.259000000,-0.258936937,2.551377696,4.301538619,0.293167365,-0.003639277,-0.028170324,-0.354131505
1750924514.202990055,-1.414493288,-1.531260668,-1.777870072,1.557940616,-1.738669663,-3.308629502,0.022220104,0.080070024,-0.095618245,-0.003089246,-0.260000000,-0.259936694,2.551073481,4.301408297,0.293164848,-0.003637958,-0.028170324,-0.354095415
1750924514.204960346,-1.414448762,-1.531100220,-1.778061676,1.557934426,-1.739190663,-3.309150376,0.022305566,0.080377986,-0.095986008,-0.003101127,-0.261000000,-0.260936450,2.550767964,4.301277348,0.293162322,-0.003636633,-0.028170324,-0.354059161
1750924514.207412004,-1.414448762,-1.531100220,-1.778061676,1.557934426,-1.739190663,-3.309150376,0.022305566,0.080377986,-0.095986008,-0.003101127,-0.261000000,-0.260936450,2.550767964,4.301277348,0.293162322,-0.003636633,-0.028170324,-0.354059161
1750924514.209098101,-1.414359198,-1.530777476,-1.778447091,1.557921974,-1.740238663,-3.310198120,0.022476490,0.080993909,-0.096721533,-0.003124891,-0.263000000,-0.262935963,2.550153023,4.301013563,0.293157240,-0.003633964,-0.028170324,-0.353986157
1750924514.210997343,-1.414314159,-1.530615181,-1.778640902,1.557915712,-1.740765663,-3.310724992,0.022561952,0.081301871,-0.097089295,-0.003136773,-0.264000000,-0.263935720,2.549843594,4.300880724,0.293154685,-0.003632621,-0.028170323,-0.353949407
1750924514.213086605,-1.414268950,-1.530452269,-1.778835448,1.557909427,-1.741294663,-3.311253863,0.022647414,0.081609832,-0.097457058,-0.003148654,-0.265000000,-0.264935476,2.549532859,4.300747251,0.293152120,-0.003631271,-0.028170323,-0.353912492
1750924514.215110540,-1.414223570,-1.530288741,-1.779030730,1.557903118,-1.741825663,-3.311784734,0.022732876,0.081917794,-0.097824820,-0.003160536,-0.266000000,-0.265935233,2.549220816,4.300613144,0.293149545,-0.003629916,-0.028170323,-0.353875410
1750924514.217138529,-1.414178018,-1.530124598,-1.779226748,1.557896785,-1.742358663,-3.312317604,0.022818338,0.082225756,-0.098192583,-0.003172418,-0.267000000,-0.266934989,2.548907462,4.300478401,0.293146961,-0.003628555,-0.028170323,-0.353838162
1750924514.219195366,-1.414132296,-1.529959838,-1.779423501,1.557890428,-1.742893663,-3.312852474,0.022903800,0.082533717,-0.098560345,-0.003184299,-0.268000000,-0.267934746,2.548592797,4.300343020,0.293144367,-0.003627187,-0.028170323,-0.353800748
1750924514.221136093,-1.414132296,-1.529959838,-1.779423501,1.557890428,-1.742893663,-3.312852474,0.022903800,0.082533717,-0.098560345,-0.003184299,-0.268000000,-0.267934746,2.548592797,4.300343020,0.293144367,-0.003627187,-0.028170323,-0.353800748
1750924514.223074675,-1.414086403,-1.529794463,-1.779620989,1.557884048,-1.743430663,-3.313389343,0.022989262,0.082841679,-0.098928108,-0.003196181,-0.269000000,-0.268934502,2.548276819,4.300207001,0.293141763,-0.003625814,-0.028170323,-0.353763167
1750924514.225024700,-1.414040339,-1.529628471,-1.779819213,1.557877643,-1.743969663,-3.313928212,0.023074724,0.083149641,-0.099295870,-0.003208063,-0.270000000,-0.269934259,2.547959526,4.300070341,0.293139150,-0.003624435,-0.028170323,-0.353725419
1750924514.227066278,-1.413994104,-1.529461864,-1.780018173,1.557871215,-1.744510663,-3.314469080,0.023160186,0.083457602,-0.099663633,-0.003219945,-0.271000000,-0.270934015,2.547640917,4.299933038,0.293136527,-0.003623049,-0.028170323,-0.353687503
1750924514.229168177,-1.413947699,-1.529294641,-1.780217868,1.557864764,-1.745053663,-3.315011948,0.023245648,0.083765564,-0.100031395,-0.003231826,-0.272000000,-0.271933772,2.547320990,4.299795092,0.293133895,-0.003621657,-0.028170323,-0.353649420
1750924514.231228352,-1.413901122,-1.529126802,-1.780418298,1.557858288,-1.745598663,-3.315556815,0.023331110,0.084073526,-0.100399158,-0.003243708,-0.273000000,-0.272933528,2.546999744,4.299656501,0.293131252,-0.003620260,-0.028170323,-0.353611168
1750924514.233185530,-1.413854374,-1.528958347,-1.780619464,1.557851789,-1.746145663,-3.316103682,0.023416572,0.084381487,-0.100766920,-0.003255590,-0.274000000,-0.273933285,2.546677177,4.299517264,0.293128601,-0.003618856,-0.028170323,-0.353572749
1750924514.235129118,-1.413807455,-1.528789276,-1.780821366,1.557845266,-1.746694663,-3.316652548,0.023502034,0.084689449,-0.101134683,-0.003267471,-0.275000000,-0.274933041,2.546353287,4.299377378,0.293125939,-0.003617446,-0.028170323,-0.353534161
1750924514.246299028,-1.413760366,-1.528619589,-1.781024003,1.557838719,-1.747245663,-3.317203414,0.023587495,0.084997410,-0.101502445,-0.003279353,-0.276000000,-0.275932798,2.546028074,4.299236843,0.293123268,-0.003616030,-0.028170323,-0.353495404
1750924514.246388674,-1.413665674,-1.528278368,-1.781431484,1.557825554,-1.748353663,-3.318311144,0.023758419,0.085613334,-0.102237970,-0.003303117,-0.278000000,-0.277932311,2.545373668,4.298953816,0.293117897,-0.003613179,-0.028170323,-0.353417382
1750924514.246407270,-1.413665674,-1.528278368,-1.781431484,1.557825554,-1.748353663,-3.318311144,0.023758419,0.085613334,-0.102237970,-0.003303117,-0.278000000,-0.277932311,2.545373668,4.298953816,0.293117897,-0.003613179,-0.028170323,-0.353417382
1750924514.246463299,-1.413618072,-1.528106833,-1.781636328,1.557818936,-1.748910663,-3.318868009,0.023843881,0.085921295,-0.102605733,-0.003314998,-0.279000000,-0.278932067,2.545044472,4.298811323,0.293115196,-0.003611744,-0.028170323,-0.353378117
1750924514.247994423,-1.413570299,-1.527934682,-1.781841907,1.557812294,-1.749469663,-3.319426873,0.023929343,0.086229257,-0.102973495,-0.003326880,-0.280000000,-0.279931824,2.544713946,4.298668173,0.293112487,-0.003610304,-0.028170323,-0.353338682
1750924514.249107361,-1.413522354,-1.527761916,-1.782048222,1.557805628,-1.750030663,-3.319987736,0.024014805,0.086537219,-0.103341258,-0.003338762,-0.281000000,-0.280931580,2.544382087,4.298524366,0.293109767,-0.003608857,-0.028170323,-0.353299076
1750924514.251024723,-1.413474239,-1.527588534,-1.782255272,1.557798939,-1.750593663,-3.320550599,0.024100267,0.086845180,-0.103709020,-0.003350643,-0.282000000,-0.281931337,2.544048895,4.298379900,0.293107038,-0.003607404,-0.028170323,-0.353259300
1750924514.253094673,-1.413425953,-1.527414535,-1.782463058,1.557792226,-1.751158663,-3.321115462,0.024185729,0.087153142,-0.104076782,-0.003362525,-0.283000000,-0.282931093,2.543714367,4.298234773,0.293104299,-0.003605944,-0.028170323,-0.353219353
1750924514.255017281,-1.413377496,-1.527239921,-1.782671579,1.557785489,-1.751725663,-3.321682323,0.024271191,0.087461104,-0.104444545,-0.003374407,-0.284000000,-0.283930850,2.543378502,4.298088984,0.293101551,-0.003604479,-0.028170323,-0.353179235
1750924514.256997347,-1.413328869,-1.527064691,-1.782880836,1.557778728,-1.752294663,-3.322251185,0.024356653,0.087769065,-0.104812307,-0.003386289,-0.285000000,-0.284930606,2.543041299,4.297942532,0.293098793,-0.003603007,-0.028170323,-0.353138946
1750924514.258953333,-1.413280070,-1.526888845,-1.783090828,1.557771944,-1.752865663,-3.322822046,0.024442115,0.088077027,-0.105180070,-0.003398170,-0.286000000,-0.285930363,2.542702755,4.297795414,0.293096025,-0.003601529,-0.028170323,-0.353098484
1750924514.261915207,-1.413231100,-1.526712383,-1.783301556,1.557765135,-1.753438663,-3.323394906,0.024527577,0.088384988,-0.105547832,-0.003410052,-0.287000000,-0.286930119,2.542362869,4.297647629,0.293093248,-0.003600045,-0.028170323,-0.353057851
1750924514.263259649,-1.413181960,-1.526535305,-1.783513019,1.557758303,-1.754013663,-3.323969766,0.024613039,0.088692950,-0.105915595,-0.003421934,-0.288000000,-0.287929876,2.542021639,4.297499175,0.293090461,-0.003598554,-0.028170323,-0.353017045
1750924514.265223980,-1.413132648,-1.526357611,-1.783725218,1.557751448,-1.754590663,-3.324546626,0.024698501,0.089000912,-0.106283357,-0.003433815,-0.289000000,-0.288929632,2.541679064,4.297350051,0.293087665,-0.003597058,-0.028170323,-0.352976067
1750924514.267088175,-1.413083166,-1.526179301,-1.783938153,1.557744568,-1.755169663,-3.325125485,0.024783963,0.089308873,-0.106651120,-0.003445697,-0.290000000,-0.289929389,2.541335141,4.297200256,0.293084858,-0.003595555,-0.028170323,-0.352934916
1750924514.269181728,-1.413033512,-1.526000375,-1.784151823,1.557737665,-1.755750663,-3.325706343,0.024869425,0.089616835,-0.107018882,-0.003457579,-0.291000000,-0.290929145,2.540989870,4.297049787,0.293082042,-0.003594045,-0.028170323,-0.352893591
1750924514.271232605,-1.412983688,-1.525820834,-1.784366228,1.557730738,-1.756333663,-3.326289201,0.024954886,0.089924797,-0.107386645,-0.003469461,-0.292000000,-0.291928902,2.540643249,4.296898642,0.293079217,-0.003592530,-0.028170323,-0.352852093
1750924514.273157835,-1.412983688,-1.525820834,-1.784366228,1.557730738,-1.756333663,-3.326289201,0.024954886,0.089924797,-0.107386645,-0.003469461,-0.292000000,-0.291928902,2.540643249,4.296898642,0.293079217,-0.003592530,-0.028170323,-0.352852093
1750924514.275107861,-1.412933693,-1.525640676,-1.784581369,1.557723787,-1.756918663,-3.326874059,0.025040348,0.090232758,-0.107754407,-0.003481342,-0.293000000,-0.292928658,2.540295275,4.296746822,0.293076382,-0.003591008,-0.028170323,-0.352810421
1750924514.277100325,-1.412883526,-1.525459903,-1.784797246,1.557716812,-1.757505663,-3.327460916,0.025125810,0.090540720,-0.108122170,-0.003493224,-0.294000000,-0.293928415,2.539945947,4.296594323,0.293073537,-0.003589479,-0.028170323,-0.352768575
1750924514.279146433,-1.412833189,-1.525278513,-1.785013858,1.557709814,-1.758094663,-3.328049773,0.025211272,0.090848681,-0.108489932,-0.003505106,-0.295000000,-0.294928171,2.539595264,4.296441143,0.293070683,-0.003587945,-0.028170323,-0.352726554
1750924514.281091213,-1.412782681,-1.525096508,-1.785231206,1.557702792,-1.758685663,-3.328640629,0.025296734,0.091156643,-0.108857695,-0.003516987,-0.296000000,-0.295927928,2.539243223,4.296287283,0.293067819,-0.003586404,-0.028170323,-0.352684359
1750924514.283123970,-1.412732002,-1.524913887,-1.785449289,1.557695746,-1.759278663,-3.329233484,0.025382196,0.091464605,-0.109225457,-0.003528869,-0.297000000,-0.296927685,2.538889824,4.296132739,0.293064945,-0.003584856,-0.028170323,-0.352641989
1750924514.285189390,-1.412681153,-1.524730650,-1.785668108,1.557688677,-1.759873663,-3.329828340,0.025467658,0.091772566,-0.109593220,-0.003540751,-0.298000000,-0.297927441,2.538535063,4.295977510,0.293062062,-0.003583303,-0.028170323,-0.352599443
1750924514.287095547,-1.412630132,-1.524546797,-1.785887662,1.557681583,-1.760470663,-3.330425194,0.025553120,0.092080528,-0.109960982,-0.003552633,-0.299000000,-0.298927198,2.538178940,4.295821594,0.293059169,-0.003581743,-0.028170323,-0.352556722
1750924514.289111376,-1.412578940,-1.524362328,-1.786107952,1.557674466,-1.761069663,-3.331024048,0.025638582,0.092388490,-0.110328745,-0.003564514,-0.300000000,-0.299926954,2.537821453,4.295664990,0.293056266,-0.003580176,-0.028170323,-0.352513824
1750924514.291883469,-1.412527577,-1.524177243,-1.786328977,1.557667325,-1.761670663,-3.331624902,0.025724044,0.092696451,-0.110696507,-0.003576396,-0.301000000,-0.300926711,2.537462600,4.295507696,0.293053354,-0.003578603,-0.028170323,-0.352470751
1750924514.302422523,-1.412476044,-1.523991542,-1.786550738,1.557660160,-1.762273663,-3.332227755,0.025809506,0.093004413,-0.111064270,-0.003588278,-0.302000000,-0.301926467,2.537102379,4.295349710,0.293050432,-0.003577024,-0.028170323,-0.352427501
1750924514.302481413,-1.412424339,-1.523805225,-1.786773234,1.557652972,-1.762878663,-3.332832608,0.025894968,0.093312375,-0.111432032,-0.003600159,-0.303000000,-0.302926224,2.536740788,4.295191031,0.293047501,-0.003575438,-0.028170323,-0.352384074
1750924514.302499771,-1.412372464,-1.523618292,-1.786996466,1.557645760,-1.763485663,-3.333439460,0.025980430,0.093620336,-0.111799795,-0.003612041,-0.304000000,-0.303925980,2.536377826,4.295031657,0.293044560,-0.003573846,-0.028170323,-0.352340469
1750924514.302517176,-1.412320418,-1.523430744,-1.787220433,1.557638524,-1.764094663,-3.334048312,0.026065892,0.093928298,-0.112167557,-0.003623923,-0.305000000,-0.304925737,2.536013491,4.294871586,0.293041609,-0.003572247,-0.028170323,-0.352296688
1750924514.302534819,-1.412268200,-1.523242579,-1.787445136,1.557631264,-1.764705663,-3.334659163,0.026151354,0.094236259,-0.112535320,-0.003635805,-0.306000000,-0.305925493,2.535647781,4.294710817,0.293038649,-0.003570642,-0.028170323,-0.352252728
1750924514.303060293,-1.412215812,-1.523053799,-1.787670574,1.557623981,-1.765318663,-3.335272014,0.026236816,0.094544221,-0.112903082,-0.003647686,-0.307000000,-0.306925250,2.535280694,4.294549347,0.293035679,-0.003569031,-0.028170323,-0.352208591
1750924514.305109978,-1.412163253,-1.522864402,-1.787896748,1.557616673,-1.765933663,-3.335886864,0.026322278,0.094852183,-0.113270845,-0.003659568,-0.308000000,-0.307925006,2.534912229,4.294387175,0.293032699,-0.003567412,-0.028170323,-0.352164275
1750924514.307021856,-1.412110523,-1.522674390,-1.788123658,1.557609342,-1.766550663,-3.336503714,0.026407739,0.095160144,-0.113638607,-0.003671450,-0.309000000,-0.308924763,2.534542384,4.294224300,0.293029710,-0.003565788,-0.028170323,-0.352119780
1750924514.309024572,-1.412057622,-1.522483762,-1.788351303,1.557601988,-1.767169663,-3.337122563,0.026493201,0.095468106,-0.114006370,-0.003683331,-0.310000000,-0.309924519,2.534171156,4.294060719,0.293026711,-0.003564157,-0.028170323,-0.352075106
1750924514.311074495,-1.412004550,-1.522292517,-1.788579683,1.557594609,-1.767790663,-3.337743412,0.026578663,0.095776068,-0.114374132,-0.003695213,-0.311000000,-0.310924276,2.533798544,4.293896431,0.293023703,-0.003562519,-0.028170323,-0.352030253
1750924514.313079834,-1.411951308,-1.522100657,-1.788808799,1.557587207,-1.768413663,-3.338366260,0.026664125,0.096084029,-0.114741894,-0.003707095,-0.312000000,-0.311924032,2.533424547,4.293731435,0.293020685,-0.003560875,-0.028170323,-0.351985220
1750924514.315469503,-1.411897894,-1.521908181,-1.789038651,1.557579781,-1.769038663,-3.338991108,0.026749587,0.096391991,-0.115109657,-0.003718977,-0.313000000,-0.312923789,2.533049162,4.293565727,0.293017657,-0.003559224,-0.028170323,-0.351940007
1750924514.317118883,-1.411844309,-1.521715089,-1.789269238,1.557572331,-1.769665663,-3.339617955,0.026835049,0.096699952,-0.115477419,-0.003730858,-0.314000000,-0.313923545,2.532672388,4.293399307,0.293014620,-0.003557567,-0.028170323,-0.351894614
1750924514.319128990,-1.411790554,-1.521521382,-1.789500560,1.557564857,-1.770294663,-3.340246802,0.026920511,0.097007914,-0.115845182,-0.003742740,-0.315000000,-0.314923302,2.532294222,4.293232173,0.293011573,-0.003555903,-0.028170323,-0.351849041
1750924514.321061134,-1.411736627,-1.521327058,-1.789732619,1.557557360,-1.770925663,-3.340877649,0.027005973,0.097315876,-0.116212944,-0.003754622,-0.316000000,-0.315923058,2.531914664,4.293064323,0.293008517,-0.003554233,-0.028170323,-0.351803286
1750924514.322974920,-1.411682530,-1.521132118,-1.789965412,1.557549839,-1.771558663,-3.341510494,0.027091435,0.097623837,-0.116580707,-0.003766503,-0.317000000,-0.316922815,2.531533710,4.292895755,0.293005451,-0.003552555,-0.028170323,-0.351757350
1750924514.325039625,-1.411628261,-1.520936562,-1.790198941,1.557542294,-1.772193663,-3.342145340,0.027176897,0.097931799,-0.116948469,-0.003778385,-0.318000000,-0.317922571,2.531151360,4.292726468,0.293002375,-0.003550872,-0.028170323,-0.351711233
1750924514.327082157,-1.411573822,-1.520740391,-1.790433206,1.557534725,-1.772830663,-3.342782185,0.027262359,0.098239761,-0.117316232,-0.003790267,-0.319000000,-0.318922328,2.530767611,4.292556459,0.292999290,-0.003549182,-0.028170323,-0.351664934
1750924514.329089880,-1.411519212,-1.520543603,-1.790668206,1.557527133,-1.773469663,-3.343421029,0.027347821,0.098547722,-0.117683994,-0.003802149,-0.320000000,-0.319922084,2.530382461,4.292385727,0.292996195,-0.003547485,-0.028170323,-0.351618453
1750924514.331039190,-1.411464431,-1.520346200,-1.790903942,1.557519517,-1.774110663,-3.344061873,0.027433283,0.098855684,-0.118051757,-0.003814030,-0.321000000,-0.320921841,2.529995909,4.292214271,0.292993090,-0.003545781,-0.028170323,-0.351571789
1750924514.333072424,-1.411409479,-1.520148181,-1.791140413,1.557511877,-1.774753663,-3.344704716,0.027518745,0.099163646,-0.118419519,-0.003825912,-0.322000000,-0.321921597,2.529607952,4.292042087,0.292989976,-0.003544071,-0.028170323,-0.351524943
1750924514.334981203,-1.411354356,-1.519949545,-1.791377620,1.557504213,-1.775398663,-3.345349559,0.027604207,0.099471607,-0.118787282,-0.003837794,-0.323000000,-0.322921354,2.529218589,4.291869175,0.292986853,-0.003542354,-0.028170323,-0.351477913
1750924514.337080002,-1.411354356,-1.519949545,-1.791377620,1.557504213,-1.775398663,-3.345349559,0.027604207,0.099471607,-0.118787282,-0.003837794,-0.323000000,-0.322921354,2.529218589,4.291869175,0.292986853,-0.003542354,-0.028170323,-0.351477913
1750924514.339002132,-1.411299062,-1.519750294,-1.791615562,1.557496525,-1.776045663,-3.345996402,0.027689669,0.099779569,-0.119155044,-0.003849675,-0.324000000,-0.323921110,2.528827818,4.291695533,0.292983719,-0.003540630,-0.028170323,-0.351430700
1750924514.340944529,-1.411243597,-1.519550427,-1.791854240,1.557488814,-1.776694663,-3.346645244,0.027775131,0.100087530,-0.119522807,-0.003861557,-0.325000000,-0.324920867,2.528435637,4.291521158,0.292980576,-0.003538900,-0.028170323,-0.351383303
1750924514.343001604,-1.411187962,-1.519349944,-1.792093654,1.557481079,-1.777345663,-3.347296085,0.027860592,0.100395492,-0.119890569,-0.003873439,-0.326000000,-0.325920623,2.528042044,4.291346049,0.292977424,-0.003537163,-0.028170323,-0.351335722
1750924514.350840807,-1.411076177,-1.518947130,-1.792574687,1.557465538,-1.778653663,-3.348603767,0.028031516,0.101011415,-0.120626094,-0.003897202,-0.328000000,-0.327920136,2.527250614,4.290993623,0.292971090,-0.003533669,-0.028170323,-0.351240007
1750924514.350889921,-1.411020029,-1.518744799,-1.792816307,1.557457732,-1.779310663,-3.349260607,0.028116978,0.101319377,-0.120993857,-0.003909084,-0.329000000,-0.328919893,2.526852773,4.290816301,0.292967909,-0.003531911,-0.028170323,-0.351191872
1750924514.351139545,-1.410963709,-1.518541853,-1.793058662,1.557449902,-1.779969663,-3.349919446,0.028202440,0.101627339,-0.121361619,-0.003920966,-0.330000000,-0.329919649,2.526453513,4.290638237,0.292964718,-0.003530147,-0.028170323,-0.351143552
1750924514.353646517,-1.410907219,-1.518338290,-1.793301753,1.557442048,-1.780630663,-3.350580285,0.028287902,0.101935300,-0.121729382,-0.003932847,-0.331000000,-0.330919406,2.526052831,4.290459431,0.292961518,-0.003528377,-0.028170323,-0.351095046
1750924514.355188131,-1.410850558,-1.518134112,-1.793545580,1.557434170,-1.781293663,-3.351243124,0.028373364,0.102243262,-0.122097144,-0.003944729,-0.332000000,-0.331919162,2.525650725,4.290279879,0.292958308,-0.003526599,-0.028170323,-0.351046354
1750924514.357017040,-1.410793726,-1.517929317,-1.793790142,1.557426269,-1.781958663,-3.351907962,0.028458826,0.102551223,-0.122464907,-0.003956611,-0.333000000,-0.332918919,2.525247194,4.290099581,0.292955088,-0.003524815,-0.028170323,-0.350997475
1750924514.359025717,-1.410736723,-1.517723907,-1.794035440,1.557418344,-1.782625663,-3.352574800,0.028544288,0.102859185,-0.122832669,-0.003968493,-0.334000000,-0.333918676,2.524842235,4.289918533,0.292951859,-0.003523024,-0.028170323,-0.350948411
1750924514.361068964,-1.410679548,-1.517517880,-1.794281473,1.557410395,-1.783294663,-3.353243637,0.028629750,0.103167147,-0.123200432,-0.003980374,-0.335000000,-0.334918432,2.524435847,4.289736735,0.292948620,-0.003521226,-0.028170323,-0.350899159
1750924514.363156557,-1.410622204,-1.517311238,-1.794528241,1.557402422,-1.783965663,-3.353914473,0.028715212,0.103475108,-0.123568194,-0.003992256,-0.336000000,-0.335918189,2.524028027,4.289554183,0.292945372,-0.003519421,-0.028170323,-0.350849720
1750924514.366605997,-1.410564688,-1.517103980,-1.794775746,1.557394426,-1.784638663,-3.354587310,0.028800674,0.103783070,-0.123935957,-0.004004138,-0.337000000,-0.336917945,2.523618774,4.289370878,0.292942114,-0.003517609,-0.028170323,-0.350800093
1750924514.367060661,-1.410507001,-1.516896106,-1.795023985,1.557386406,-1.785313663,-3.355262145,0.028886136,0.104091032,-0.124303719,-0.004016020,-0.338000000,-0.337917702,2.523208085,4.289186815,0.292938847,-0.003515791,-0.028170323,-0.350750278
1750924514.369208813,-1.410449143,-1.516687616,-1.795272960,1.557378362,-1.785990663,-3.355938980,0.028971598,0.104398993,-0.124671482,-0.004027901,-0.339000000,-0.338917458,2.522795959,4.289001995,0.292935570,-0.003513965,-0.028170323,-0.350700276
1750924514.371097088,-1.410391114,-1.516478510,-1.795522671,1.557370294,-1.786669663,-3.356617815,0.029057060,0.104706955,-0.125039244,-0.004039783,-0.340000000,-0.339917215,2.522382393,4.288816414,0.292932283,-0.003512133,-0.028170323,-0.350650084
1750924514.373150349,-1.410332915,-1.516268788,-1.795773117,1.557362203,-1.787350663,-3.357298649,0.029142522,0.105014917,-0.125407006,-0.004051665,-0.341000000,-0.340916971,2.521967385,4.288630071,0.292928987,-0.003510294,-0.028170323,-0.350599704
1750924514.375170231,-1.410332915,-1.516268788,-1.795773117,1.557362203,-1.787350663,-3.357298649,0.029142522,0.105014917,-0.125407006,-0.004051665,-0.341000000,-0.340916971,2.521967385,4.288630071,0.292928987,-0.003510294,-0.028170323,-0.350599704
1750924514.377152920,-1.410274544,-1.516058450,-1.796024299,1.557354087,-1.788033663,-3.357981483,0.029227983,0.105322878,-0.125774769,-0.004063546,-0.342000000,-0.341916728,2.521550934,4.288442963,0.292925681,-0.003508447,-0.028170323,-0.350549135
1750924514.379230499,-1.410216003,-1.515847496,-1.796276216,1.557345948,-1.788718663,-3.358666316,0.029313445,0.105630840,-0.126142531,-0.004075428,-0.343000000,-0.342916484,2.521133038,4.288255090,0.292922366,-0.003506594,-0.028170323,-0.350498376
1750924514.381175756,-1.410157291,-1.515635927,-1.796528869,1.557337786,-1.789405663,-3.359353149,0.029398907,0.105938801,-0.126510294,-0.004087310,-0.344000000,-0.343916241,2.520713694,4.288066448,0.292919041,-0.003504734,-0.028170323,-0.350447427
1750924514.383146286,-1.410098407,-1.515423741,-1.796782258,1.557329599,-1.790094663,-3.360041981,0.029484369,0.106246763,-0.126878056,-0.004099192,-0.345000000,-0.344915997,2.520292900,4.287877036,0.292915706,-0.003502867,-0.028170323,-0.350396288
1750924514.385193110,-1.410039353,-1.515210940,-1.797036381,1.557321389,-1.790785663,-3.360732813,0.029569831,0.106554725,-0.127245819,-0.004111073,-0.346000000,-0.345915754,2.519870654,4.287686853,0.292912362,-0.003500993,-0.028170323,-0.350344958
1750924514.387177944,-1.409980128,-1.514997522,-1.797291241,1.557313155,-1.791478663,-3.361425644,0.029655293,0.106862686,-0.127613581,-0.004122955,-0.347000000,-0.346915510,2.519446955,4.287495895,0.292909009,-0.003499112,-0.028170323,-0.350293438
1750924514.389162064,-1.409920732,-1.514783489,-1.797546836,1.557304897,-1.792173663,-3.362120475,0.029740755,0.107170648,-0.127981344,-0.004134837,-0.348000000,-0.347915267,2.519021799,4.287304162,0.292905646,-0.003497224,-0.028170323,-0.350241726
1750924514.391226053,-1.409861165,-1.514568840,-1.797803166,1.557296616,-1.792870663,-3.362817305,0.029826217,0.107478610,-0.128349106,-0.004146718,-0.349000000,-0.348915023,2.518595186,4.287111651,0.292902273,-0.003495330,-0.028170323,-0.350189823
1750924514.393135786,-1.409801427,-1.514353575,-1.798060232,1.557288310,-1.793569663,-3.363516135,0.029911679,0.107786571,-0.128716869,-0.004158600,-0.350000000,-0.349914780,2.518167113,4.286918359,0.292898891,-0.003493428,-0.028170323,-0.350137728
1750924514.402770758,-1.409741518,-1.514137693,-1.798318034,1.557279981,-1.794270663,-3.364216964,0.029997141,0.108094533,-0.129084631,-0.004170482,-0.351000000,-0.350914536,2.517737578,4.286724286,0.292895499,-0.003491519,-0.028170323,-0.350085441
1750924514.402824402,-1.409681438,-1.513921196,-1.798576571,1.557271628,-1.794973663,-3.364919793,0.030082603,0.108402494,-0.129452394,-0.004182364,-0.352000000,-0.351914293,2.517306579,4.286529430,0.292892097,-0.003489602,-0.028170323,-0.350032962
1750924514.402843714,-1.409681438,-1.513921196,-1.798576571,1.557271628,-1.794973663,-3.364919793,0.030082603,0.108402494,-0.129452394,-0.004182364,-0.352000000,-0.351914293,2.517306579,4.286529430,0.292892097,-0.003489602,-0.028170323,-0.350032962
1750924514.403169870,-1.409681438,-1.513921196,-1.798576571,1.557271628,-1.794973663,-3.364919793,0.030082603,0.108402494,-0.129452394,-0.004182364,-0.352000000,-0.351914293,2.517306579,4.286529430,0.292892097,-0.003489602,-0.028170323,-0.350032962
1750924514.405462503,-1.409621188,-1.513704083,-1.798835843,1.557263252,-1.795678663,-3.365624621,0.030168065,0.108710456,-0.129820156,-0.004194245,-0.353000000,-0.352914049,2.516874113,4.286333787,0.292888687,-0.003487679,-0.028170323,-0.349980290
1750924514.407064915,-1.409560766,-1.513486355,-1.799095851,1.557254851,-1.796385663,-3.366331449,0.030253527,0.109018418,-0.130187919,-0.004206127,-0.354000000,-0.353913806,2.516440179,4.286137357,0.292885266,-0.003485749,-0.028170323,-0.349927424
1750924514.409095764,-1.409500174,-1.513268010,-1.799356595,1.557246427,-1.797094663,-3.367040277,0.030338989,0.109326379,-0.130555681,-0.004218009,-0.355000000,-0.354913562,2.516004774,4.285940136,0.292881836,-0.003483812,-0.028170323,-0.349874365
1750924514.410970688,-1.409439410,-1.513049049,-1.799618074,1.557237979,-1.797805663,-3.367751104,0.030424451,0.109634341,-0.130923444,-0.004229890,-0.356000000,-0.355913319,2.515567897,4.285742124,0.292878397,-0.003481867,-0.028170323,-0.349821113
1750924514.413127422,-1.409378476,-1.512829472,-1.799880289,1.557229508,-1.798518663,-3.368463930,0.030509913,0.109942303,-0.131291206,-0.004241772,-0.357000000,-0.356913075,2.515129545,4.285543318,0.292874947,-0.003479916,-0.028170323,-0.349767666
1750924514.415080309,-1.409317371,-1.512609280,-1.800143239,1.557221012,-1.799233663,-3.369178756,0.030595375,0.110250264,-0.131658969,-0.004253654,-0.358000000,-0.357912832,2.514689717,4.285343716,0.292871489,-0.003477957,-0.028170323,-0.349714025
1750924514.417056322,-1.409256094,-1.512388471,-1.800406925,1.557212493,-1.799950663,-3.369895581,0.030680836,0.110558226,-0.132026731,-0.004265536,-0.359000000,-0.358912588,2.514248409,4.285143316,0.292868021,-0.003475991,-0.028170322,-0.349660189
1750924514.419867039,-1.409194647,-1.512167047,-1.800671346,1.557203950,-1.800669663,-3.370614406,0.030766298,0.110866188,-0.132394494,-0.004277417,-0.360000000,-0.359912345,2.513805620,4.284942117,0.292864543,-0.003474018,-0.028170322,-0.349606158
1750924514.421105862,-1.409133029,-1.511945007,-1.800936503,1.557195383,-1.801390663,-3.371335231,0.030851760,0.111174149,-0.132762256,-0.004289299,-0.361000000,-0.360912101,2.513361348,4.284740115,0.292861056,-0.003472038,-0.028170322,-0.349551931
1750924514.423020363,-1.409071240,-1.511722350,-1.801202395,1.557186793,-1.802113663,-3.372058055,0.030937222,0.111482111,-0.133130019,-0.004301181,-0.362000000,-0.361911858,2.512915591,4.284537309,0.292857559,-0.003470051,-0.028170322,-0.349497509
1750924514.425014734,-1.409009280,-1.511499078,-1.801469023,1.557178179,-1.802838663,-3.372782878,0.031022684,0.111790072,-0.133497781,-0.004313062,-0.363000000,-0.362911614,2.512468345,4.284333697,0.292854053,-0.003468056,-0.028170322,-0.349442891
1750924514.427109718,-1.408947149,-1.511275190,-1.801736386,1.557169541,-1.803565663,-3.373509701,0.031108146,0.112098034,-0.133865544,-0.004324944,-0.364000000,-0.363911371,2.512019610,4.284129277,0.292850537,-0.003466055,-0.028170322,-0.349388076
1750924514.429082870,-1.408884848,-1.511050686,-1.802004485,1.557160879,-1.804294663,-3.374238524,0.031193608,0.112405996,-0.134233306,-0.004336826,-0.365000000,-0.364911127,2.511569383,4.283924046,0.292847012,-0.003464046,-0.028170322,-0.349333064
1750924514.431036472,-1.408822375,-1.510825566,-1.802273319,1.557152193,-1.805025663,-3.374969346,0.031279070,0.112713957,-0.134601069,-0.004348708,-0.366000000,-0.365910884,2.511117662,4.283718003,0.292843477,-0.003462029,-0.028170322,-0.349277855
1750924514.433036566,-1.408759731,-1.510599830,-1.802542889,1.557143484,-1.805758663,-3.375702167,0.031364532,0.113021919,-0.134968831,-0.004360589,-0.367000000,-0.366910640,2.510664445,4.283511146,0.292839932,-0.003460006,-0.028170322,-0.349222449
1750924514.435112000,-1.408696917,-1.510373478,-1.802813195,1.557134751,-1.806493663,-3.376436988,0.031449994,0.113329881,-0.135336593,-0.004372471,-0.368000000,-0.367910397,2.510209729,4.283303472,0.292836379,-0.003457975,-0.028170322,-0.349166845
1750924514.437114477,-1.408633931,-1.510146511,-1.803084236,1.557125994,-1.807230663,-3.377173809,0.031535456,0.113637842,-0.135704356,-0.004384353,-0.369000000,-0.368910153,2.509753512,4.283094980,0.292832815,-0.003455937,-0.028170322,-0.349111043
1750924514.439094543,-1.408570775,-1.509918927,-1.803356012,1.557117214,-1.807969663,-3.377912629,0.031620918,0.113945804,-0.136072118,-0.004396234,-0.370000000,-0.369909910,2.509295792,4.282885666,0.292829242,-0.003453892,-0.028170322,-0.349055043
1750924514.441159964,-1.408507448,-1.509690727,-1.803628524,1.557108409,-1.808710663,-3.378653448,0.031706380,0.114253765,-0.136439881,-0.004408116,-0.371000000,-0.370909667,2.508836567,4.282675530,0.292825660,-0.003451839,-0.028170322,-0.348998844
1750924514.443090439,-1.408443950,-1.509461912,-1.803901772,1.557099581,-1.809453663,-3.379396267,0.031791842,0.114561727,-0.136807643,-0.004419998,-0.372000000,-0.371909423,2.508375835,4.282464570,0.292822068,-0.003449779,-0.028170322,-0.348942446
1750924514.445054293,-1.408380280,-1.509232481,-1.804175755,1.557090729,-1.810198663,-3.380141086,0.031877304,0.114869689,-0.137175406,-0.004431880,-0.373000000,-0.372909180,2.507913593,4.282252782,0.292818467,-0.003447712,-0.028170322,-0.348885848
1750924514.447481394,-1.408316440,-1.509002433,-1.804450473,1.557081854,-1.810945663,-3.380887904,0.031962766,0.115177650,-0.137543168,-0.004443761,-0.374000000,-0.373908936,2.507449839,4.282040164,0.292814856,-0.003445637,-0.028170322,-0.348829050
1750924514.451327562,-1.408316440,-1.509002433,-1.804450473,1.557081854,-1.810945663,-3.380887904,0.031962766,0.115177650,-0.137543168,-0.004443761,-0.374000000,-0.373908936,2.507449839,4.282040164,0.292814856,-0.003445637,-0.028170322,-0.348829050
1750924514.451436043,-1.408316440,-1.509002433,-1.804450473,1.557081854,-1.810945663,-3.380887904,0.031962766,0.115177650,-0.137543168,-0.004443761,-0.374000000,-0.373908936,2.507449839,4.282040164,0.292814856,-0.003445637,-0.028170322,-0.348829050
1750924514.453610659,-1.408316440,-1.509002433,-1.804450473,1.557081854,-1.810945663,-3.380887904,0.031962766,0.115177650,-0.137543168,-0.004443761,-0.374000000,-0.373908936,2.507449839,4.282040164,0.292814856,-0.003445637,-0.028170322,-0.348829050
1750924514.456248283,-1.408059371,-1.508076085,-1.805556703,1.557046113,-1.813953663,-3.383895172,0.032304613,0.116409497,-0.139014218,-0.004491288,-0.378000000,-0.377907962,2.505579659,4.281181361,0.292800317,-0.003437264,-0.028170322,-0.348599856
1750924514.457000017,-1.408059371,-1.508076085,-1.805556703,1.557046113,-1.813953663,-3.383895172,0.032304613,0.116409497,-0.139014218,-0.004491288,-0.378000000,-0.377907962,2.505579659,4.281181361,0.292800317,-0.003437264,-0.028170322,-0.348599856
1750924514.458967209,-1.407994676,-1.507842958,-1.805835099,1.557037119,-1.814710663,-3.384651987,0.032390075,0.116717459,-0.139381981,-0.004503170,-0.379000000,-0.378907719,2.505108312,4.280964566,0.292796658,-0.003435153,-0.028170322,-0.348542055
1750924514.461082458,-1.407929811,-1.507609215,-1.806114231,1.557028101,-1.815469663,-3.385410803,0.032475537,0.117025420,-0.139749743,-0.004515052,-0.380000000,-0.379907475,2.504635439,4.280746928,0.292792990,-0.003433034,-0.028170322,-0.348484052
