mathias31415/motion_primitives_from_planned_trajectory/data/trajectory_20250626_115704_executed.csv
timestamp,shoulder_lift_joint_pos,elbow_joint_pos,wrist_1_joint_pos,wrist_2_joint_pos,wrist_3_joint_pos,shoulder_pan_joint_pos,shoulder_lift_joint_vel,elbow_joint_vel,wrist_1_joint_vel,wrist_2_joint_vel,wrist_3_joint_vel,shoulder_pan_joint_vel,shoulder_lift_joint_eff,elbow_joint_eff,wrist_1_joint_eff,wrist_2_joint_eff,wrist_3_joint_eff,shoulder_pan_joint_eff
1750931837.839309454,-1.852035000,-1.554697000,-1.488325000,1.029796000,1.153214000,-0.377081000,0.000000000,0.000000000,0.000000000,0.000000000,0.000000000,0.000000000,5.281220742,4.134618030,0.284882888,-0.041808063,0.000000000,0.000000000
1750931837.841121674,-1.852035000,-1.554697000,-1.488325000,1.029796000,1.153214000,-0.377081000,0.000000000,0.000000000,0.000000000,0.000000000,0.000000000,0.000000000,5.281220742,4.134618030,0.284882888,-0.041808063,0.000000000,0.000000000
1750931837.843113422,-1.852035000,-1.554697000,-1.488325000,1.029796000,1.153214000,-0.377081000,0.000000000,0.000000000,0.000000000,0.000000000,0.000000000,0.000000000,5.281220742,4.134618030,0.284882888,-0.041808063,0.000000000,0.000000000
1750931837.845112085,-1.852035000,-1.554697000,-1.488325000,1.029796000,1.153214000,-0.377081000,0.000000000,0.000000000,0.000000000,0.000000000,0.000000000,0.000000000,5.281220742,4.134618030,0.284882888,-0.041808063,0.000000000,0.000000000
1750931837.847062111,-1.852035000,-1.554697000,-1.488325000,1.029796000,1.153214000,-0.377081000,0.000000000,0.000000000,0.000000000,0.000000000,0.000000000,0.000000000,5.281220742,4.134618030,0.284882888,-0.041808063,0.000000000,0.000000000
1750931837.849159241,-1.852035000,-1.554697000,-1.488325000,1.029796000,1.153214000,-0.377081000,0.000000000,0.000000000,0.000000000,0.000000000,0.000000000,0.000000000,5.281220742,4.134618030,0.284882888,-0.041808063,0.000000000,0.000000000
1750931837.851743698,-1.852035000,-1.554697000,-1.488325000,1.029796000,1.153214000,-0.377081000,0.000000000,0.000000000,0.000000000,0.000000000,0.000000000,0.000000000,5.281220742,4.134618030,0.284882888,-0.041808063,0.000000000,0.000000000
1750931837.857010603,-1.852035000,-1.554697000,-1.488325000,1.029796000,1.153214000,-0.377081000,0.000000000,0.000000000,0.000000000,0.000000000,0.000000000,0.000000000,5.281220742,4.134618030,0.284882888,-0.041808063,0.000000000,0.000000000
1750931837.857097149,-1.852035000,-1.554697000,-1.488325000,1.029796000,1.153214000,-0.377081000,0.000000000,0.000000000,0.000000000,0.000000000,0.000000000,0.000000000,5.281220742,4.134618030,0.284882888,-0.041808063,0.000000000,0.000000000
1750931837.857542753,-1.852035000,-1.554697000,-1.488325000,1.029796000,1.153214000,-0.377081000,0.000000000,0.000000000,0.000000000,0.000000000,0.000000000,0.000000000,5.281220742,4.134618030,0.284882888,-0.041808063,0.000000000,0.000000000
1750931837.860538006,-1.852035000,-1.554697000,-1.488325000,1.029796000,1.153214000,-0.377081000,0.000000000,0.000000000,0.000000000,0.000000000,0.000000000,0.000000000,5.281220742,4.134618030,0.284882888,-0.041808063,0.000000000,0.000000000
1750931837.861131430,-1.852035000,-1.554697000,-1.488325000,1.029796000,1.153214000,-0.377081000,0.000000000,0.000000000,0.000000000,0.000000000,0.000000000,0.000000000,5.281220742,4.134618030,0.284882888,-0.041808063,0.000000000,0.000000000
1750931837.864916801,-1.852035000,-1.554697000,-1.488325000,1.029796000,1.153214000,-0.377081000,0.000000000,0.000000000,0.000000000,0.000000000,0.000000000,0.000000000,5.281220742,4.134618030,0.284882888,-0.041808063,0.000000000,0.000000000
1750931837.866252661,-1.852035000,-1.554697000,-1.488325000,1.029796000,1.153214000,-0.377081000,0.000000000,0.000000000,0.000000000,0.000000000,0.000000000,0.000000000,5.281220742,4.134618030,0.284882888,-0.041808063,0.000000000,0.000000000
1750931837.868992567,-1.852035000,-1.554697000,-1.488325000,1.029796000,1.153214000,-0.377081000,0.000000000,0.000000000,0.000000000,0.000000000,0.000000000,0.000000000,5.281220742,4.134618030,0.284882888,-0.041808063,0.000000000,0.000000000
1750931837.869625092,-1.852035000,-1.554697000,-1.488325000,1.029796000,1.153214000,-0.377081000,0.000000000,0.000000000,0.000000000,0.000000000,0.000000000,0.000000000,5.281220742,4.134618030,0.284882888,-0.041808063,0.000000000,0.000000000
1750931837.871184826,-1.852035000,-1.554697000,-1.488325000,1.029796000,1.153214000,-0.377081000,0.000000000,0.000000000,0.000000000,0.000000000,0.000000000,0.000000000,5.281220742,4.134618030,0.284882888,-0.041808063,0.000000000,0.000000000
1750931837.873157978,-1.852035000,-1.554697000,-1.488325000,1.029796000,1.153214000,-0.377081000,0.000000000,0.000000000,0.000000000,0.000000000,0.000000000,0.000000000,5.281220742,4.134618030,0.284882888,-0.041808063,0.000000000,0.000000000
1750931837.875072002,-1.852035000,-1.554697000,-1.488325000,1.029796000,1.153214000,-0.377081000,0.000000000,0.000000000,0.000000000,0.000000000,0.000000000,0.000000000,5.281220742,4.134618030,0.284882888,-0.041808063,0.000000000,0.000000000
1750931837.877195835,-1.852035000,-1.554697000,-1.488325000,1.029796000,1.153214000,-0.377081000,0.000000000,0.000000000,0.000000000,0.000000000,0.000000000,0.000000000,5.281220742,4.134618030,0.284882888,-0.041808063,0.000000000,0.000000000
1750931837.879606485,-1.852035000,-1.554697000,-1.488325000,1.029796000,1.153214000,-0.377081000,0.000000000,0.000000000,0.000000000,0.000000000,0.000000000,0.000000000,5.281220742,4.134618030,0.284882888,-0.041808063,0.000000000,0.000000000
1750931837.881054878,-1.852035000,-1.554697000,-1.488325000,1.029796000,1.153214000,-0.377081000,0.000000000,0.000000000,0.000000000,0.000000000,0.000000000,0.000000000,5.281220742,4.134618030,0.284882888,-0.041808063,0.000000000,0.000000000
1750931837.883020639,-1.852035000,-1.554697000,-1.488325000,1.029796000,1.153214000,-0.377081000,0.000000000,0.000000000,0.000000000,0.000000000,0.000000000,0.000000000,5.281220742,4.134618030,0.284882888,-0.041808063,0.000000000,0.000000000
1750931837.885717869,-1.852035000,-1.554697000,-1.488325000,1.029796000,1.153214000,-0.377081000,0.000000000,0.000000000,0.000000000,0.000000000,0.000000000,0.000000000,5.281220742,4.134618030,0.284882888,-0.041808063,0.000000000,0.000000000
1750931837.887263775,-1.852035000,-1.554697000,-1.488325000,1.029796000,1.153214000,-0.377081000,0.000000000,0.000000000,0.000000000,0.000000000,0.000000000,0.000000000,5.281220742,4.134618030,0.284882888,-0.041808063,0.000000000,0.000000000
1750931837.889098406,-1.852035000,-1.554697000,-1.488325000,1.029796000,1.153214000,-0.377081000,0.000000000,0.000000000,0.000000000,0.000000000,0.000000000,0.000000000,5.281220742,4.134618030,0.284882888,-0.041808063,0.000000000,0.000000000
1750931837.891135693,-1.852035000,-1.554697000,-1.488325000,1.029796000,1.153214000,-0.377081000,0.000000000,0.000000000,0.000000000,0.000000000,0.000000000,0.000000000,5.281220742,4.134618030,0.284882888,-0.041808063,0.000000000,0.000000000
1750931837.893228769,-1.852035000,-1.554697000,-1.488325000,1.029796000,1.153214000,-0.377081000,0.000000000,0.000000000,0.000000000,0.000000000,0.000000000,0.000000000,5.281220742,4.134618030,0.284882888,-0.041808063,0.000000000,0.000000000
1750931837.895377636,-1.852035000,-1.554697000,-1.488325000,1.029796000,1.153214000,-0.377081000,0.000000000,0.000000000,0.000000000,0.000000000,0.000000000,0.000000000,5.281220742,4.134618030,0.284882888,-0.041808063,0.000000000,0.000000000
1750931837.897184372,-1.852035000,-1.554697000,-1.488325000,1.029796000,1.153214000,-0.377081000,0.000000000,0.000000000,0.000000000,0.000000000,0.000000000,0.000000000,5.281220742,4.134618030,0.284882888,-0.041808063,0.000000000,0.000000000
1750931837.899036407,-1.852035000,-1.554697000,-1.488325000,1.029796000,1.153214000,-0.377081000,0.000000000,0.000000000,0.000000000,0.000000000,0.000000000,0.000000000,5.281220742,4.134618030,0.284882888,-0.041808063,0.000000000,0.000000000
1750931837.901463032,-1.852035000,-1.554697000,-1.488325000,1.029796000,1.153214000,-0.377081000,0.000000000,0.000000000,0.000000000,0.000000000,0.000000000,0.000000000,5.281220742,4.134618030,0.284882888,-0.041808063,0.000000000,0.000000000
1750931837.903335571,-1.852035000,-1.554697000,-1.488325000,1.029796000,1.153214000,-0.377081000,0.000000000,0.000000000,0.000000000,0.000000000,0.000000000,0.000000000,5.281220742,4.134618030,0.284882888,-0.041808063,0.000000000,0.000000000
1750931837.906476021,-1.852035000,-1.554697000,-1.488325000,1.029796000,1.153214000,-0.377081000,0.000000000,0.000000000,0.000000000,0.000000000,0.000000000,0.000000000,5.281220742,4.134618030,0.284882888,-0.041808063,0.000000000,0.000000000
1750931837.907326937,-1.852035000,-1.554697000,-1.488325000,1.029796000,1.153214000,-0.377081000,0.000000000,0.000000000,0.000000000,0.000000000,0.000000000,0.000000000,5.281220742,4.134618030,0.284882888,-0.041808063,0.000000000,0.000000000
1750931837.914741516,-1.852035000,-1.554697000,-1.488325000,1.029796000,1.153214000,-0.377081000,0.000000000,0.000000000,0.000000000,0.000000000,0.000000000,0.000000000,5.281220742,4.134618030,0.284882888,-0.041808063,0.000000000,0.000000000
1750931837.914828062,-1.852035000,-1.554697000,-1.488325000,1.029796000,1.153214000,-0.377081000,0.000000000,0.000000000,0.000000000,0.000000000,0.000000000,0.000000000,5.281220742,4.134618030,0.284882888,-0.041808063,0.000000000,0.000000000
1750931837.914845228,-1.852035000,-1.554697000,-1.488325000,1.029796000,1.153214000,-0.377081000,0.000000000,0.000000000,0.000000000,0.000000000,0.000000000,0.000000000,5.281220742,4.134618030,0.284882888,-0.041808063,0.000000000,0.000000000
1750931837.917110205,-1.852035000,-1.554697000,-1.488325000,1.029796000,1.153214000,-0.377081000,0.000000000,0.000000000,0.000000000,0.000000000,0.000000000,0.000000000,5.281220742,4.134618030,0.284882888,-0.041808063,0.000000000,0.000000000
1750931837.918725967,-1.852035000,-1.554697000,-1.488325000,1.029796000,1.153214000,-0.377081000,0.000000000,0.000000000,0.000000000,0.000000000,0.000000000,0.000000000,5.281220742,4.134618030,0.284882888,-0.041808063,0.000000000,0.000000000
1750931837.920005560,-1.852035000,-1.554697000,-1.488325000,1.029796000,1.153214000,-0.377081000,0.000000000,0.000000000,0.000000000,0.000000000,0.000000000,0.000000000,5.281220742,4.134618030,0.284882888,-0.041808063,0.000000000,0.000000000
1750931837.921749353,-1.852035000,-1.554697000,-1.488325000,1.029796000,1.153214000,-0.377081000,0.000000000,0.000000000,0.000000000,0.000000000,0.000000000,0.000000000,5.281220742,4.134618030,0.284882888,-0.041808063,0.000000000,0.000000000
1750931837.924535513,-1.852035000,-1.554697000,-1.488325000,1.029796000,1.153214000,-0.377081000,0.000000000,0.000000000,0.000000000,0.000000000,0.000000000,0.000000000,5.281220742,4.134618030,0.284882888,-0.041808063,0.000000000,0.000000000
1750931837.928884029,-1.852035000,-1.554697000,-1.488325000,1.029796000,1.153214000,-0.377081000,0.000000000,0.000000000,0.000000000,0.000000000,0.000000000,0.000000000,5.281220742,4.134618030,0.284882888,-0.041808063,0.000000000,0.000000000
1750931837.929095507,-1.852035000,-1.554697000,-1.488325000,1.029796000,1.153214000,-0.377081000,0.000000000,0.000000000,0.000000000,0.000000000,0.000000000,0.000000000,5.281220742,4.134618030,0.284882888,-0.041808063,0.000000000,0.000000000
1750931837.931317568,-1.852035000,-1.554697000,-1.488325000,1.029796000,1.153214000,-0.377081000,0.000000000,0.000000000,0.000000000,0.000000000,0.000000000,0.000000000,5.281220742,4.134618030,0.284882888,-0.041808063,0.000000000,0.000000000
1750931837.935835600,-1.852035000,-1.554697000,-1.488325000,1.029796000,1.153214000,-0.377081000,0.000000000,0.000000000,0.000000000,0.000000000,0.000000000,0.000000000,5.281220742,4.134618030,0.284882888,-0.041808063,0.000000000,0.000000000
1750931837.935908794,-1.852035000,-1.554697000,-1.488325000,1.029796000,1.153214000,-0.377081000,0.000000000,0.000000000,0.000000000,0.000000000,0.000000000,0.000000000,5.281220742,4.134618030,0.284882888,-0.041808063,0.000000000,0.000000000
1750931837.937225819,-1.852035000,-1.554697000,-1.488325000,1.029796000,1.153214000,-0.377081000,0.000000000,0.000000000,0.000000000,0.000000000,0.000000000,0.000000000,5.281220742,4.134618030,0.284882888,-0.041808063,0.000000000,0.000000000
1750931837.939201593,-1.852035000,-1.554697000,-1.488325000,1.029796000,1.153214000,-0.377081000,0.000000000,0.000000000,0.000000000,0.000000000,0.000000000,0.000000000,5.281220742,4.134618030,0.284882888,-0.041808063,0.000000000,0.000000000
1750931837.941086054,-1.852035000,-1.554697000,-1.488325000,1.029796000,1.153214000,-0.377081000,0.000000000,0.000000000,0.000000000,0.000000000,0.000000000,0.000000000,5.281220742,4.134618030,0.284882888,-0.041808063,0.000000000,0.000000000
1750931837.943130970,-1.852035000,-1.554697000,-1.488325000,1.029796000,1.153214000,-0.377081000,0.000000000,0.000000000,0.000000000,0.000000000,0.000000000,0.000000000,5.281220742,4.134618030,0.284882888,-0.041808063,0.000000000,0.000000000
1750931837.945009947,-1.852035000,-1.554697000,-1.488325000,1.029796000,1.153214000,-0.377081000,0.000000000,0.000000000,0.000000000,0.000000000,0.000000000,0.000000000,5.281220742,4.134618030,0.284882888,-0.041808063,0.000000000,0.000000000
1750931837.947088957,-1.852035000,-1.554697000,-1.488325000,1.029796000,1.153214000,-0.377081000,0.000000000,0.000000000,0.000000000,0.000000000,0.000000000,0.000000000,5.281220742,4.134618030,0.284882888,-0.041808063,0.000000000,0.000000000
1750931837.949092865,-1.852034773,-1.554697772,-1.488324267,1.029796429,1.153212915,-0.377082088,0.000227490,-0.000772217,0.000732847,0.000428882,-0.001085484,-0.001087723,5.369142043,3.983866293,0.299244858,-0.032086682,-0.030579556,-0.503030589
1750931837.951356649,-1.852034090,-1.554700089,-1.488322069,1.029797716,1.153209658,-0.377085351,0.000454967,-0.001544418,0.001465685,0.000857762,-0.002170971,-0.002175451,5.369132279,3.983866186,0.299244666,-0.032086662,-0.030579639,-0.503031274
1750931837.953165770,-1.852034090,-1.554700089,-1.488322069,1.029797716,1.153209658,-0.377085351,0.000454967,-0.001544418,0.001465685,0.000857762,-0.002170971,-0.002175451,5.369132279,3.983866186,0.299244666,-0.032086662,-0.030579639,-0.503031274
1750931837.956830978,-1.852031360,-1.554709355,-1.488313275,1.029802862,1.153196632,-0.377098404,0.000909834,-0.003088703,0.002931300,0.001715505,-0.004341965,-0.004350941,5.369088245,3.983867754,0.299243688,-0.032086662,-0.030580054,-0.503035661
1750931837.957191229,-1.852031360,-1.554709355,-1.488313275,1.029802862,1.153196632,-0.377098404,0.000909834,-0.003088703,0.002931300,0.001715505,-0.004341965,-0.004350941,5.369088245,3.983867754,0.299243688,-0.032086662,-0.030580054,-0.503035661
1750931837.959326982,-1.852029313,-1.554716305,-1.488306679,1.029806722,1.153186863,-0.377108193,0.001137199,-0.003860754,0.003664059,0.002144365,-0.005427479,-0.005438714,5.369053977,3.983869430,0.299242902,-0.032086682,-0.030580386,-0.503039362
1750931837.961143732,-1.852026812,-1.554724798,-1.488298618,1.029811440,1.153174922,-0.377120159,0.001364501,-0.004632723,0.004396774,0.002573213,-0.006513007,-0.006526511,5.369011541,3.983871701,0.299241917,-0.032086715,-0.030580802,-0.503044068
1750931837.964707613,-1.852020445,-1.554746416,-1.488278101,1.029823448,1.153144528,-0.377150616,0.001818869,-0.006176345,0.005862035,0.003430868,-0.008684119,-0.008702201,5.368902171,3.983878026,0.299239353,-0.032086822,-0.030581881,-0.503056495
1750931837.967885017,-1.852020445,-1.554746416,-1.488278101,1.029823448,1.153144528,-0.377150616,0.001818869,-0.006176345,0.005862035,0.003430868,-0.008684119,-0.008702201,5.368902171,3.983878026,0.299239353,-0.032086822,-0.030581881,-0.503056495
1750931837.968868017,-1.852016580,-1.554759541,-1.488265644,1.029830738,1.153126074,-0.377169108,0.002045909,-0.006947966,0.006594565,0.003859669,-0.009769709,-0.009790102,5.368835240,3.983882080,0.299237774,-0.032086896,-0.030582546,-0.503064216
1750931837.969089985,-1.852012261,-1.554774208,-1.488251722,1.029838886,1.153105449,-0.377189776,0.002272837,-0.007719438,0.007327015,0.004288451,-0.010855326,-0.010878049,5.368760146,3.983886729,0.299235996,-0.032086983,-0.030583293,-0.503072942
1750931837.971111774,-1.852007489,-1.554790418,-1.488236336,1.029847892,1.153082653,-0.377212620,0.002499640,-0.008490744,0.008059377,0.004717210,-0.011940972,-0.011966045,5.368676890,3.983891972,0.299234020,-0.032087083,-0.030584123,-0.503082671
1750931837.973152876,-1.852002263,-1.554808171,-1.488219485,1.029857755,1.153057685,-0.377237641,0.002726306,-0.009261867,0.008791642,0.005145944,-0.013026650,-0.013054096,5.368585474,3.983897810,0.299231846,-0.032087197,-0.030585037,-0.503093406
1750931837.975161076,-1.851996584,-1.554827466,-1.488201170,1.029868476,1.153030546,-0.377264837,0.002952822,-0.010032792,0.009523801,0.005574652,-0.014112364,-0.014142207,5.368485900,3.983904241,0.299229473,-0.032087325,-0.030586033,-0.503105143
1750931837.977114916,-1.851990452,-1.554848302,-1.488181390,1.029880054,1.153001236,-0.377294209,0.003179176,-0.010803502,0.010255846,0.006003330,-0.015198116,-0.015230382,5.368378170,3.983911267,0.299226902,-0.032087466,-0.030587112,-0.503117885
1750931837.980216503,-1.851990452,-1.554848302,-1.488181390,1.029880054,1.153001236,-0.377294209,0.003179176,-0.010803502,0.010255846,0.006003330,-0.015198116,-0.015230382,5.368378170,3.983911267,0.299226902,-0.032087466,-0.030587112,-0.503117885
1750931837.981130838,-1.851983867,-1.554870680,-1.488160146,1.029892489,1.152969754,-0.377325758,0.003405356,-0.011573979,0.010987767,0.006431977,-0.016283910,-0.016318627,5.368262286,3.983918888,0.299224133,-0.032087620,-0.030588273,-0.503131630
1750931837.983225107,-1.851976830,-1.554894598,-1.488137439,1.029905782,1.152936100,-0.377359484,0.003631348,-0.012344209,0.011719556,0.006860591,-0.017369747,-0.017406946,5.368138249,3.983927102,0.299221165,-0.032087788,-0.030589518,-0.503146378
1750931837.985259295,-1.851969342,-1.554920056,-1.488113268,1.029919931,1.152900275,-0.377395386,0.003857140,-0.013114173,0.012451203,0.007289169,-0.018455632,-0.018495345,5.368006063,3.983935910,0.299217999,-0.032087970,-0.030590845,-0.503162128
1750931837.987065077,-1.851961402,-1.554947054,-1.488087634,1.029934938,1.152862278,-0.377433465,0.004082720,-0.013883855,0.013182701,0.007717709,-0.019541567,-0.019583829,5.367865729,3.983945312,0.299214635,-0.032088165,-0.030592255,-0.503178880
1750931837.989440441,-1.851953011,-1.554975591,-1.488060537,1.029950802,1.152822108,-0.377473722,0.004308076,-0.014653239,0.013914040,0.008146209,-0.020627554,-0.020672401,5.367717251,3.983955308,0.299211072,-0.032088374,-0.030593748,-0.503196635
1750931837.991296768,-1.851944170,-1.555005667,-1.488031978,1.029967523,1.152779767,-0.377516155,0.004533194,-0.015422309,0.014645211,0.008574666,-0.021713598,-0.021761068,5.367560631,3.983965898,0.299207311,-0.032088597,-0.030595323,-0.503215390
1750931837.995177746,-1.851934878,-1.555037280,-1.488001957,1.029985101,1.152735254,-0.377560766,0.004758063,-0.016191047,0.015376206,0.009003078,-0.022799701,-0.022849835,5.367395872,3.983977082,0.299203351,-0.032088834,-0.030596981,-0.503235147
1750931838.007457018,-1.851914948,-1.555105118,-1.487937529,1.030022827,1.152639711,-0.377656521,0.005207002,-0.017727464,0.016837632,0.009859760,-0.024972094,-0.025027685,5.367041949,3.984001229,0.299194836,-0.032089348,-0.030600544,-0.503277661
1750931838.007531881,-1.851904310,-1.555141341,-1.487903123,1.030042974,1.152588680,-0.377707665,0.005431047,-0.018495109,0.017568045,0.010288024,-0.026058390,-0.026116779,5.366852792,3.984014193,0.299190281,-0.032089626,-0.030602449,-0.503300417
1750931838.007551193,-1.851904310,-1.555141341,-1.487903123,1.030042974,1.152588680,-0.377707665,0.005431047,-0.018495109,0.017568045,0.010288024,-0.026058390,-0.026116779,5.366852792,3.984014193,0.299190281,-0.032089626,-0.030602449,-0.503300417
1750931838.007569075,-1.851904310,-1.555141341,-1.487903123,1.030042974,1.152588680,-0.377707665,0.005431047,-0.018495109,0.017568045,0.010288024,-0.026058390,-0.026116779,5.366852792,3.984014193,0.299190281,-0.032089626,-0.030602449,-0.503300417
1750931838.007593393,-1.851893224,-1.555179098,-1.487867257,1.030063979,1.152535477,-0.377760988,0.005654792,-0.019262356,0.018298246,0.010716235,-0.027144757,-0.027205992,5.366655509,3.984027750,0.299185527,-0.032089917,-0.030604436,-0.503324172
1750931838.007611752,-1.851893224,-1.555179098,-1.487867257,1.030063979,1.152535477,-0.377760988,0.005654792,-0.019262356,0.018298246,0.010716235,-0.027144757,-0.027205992,5.366655509,3.984027750,0.299185527,-0.032089917,-0.030604436,-0.503324172
1750931838.009153128,-1.851869711,-1.555259215,-1.487791144,1.030108556,1.152422552,-0.377874169,0.006101335,-0.020795593,0.019757979,0.011572487,-0.029317715,-0.029384795,5.366236580,3.984056642,0.299175424,-0.032090543,-0.030608657,-0.503374676
1750931838.011107922,-1.851857286,-1.555301572,-1.487750898,1.030132129,1.152362830,-0.377934029,0.006324107,-0.021561549,0.020487492,0.012000523,-0.030404311,-0.030474395,5.366014943,3.984071978,0.299170075,-0.032090877,-0.030610891,-0.503401424
1750931838.013060570,-1.851844415,-1.555345461,-1.487709194,1.030156558,1.152300935,-0.377996067,0.006546529,-0.022327041,0.021216759,0.012428496,-0.031490990,-0.031564133,5.365785194,3.984087907,0.299164526,-0.032091225,-0.030613207,-0.503429167
1750931838.015101194,-1.851831100,-1.555390880,-1.487666032,1.030181843,1.152236866,-0.378060285,0.006768590,-0.023092052,0.021945769,0.012856404,-0.032577753,-0.032654016,5.365547340,3.984104428,0.299158779,-0.032091587,-0.030615604,-0.503457907
1750931838.017184734,-1.851817341,-1.555437828,-1.487621411,1.030207984,1.152170624,-0.378126683,0.006990276,-0.023856567,0.022674515,0.013284245,-0.033664605,-0.033744047,5.365301384,3.984121541,0.299152834,-0.032091963,-0.030618084,-0.503487641
1750931838.019056559,-1.851803139,-1.555486306,-1.487575334,1.030234980,1.152102208,-0.378195262,0.007211575,-0.024620569,0.023402988,0.013712017,-0.034751548,-0.034834232,5.365047332,3.984139247,0.299146689,-0.032092353,-0.030620645,-0.503518370
1750931838.021038771,-1.851788495,-1.555536310,-1.487527800,1.030262832,1.152031617,-0.378266020,0.007432474,-0.025384040,0.024131179,0.014139716,-0.035838584,-0.035924575,5.364785186,3.984157544,0.299140346,-0.032092758,-0.030623288,-0.503550091
1750931838.023218870,-1.851773409,-1.555587841,-1.487478809,1.030291539,1.151958853,-0.378338960,0.007652962,-0.026146966,0.024859078,0.014567342,-0.036925717,-0.037015081,5.364514954,3.984176434,0.299133804,-0.032093177,-0.030626012,-0.503582806
1750931838.025898933,-1.851757883,-1.555640898,-1.487428363,1.030321101,1.151883915,-0.378414081,0.007873025,-0.026909328,0.025586678,0.014994891,-0.038012950,-0.038105756,5.364236639,3.984195915,0.299127063,-0.032093611,-0.030628818,-0.503616512
1750931838.027143240,-1.851741918,-1.555695478,-1.487376463,1.030351518,1.151806801,-0.378491383,0.008092652,-0.027671110,0.026313969,0.015422361,-0.039100285,-0.039196604,5.363950246,3.984215988,0.299120123,-0.032094059,-0.030631705,-0.503651208
1750931838.032675266,-1.851725513,-1.555751582,-1.487323108,1.030382791,1.151727513,-0.378570867,0.008311829,-0.028432297,0.027040943,0.015849751,-0.040187725,-0.040287630,5.363655782,3.984236653,0.299112984,-0.032094522,-0.030634674,-0.503686895
1750931838.036054134,-1.851725513,-1.555751582,-1.487323108,1.030382791,1.151727513,-0.378570867,0.008311829,-0.028432297,0.027040943,0.015849751,-0.040187725,-0.040287630,5.363655782,3.984236653,0.299112984,-0.032094522,-0.030634674,-0.503686895
1750931838.037625074,-1.851673676,-1.555929018,-1.487154324,1.030481734,1.151476599,-0.378822415,0.008966538,-0.030712115,0.029219871,0.017131411,-0.043450708,-0.043561826,5.362724012,3.984302192,0.299090373,-0.032095998,-0.030644066,-0.503799886
1750931838.039323092,-1.851655525,-1.555991201,-1.487095158,1.030516424,1.151388609,-0.378910630,0.009183793,-0.031470752,0.029945486,0.017558454,-0.044538599,-0.044653614,5.362397316,3.984325220,0.299082438,-0.032096520,-0.030647359,-0.503839523
1750931838.041562796,-1.851636941,-1.556054901,-1.487034542,1.030551968,1.151298444,-0.379001029,0.009400535,-0.032228710,0.030670740,0.017985405,-0.045626609,-0.045745604,5.362062576,3.984348839,0.299074304,-0.032097057,-0.030650732,-0.503880146
1750931838.043234348,-1.851617924,-1.556120115,-1.486972476,1.030588366,1.151206103,-0.379093613,0.009616754,-0.032985973,0.031395624,0.018412261,-0.046714743,-0.046837801,5.361719800,3.984373048,0.299065970,-0.032097608,-0.030654186,-0.503921753
1750931838.045164585,-1.851598474,-1.556186844,-1.486908960,1.030625617,1.151111585,-0.379188381,0.009832435,-0.033742524,0.032120128,0.018839020,-0.047803001,-0.047930211,5.361368993,3.984397847,0.299057438,-0.032098175,-0.030657720,-0.503964342
1750931838.047162056,-1.851578594,-1.556255085,-1.486843995,1.030663722,1.151014891,-0.379285334,0.010047567,-0.034498347,0.032844244,0.019265680,-0.048891388,-0.049022837,5.361010162,3.984423236,0.299048705,-0.032098757,-0.030661335,-0.504007914
1750931838.049008846,-1.851558284,-1.556324837,-1.486777583,1.030702680,1.150916019,-0.379384472,0.010262137,-0.035253425,0.033567964,0.019692239,-0.049979906,-0.050115686,5.360643313,3.984449214,0.299039774,-0.032099355,-0.030665030,-0.504052467
1750931838.051180363,-1.851537546,-1.556396098,-1.486709724,1.030742491,1.150814971,-0.379485797,0.010476133,-0.036007742,0.034291277,0.020118693,-0.051068558,-0.051208762,5.360268454,3.984475782,0.299030643,-0.032099968,-0.030668804,-0.504097999
1750931838.052956104,-1.851516380,-1.556468867,-1.486640418,1.030783155,1.150711745,-0.379589307,0.010689542,-0.036761280,0.035014177,0.020545042,-0.052157347,-0.052302069,5.359885591,3.984502939,0.299021312,-0.032100596,-0.030672659,-0.504144510
1750931838.055133343,-1.851494788,-1.556543143,-1.486569667,1.030824671,1.150606341,-0.379695005,0.010902352,-0.037514025,0.035736653,0.020971282,-0.053246276,-0.053395613,5.359494731,3.984530685,0.299011783,-0.032101239,-0.030676594,-0.504191998
1750931838.057592392,-1.851472771,-1.556618923,-1.486497472,1.030867040,1.150498760,-0.379802890,0.011114550,-0.038265958,0.036458697,0.021397411,-0.054335347,-0.054489398,5.359095883,3.984559020,0.299002053,-0.032101899,-0.030680608,-0.504240463
1750931838.059452772,-1.851450330,-1.556696206,-1.486423833,1.030910260,1.150389000,-0.379912963,0.011326124,-0.039017064,0.037180299,0.021823428,-0.055424564,-0.055583429,5.358689052,3.984587943,0.298992124,-0.032102574,-0.030684702,-0.504289902
1750931838.069814444,-1.851427467,-1.556774991,-1.486348751,1.030954333,1.150277061,-0.380025224,0.011537060,-0.039767326,0.037901453,0.022249329,-0.056513928,-0.056677712,5.358274247,3.984617454,0.298981995,-0.032103265,-0.030688876,-0.504340315
1750931838.072782516,-1.851404183,-1.556855275,-1.486272227,1.030999258,1.150162944,-0.380139674,0.011747348,-0.040516728,0.038622147,0.022675112,-0.057603444,-0.057772250,5.357851475,3.984647554,0.298971666,-0.032103972,-0.030693128,-0.504391700
1750931838.073917866,-1.851331815,-1.557105108,-1.486034015,1.031139139,1.149807516,-0.380496162,0.012374189,-0.042759605,0.040781391,0.023951732,-0.060872924,-0.061057447,5.356535440,3.984741378,0.298939480,-0.032106189,-0.030706359,-0.504551676
1750931838.080888748,-1.851306859,-1.557191373,-1.485951733,1.031187468,1.149684680,-0.380619372,0.012581754,-0.043505400,0.041500163,0.024377021,-0.061963072,-0.062153056,5.356080882,3.984773827,0.298928352,-0.032106961,-0.030710927,-0.504606936
1750931838.081235886,-1.851306859,-1.557191373,-1.485951733,1.031187468,1.149684680,-0.380619372,0.012581754,-0.043505400,0.041500163,0.024377021,-0.061963072,-0.062153056,5.356080882,3.984773827,0.298928352,-0.032106961,-0.030710927,-0.504606936
1750931838.087375879,-1.851229510,-1.557459105,-1.485696270,1.031337555,1.149303088,-0.381002155,0.013200128,-0.045737061,0.043653428,0.025652103,-0.065234515,-0.065441582,5.354669689,3.984874694,0.298893765,-0.032109375,-0.030725101,-0.504778504
1750931838.087417841,-1.851229510,-1.557459105,-1.485696270,1.031337555,1.149303088,-0.381002155,0.013200128,-0.045737061,0.043653428,0.025652103,-0.065234515,-0.065441582,5.354669689,3.984874694,0.298893765,-0.032109375,-0.030725101,-0.504778504
1750931838.089443445,-1.851148471,-1.557740200,-1.485427901,1.031495290,1.148901862,-0.381404676,0.013811757,-0.047959790,0.045801931,0.026925957,-0.068507517,-0.068732754,5.353187401,3.984980835,0.298857375,-0.032111940,-0.030739975,-0.504958719
1750931838.094135761,-1.851120645,-1.557836858,-1.485335582,1.031549567,1.148763756,-0.381543240,0.014014076,-0.048698638,0.046516999,0.027350292,-0.069598877,-0.069830421,5.352677549,3.985017385,0.298844844,-0.032112830,-0.030745088,-0.505020704
1750931838.098738670,-1.851120645,-1.557836858,-1.485335582,1.031549567,1.148763756,-0.381543240,0.014014076,-0.048698638,0.046516999,0.027350292,-0.069598877,-0.069830421,5.352677549,3.985017385,0.298844844,-0.032112830,-0.030745088,-0.505020704
1750931838.099867582,-1.851005319,-1.558238238,-1.484952022,1.031775154,1.148189498,-0.382119455,0.014815234,-0.051643281,0.049371539,0.029046147,-0.073966187,-0.074224270,5.350559617,3.985169435,0.298792713,-0.032116561,-0.030766311,-0.505278174
1750931838.101723433,-1.850975490,-1.558342258,-1.484852567,1.031833670,1.148040473,-0.382269003,0.015013431,-0.052376672,0.050083696,0.029469728,-0.075058495,-0.075323550,5.350010552,3.985208907,0.298779178,-0.032117538,-0.030771808,-0.505344914
1750931838.104727507,-1.850945266,-1.558447744,-1.484751688,1.031893033,1.147889264,-0.382420749,0.015210766,-0.053108923,0.050795245,0.029893152,-0.076151002,-0.076423166,5.349453675,3.985248962,0.298765442,-0.032118533,-0.030777381,-0.505412600
1750931838.105988979,-1.850914648,-1.558554693,-1.484649386,1.031953242,1.147735869,-0.382574696,0.015407227,-0.053840017,0.051506177,0.030316415,-0.077243709,-0.077523124,5.348888996,3.985289601,0.298751505,-0.032119546,-0.030783030,-0.505481230
1750931838.107028246,-1.850883637,-1.558663103,-1.484545663,1.032014298,1.147580289,-0.382730842,0.015602800,-0.054569937,0.052216483,0.030739516,-0.078336619,-0.078623428,5.348316526,3.985330823,0.298737366,-0.032120577,-0.030788755,-0.505550802
1750931838.111742735,-1.850852237,-1.558772972,-1.484440521,1.032076200,1.147422522,-0.382889190,0.015797474,-0.055298666,0.052926153,0.031162452,-0.079429735,-0.079724082,5.347736275,3.985372627,0.298723027,-0.032121627,-0.030794555,-0.505621314
1750931838.111799002,-1.850820448,-1.558884297,-1.484333959,1.032138948,1.147262570,-0.383049739,0.015991236,-0.056026190,0.053635180,0.031585220,-0.080523060,-0.080825091,5.347148255,3.985415013,0.298708485,-0.032122695,-0.030800431,-0.505692764
1750931838.114177704,-1.850755712,-1.559111306,-1.484116585,1.032266979,1.146936103,-0.383377445,0.016375973,-0.057477551,0.055051267,0.032430246,-0.082710345,-0.083028194,5.345948949,3.985501531,0.298678798,-0.032124887,-0.030812407,-0.505838471
1750931838.114991188,-1.850755712,-1.559111306,-1.484116585,1.032266979,1.146936103,-0.383377445,0.016375973,-0.057477551,0.055051267,0.032430246,-0.082710345,-0.083028194,5.345948949,3.985501531,0.298678798,-0.032124887,-0.030812407,-0.505838471
1750931838.117018938,-1.850722769,-1.559226985,-1.484005776,1.032332262,1.146769589,-0.383544603,0.016566923,-0.058201355,0.055758309,0.032852498,-0.083804312,-0.084130297,5.345337687,3.985545662,0.298663651,-0.032126011,-0.030818508,-0.505912723
1750931838.119183540,-1.850689445,-1.559344110,-1.483893553,1.032398389,1.146600886,-0.383713966,0.016756911,-0.058923888,0.056464672,0.033274573,-0.084898497,-0.085232774,5.344718700,3.985590374,0.298648303,-0.032127155,-0.030824682,-0.505987906
1750931838.122557878,-1.850655742,-1.559462680,-1.483779917,1.032465360,1.146429994,-0.383885535,0.016945924,-0.059645132,0.057170348,0.033696468,-0.085992904,-0.086335629,5.344092000,3.985635667,0.298632753,-0.032128317,-0.030830931,-0.506064017
1750931838.123065710,-1.850621662,-1.559582690,-1.483664872,1.032533175,1.146256914,-0.384059309,0.017133950,-0.060365070,0.057875326,0.034118182,-0.087087536,-0.087438867,5.343457599,3.985681540,0.298617001,-0.032129499,-0.030837254,-0.506141054
1750931838.125080824,-1.850587207,-1.559704139,-1.483548417,1.032601833,1.146081644,-0.384235290,0.017320977,-0.061083687,0.058579599,0.034539711,-0.088182395,-0.088542492,5.342815509,3.985727993,0.298601047,-0.032130701,-0.030843650,-0.506219015
1750931838.127274990,-1.850552379,-1.559827024,-1.483430554,1.032671334,1.145904184,-0.384413479,0.017506991,-0.061800966,0.059283157,0.034961053,-0.089277484,-0.089646510,5.342165742,3.985775025,0.298584890,-0.032131922,-0.030850120,-0.506297897
1750931838.129281282,-1.850517180,-1.559951342,-1.483311284,1.032741677,1.145724534,-0.384593877,0.017691980,-0.062516890,0.059985992,0.035382206,-0.090372804,-0.090750924,5.341508311,3.985822637,0.298568531,-0.032133163,-0.030856663,-0.506377699
1750931838.131493807,-1.850481612,-1.560077091,-1.483190610,1.032812862,1.145542693,-0.384776483,0.017875931,-0.063231444,0.060688095,0.035803168,-0.091468360,-0.091855740,5.340843227,3.985870828,0.298551969,-0.032134424,-0.030863279,-0.506458418
1750931838.133316040,-1.850445677,-1.560204267,-1.483068533,1.032884889,1.145358660,-0.384961300,0.018058833,-0.063944610,0.061389457,0.036223935,-0.092564153,-0.092960961,5.340170504,3.985919598,0.298535205,-0.032135706,-0.030869967,-0.506540053
1750931838.135525465,-1.850409377,-1.560332868,-1.482945053,1.032957758,1.145172436,-0.385148327,0.018240673,-0.064656372,0.062090069,0.036644505,-0.093660186,-0.094066592,5.339490154,3.985968946,0.298518238,-0.032137008,-0.030876728,-0.506622599
1750931838.138488293,-1.850372715,-1.560462891,-1.482820173,1.033031467,1.144984020,-0.385337566,0.018421437,-0.065366714,0.062789923,0.037064877,-0.094756462,-0.095172639,5.338802189,3.986018873,0.298501069,-0.032138330,-0.030883562,-0.506706057
1750931838.139345169,-1.850372715,-1.560462891,-1.482820173,1.033031467,1.144984020,-0.385337566,0.018421437,-0.065366714,0.062789923,0.037064877,-0.094756462,-0.095172639,5.338802189,3.986018873,0.298501069,-0.032138330,-0.030883562,-0.506706057
1750931838.141280174,-1.850298311,-1.560727193,-1.482566217,1.033181407,1.144600607,-0.385722683,0.018779690,-0.066783072,0.064187318,0.037905012,-0.096949751,-0.097385994,5.337403471,3.986120458,0.298466120,-0.032141037,-0.030897443,-0.506875693
1750931838.143367767,-1.850298311,-1.560727193,-1.482566217,1.033181407,1.144600607,-0.385722683,0.018779690,-0.066783072,0.064187318,0.037905012,-0.096949751,-0.097385994,5.337403471,3.986120458,0.298466120,-0.032141037,-0.030897443,-0.506875693
1750931838.145103693,-1.850260574,-1.560861465,-1.482437145,1.033257637,1.144405611,-0.385918562,0.018957154,-0.067489055,0.064884843,0.038324771,-0.098046770,-0.098493311,5.336692744,3.986172116,0.298448341,-0.032142421,-0.030904491,-0.506961866
1750931838.147438526,-1.850222483,-1.560997148,-1.482306678,1.033334706,1.144208420,-0.386116657,0.019133493,-0.068193552,0.065581574,0.038744320,-0.099144041,-0.099601062,5.335974455,3.986224352,0.298430358,-0.032143828,-0.030911610,-0.507048941
1750931838.149132013,-1.850184041,-1.561134239,-1.482174819,1.033412614,1.144009035,-0.386316967,0.019308694,-0.068896547,0.066277502,0.039163659,-0.100241567,-0.100709250,5.335248620,3.986277163,0.298412172,-0.032145255,-0.030918799,-0.507136914
1750931838.151206493,-1.850145249,-1.561272733,-1.482041569,1.033491361,1.143807454,-0.386519494,0.019482745,-0.069598023,0.066972618,0.039582783,-0.101339352,-0.101817879,5.334515250,3.986330551,0.298393782,-0.032146704,-0.030926059,-0.507225783
1750931838.153115988,-1.850106111,-1.561412630,-1.481906929,1.033570945,1.143603677,-0.386724239,0.019655633,-0.070297965,0.067666914,0.040001690,-0.102437396,-0.102926955,5.333774362,3.986384515,0.298375189,-0.032148175,-0.030933389,-0.507315544
1750931838.157913685,-1.850066628,-1.561553924,-1.481770902,1.033651367,1.143397704,-0.386931202,0.019827346,-0.070996355,0.068360380,0.040420378,-0.103535703,-0.104036481,5.333025968,3.986439053,0.298356391,-0.032149668,-0.030940789,-0.507406196
1750931838.157960653,-1.850026802,-1.561696614,-1.481633488,1.033732627,1.143189534,-0.387140385,0.019997870,-0.071693177,0.069053009,0.040838844,-0.104634275,-0.105146462,5.332270083,3.986494167,0.298337390,-0.032151183,-0.030948259,-0.507497736
1750931838.160182953,-1.849986637,-1.561840696,-1.481494690,1.033814723,1.142979167,-0.387351788,0.020167195,-0.072388415,0.069744790,0.041257086,-0.105733115,-0.106256903,5.331506722,3.986549856,0.298318184,-0.032152720,-0.030955797,-0.507590162
1750931838.161747456,-1.849986637,-1.561840696,-1.481494690,1.033814723,1.142979167,-0.387351788,0.020167195,-0.072388415,0.069744790,0.041257086,-0.105733115,-0.106256903,5.331506722,3.986549856,0.298318184,-0.032152720,-0.030955797,-0.507590162
1750931838.163133621,-1.849905297,-1.562133023,-1.481212948,1.033981423,1.142551838,-0.387781260,0.020502192,-0.073774072,0.071125776,0.042092888,-0.107931608,-0.108479180,5.329957628,3.986662956,0.298279160,-0.032155862,-0.030971081,-0.507777657
1750931838.165051222,-1.849864126,-1.562281262,-1.481070007,1.034066026,1.142334875,-0.387999330,0.020667839,-0.074464459,0.071814963,0.042510441,-0.109031265,-0.109591025,5.329171925,3.986720367,0.298259340,-0.032157468,-0.030978826,-0.507872722
1750931838.167048454,-1.849822626,-1.562430880,-1.480925689,1.034151464,1.142115712,-0.388219624,0.020832236,-0.075153197,0.072503268,0.042927761,-0.110131200,-0.110703347,5.328378805,3.986778352,0.298239316,-0.032159097,-0.030986639,-0.507968661
1750931838.169129372,-1.849780798,-1.562581873,-1.480779995,1.034237737,1.141894350,-0.388442144,0.020995369,-0.075840268,0.073190682,0.043344843,-0.111231414,-0.111816150,5.327578282,3.986836909,0.298219087,-0.032160748,-0.030994519,-0.508065471
1750931838.171352863,-1.849738645,-1.562734240,-1.480632927,1.034324844,1.141670787,-0.388666889,0.021157227,-0.076525657,0.073877195,0.043761686,-0.112331911,-0.112929438,5.326770373,3.986896040,0.298198653,-0.032162424,-0.031002467,-0.508163150
1750931838.177025318,-1.849696170,-1.562887975,-1.480484487,1.034412784,1.141445022,-0.388893862,0.021317797,-0.077209347,0.074562800,0.044178286,-0.113432692,-0.114043217,5.325955093,3.986955742,0.298178014,-0.032164123,-0.031010481,-0.508261695
1750931838.177344799,-1.849610263,-1.563199539,-1.480183497,1.034591162,1.140986887,-0.389354492,0.021635020,-0.078571565,0.075931247,0.045010750,-0.115635117,-0.116272261,5.324302482,3.987076863,0.298136119,-0.032167594,-0.031026710,-0.508461369
1750931838.179301023,-1.849566836,-1.563357361,-1.480030952,1.034681599,1.140754515,-0.389588152,0.021791649,-0.079250061,0.076614071,0.045426608,-0.116736766,-0.117387534,5.323465183,3.987138281,0.298114863,-0.032169365,-0.031034924,-0.508562492
1750931838.184631824,-1.849523097,-1.563516538,-1.479877042,1.034772868,1.140519939,-0.389824042,0.021946939,-0.079926792,0.077295952,0.045842213,-0.117838708,-0.118503315,5.322620577,3.987200270,0.298093401,-0.032171162,-0.031043203,-0.508664469
1750931838.184695959,-1.849523097,-1.563516538,-1.479877042,1.034772868,1.140519939,-0.389824042,0.021946939,-0.079926792,0.077295952,0.045842213,-0.117838708,-0.118503315,5.322620577,3.987200270,0.298093401,-0.032171162,-0.031043203,-0.508664469
1750931838.185882330,-1.849479049,-1.563677067,-1.479721769,1.034864968,1.140283160,-0.390062165,0.022100878,-0.080601743,0.077976879,0.046257563,-0.118940947,-0.119619607,5.321768680,3.987262830,0.298071733,-0.032172983,-0.031051547,-0.508767297
1750931838.187242270,-1.849434694,-1.563838944,-1.479565135,1.034957898,1.140044176,-0.390302521,0.022253453,-0.081274897,0.078656843,0.046672656,-0.120043485,-0.120736415,5.320909508,3.987325960,0.298049858,-0.032174829,-0.031059957,-0.508870972
1750931838.189169168,-1.849390036,-1.564002165,-1.479407142,1.035051659,1.139802986,-0.390545111,0.022404652,-0.081946238,0.079335837,0.047087487,-0.121146323,-0.121853742,5.320043078,3.987389660,0.298027777,-0.032176700,-0.031068431,-0.508975491
1750931838.191096783,-1.849345077,-1.564166728,-1.479247792,1.035146248,1.139559590,-0.390789937,0.022554462,-0.082615749,0.080013851,0.047502055,-0.122249464,-0.122971592,5.319169407,3.987453930,0.298005490,-0.032178597,-0.031076969,-0.509080852
1750931838.193179846,-1.849299819,-1.564332627,-1.479087087,1.035241667,1.139313988,-0.391036998,0.022702870,-0.083283414,0.080690877,0.047916358,-0.123352911,-0.124089971,5.318288511,3.987518770,0.297982995,-0.032180520,-0.031085571,-0.509187050
1750931838.195114851,-1.849254266,-1.564499860,-1.478925029,1.035337913,1.139066178,-0.391286297,0.022849864,-0.083949217,0.081366905,0.048330392,-0.124456665,-0.125208882,5.317400409,3.987584178,0.297960294,-0.032182468,-0.031094236,-0.509294082
1750931838.197068453,-1.849208421,-1.564668423,-1.478761620,1.035434988,1.138816161,-0.391537834,0.022995432,-0.084613141,0.082041926,0.048744154,-0.125560729,-0.126328330,5.316505117,3.987650156,0.297937385,-0.032184443,-0.031102964,-0.509401946
1750931838.199259281,-1.849162286,-1.564838311,-1.478596862,1.035532890,1.138563935,-0.391791610,0.023139560,-0.085275170,0.082715932,0.049157643,-0.126665105,-0.127448318,5.315602652,3.987716701,0.297914269,-0.032186444,-0.031111755,-0.509510638
1750931838.201753616,-1.849115863,-1.565009522,-1.478430757,1.035631618,1.138309500,-0.392047628,0.023282237,-0.085935289,0.083388914,0.049570855,-0.127769796,-0.128568850,5.314693032,3.987783815,0.297890946,-0.032188471,-0.031120609,-0.509620154
1750931838.203105450,-1.849069158,-1.565182051,-1.478263307,1.035731173,1.138052856,-0.392305886,0.023423449,-0.086593479,0.084060863,0.049983788,-0.128874802,-0.129689931,5.313776275,3.987851497,0.297867414,-0.032190526,-0.031129524,-0.509730491
1750931838.205111504,-1.849022171,-1.565355895,-1.478094514,1.035831553,1.137794001,-0.392566388,0.023563184,-0.087249726,0.084731770,0.050396439,-0.129980128,-0.130811565,5.312852399,3.987919747,0.297843675,-0.032192608,-0.031138501,-0.509841646
1750931838.207085133,-1.848974906,-1.565531049,-1.477924381,1.035932759,1.137532935,-0.392829133,0.023701430,-0.087904013,0.085401626,0.050808805,-0.131085774,-0.131933756,5.311921422,3.987988563,0.297819727,-0.032194717,-0.031147538,-0.509953615
1750931838.209070444,-1.848927366,-1.565707510,-1.477752909,1.036034788,1.137269657,-0.393094123,0.023838173,-0.088556323,0.086070422,0.051220884,-0.132191744,-0.133056508,5.310983362,3.988057947,0.297795571,-0.032196853,-0.031156637,-0.510066394
1750931838.211035490,-1.848879554,-1.565885273,-1.477580100,1.036137642,1.137004168,-0.393361359,0.023973402,-0.089206641,0.086738150,0.051632673,-0.133298038,-0.134179824,5.310038237,3.988127897,0.297771207,-0.032199018,-0.031165796,-0.510179980
1750931838.212997913,-1.848831473,-1.566064335,-1.477405957,1.036241319,1.136736465,-0.393630843,0.024107103,-0.089854949,0.087404800,0.052044168,-0.134404660,-0.135303710,5.309086067,3.988198414,0.297746633,-0.032201210,-0.031175014,-0.510294370
1750931838.217732668,-1.848831473,-1.566064335,-1.477405957,1.036241319,1.136736465,-0.393630843,0.024107103,-0.089854949,0.087404800,0.052044168,-0.134404660,-0.135303710,5.309086067,3.988198414,0.297746633,-0.032201210,-0.031175014,-0.510294370
1750931838.217777729,-1.848783127,-1.566244691,-1.477230481,1.036345818,1.136466549,-0.393902574,0.024239264,-0.090501232,0.088070364,0.052455369,-0.135511611,-0.136428169,5.308126869,3.988269496,0.297721851,-0.032203431,-0.031184292,-0.510409559
1750931838.221134186,-1.848734517,-1.566426338,-1.477053676,1.036451140,1.136194418,-0.394176556,0.024369873,-0.091145473,0.088734833,0.052866270,-0.136618894,-0.137553204,5.307160663,3.988341144,0.297696859,-0.032205680,-0.031193630,-0.510525544
1750931838.221192598,-1.848636523,-1.566793488,-1.476696084,1.036664247,1.135643512,-0.394731271,0.024626383,-0.092427766,0.090060449,0.053687168,-0.138834461,-0.139805022,5.305207302,3.988486136,0.297646247,-0.032210266,-0.031212479,-0.510759887
1750931838.223107338,-1.848636523,-1.566793488,-1.476696084,1.036664247,1.135643512,-0.394731271,0.024626383,-0.092427766,0.090060449,0.053687168,-0.138834461,-0.139805022,5.305207302,3.988486136,0.297646247,-0.032210266,-0.031212479,-0.510759887
1750931838.225106955,-1.848587144,-1.566978981,-1.476515302,1.036772032,1.135364735,-0.395012008,0.024752258,-0.093065785,0.090721578,0.054097158,-0.139942751,-0.140931812,5.304220185,3.988559480,0.297620627,-0.032212603,-0.031221991,-0.510878237
1750931838.227057457,-1.848537515,-1.567165749,-1.476333198,1.036880636,1.135083741,-0.395294999,0.024876531,-0.093701696,0.091381576,0.054506838,-0.141051380,-0.142059195,5.303226138,3.988633388,0.297594796,-0.032214970,-0.031231560,-0.510997368
1750931838.229043245,-1.848487639,-1.567353787,-1.476149776,1.036990059,1.134800529,-0.395580245,0.024999188,-0.094335485,0.092040435,0.054916206,-0.142160350,-0.143187175,5.302225178,3.988707860,0.297568755,-0.032217366,-0.031241185,-0.511117276
1750931838.231422663,-1.848437519,-1.567543090,-1.475965037,1.037100300,1.134515099,-0.395867748,0.025120217,-0.094967134,0.092698145,0.055325259,-0.143269665,-0.144315755,5.301217327,3.988782896,0.297542503,-0.032219793,-0.031250867,-0.511237956
1750931838.233298779,-1.848387159,-1.567733654,-1.475778984,1.037211360,1.134227450,-0.396157509,0.025239606,-0.095596628,0.093354697,0.055733995,-0.144379325,-0.145444939,5.300202604,3.988858496,0.297516040,-0.032222250,-0.031260605,-0.511359406
1750931838.235291243,-1.848336562,-1.567925475,-1.475591619,1.037323236,1.133937582,-0.396449528,0.025357341,-0.096223950,0.094010083,0.056142409,-0.145489332,-0.146574732,5.299181029,3.988934659,0.297489366,-0.032224738,-0.031270399,-0.511481620
1750931838.237384081,-1.848285731,-1.568118548,-1.475402945,1.037435929,1.133645493,-0.396743808,0.025473410,-0.096849083,0.094664293,0.056550500,-0.146599690,-0.147705137,5.298152624,3.989011386,0.297462481,-0.032227256,-0.031280247,-0.511604595
1750931838.239153862,-1.848234669,-1.568312870,-1.475212963,1.037549438,1.133351183,-0.397040349,0.025587800,-0.097472013,0.095317319,0.056958264,-0.147710399,-0.148836157,5.297117407,3.989088675,0.297435384,-0.032229807,-0.031290150,-0.511728326
1750931838.241107225,-1.848183381,-1.568508435,-1.475021676,1.037663762,1.133054651,-0.397339153,0.025700500,-0.098092721,0.095969152,0.057365700,-0.148821461,-0.149967797,5.296075400,3.989166527,0.297408075,-0.032232388,-0.031300107,-0.511852810
1750931838.243212461,-1.848131868,-1.568705239,-1.474829087,1.037778901,1.132755897,-0.397640221,0.025811495,-0.098711192,0.096619782,0.057772803,-0.149932878,-0.151100061,5.295026624,3.989244941,0.297380555,-0.032235002,-0.031310117,-0.511978042
1750931838.245077848,-1.848080136,-1.568903278,-1.474635198,1.037894853,1.132454919,-0.397943554,0.025920775,-0.099327410,0.097269201,0.058179571,-0.151044653,-0.152232951,5.293971100,3.989323917,0.297352821,-0.032237647,-0.031320181,-0.512104018
1750931838.247101545,-1.848028186,-1.569102547,-1.474440011,1.038011619,1.132151718,-0.398249153,0.026028325,-0.099941359,0.097917400,0.058586001,-0.152156787,-0.153366473,5.292908849,3.989403455,0.297324876,-0.032240325,-0.031330297,-0.512230734
1750931838.249050617,-1.847976024,-1.569303042,-1.474243529,1.038129197,1.131846292,-0.398557020,0.026134133,-0.100553022,0.098564370,0.058992090,-0.153269282,-0.154500629,5.291839891,3.989483555,0.297296717,-0.032243036,-0.031340465,-0.512358185
1750931838.251027346,-1.847923651,-1.569504758,-1.474045755,1.038247587,1.131538640,-0.398867156,0.026238188,-0.101162383,0.099210101,0.059397836,-0.154382140,-0.155635423,5.290764250,3.989564216,0.297268345,-0.032245780,-0.031350685,-0.512486367
1750931838.253147125,-1.847871072,-1.569707690,-1.473846690,1.038366788,1.131228763,-0.399179562,0.026340475,-0.101769426,0.099854586,0.059803235,-0.155495362,-0.156770859,5.289681945,3.989645438,0.297239760,-0.032248557,-0.031360956,-0.512615276
1750931838.255068064,-1.847818290,-1.569911834,-1.473646337,1.038486799,1.130916659,-0.399494240,0.026440983,-0.102374134,0.100497815,0.060208285,-0.156608951,-0.157906941,5.288593000,3.989727221,0.297210961,-0.032251368,-0.031371277,-0.512744906
1750931838.257139683,-1.847765309,-1.570117185,-1.473444699,1.038607621,1.130602327,-0.399811190,0.026539699,-0.102976492,0.101139779,0.060612982,-0.157722908,-0.159043672,5.287497436,3.989809565,0.297181948,-0.032254213,-0.031381648,-0.512875255
1750931838.259158850,-1.847712133,-1.570323738,-1.473241779,1.038729251,1.130285767,-0.400130415,0.026636611,-0.103576482,0.101780469,0.061017323,-0.158837235,-0.160181056,5.286395275,3.989892469,0.297152720,-0.032257091,-0.031392069,-0.513006316
1750931838.261112213,-1.847658764,-1.570531489,-1.473037578,1.038851690,1.129966978,-0.400451915,0.026731705,-0.104174090,0.102419876,0.061421307,-0.159951933,-0.161319096,5.285286539,3.989975933,0.297123278,-0.032260005,-0.031402539,-0.513138085
1750931838.263121367,-1.847605207,-1.570740433,-1.472832100,1.038974936,1.129645959,-0.400775692,0.026824969,-0.104769298,0.103057992,0.061824929,-0.161067005,-0.162457796,5.284171252,3.990059957,0.297093622,-0.032262953,-0.031413057,-0.513270559
1750931838.265395880,-1.847605207,-1.570740433,-1.472832100,1.038974936,1.129645959,-0.400775692,0.026824969,-0.104769298,0.103057992,0.061824929,-0.161067005,-0.162457796,5.284171252,3.990059957,0.297093622,-0.032262953,-0.031413057,-0.513270559
1750931838.267714024,-1.847551465,-1.570950565,-1.472625347,1.039098989,1.129322710,-0.401101747,0.026916390,-0.105362090,0.103694806,0.062228186,-0.162182452,-0.163597160,5.283049435,3.990144541,0.297063750,-0.032265936,-0.031423624,-0.513403731
1750931838.271261215,-1.847497543,-1.571161880,-1.472417322,1.039223849,1.128997229,-0.401430081,0.027005957,-0.105952450,0.104330311,0.062631077,-0.163298276,-0.164737190,5.281921112,3.990229685,0.297033662,-0.032268955,-0.031434237,-0.513537598
1750931838.273334503,-1.847497543,-1.571161880,-1.472417322,1.039223849,1.128997229,-0.401430081,0.027005957,-0.105952450,0.104330311,0.062631077,-0.163298276,-0.164737190,5.281921112,3.990229685,0.297033662,-0.032268955,-0.031434237,-0.513537598
1750931838.275249958,-1.847497543,-1.571161880,-1.472417322,1.039223849,1.128997229,-0.401430081,0.027005957,-0.105952450,0.104330311,0.062631077,-0.163298276,-0.164737190,5.281921112,3.990229685,0.297033662,-0.032268955,-0.031434237,-0.513537598
1750931838.277243137,-1.847497543,-1.571161880,-1.472417322,1.039223849,1.128997229,-0.401430081,0.027005957,-0.105952450,0.104330311,0.062631077,-0.163298276,-0.164737190,5.281921112,3.990229685,0.297033662,-0.032268955,-0.031434237,-0.513537598
1750931838.280849934,-1.847497543,-1.571161880,-1.472417322,1.039223849,1.128997229,-0.401430081,0.027005957,-0.105952450,0.104330311,0.062631077,-0.163298276,-0.164737190,5.281921112,3.990229685,0.297033662,-0.032268955,-0.031434237,-0.513537598
1750931838.282305479,-1.847497543,-1.571161880,-1.472417322,1.039223849,1.128997229,-0.401430081,0.027005957,-0.105952450,0.104330311,0.062631077,-0.163298276,-0.164737190,5.281921112,3.990229685,0.297033662,-0.032268955,-0.031434237,-0.513537598
1750931838.285762072,-1.847225346,-1.572236030,-1.471358203,1.039860211,1.127336330,-0.403105990,0.027425518,-0.108867207,0.107487874,0.064639914,-0.168883103,-0.170447468,5.276182708,3.990663790,0.296879982,-0.032284592,-0.031487997,-0.514217175
1750931838.287188530,-1.847170416,-1.572454340,-1.471142599,1.039989892,1.126997446,-0.403448029,0.027503688,-0.109442635,0.108115332,0.065040537,-0.170001222,-0.171591573,5.275015834,3.990752287,0.296848595,-0.032287830,-0.031498883,-0.514355105
1750931838.288893461,-1.847115332,-1.572673799,-1.470925743,1.040120373,1.126656325,-0.403792357,0.027579914,-0.110015519,0.108741416,0.065440772,-0.171119728,-0.172736369,5.273842618,3.990841342,0.296816991,-0.032291106,-0.031509812,-0.514493695
1750931838.291279316,-1.847115332,-1.572673799,-1.470925743,1.040120373,1.126656325,-0.403792357,0.027579914,-0.110015519,0.108741416,0.065440772,-0.171119728,-0.172736369,5.273842618,3.990841342,0.296816991,-0.032291106,-0.031509812,-0.514493695
1750931838.291650534,-1.847115332,-1.572673799,-1.470925743,1.040120373,1.126656325,-0.403792357,0.027579914,-0.110015519,0.108741416,0.065440772,-0.171119728,-0.172736369,5.273842618,3.990841342,0.296816991,-0.032291106,-0.031509812,-0.514493695
1750931838.293149710,-1.847060098,-1.572894401,-1.470707635,1.040251655,1.126312967,-0.404138975,0.027654184,-0.110585840,0.109366119,0.065840616,-0.172238624,-0.173881859,5.272663084,3.990930956,0.296785168,-0.032294420,-0.031520785,-0.514632939
1750931838.295075655,-1.847004717,-1.573116140,-1.470488279,1.040383736,1.125967370,-0.404487885,0.027726485,-0.111153584,0.109989431,0.066240064,-0.173357911,-0.175028047,5.271477256,3.991021127,0.296753128,-0.032297772,-0.031531799,-0.514772833
1750931838.297047615,-1.846949193,-1.573339013,-1.470267678,1.040516615,1.125619535,-0.404839088,0.027796805,-0.111718734,0.110611343,0.066639115,-0.174477591,-0.176174935,5.270285160,3.991111857,0.296720868,-0.032301163,-0.031542855,-0.514913371
1750931838.299312830,-1.846893531,-1.573563014,-1.470045835,1.040650292,1.125269459,-0.405192585,0.027865130,-0.112281273,0.111231846,0.067037765,-0.175597664,-0.177322528,5.269086819,3.991203144,0.296688390,-0.032304594,-0.031553953,-0.515054548
1750931838.301839113,-1.846837734,-1.573788137,-1.469822752,1.040784766,1.124917144,-0.405548378,0.027931449,-0.112841187,0.111850932,0.067436011,-0.176718133,-0.178470828,5.267882258,3.991294988,0.296655692,-0.032308063,-0.031565090,-0.515196359
1750931838.304620981,-1.846781807,-1.574014377,-1.469598432,1.040920036,1.124562587,-0.405906469,0.027995748,-0.113398457,0.112468590,0.067833850,-0.177838998,-0.179619838,5.266671503,3.991387391,0.296622774,-0.032311573,-0.031576268,-0.515338797
1750931838.305875540,-1.846725753,-1.574241729,-1.469372878,1.041056101,1.124205787,-0.406266858,0.028058015,-0.113953069,0.113084812,0.068231279,-0.178960262,-0.180769563,5.265454579,3.991480350,0.296589636,-0.032315122,-0.031587484,-0.515481859
1750931838.307241917,-1.846669576,-1.574470187,-1.469146093,1.041192960,1.123846745,-0.406629547,0.028118237,-0.114505006,0.113699590,0.068628294,-0.180081925,-0.181920004,5.264231511,3.991573867,0.296556278,-0.032318712,-0.031598739,-0.515625538
1750931838.309088230,-1.846613281,-1.574699747,-1.468918081,1.041330614,1.123485459,-0.406994539,0.028176402,-0.115054251,0.114312913,0.069024893,-0.181203989,-0.183071165,5.263002324,3.991667941,0.296522699,-0.032322343,-0.031610032,-0.515769829
1750931838.311094999,-1.846556872,-1.574930402,-1.468688843,1.041469060,1.123121929,-0.407361833,0.028232497,-0.115600789,0.114924772,0.069421072,-0.182326456,-0.184223050,5.261767045,3.991762572,0.296488899,-0.032326015,-0.031621363,-0.515914726
1750931838.313033581,-1.846500352,-1.575162148,-1.468458383,1.041608298,1.122756153,-0.407731431,0.028286509,-0.116144604,0.115535160,0.069816828,-0.183449326,-0.185375660,5.260525698,3.991857759,0.296454877,-0.032329728,-0.031632730,-0.516060224
1750931838.315036297,-1.846443727,-1.575394979,-1.468226703,1.041748327,1.122388132,-0.408103336,0.028338426,-0.116685679,0.116144066,0.070212158,-0.184572600,-0.186529000,5.259278311,3.991953504,0.296420633,-0.032333484,-0.031644133,-0.516206317
1750931838.317032814,-1.846387000,-1.575628889,-1.467993807,1.041889146,1.122017863,-0.408477548,0.028388235,-0.117223998,0.116751481,0.070607058,-0.185696281,-0.187683073,5.258024910,3.992049806,0.296386167,-0.032337281,-0.031655571,-0.516352999
1750931838.319154024,-1.846330176,-1.575863873,-1.467759698,1.042030755,1.121645346,-0.408854069,0.028435923,-0.117759545,0.117357397,0.071001526,-0.186820369,-0.188837880,5.256765521,3.992146664,0.296351479,-0.032341121,-0.031667044,-0.516500264
1750931838.321072340,-1.846273258,-1.576099925,-1.467524379,1.042173152,1.121270581,-0.409232900,0.028481478,-0.118292303,0.117961804,0.071395558,-0.187944865,-0.189993426,5.255500170,3.992244079,0.296316567,-0.032345005,-0.031678551,-0.516648107
1750931838.323069096,-1.846216251,-1.576337040,-1.467287852,1.042316337,1.120893566,-0.409614043,0.028524887,-0.118822257,0.118564694,0.071789151,-0.189069771,-0.191149713,5.254228884,3.992342050,0.296281432,-0.032348931,-0.031690091,-0.516796522
1750931838.325151920,-1.846159160,-1.576575213,-1.467050121,1.042460308,1.120514302,-0.409997499,0.028566138,-0.119349391,0.119166056,0.072182302,-0.190195088,-0.192306745,5.252951691,3.992440579,0.296246072,-0.032352902,-0.031701664,-0.516945503
1750931838.327191114,-1.846101988,-1.576814436,-1.466811189,1.042605066,1.120132786,-0.410383270,0.028605217,-0.119873688,0.119765883,0.072575007,-0.191320817,-0.193464523,5.251668617,3.992539663,0.296210489,-0.032356916,-0.031713268,-0.517095043
1750931838.329126120,-1.846044740,-1.577054705,-1.466571059,1.042750608,1.119749018,-0.410771358,0.028642113,-0.120395131,0.120364164,0.072967263,-0.192446959,-0.194623052,5.250379690,3.992639304,0.296174681,-0.032360975,-0.031724904,-0.517245138
1750931838.331180573,-1.845987421,-1.577296015,-1.466329733,1.042896934,1.119362998,-0.411161763,0.028676812,-0.120913706,0.120960891,0.073359067,-0.193573515,-0.195782333,5.249084937,3.992739502,0.296138647,-0.032365079,-0.031736571,-0.517395780
1750931838.341945171,-1.845987421,-1.577296015,-1.466329733,1.042896934,1.119362998,-0.411161763,0.028676812,-0.120913706,0.120960891,0.073359067,-0.193573515,-0.195782333,5.249084937,3.992739502,0.296138647,-0.032365079,-0.031736571,-0.517395780
1750931838.342100620,-1.845872585,-1.577781730,-1.465843510,1.043191936,1.118584195,-0.411949533,0.028739569,-0.121942182,0.122149644,0.074141305,-0.195827874,-0.198103165,5.246478064,3.992941567,0.296065903,-0.032373423,-0.031759993,-0.517698682
1750931838.342124939,-1.845815078,-1.578026125,-1.465598618,1.043340609,1.118191412,-0.412346901,0.028767603,-0.122452052,0.122741653,0.074531733,-0.196955678,-0.199264721,5.245166000,3.993043434,0.296029192,-0.032377665,-0.031771747,-0.517850930
1750931838.344971418,-1.845757516,-1.578271537,-1.465352544,1.043490062,1.117796372,-0.412746592,0.028793389,-0.122958989,0.123332071,0.074921694,-0.198083901,-0.200427041,5.243848222,3.993145858,0.295992254,-0.032381952,-0.031783528,-0.518003701
1750931838.345847368,-1.845699906,-1.578517959,-1.465105291,1.043640295,1.117399076,-0.413148609,0.028816916,-0.123462975,0.123920889,0.075311187,-0.199212544,-0.201590127,5.242524758,3.993248838,0.295955089,-0.032386286,-0.031795337,-0.518156988
1750931838.346963644,-1.845642250,-1.578765387,-1.464856862,1.043791307,1.116999522,-0.413552953,0.028838170,-0.123963995,0.124508097,0.075700208,-0.200341606,-0.202753983,5.241195637,3.993352375,0.295917696,-0.032390668,-0.031807172,-0.518310785
1750931838.349744320,-1.845584555,-1.579013813,-1.464607260,1.043943096,1.116597709,-0.413959626,0.028857139,-0.124462032,0.125093687,0.076088753,-0.201471089,-0.203918611,5.239860888,3.993456469,0.295880074,-0.032395097,-0.031819032,-0.518465085
1750931838.351087570,-1.845526823,-1.579263233,-1.464356488,1.044095661,1.116193637,-0.414368628,0.028873811,-0.124957071,0.125677649,0.076476818,-0.202600994,-0.205084013,5.238520539,3.993561119,0.295842224,-0.032399575,-0.031830917,-0.518619883
1750931838.353052616,-1.845469061,-1.579513639,-1.464104550,1.044249003,1.115787305,-0.414779962,0.028888172,-0.125449096,0.126259973,0.076864402,-0.203731322,-0.206250192,5.237174619,3.993666326,0.295804146,-0.032404100,-0.031842826,-0.518775170
1750931838.354967833,-1.845411272,-1.579765027,-1.463851450,1.044403119,1.115378712,-0.415193630,0.028900210,-0.125938089,0.126840652,0.077251499,-0.204862074,-0.207417151,5.235823159,3.993772090,0.295765837,-0.032408675,-0.031854758,-0.518930942
1750931838.356938839,-1.845353462,-1.580017390,-1.463597189,1.044558008,1.114967857,-0.415609631,0.028909912,-0.126424036,0.127419675,0.077638107,-0.205993249,-0.208584891,5.234466187,3.993878410,0.295727298,-0.032413299,-0.031866712,-0.519087190
1750931838.359014988,-1.845295634,-1.580270721,-1.463341772,1.044713671,1.114554738,-0.416027970,0.028917266,-0.126906919,0.127997034,0.078024221,-0.207124850,-0.209753417,5.233103732,3.993985288,0.295688529,-0.032417973,-0.031878688,-0.519243909
1750931838.361012936,-1.845295634,-1.580270721,-1.463341772,1.044713671,1.114554738,-0.416027970,0.028917266,-0.126906919,0.127997034,0.078024221,-0.207124850,-0.209753417,5.233103732,3.993985288,0.295688529,-0.032417973,-0.031878688,-0.519243909
1750931838.362941980,-1.845237794,-1.580525015,-1.463085202,1.044870105,1.114139357,-0.416448646,0.028922259,-0.127386724,0.128572719,0.078409840,-0.208256877,-0.210922729,5.231735826,3.994092723,0.295649530,-0.032422697,-0.031890685,-0.519401091
1750931838.365738392,-1.845179947,-1.580780266,-1.462827482,1.045027310,1.113721711,-0.416871661,0.028924878,-0.127863432,0.129146720,0.078794959,-0.209389331,-0.212092831,5.230362497,3.994200715,0.295610298,-0.032427471,-0.031902702,-0.519558730
1750931838.367489815,-1.845122096,-1.581036467,-1.462568616,1.045185284,1.113301799,-0.417297018,0.028925111,-0.128337029,0.129719029,0.079179574,-0.210522211,-0.213263724,5.228983777,3.994309264,0.295570835,-0.032432297,-0.031914739,-0.519716818
1750931838.369382620,-1.845064248,-1.581293612,-1.462308607,1.045344028,1.112879622,-0.417724717,0.028922945,-0.128807499,0.130289636,0.079563682,-0.211655520,-0.214435412,5.227599695,3.994418371,0.295531139,-0.032437174,-0.031926793,-0.519875349
1750931838.373607874,-1.845006406,-1.581551695,-1.462047459,1.045503539,1.112455177,-0.418154760,0.028918368,-0.129274824,0.130858532,0.079947280,-0.212789257,-0.215607896,5.226210282,3.994528035,0.295491210,-0.032442103,-0.031938866,-0.520034315
1750931838.373664856,-1.845006406,-1.581551695,-1.462047459,1.045503539,1.112455177,-0.418154760,0.028918368,-0.129274824,0.130858532,0.079947280,-0.212789257,-0.215607896,5.226210282,3.994528035,0.295491210,-0.032442103,-0.031938866,-0.520034315
1750931838.375130415,-1.844948576,-1.581810709,-1.461785174,1.045663817,1.112028464,-0.418587149,0.028911366,-0.129738989,0.131425708,0.080330364,-0.213923423,-0.216781179,5.224815568,3.994638257,0.295451048,-0.032447084,-0.031950955,-0.520193710
1750931838.377021074,-1.844890762,-1.582070649,-1.461521757,1.045824860,1.111599483,-0.419021885,0.028901927,-0.130199979,0.131991154,0.080712930,-0.215058019,-0.217955263,5.223415586,3.994749038,0.295410652,-0.032452118,-0.031963060,-0.520353526
1750931838.379001141,-1.844832970,-1.582331507,-1.461257211,1.045986668,1.111168232,-0.419458970,0.028890039,-0.130657775,0.132554862,0.081094976,-0.216193046,-0.219130150,5.222010365,3.994860376,0.295370021,-0.032457205,-0.031975181,-0.520513756
1750931838.381115675,-1.844775204,-1.582593278,-1.460991539,1.046149239,1.110734710,-0.419898406,0.028875688,-0.131112363,0.133116821,0.081476496,-0.217328503,-0.220305843,5.220599937,3.994972272,0.295329156,-0.032462345,-0.031987316,-0.520674393
1750931838.382988453,-1.844717469,-1.582855954,-1.460724745,1.046312574,1.110298918,-0.420340194,0.028858863,-0.131563727,0.133677022,0.081857489,-0.218464391,-0.221482343,5.219184334,3.995084727,0.295288055,-0.032467540,-0.031999464,-0.520835430
1750931838.385231972,-1.844659770,-1.583119530,-1.460456832,1.046476669,1.109860853,-0.420784336,0.028839550,-0.132011849,0.134235456,0.082237949,-0.219600711,-0.222659653,5.217763588,3.995197740,0.295246718,-0.032472789,-0.032011625,-0.520996858
1750931838.387188911,-1.844602112,-1.583383999,-1.460187804,1.046641525,1.109420514,-0.421230833,0.028817737,-0.132456715,0.134792114,0.082617874,-0.220737463,-0.223837775,5.216337730,3.995311313,0.295205144,-0.032478093,-0.032023797,-0.521158671
1750931838.389075756,-1.844544501,-1.583649355,-1.459917665,1.046807140,1.108977902,-0.421679688,0.028793411,-0.132898307,0.135346987,0.082997259,-0.221874648,-0.225016710,5.214906792,3.995425444,0.295163333,-0.032483453,-0.032035981,-0.521320860
1750931838.390970469,-1.844486940,-1.583915591,-1.459646417,1.046973514,1.108533016,-0.422130901,0.028766560,-0.133336610,0.135900064,0.083376102,-0.223012265,-0.226196462,5.213470807,3.995540135,0.295121285,-0.032488869,-0.032048174,-0.521483420
1750931838.393116236,-1.844429436,-1.584182699,-1.459374066,1.047140644,1.108085853,-0.422584474,0.028737170,-0.133771608,0.136451336,0.083754398,-0.224150316,-0.227377031,5.212029807,3.995655386,0.295078998,-0.032494340,-0.032060377,-0.521646340
1750931838.395088673,-1.844371993,-1.584450675,-1.459100613,1.047308531,1.107636414,-0.423040409,0.028705230,-0.134203284,0.137000795,0.084132143,-0.225288800,-0.228558420,5.210583825,3.995771196,0.295036472,-0.032499869,-0.032072588,-0.521809615
1750931838.397064686,-1.844314617,-1.584719510,-1.458826064,1.047477172,1.107184698,-0.423498708,0.028670727,-0.134631622,0.137548431,0.084509335,-0.226427718,-0.229740631,5.209132893,3.995887567,0.294993708,-0.032505455,-0.032084806,-0.521973236
1750931838.398950577,-1.844257312,-1.584989199,-1.458550421,1.047646568,1.106730703,-0.423959372,0.028633647,-0.135056606,0.138094233,0.084885969,-0.227567069,-0.230923666,5.207677045,3.996004498,0.294950703,-0.032511098,-0.032097031,-0.522137196
1750931838.407074451,-1.844200084,-1.585259734,-1.458273688,1.047816716,1.106274429,-0.424422403,0.028593979,-0.135478220,0.138638194,0.085262041,-0.228706855,-0.232107526,5.206216314,3.996121989,0.294907457,-0.032516800,-0.032109262,-0.522301486
1750931838.412971973,-1.844200084,-1.585259734,-1.458273688,1.047816716,1.106274429,-0.424422403,0.028593979,-0.135478220,0.138638194,0.085262041,-0.228706855,-0.232107526,5.206216314,3.996121989,0.294907457,-0.032516800,-0.032109262,-0.522301486
1750931838.413131714,-1.844200084,-1.585259734,-1.458273688,1.047816716,1.106274429,-0.424422403,0.028593979,-0.135478220,0.138638194,0.085262041,-0.228706855,-0.232107526,5.206216314,3.996121989,0.294907457,-0.032516800,-0.032109262,-0.522301486
1750931838.413491964,-1.844200084,-1.585259734,-1.458273688,1.047816716,1.106274429,-0.424422403,0.028593979,-0.135478220,0.138638194,0.085262041,-0.228706855,-0.232107526,5.206216314,3.996121989,0.294907457,-0.032516800,-0.032109262,-0.522301486
1750931838.413512945,-1.844028912,-1.586076352,-1.457436988,1.048331665,1.104891924,-0.425825715,0.028459316,-0.136722680,0.140258928,0.086386852,-0.232128820,-0.235664076,5.201805158,3.996477831,0.294776273,-0.032534260,-0.032145977,-0.522796259
1750931838.413527727,-1.844028912,-1.586076352,-1.457436988,1.048331665,1.104891924,-0.425825715,0.028459316,-0.136722680,0.140258928,0.086386852,-0.232128820,-0.235664076,5.201805158,3.996477831,0.294776273,-0.032534260,-0.032145977,-0.522796259
1750931838.419557571,-1.843915277,-1.586624873,-1.456873808,1.048678707,1.103958842,-0.426773120,0.028356366,-0.137535173,0.141330033,0.087133849,-0.234412302,-0.238039269,5.198840590,3.996717869,0.294687603,-0.032546199,-0.032170464,-0.523127613
1750931838.419657707,-1.843915277,-1.586624873,-1.456873808,1.048678707,1.103958842,-0.426773120,0.028356366,-0.137535173,0.141330033,0.087133849,-0.234412302,-0.238039269,5.198840590,3.996717869,0.294687603,-0.032546199,-0.032170464,-0.523127613
1750931838.419868946,-1.843915277,-1.586624873,-1.456873808,1.048678707,1.103958842,-0.426773120,0.028356366,-0.137535173,0.141330033,0.087133849,-0.234412302,-0.238039269,5.198840590,3.996717869,0.294687603,-0.032546199,-0.032170464,-0.523127613
1750931838.421050549,-1.843858620,-1.586900345,-1.456590615,1.048853348,1.103488875,-0.427250387,0.028300900,-0.137936227,0.141862741,0.087506473,-0.235554695,-0.239228118,5.197351270,3.996838731,0.294642902,-0.032552260,-0.032182708,-0.523293716
1750931838.423096180,-1.843802076,-1.587176615,-1.456306358,1.049028733,1.103016623,-0.427730033,0.028242757,-0.138333798,0.142393541,0.087878508,-0.236697523,-0.240417804,5.195857304,3.996960157,0.294597957,-0.032558383,-0.032194951,-0.523460093
1750931838.425051212,-1.843745650,-1.587453678,-1.456021042,1.049204861,1.102542085,-0.428212059,0.028181925,-0.138727869,0.142922423,0.088249952,-0.237840785,-0.241608329,5.194358728,3.997082146,0.294552766,-0.032564568,-0.032207192,-0.523626735
1750931838.427149773,-1.843689350,-1.587731524,-1.455734670,1.049381732,1.102065260,-0.428696467,0.028118390,-0.139118425,0.143449377,0.088620800,-0.238984482,-0.242799695,5.192855578,3.997204699,0.294507329,-0.032570815,-0.032219430,-0.523793634
1750931838.430078268,-1.843633179,-1.588010149,-1.455447245,1.049559344,1.101586147,-0.429183258,0.028052141,-0.139505449,0.143974394,0.088991048,-0.240128613,-0.243991902,5.191347887,3.997327817,0.294461646,-0.032577126,-0.032231664,-0.523960780
1750931838.431109667,-1.843577143,-1.588289544,-1.455158773,1.049737696,1.101104745,-0.429672435,0.027983164,-0.139888925,0.144497464,0.089360692,-0.241273178,-0.245184952,5.189835692,3.997451499,0.294415715,-0.032583500,-0.032243893,-0.524128166
1750931838.433245182,-1.843521248,-1.588569702,-1.454869257,1.049916787,1.100621054,-0.430163999,0.027911446,-0.140268838,0.145018578,0.089729729,-0.242418177,-0.246378847,5.188319028,3.997575746,0.294369537,-0.032589938,-0.032256116,-0.524295783
1750931838.435513258,-1.843465499,-1.588850617,-1.454578700,1.050096615,1.100135072,-0.430657951,0.027836976,-0.140645170,0.145537726,0.090098153,-0.243563610,-0.247573588,5.186797931,3.997700559,0.294323110,-0.032596441,-0.032268332,-0.524463621
1750931838.437319994,-1.843465499,-1.588850617,-1.454578700,1.050096615,1.100135072,-0.430657951,0.027836976,-0.140645170,0.145537726,0.090098153,-0.243563610,-0.247573588,5.186797931,3.997700559,0.294323110,-0.032596441,-0.032268332,-0.524463621
1750931838.441110611,-1.843354462,-1.589414686,-1.453994482,1.050458478,1.099156234,-0.431653028,0.027679727,-0.141387028,0.146570084,0.090833152,-0.245855775,-0.249965613,5.183742581,3.997951884,0.294229507,-0.032609642,-0.032292739,-0.524799929
1750931838.441838503,-1.843354462,-1.589414686,-1.453994482,1.050458478,1.099156234,-0.431653028,0.027679727,-0.141387028,0.146570084,0.090833152,-0.245855775,-0.249965613,5.183742581,3.997951884,0.294229507,-0.032609642,-0.032292739,-0.524799929
1750931838.443154097,-1.843299185,-1.589697826,-1.453700828,1.050640511,1.098663376,-0.432154157,0.027596922,-0.141752523,0.147083276,0.091199718,-0.247002506,-0.251162899,5.182208402,3.998078396,0.294182330,-0.032616342,-0.032304928,-0.524968380
1750931838.445182562,-1.843244076,-1.589981694,-1.453406150,1.050823276,1.098168224,-0.432657681,0.027511315,-0.142114372,0.147594463,0.091565657,-0.248149670,-0.252361036,5.180669935,3.998205476,0.294134903,-0.032623108,-0.032317106,-0.525137018
1750931838.446982384,-1.843189141,-1.590266281,-1.453110452,1.051006773,1.097670777,-0.433163601,0.027422892,-0.142472560,0.148103636,0.091930963,-0.249297266,-0.253560026,5.179127216,3.998333125,0.294087223,-0.032629942,-0.032329271,-0.525305833
1750931838.449007988,-1.843134386,-1.590551582,-1.452813737,1.051191000,1.097171034,-0.433671921,0.027331640,-0.142827071,0.148610784,0.092295634,-0.250445294,-0.254759868,5.177580284,3.998461341,0.294039290,-0.032636843,-0.032341424,-0.525474816
1750931838.450966835,-1.843079817,-1.590837587,-1.452516010,1.051375955,1.096668995,-0.434182642,0.027237547,-0.143177889,0.149115899,0.092659665,-0.251593752,-0.255960564,5.176029175,3.998590127,0.293991105,-0.032643813,-0.032353562,-0.525643958
1750931838.453005314,-1.843025438,-1.591124291,-1.452217275,1.051561638,1.096164659,-0.434695764,0.027140601,-0.143524997,0.149618971,0.093023052,-0.252742640,-0.257162116,5.174473927,3.998719483,0.293942665,-0.032650851,-0.032365685,-0.525813250
1750931838.455066681,-1.842971256,-1.591411685,-1.451917536,1.051748047,1.095658024,-0.435211291,0.027040788,-0.143868379,0.150119990,0.093385791,-0.253891959,-0.258364523,5.172914577,3.998849409,0.293893970,-0.032657959,-0.032377791,-0.525982682
1750931838.457038164,-1.842917277,-1.591699762,-1.451616796,1.051935181,1.095149091,-0.435729223,0.026938097,-0.144208019,0.150618945,0.093747878,-0.255041706,-0.259567788,5.171351164,3.998979906,0.293845020,-0.032665136,-0.032389880,-0.526152245
1750931838.459004641,-1.842863506,-1.591988514,-1.451315061,1.052123038,1.094637857,-0.436249562,0.026832514,-0.144543901,0.151115828,0.094109309,-0.256191882,-0.260771911,5.169783724,3.999110974,0.293795814,-0.032672384,-0.032401950,-0.526321929
1750931838.461069107,-1.842809949,-1.592277935,-1.451012334,1.052311618,1.094124323,-0.436772311,0.026724028,-0.144876008,0.151610628,0.094470079,-0.257342485,-0.261976892,5.168212298,3.999242614,0.293746351,-0.032679703,-0.032414001,-0.526491725
1750931838.468925953,-1.842756612,-1.592568016,-1.450708620,1.052500918,1.093608487,-0.437297470,0.026612624,-0.145204325,0.152103336,0.094830184,-0.258493516,-0.263182733,5.166636922,3.999374827,0.293696631,-0.032687094,-0.032426030,-0.526661624
1750931838.469887018,-1.842756612,-1.592568016,-1.450708620,1.052500918,1.093608487,-0.437297470,0.026612624,-0.145204325,0.152103336,0.094830184,-0.258493516,-0.263182733,5.166636922,3.999374827,0.293696631,-0.032687094,-0.032426030,-0.526661624
1750931838.471477747,-1.842597978,-1.593442145,-1.449791594,1.053073131,1.092047161,-0.438887431,0.026260791,-0.146166370,0.153568808,0.095906471,-0.261949162,-0.266805421,5.161887490,3.999774909,0.293545916,-0.032709699,-0.032461983,-0.527171836
1750931838.473612070,-1.842545579,-1.593734791,-1.449483972,1.053265301,1.091522110,-0.439422251,0.026137596,-0.146479363,0.154053049,0.096263875,-0.263101893,-0.268014707,5.160296708,3.999909419,0.293495157,-0.032717381,-0.032473918,-0.527342046
1750931838.476746321,-1.842493430,-1.594028060,-1.449175383,1.053458186,1.090994753,-0.439959490,0.026011422,-0.146788484,0.154535148,0.096620594,-0.264255046,-0.269224856,5.158702173,4.000044505,0.293444137,-0.032725138,-0.032485826,-0.527512309
1750931838.478714466,-1.842441535,-1.594321943,-1.448865833,1.053651783,1.090465089,-0.440499151,0.025882256,-0.147093717,0.155015095,0.096976622,-0.265408621,-0.270435869,5.157103924,4.000180168,0.293392854,-0.032732969,-0.032497707,-0.527682615
1750931838.479014635,-1.842389903,-1.594616432,-1.448555324,1.053846092,1.089933118,-0.441041234,0.025750086,-0.147395046,0.155492881,0.097331956,-0.266562617,-0.271647745,5.155502002,4.000316408,0.293341309,-0.032740876,-0.032509559,-0.527852954
1750931838.481589556,-1.842338537,-1.594911520,-1.448243863,1.054041111,1.089398839,-0.441585743,0.025614899,-0.147692455,0.155968496,0.097686591,-0.267717032,-0.272860485,5.153896447,4.000453227,0.293289500,-0.032748858,-0.032521380,-0.528023316
1750931838.483065844,-1.842287445,-1.595207199,-1.447931452,1.054236838,1.088862250,-0.442132677,0.025476683,-0.147985927,0.156441930,0.098040523,-0.268871866,-0.274074090,5.152287298,4.000590625,0.293237426,-0.032756917,-0.032533171,-0.528193690
1750931838.485162735,-1.842236632,-1.595503461,-1.447618096,1.054433272,1.088323351,-0.442682040,0.025335425,-0.148275447,0.156913172,0.098393748,-0.270027118,-0.275288561,5.150674598,4.000728602,0.293185087,-0.032765054,-0.032544929,-0.528364067
1750931838.487225771,-1.842186105,-1.595800298,-1.447303801,1.054630412,1.087782141,-0.443233832,0.025191112,-0.148560998,0.157382212,0.098746261,-0.271182785,-0.276503896,5.149058385,4.000867160,0.293132482,-0.032773268,-0.032556653,-0.528534436
1750931838.489209175,-1.842186105,-1.595800298,-1.447303801,1.054630412,1.087782141,-0.443233832,0.025191112,-0.148560998,0.157382212,0.098746261,-0.271182785,-0.276503896,5.149058385,4.000867160,0.293132482,-0.032773268,-0.032556653,-0.528534436
1750931838.493394613,-1.842135870,-1.596097703,-1.446988569,1.054828257,1.087238620,-0.443788056,0.025043732,-0.148842564,0.157849042,0.099098057,-0.272338868,-0.277720097,5.147438703,4.001006299,0.293079610,-0.032781560,-0.032568343,-0.528704785
1750931838.493543625,-1.842085933,-1.596395666,-1.446672406,1.055026804,1.086692785,-0.444344713,0.024893273,-0.149120128,0.158313650,0.099449132,-0.273495364,-0.278937163,5.145815592,4.001146020,0.293026470,-0.032789931,-0.032579996,-0.528875106
1750931838.495329142,-1.842036299,-1.596694181,-1.446355316,1.055226053,1.086144638,-0.444903805,0.024739722,-0.149393675,0.158776027,0.099799483,-0.274652273,-0.280155096,5.144189093,4.001286324,0.292973061,-0.032798382,-0.032591612,-0.529045387
1750931838.497152567,-1.841986976,-1.596993238,-1.446037303,1.055426002,1.085594176,-0.445465334,0.024583067,-0.149663188,0.159236162,0.100149103,-0.275809592,-0.281373894,5.142559248,4.001427211,0.292919383,-0.032806913,-0.032603189,-0.529215618
1750931838.499423981,-1.841937969,-1.597292831,-1.445718373,1.055626649,1.085041399,-0.446029301,0.024423294,-0.149928651,0.159694046,0.100497990,-0.276967321,-0.282593558,5.140926099,4.001568684,0.292865434,-0.032815525,-0.032614727,-0.529385787
1750931838.501194715,-1.841889285,-1.597592950,-1.445398529,1.055827993,1.084486306,-0.446595709,0.024260392,-0.150190047,0.160149668,0.100846138,-0.278125458,-0.283814088,5.139289689,4.001710741,0.292811214,-0.032824217,-0.032626224,-0.529555884
1750931838.503196239,-1.841840927,-1.597893595,-1.445077761,1.056030029,1.083928890,-0.447164561,0.024108363,-0.150495957,0.160713088,0.101163432,-0.279332969,-0.285061212,5.142074645,3.993485646,0.295656815,-0.033745899,-0.034016917,-0.542076915
1750931838.505291939,-1.841792776,-1.598195198,-1.444755072,1.056232481,1.083368705,-0.447736095,0.024042035,-0.151106674,0.161975164,0.101288063,-0.280852548,-0.286472856,5.168455234,3.940416634,0.314072895,-0.039572649,-0.042806971,-0.620789996
1750931838.507384539,-1.841744762,-1.598498018,-1.444429860,1.056435180,1.082805480,-0.448310454,0.023972078,-0.151713085,0.163236787,0.101411161,-0.282373062,-0.287885470,5.166635548,3.940547620,0.314069873,-0.039603814,-0.042833323,-0.620954011
1750931838.509365559,-1.841696891,-1.598802047,-1.444102125,1.056638124,1.082239212,-0.448887638,0.023898476,-0.152315168,0.164497952,0.101532732,-0.283894514,-0.289299056,5.164808827,3.940679492,0.314066881,-0.039634827,-0.042859733,-0.621118321
1750931838.513175249,-1.841696891,-1.598802047,-1.444102125,1.056638124,1.082239212,-0.448887638,0.023898476,-0.152315168,0.164497952,0.101532732,-0.283894514,-0.289299056,5.164808827,3.940679492,0.314066881,-0.039634827,-0.042859733,-0.621118321
1750931838.513221979,-1.841601608,-1.599413696,-1.443439091,1.057044734,1.081097544,-0.450050493,0.023740254,-0.153506257,0.167018891,0.101771311,-0.286940239,-0.292129153,5.161134472,3.940945889,0.314060990,-0.039696391,-0.042912722,-0.621447777
1750931838.515123367,-1.841554212,-1.599721298,-1.443103794,1.057248394,1.080522139,-0.450636168,0.023655598,-0.154095215,0.168278655,0.101888331,-0.288464516,-0.293545667,5.159286931,3.941080412,0.314058091,-0.039726941,-0.042939298,-0.621612898
1750931838.520208120,-1.841459945,-1.600340014,-1.442425642,1.057656409,1.079362180,-0.451816021,0.023475098,-0.155259843,0.170796745,0.102117856,-0.291515907,-0.296381636,5.155571362,3.941352106,0.314052386,-0.039787572,-0.042992609,-0.621943856
1750931838.521146774,-1.841413090,-1.600651110,-1.442082791,1.057860758,1.078777621,-0.452410204,0.023379217,-0.155835465,0.172055062,0.102230373,-0.293043026,-0.297801094,5.153703429,3.941489273,0.314049582,-0.039817652,-0.043019340,-0.622109668
1750931838.523586035,-1.841366431,-1.600963353,-1.441737423,1.058065330,1.078190007,-0.453007226,0.023279557,-0.156406595,0.173312887,0.102341400,-0.294571095,-0.299221537,5.151828795,3.941627320,0.314046809,-0.039847574,-0.043046120,-0.622275683
1750931838.525270462,-1.841319975,-1.601276733,-1.441389540,1.058270123,1.077599336,-0.453607090,0.023176098,-0.156973209,0.174570215,0.102450943,-0.296100116,-0.300642967,5.149947510,3.941766247,0.314044068,-0.039877337,-0.043072947,-0.622441889
1750931838.530444145,-1.841319975,-1.601276733,-1.441389540,1.058270123,1.077599336,-0.453607090,0.023176098,-0.156973209,0.174570215,0.102450943,-0.296100116,-0.300642967,5.149947510,3.941766247,0.314044068,-0.039877337,-0.043072947,-0.622441889
1750931838.530933857,-1.841319975,-1.601276733,-1.441389540,1.058270123,1.077599336,-0.453607090,0.023176098,-0.156973209,0.174570215,0.102450943,-0.296100116,-0.300642967,5.149947510,3.941766247,0.314044068,-0.039877337,-0.043072947,-0.622441889
1750931838.536233664,-1.841319975,-1.601276733,-1.441389540,1.058270123,1.077599336,-0.453607090,0.023176098,-0.156973209,0.174570215,0.102450943,-0.296100116,-0.300642967,5.149947510,3.941766247,0.314044068,-0.039877337,-0.043072947,-0.622441889
1750931838.536411047,-1.841319975,-1.601276733,-1.441389540,1.058270123,1.077599336,-0.453607090,0.023176098,-0.156973209,0.174570215,0.102450943,-0.296100116,-0.300642967,5.149947510,3.941766247,0.314044068,-0.039877337,-0.043072947,-0.622441889
1750931838.537568808,-1.841045932,-1.603180398,-1.439249481,1.059503347,1.073991004,-0.457266067,0.022474515,-0.160276752,0.182103481,0.103077337,-0.305294334,-0.309192338,5.138522880,3.942618213,0.314028301,-0.040052531,-0.043234822,-0.623442349
1750931838.542371988,-1.840956559,-1.603823639,-1.438516054,1.059916054,1.072763683,-0.458508550,0.022209407,-0.161340744,0.184610375,0.103274515,-0.308366760,-0.312050081,5.134663720,3.942909198,0.314023306,-0.040109620,-0.043289092,-0.623776728
1750931838.545209169,-1.840956559,-1.603823639,-1.438516054,1.059916054,1.072763683,-0.458508550,0.022209407,-0.161340744,0.184610375,0.103274515,-0.308366760,-0.312050081,5.134663720,3.942909198,0.314023306,-0.040109620,-0.043289092,-0.623776728
1750931838.545284033,-1.840912278,-1.604146846,-1.438145581,1.060122700,1.072145413,-0.459134081,0.022070909,-0.161865662,0.185863014,0.103370952,-0.309904420,-0.313480447,5.132724818,3.943055999,0.314020856,-0.040137916,-0.043316278,-0.623944021
1750931838.549032450,-1.840868278,-1.604471098,-1.437772604,1.060329538,1.071524065,-0.459762473,0.021928423,-0.162385830,0.187115107,0.103465961,-0.311443047,-0.314911813,5.130779769,3.943203672,0.314018439,-0.040166045,-0.043343497,-0.624111363
1750931838.549493313,-1.840824567,-1.604796386,-1.437397123,1.060536564,1.070899640,-0.460393729,0.021781931,-0.162901224,0.188366651,0.103559548,-0.312982641,-0.316344178,5.128828628,3.943352216,0.314016055,-0.040194006,-0.043370746,-0.624278740
1750931838.551501989,-1.840781153,-1.605122699,-1.437019139,1.060743777,1.070272134,-0.461027851,0.021631413,-0.163411821,0.189617638,0.103651720,-0.314523203,-0.317777542,5.126871445,3.943501631,0.314013702,-0.040221799,-0.043398024,-0.624446137
1750931838.555557489,-1.840781153,-1.605122699,-1.437019139,1.060743777,1.070272134,-0.461027851,0.021631413,-0.163411821,0.189617638,0.103651720,-0.314523203,-0.317777542,5.126871445,3.943501631,0.314013702,-0.040221799,-0.043398024,-0.624446137
1750931838.556297302,-1.840781153,-1.605122699,-1.437019139,1.060743777,1.070272134,-0.461027851,0.021631413,-0.163411821,0.189617638,0.103651720,-0.314523203,-0.317777542,5.126871445,3.943501631,0.314013702,-0.040221799,-0.043398024,-0.624446137
1750931838.557346821,-1.840652775,-1.606107699,-1.435870185,1.061366501,1.068371117,-0.462947430,0.021155517,-0.164914594,0.193367222,0.103919802,-0.319150711,-0.322083644,5.120964188,3.943955092,0.314006836,-0.040304155,-0.043480015,-0.624948298
1750931838.559259653,-1.840610630,-1.606438020,-1.435482203,1.061574428,1.067731272,-0.463593035,0.020988708,-0.165405769,0.194615940,0.104006371,-0.320695156,-0.323521015,5.118983378,3.944107984,0.314004610,-0.040331263,-0.043507393,-0.625115626
1750931838.561175346,-1.840568823,-1.606769318,-1.435091724,1.061782528,1.067088336,-0.464241515,0.020817778,-0.165892028,0.195864079,0.104091555,-0.322240574,-0.324959389,5.116996796,3.944261743,0.314002416,-0.040358199,-0.043534790,-0.625282897
1750931838.563087940,-1.840527362,-1.607101583,-1.434698750,1.061990796,1.066442309,-0.464892873,0.020642711,-0.166373350,0.197111633,0.104175360,-0.323786965,-0.326398766,5.115004498,3.944416371,0.314000252,-0.040384961,-0.043562207,-0.625450098
1750931838.565231085,-1.840486255,-1.607434807,-1.434303281,1.062199231,1.065793188,-0.465547111,0.020463485,-0.166849711,0.198358598,0.104257791,-0.325334330,-0.327839147,5.113006538,3.944571865,0.313998119,-0.040411548,-0.043589641,-0.625617213
1750931838.567151546,-1.840445511,-1.607768978,-1.433905319,1.062407829,1.065140972,-0.466204231,0.020280084,-0.167321087,0.199604968,0.104338856,-0.326882670,-0.329280531,5.111002972,3.944728226,0.313996017,-0.040437960,-0.043617089,-0.625784225
1750931838.569290161,-1.840405138,-1.608104086,-1.433504865,1.062616588,1.064485657,-0.466864234,0.020092487,-0.167787455,0.200850739,0.104418560,-0.328431984,-0.330722920,5.108993856,3.944885454,0.313993944,-0.040464194,-0.043644552,-0.625951120
1750931838.571342945,-1.840365144,-1.608440123,-1.433101920,1.062825506,1.063827244,-0.467527124,0.019900676,-0.168248792,0.202095905,0.104496910,-0.329982274,-0.332166312,5.106979246,3.945043548,0.313991901,-0.040490252,-0.043672026,-0.626117882
1750931838.573072910,-1.840325539,-1.608777077,-1.432696485,1.063034579,1.063165728,-0.468192901,0.019704632,-0.168705073,0.203340462,0.104573912,-0.331533540,-0.333610708,5.104959199,3.945202508,0.313989887,-0.040516131,-0.043699509,-0.626284494
1750931838.575140715,-1.840286329,-1.609114938,-1.432288562,1.063243804,1.062501109,-0.468861568,0.019504337,-0.169156276,0.204584405,0.104649572,-0.333085782,-0.335056107,5.102933771,3.945362333,0.313987902,-0.040541831,-0.043727001,-0.626450941
1750931838.577259302,-1.840286329,-1.609114938,-1.432288562,1.063243804,1.062501109,-0.468861568,0.019504337,-0.169156276,0.204584405,0.104649572,-0.333085782,-0.335056107,5.102933771,3.945362333,0.313987902,-0.040541831,-0.043727001,-0.626450941
1750931838.579259396,-1.840247525,-1.609453697,-1.431878152,1.063453180,1.061833385,-0.469533126,0.019299771,-0.169602376,0.205827728,0.104723897,-0.334639000,-0.336502510,5.100903020,3.945523024,0.313985946,-0.040567351,-0.043754499,-0.626617206
1750931838.582150936,-1.840209134,-1.609793342,-1.431465256,1.063662703,1.061162553,-0.470207579,0.019090917,-0.170043352,0.207070427,0.104796893,-0.336193194,-0.337949916,5.098867004,3.945684580,0.313984017,-0.040592690,-0.043782001,-0.626783273
1750931838.583235979,-1.840171164,-1.610133865,-1.431049875,1.063872371,1.060488612,-0.470884927,0.018877754,-0.170479178,0.208312496,0.104868567,-0.337748365,-0.339398325,5.096825780,3.945847001,0.313982116,-0.040617846,-0.043809505,-0.626949126
1750931838.585640907,-1.840133626,-1.610475254,-1.430632011,1.064082181,1.059811560,-0.471565173,0.018660266,-0.170909831,0.209553931,0.104938924,-0.339304512,-0.340847737,5.094779407,3.946010286,0.313980241,-0.040642820,-0.043837009,-0.627114748
1750931838.587291241,-1.840133626,-1.610475254,-1.430632011,1.064082181,1.059811560,-0.471565173,0.018660266,-0.170909831,0.209553931,0.104938924,-0.339304512,-0.340847737,5.094779407,3.946010286,0.313980241,-0.040642820,-0.043837009,-0.627114748
1750931838.589177370,-1.840059876,-1.611160589,-1.429788837,1.064502217,1.058448113,-0.472934367,0.018212234,-0.171755527,0.212034877,0.105075719,-0.342419735,-0.343749566,5.090671450,3.946339451,0.313976571,-0.040692216,-0.043892012,-0.627445234
1750931838.591240883,-1.840023682,-1.611504515,-1.429363531,1.064712437,1.057761715,-0.473623319,0.017981654,-0.172170523,0.213274378,0.105142168,-0.343978811,-0.345201981,5.088609984,3.946505330,0.313974774,-0.040716636,-0.043919506,-0.627610064
1750931838.593343735,-1.839987953,-1.611849266,-1.428935746,1.064922790,1.057072198,-0.474315177,0.017746672,-0.172580252,0.214513224,0.105207329,-0.345538863,-0.346655397,5.086543606,3.946672074,0.313973001,-0.040740869,-0.043946992,-0.627774597
1750931838.595252991,-1.839952699,-1.612194830,-1.428505484,1.065133272,1.056379560,-0.475009942,0.017507271,-0.172984690,0.215751410,0.105271206,-0.347099890,-0.348109812,5.084472377,3.946839681,0.313971252,-0.040764915,-0.043974469,-0.627938814
1750931838.597190380,-1.839917928,-1.612541199,-1.428072746,1.065343880,1.055683799,-0.475707617,0.017263431,-0.173383816,0.216988930,0.105333808,-0.348661893,-0.349565226,5.082396357,3.947008154,0.313969526,-0.040788772,-0.044001934,-0.628102700
1750931838.599073648,-1.839883649,-1.612888360,-1.427637535,1.065554612,1.054984913,-0.476408204,0.017015134,-0.173777604,0.218225780,0.105395140,-0.350224870,-0.351021636,5.080315606,3.947177490,0.313967823,-0.040812440,-0.044029386,-0.628266236
1750931838.608360052,-1.839849887,-1.613236204,-1.427200008,1.065765489,1.054283053,-0.477111569,0.016714009,-0.173861174,0.218975974,0.105525559,-0.351314505,-0.352058015,5.064014528,4.010645204,0.302694122,-0.037845988,-0.030695203,-0.437501011
1750931838.608438015,-1.839784644,-1.613929438,-1.426325151,1.066188698,1.052877383,-0.478520444,0.015907986,-0.172757800,0.218456289,0.106074699,-0.351521016,-0.352379168,5.033040709,4.141578820,0.279303427,-0.031680165,-0.002904962,-0.040263709
1750931838.609271049,-1.839753231,-1.614274401,-1.425888501,1.066401123,1.052174239,-0.479225363,0.015505218,-0.172206831,0.218197566,0.106347045,-0.351623890,-0.352539041,5.032576072,4.141136839,0.279336661,-0.031707460,-0.002897807,-0.040139628
1750931838.611164331,-1.839722624,-1.614618263,-1.425452368,1.066614092,1.051470889,-0.479930601,0.015102613,-0.171656340,0.217939596,0.106617910,-0.351726511,-0.352698444,5.032116837,4.140694755,0.279369974,-0.031734646,-0.002890683,-0.040015457
1750931838.613297939,-1.839692821,-1.614961024,-1.425016750,1.066827602,1.050767334,-0.480636158,0.014700172,-0.171106328,0.217682381,0.106887298,-0.351828881,-0.352857376,5.031663003,4.140252571,0.279403365,-0.031761722,-0.002883590,-0.039891195
1750931838.615424395,-1.839663824,-1.615302685,-1.424581646,1.067041648,1.050063574,-0.481342031,0.014297894,-0.170556795,0.217425926,0.107155212,-0.351931000,-0.353015837,5.031214569,4.139810285,0.279436834,-0.031788690,-0.002876528,-0.039766844
1750931838.618415594,-1.839635631,-1.615643248,-1.424147054,1.067256230,1.049359611,-0.482048222,0.013895781,-0.170007741,0.217170234,0.107421652,-0.352032870,-0.353173826,5.030771534,4.139367899,0.279470382,-0.031815549,-0.002869497,-0.039642404
1750931838.620350361,-1.839608044,-1.615982968,-1.423712948,1.067471352,1.048655510,-0.482754669,0.013852572,-0.169920254,0.216960377,0.107704148,-0.352015721,-0.353225833,5.173347401,4.079617763,0.279399894,-0.030950179,0.000483294,-0.010151441
1750931838.620996952,-1.839580091,-1.616323094,-1.423279204,1.067687060,1.047951592,-0.483461087,0.014100954,-0.170207652,0.216788001,0.107999316,-0.351902186,-0.353191919,5.289086688,4.031012009,0.279354273,-0.030254945,0.003198501,0.013783808
1750931838.625128031,-1.839580091,-1.616323094,-1.423279204,1.067687060,1.047951592,-0.483461087,0.014100954,-0.170207652,0.216788001,0.107999316,-0.351902186,-0.353191919,5.289086688,4.031012009,0.279354273,-0.030254945,0.003198501,0.013783808
1750931838.625364542,-1.839580091,-1.616323094,-1.423279204,1.067687060,1.047951592,-0.483461087,0.014100954,-0.170207652,0.216788001,0.107999316,-0.351902186,-0.353191919,5.289086688,4.031012009,0.279354273,-0.030254945,0.003198501,0.013783808
1750931838.627025127,-1.839522694,-1.617005072,-1.422412747,1.068120240,1.046544438,-0.484873720,0.014598296,-0.170783368,0.216445976,0.108584888,-0.351675693,-0.353123667,5.288215372,4.030176532,0.279435843,-0.030313894,0.003187692,0.014005520
1750931838.630195141,-1.839493249,-1.617346925,-1.421980029,1.068337705,1.045841200,-0.485579934,0.014847257,-0.171071686,0.216276339,0.108875298,-0.351562738,-0.353089330,5.287774149,4.029757902,0.279476769,-0.030343179,0.003182196,0.014116222
1750931838.631160736,-1.839463306,-1.617689355,-1.421547650,1.068555749,1.045138188,-0.486286078,0.015096412,-0.171360311,0.216107624,0.109164127,-0.351449980,-0.353054851,5.287329214,4.029338679,0.279517790,-0.030372337,0.003176640,0.014226823
1750931838.633240223,-1.839432865,-1.618032362,-1.421115608,1.068774370,1.044435402,-0.486992154,0.015345760,-0.171649244,0.215939839,0.109451378,-0.351337422,-0.353020232,5.286880563,4.028918864,0.279558905,-0.030401368,0.003171024,0.014337322
1750931838.635419130,-1.839401924,-1.618375948,-1.420683901,1.068993564,1.043732840,-0.487698161,0.015595302,-0.171938485,0.215772987,0.109737054,-0.351225065,-0.352985472,5.286428193,4.028498458,0.279600113,-0.030430273,0.003165349,0.014447720
1750931838.637176514,-1.839370485,-1.618720112,-1.420252526,1.069213328,1.043030503,-0.488404097,0.015845037,-0.172228034,0.215607075,0.110021158,-0.351112912,-0.352950572,5.285972102,4.028077461,0.279641414,-0.030459051,0.003159615,0.014558015
1750931838.639178753,-1.839338545,-1.619064856,-1.419821482,1.069433658,1.042328390,-0.489109964,0.016094966,-0.172517892,0.215442107,0.110303692,-0.351000964,-0.352915532,5.285512288,4.027655873,0.279682808,-0.030487703,0.003153823,0.014668209
1750931838.641208649,-1.839306106,-1.619410179,-1.419390768,1.069654553,1.041626500,-0.489815761,0.016345089,-0.172808059,0.215278089,0.110584660,-0.350889225,-0.352880352,5.285048746,4.027233696,0.279724295,-0.030516228,0.003147972,0.014778300
1750931838.643203020,-1.839273166,-1.619756084,-1.418960381,1.069876007,1.040924834,-0.490521487,0.016595406,-0.173098535,0.215115025,0.110864065,-0.350777695,-0.352845032,5.284581476,4.026810930,0.279765874,-0.030544627,0.003142063,0.014888290
1750931838.645303965,-1.839239726,-1.620102569,-1.418530319,1.070098019,1.040223391,-0.491227142,0.016845916,-0.173389320,0.214952922,0.111141909,-0.350666377,-0.352809573,5.284110474,4.026387576,0.279807545,-0.030572899,0.003136098,0.014998178
1750931838.647256851,-1.839205784,-1.620449636,-1.418100580,1.070320586,1.039522170,-0.491932727,0.017096621,-0.173680415,0.214791784,0.111418194,-0.350555273,-0.352773975,5.283635737,4.025963635,0.279849308,-0.030601046,0.003130075,0.015107964
1750931838.651297092,-1.839171341,-1.620797286,-1.417671163,1.070543703,1.038821171,-0.492638240,0.017347519,-0.173971820,0.214631616,0.111692925,-0.350444385,-0.352738237,5.283157263,4.025539106,0.279891162,-0.030629066,0.003123995,0.015217648
1750931838.651429892,-1.839171341,-1.620797286,-1.417671163,1.070543703,1.038821171,-0.492638240,0.017347519,-0.173971820,0.214631616,0.111692925,-0.350444385,-0.352738237,5.283157263,4.025539106,0.279891162,-0.030629066,0.003123995,0.015217648
1750931838.653476954,-1.839136395,-1.621145519,-1.417242066,1.070767369,1.038120394,-0.493343681,0.017598611,-0.174263536,0.214472423,0.111966103,-0.350333714,-0.352702361,5.282675050,4.025113992,0.279933108,-0.030656959,0.003117859,0.015327230
1750931838.655193090,-1.839100948,-1.621494335,-1.416813286,1.070991579,1.037419838,-0.494049050,0.017849898,-0.174555562,0.214314211,0.112237733,-0.350223264,-0.352666346,5.282189093,4.024688291,0.279975144,-0.030684727,0.003111668,0.015436710
1750931838.657179117,-1.839064997,-1.621843736,-1.416384821,1.071216332,1.036719503,-0.494754348,0.018101378,-0.174847899,0.214156984,0.112507815,-0.350113036,-0.352630193,5.281699392,4.024262006,0.280017272,-0.030712369,0.003105420,0.015546088
1750931838.659093618,-1.839028544,-1.622193722,-1.415956670,1.071441623,1.036019388,-0.495459573,0.018353053,-0.175140547,0.214000747,0.112776354,-0.350003031,-0.352593902,5.281205942,4.023835137,0.280059489,-0.030739884,0.003099118,0.015655364
1750931838.661157608,-1.838991587,-1.622544293,-1.415528831,1.071667450,1.035319492,-0.496164725,0.018604922,-0.175433507,0.213845507,0.113043353,-0.349893252,-0.352557472,5.280708742,4.023407684,0.280101797,-0.030767274,0.003092761,0.015764538
1750931838.669818878,-1.838954126,-1.622895450,-1.415101301,1.071893809,1.034619816,-0.496869804,0.018856985,-0.175726779,0.213691266,0.113308813,-0.349783701,-0.352520905,5.280207788,4.022979648,0.280144195,-0.030794537,0.003086349,0.015873609
1750931838.670799971,-1.838838716,-1.623952446,-1.413820550,1.072576052,1.032522100,-0.498984602,0.019614340,-0.176608466,0.213234598,0.114095997,-0.349456432,-0.352410379,5.278682381,4.021692048,0.280271923,-0.030875572,0.003066792,0.016200211
1750931838.670928240,-1.838838716,-1.623952446,-1.413820550,1.072576052,1.032522100,-0.498984602,0.019614340,-0.176608466,0.213234598,0.114095997,-0.349456432,-0.352410379,5.278682381,4.021692048,0.280271923,-0.030875572,0.003066792,0.016200211
1750931838.671058893,-1.838838716,-1.623952446,-1.413820550,1.072576052,1.032522100,-0.498984602,0.019614340,-0.176608466,0.213234598,0.114095997,-0.349456432,-0.352410379,5.278682381,4.021692048,0.280271923,-0.030875572,0.003066792,0.016200211
1750931838.673331022,-1.838799235,-1.624305954,-1.413394239,1.072804511,1.031823297,-0.499689386,0.019867180,-0.176902987,0.213084410,0.114355336,-0.349347811,-0.352373263,5.278166387,4.021261687,0.280314678,-0.030902332,0.003060166,0.016308873
1750931838.675318718,-1.838759249,-1.624660052,-1.412968227,1.073033488,1.031124710,-0.500394097,0.020120215,-0.177197821,0.212935246,0.114613151,-0.349239427,-0.352336010,5.277646627,4.020830745,0.280357520,-0.030928967,0.003053488,0.016417434
1750931838.677139282,-1.838718756,-1.625014739,-1.412542513,1.073262978,1.030426341,-0.501098732,0.020373445,-0.177492967,0.212787113,0.114869447,-0.349131282,-0.352298620,5.277123097,4.020399224,0.280400451,-0.030955476,0.003046758,0.016525892
1750931838.679517508,-1.838677757,-1.625370018,-1.412117094,1.073492980,1.029728187,-0.501803293,0.020626869,-0.177788428,0.212640014,0.115124224,-0.349023377,-0.352261094,5.276595794,4.019967125,0.280443470,-0.030981859,0.003039976,0.016634247
1750931838.681470156,-1.838636250,-1.625725887,-1.411691968,1.073723490,1.029030249,-0.502507779,0.020880487,-0.178084201,0.212493956,0.115377488,-0.348915715,-0.352223432,5.276064717,4.019534447,0.280486577,-0.031008117,0.003033142,0.016742500
1750931838.683260202,-1.838594237,-1.626082348,-1.411267133,1.073954506,1.028332526,-0.503212189,0.021134301,-0.178380289,0.212348942,0.115629240,-0.348808298,-0.352185634,5.275529863,4.019101192,0.280529771,-0.031034249,0.003026258,0.016850650
1750931838.685246468,-1.838551715,-1.626439402,-1.410842588,1.074186023,1.027635018,-0.503916523,0.021388309,-0.178676690,0.212204977,0.115879484,-0.348701127,-0.352147701,5.274991228,4.018667359,0.280573052,-0.031060255,0.003019322,0.016958697
1750931838.687114477,-1.838551715,-1.626439402,-1.410842588,1.074186023,1.027635018,-0.503916523,0.021388309,-0.178676690,0.212204977,0.115879484,-0.348701127,-0.352147701,5.274991228,4.018667359,0.280573052,-0.031060255,0.003019322,0.016958697
1750931838.689129829,-1.838551715,-1.626439402,-1.410842588,1.074186023,1.027635018,-0.503916523,0.021388309,-0.178676690,0.212204977,0.115879484,-0.348701127,-0.352147701,5.274991228,4.018667359,0.280573052,-0.031060255,0.003019322,0.016958697
1750931838.691086769,-1.838465147,-1.627155288,-1.409994356,1.074650552,1.026240643,-0.505324964,0.021896909,-0.179270436,0.211920215,0.116375458,-0.348487531,-0.352071427,5.273902607,4.017797966,0.280659875,-0.031111893,0.003005301,0.017174484
1750931838.694429874,-1.838421100,-1.627514123,-1.409570665,1.074883558,1.025543776,-0.506029069,0.022151502,-0.179567780,0.211779427,0.116621194,-0.348381110,-0.352033087,5.273352615,4.017362407,0.280703417,-0.031137523,0.002998215,0.017282222
1750931838.695187807,-1.838421100,-1.627514123,-1.409570665,1.074883558,1.025543776,-0.506029069,0.022151502,-0.179567780,0.211779427,0.116621194,-0.348381110,-0.352033087,5.273352615,4.017362407,0.280703417,-0.031137523,0.002998215,0.017282222
1750931838.697152615,-1.838376543,-1.627873553,-1.409147255,1.075117054,1.024847121,-0.506733098,0.022406289,-0.179865440,0.211639707,0.116865434,-0.348274942,-0.351994612,5.272798832,4.016926273,0.280747044,-0.031163029,0.002991080,0.017389858
