mathias31415/motion_primitives_from_planned_trajectory/data/trajectory_20250626_115704_executed.csv
timestamp,shoulder_lift_joint_pos,elbow_joint_pos,wrist_1_joint_pos,wrist_2_joint_pos,wrist_3_joint_pos,shoulder_pan_joint_pos,shoulder_lift_joint_vel,elbow_joint_vel,wrist_1_joint_vel,wrist_2_joint_vel,wrist_3_joint_vel,shoulder_pan_joint_vel,shoulder_lift_joint_eff,elbow_joint_eff,wrist_1_joint_eff,wrist_2_joint_eff,wrist_3_joint_eff,shoulder_pan_joint_eff,pose_x,pose_y,pose_z,pose_qx,pose_qy,pose_qz,pose_qw
1750931837.8393095,-1.852035,-1.554697,-1.488325,1.029796,1.153214,-0.377081,0.0,0.0,0.0,0.0,0.0,0.0,5.281220742,4.13461803,0.284882888,-0.041808063,0.0,0.0,0.6774091783435853,-0.5201436030841825,0.4995423886027034,-0.04379839216279113,0.9589306069066214,-0.2113596109130075,-0.18401333336569775
1750931837.8411217,-1.852035,-1.554697,-1.488325,1.029796,1.153214,-0.377081,0.0,0.0,0.0,0.0,0.0,0.0,5.281220742,4.13461803,0.284882888,-0.041808063,0.0,0.0,0.6774091783435853,-0.5201436030841825,0.4995423886027034,-0.04379839216279113,0.9589306069066214,-0.2113596109130075,-0.18401333336569775
1750931837.8431134,-1.852035,-1.554697,-1.488325,1.029796,1.153214,-0.377081,0.0,0.0,0.0,0.0,0.0,0.0,5.281220742,4.13461803,0.284882888,-0.041808063,0.0,0.0,0.6774091783435853,-0.5201436030841825,0.4995423886027034,-0.04379839216279113,0.9589306069066214,-0.2113596109130075,-0.18401333336569775
1750931837.845112,-1.852035,-1.554697,-1.488325,1.029796,1.153214,-0.377081,0.0,0.0,0.0,0.0,0.0,0.0,5.281220742,4.13461803,0.284882888,-0.041808063,0.0,0.0,0.6774091783435853,-0.5201436030841825,0.4995423886027034,-0.04379839216279113,0.9589306069066214,-0.2113596109130075,-0.18401333336569775
1750931837.847062,-1.852035,-1.554697,-1.488325,1.029796,1.153214,-0.377081,0.0,0.0,0.0,0.0,0.0,0.0,5.281220742,4.13461803,0.284882888,-0.041808063,0.0,0.0,0.6774091783435853,-0.5201436030841825,0.4995423886027034,-0.04379839216279113,0.9589306069066214,-0.2113596109130075,-0.18401333336569775
1750931837.8491592,-1.852035,-1.554697,-1.488325,1.029796,1.153214,-0.377081,0.0,0.0,0.0,0.0,0.0,0.0,5.281220742,4.13461803,0.284882888,-0.041808063,0.0,0.0,0.6774091783435853,-0.5201436030841825,0.4995423886027034,-0.04379839216279113,0.9589306069066214,-0.2113596109130075,-0.18401333336569775
1750931837.8517437,-1.852035,-1.554697,-1.488325,1.029796,1.153214,-0.377081,0.0,0.0,0.0,0.0,0.0,0.0,5.281220742,4.13461803,0.284882888,-0.041808063,0.0,0.0,0.6774091783435853,-0.5201436030841825,0.4995423886027034,-0.04379839216279113,0.9589306069066214,-0.2113596109130075,-0.18401333336569775
1750931837.8570106,-1.852035,-1.554697,-1.488325,1.029796,1.153214,-0.377081,0.0,0.0,0.0,0.0,0.0,0.0,5.281220742,4.13461803,0.284882888,-0.041808063,0.0,0.0,0.6774091783435853,-0.5201436030841825,0.4995423886027034,-0.04379839216279113,0.9589306069066214,-0.2113596109130075,-0.18401333336569775
1750931837.8570971,-1.852035,-1.554697,-1.488325,1.029796,1.153214,-0.377081,0.0,0.0,0.0,0.0,0.0,0.0,5.281220742,4.13461803,0.284882888,-0.041808063,0.0,0.0,0.6774091783435853,-0.5201436030841825,0.4995423886027034,-0.04379839216279113,0.9589306069066214,-0.2113596109130075,-0.18401333336569775
1750931837.8575428,-1.852035,-1.554697,-1.488325,1.029796,1.153214,-0.377081,0.0,0.0,0.0,0.0,0.0,0.0,5.281220742,4.13461803,0.284882888,-0.041808063,0.0,0.0,0.6774091783435853,-0.5201436030841825,0.4995423886027034,-0.04379839216279113,0.9589306069066214,-0.2113596109130075,-0.18401333336569775
1750931837.860538,-1.852035,-1.554697,-1.488325,1.029796,1.153214,-0.377081,0.0,0.0,0.0,0.0,0.0,0.0,5.281220742,4.13461803,0.284882888,-0.041808063,0.0,0.0,0.6774091783435853,-0.5201436030841825,0.4995423886027034,-0.04379839216279113,0.9589306069066214,-0.2113596109130075,-0.18401333336569775
1750931837.8611314,-1.852035,-1.554697,-1.488325,1.029796,1.153214,-0.377081,0.0,0.0,0.0,0.0,0.0,0.0,5.281220742,4.13461803,0.284882888,-0.041808063,0.0,0.0,0.6774091783435853,-0.5201436030841825,0.4995423886027034,-0.04379839216279113,0.9589306069066214,-0.2113596109130075,-0.18401333336569775
1750931837.8649168,-1.852035,-1.554697,-1.488325,1.029796,1.153214,-0.377081,0.0,0.0,0.0,0.0,0.0,0.0,5.281220742,4.13461803,0.284882888,-0.041808063,0.0,0.0,0.6774091783435853,-0.5201436030841825,0.4995423886027034,-0.04379839216279113,0.9589306069066214,-0.2113596109130075,-0.18401333336569775
1750931837.8662527,-1.852035,-1.554697,-1.488325,1.029796,1.153214,-0.377081,0.0,0.0,0.0,0.0,0.0,0.0,5.281220742,4.13461803,0.284882888,-0.041808063,0.0,0.0,0.6774091783435853,-0.5201436030841825,0.4995423886027034,-0.04379839216279113,0.9589306069066214,-0.2113596109130075,-0.18401333336569775
1750931837.8689923,-1.852035,-1.554697,-1.488325,1.029796,1.153214,-0.377081,0.0,0.0,0.0,0.0,0.0,0.0,5.281220742,4.13461803,0.284882888,-0.041808063,0.0,0.0,0.6774091783435853,-0.5201436030841825,0.4995423886027034,-0.04379839216279113,0.9589306069066214,-0.2113596109130075,-0.18401333336569775
1750931837.869625,-1.852035,-1.554697,-1.488325,1.029796,1.153214,-0.377081,0.0,0.0,0.0,0.0,0.0,0.0,5.281220742,4.13461803,0.284882888,-0.041808063,0.0,0.0,0.6774091783435853,-0.5201436030841825,0.4995423886027034,-0.04379839216279113,0.9589306069066214,-0.2113596109130075,-0.18401333336569775
1750931837.8711848,-1.852035,-1.554697,-1.488325,1.029796,1.153214,-0.377081,0.0,0.0,0.0,0.0,0.0,0.0,5.281220742,4.13461803,0.284882888,-0.041808063,0.0,0.0,0.6774091783435853,-0.5201436030841825,0.4995423886027034,-0.04379839216279113,0.9589306069066214,-0.2113596109130075,-0.18401333336569775
1750931837.873158,-1.852035,-1.554697,-1.488325,1.029796,1.153214,-0.377081,0.0,0.0,0.0,0.0,0.0,0.0,5.281220742,4.13461803,0.284882888,-0.041808063,0.0,0.0,0.6774091783435853,-0.5201436030841825,0.4995423886027034,-0.04379839216279113,0.9589306069066214,-0.2113596109130075,-0.18401333336569775
1750931837.875072,-1.852035,-1.554697,-1.488325,1.029796,1.153214,-0.377081,0.0,0.0,0.0,0.0,0.0,0.0,5.281220742,4.13461803,0.284882888,-0.041808063,0.0,0.0,0.6774091783435853,-0.5201436030841825,0.4995423886027034,-0.04379839216279113,0.9589306069066214,-0.2113596109130075,-0.18401333336569775
1750931837.8771958,-1.852035,-1.554697,-1.488325,1.029796,1.153214,-0.377081,0.0,0.0,0.0,0.0,0.0,0.0,5.281220742,4.13461803,0.284882888,-0.041808063,0.0,0.0,0.6774091783435853,-0.5201436030841825,0.4995423886027034,-0.04379839216279113,0.9589306069066214,-0.2113596109130075,-0.18401333336569775
1750931837.8796065,-1.852035,-1.554697,-1.488325,1.029796,1.153214,-0.377081,0.0,0.0,0.0,0.0,0.0,0.0,5.281220742,4.13461803,0.284882888,-0.041808063,0.0,0.0,0.6774091783435853,-0.5201436030841825,0.4995423886027034,-0.04379839216279113,0.9589306069066214,-0.2113596109130075,-0.18401333336569775
1750931837.8810549,-1.852035,-1.554697,-1.488325,1.029796,1.153214,-0.377081,0.0,0.0,0.0,0.0,0.0,0.0,5.281220742,4.13461803,0.284882888,-0.041808063,0.0,0.0,0.6774091783435853,-0.5201436030841825,0.4995423886027034,-0.04379839216279113,0.9589306069066214,-0.2113596109130075,-0.18401333336569775
1750931837.8830206,-1.852035,-1.554697,-1.488325,1.029796,1.153214,-0.377081,0.0,0.0,0.0,0.0,0.0,0.0,5.281220742,4.13461803,0.284882888,-0.041808063,0.0,0.0,0.6774091783435853,-0.5201436030841825,0.4995423886027034,-0.04379839216279113,0.9589306069066214,-0.2113596109130075,-0.18401333336569775
1750931837.8857179,-1.852035,-1.554697,-1.488325,1.029796,1.153214,-0.377081,0.0,0.0,0.0,0.0,0.0,0.0,5.281220742,4.13461803,0.284882888,-0.041808063,0.0,0.0,0.6774091783435853,-0.5201436030841825,0.4995423886027034,-0.04379839216279113,0.9589306069066214,-0.2113596109130075,-0.18401333336569775
1750931837.8872635,-1.852035,-1.554697,-1.488325,1.029796,1.153214,-0.377081,0.0,0.0,0.0,0.0,0.0,0.0,5.281220742,4.13461803,0.284882888,-0.041808063,0.0,0.0,0.6774091783435853,-0.5201436030841825,0.4995423886027034,-0.04379839216279113,0.9589306069066214,-0.2113596109130075,-0.18401333336569775
1750931837.8890984,-1.852035,-1.554697,-1.488325,1.029796,1.153214,-0.377081,0.0,0.0,0.0,0.0,0.0,0.0,5.281220742,4.13461803,0.284882888,-0.041808063,0.0,0.0,0.6774091783435853,-0.5201436030841825,0.4995423886027034,-0.04379839216279113,0.9589306069066214,-0.2113596109130075,-0.18401333336569775
1750931837.8911357,-1.852035,-1.554697,-1.488325,1.029796,1.153214,-0.377081,0.0,0.0,0.0,0.0,0.0,0.0,5.281220742,4.13461803,0.284882888,-0.041808063,0.0,0.0,0.6774091783435853,-0.5201436030841825,0.4995423886027034,-0.04379839216279113,0.9589306069066214,-0.2113596109130075,-0.18401333336569775
1750931837.8932288,-1.852035,-1.554697,-1.488325,1.029796,1.153214,-0.377081,0.0,0.0,0.0,0.0,0.0,0.0,5.281220742,4.13461803,0.284882888,-0.041808063,0.0,0.0,0.6774091783435853,-0.5201436030841825,0.4995423886027034,-0.04379839216279113,0.9589306069066214,-0.2113596109130075,-0.18401333336569775
1750931837.8953776,-1.852035,-1.554697,-1.488325,1.029796,1.153214,-0.377081,0.0,0.0,0.0,0.0,0.0,0.0,5.281220742,4.13461803,0.284882888,-0.041808063,0.0,0.0,0.6774091783435853,-0.5201436030841825,0.4995423886027034,-0.04379839216279113,0.9589306069066214,-0.2113596109130075,-0.18401333336569775
1750931837.8971844,-1.852035,-1.554697,-1.488325,1.029796,1.153214,-0.377081,0.0,0.0,0.0,0.0,0.0,0.0,5.281220742,4.13461803,0.284882888,-0.041808063,0.0,0.0,0.6774091783435853,-0.5201436030841825,0.4995423886027034,-0.04379839216279113,0.9589306069066214,-0.2113596109130075,-0.18401333336569775
1750931837.8990364,-1.852035,-1.554697,-1.488325,1.029796,1.153214,-0.377081,0.0,0.0,0.0,0.0,0.0,0.0,5.281220742,4.13461803,0.284882888,-0.041808063,0.0,0.0,0.6774091783435853,-0.5201436030841825,0.4995423886027034,-0.04379839216279113,0.9589306069066214,-0.2113596109130075,-0.18401333336569775
1750931837.901463,-1.852035,-1.554697,-1.488325,1.029796,1.153214,-0.377081,0.0,0.0,0.0,0.0,0.0,0.0,5.281220742,4.13461803,0.284882888,-0.041808063,0.0,0.0,0.6774091783435853,-0.5201436030841825,0.4995423886027034,-0.04379839216279113,0.9589306069066214,-0.2113596109130075,-0.18401333336569775
1750931837.9033356,-1.852035,-1.554697,-1.488325,1.029796,1.153214,-0.377081,0.0,0.0,0.0,0.0,0.0,0.0,5.281220742,4.13461803,0.284882888,-0.041808063,0.0,0.0,0.6774091783435853,-0.5201436030841825,0.4995423886027034,-0.04379839216279113,0.9589306069066214,-0.2113596109130075,-0.18401333336569775
1750931837.906476,-1.852035,-1.554697,-1.488325,1.029796,1.153214,-0.377081,0.0,0.0,0.0,0.0,0.0,0.0,5.281220742,4.13461803,0.284882888,-0.041808063,0.0,0.0,0.6774091783435853,-0.5201436030841825,0.4995423886027034,-0.04379839216279113,0.9589306069066214,-0.2113596109130075,-0.18401333336569775
1750931837.9073267,-1.852035,-1.554697,-1.488325,1.029796,1.153214,-0.377081,0.0,0.0,0.0,0.0,0.0,0.0,5.281220742,4.13461803,0.284882888,-0.041808063,0.0,0.0,0.6774091783435853,-0.5201436030841825,0.4995423886027034,-0.04379839216279113,0.9589306069066214,-0.2113596109130075,-0.18401333336569775
1750931837.9147415,-1.852035,-1.554697,-1.488325,1.029796,1.153214,-0.377081,0.0,0.0,0.0,0.0,0.0,0.0,5.281220742,4.13461803,0.284882888,-0.041808063,0.0,0.0,0.6774091783435853,-0.5201436030841825,0.4995423886027034,-0.04379839216279113,0.9589306069066214,-0.2113596109130075,-0.18401333336569775
1750931837.914828,-1.852035,-1.554697,-1.488325,1.029796,1.153214,-0.377081,0.0,0.0,0.0,0.0,0.0,0.0,5.281220742,4.13461803,0.284882888,-0.041808063,0.0,0.0,0.6774091783435853,-0.5201436030841825,0.4995423886027034,-0.04379839216279113,0.9589306069066214,-0.2113596109130075,-0.18401333336569775
1750931837.9148452,-1.852035,-1.554697,-1.488325,1.029796,1.153214,-0.377081,0.0,0.0,0.0,0.0,0.0,0.0,5.281220742,4.13461803,0.284882888,-0.041808063,0.0,0.0,0.6774091783435853,-0.5201436030841825,0.4995423886027034,-0.04379839216279113,0.9589306069066214,-0.2113596109130075,-0.18401333336569775
1750931837.9171102,-1.852035,-1.554697,-1.488325,1.029796,1.153214,-0.377081,0.0,0.0,0.0,0.0,0.0,0.0,5.281220742,4.13461803,0.284882888,-0.041808063,0.0,0.0,0.6774091783435853,-0.5201436030841825,0.4995423886027034,-0.04379839216279113,0.9589306069066214,-0.2113596109130075,-0.18401333336569775
1750931837.918726,-1.852035,-1.554697,-1.488325,1.029796,1.153214,-0.377081,0.0,0.0,0.0,0.0,0.0,0.0,5.281220742,4.13461803,0.284882888,-0.041808063,0.0,0.0,0.6774091783435853,-0.5201436030841825,0.4995423886027034,-0.04379839216279113,0.9589306069066214,-0.2113596109130075,-0.18401333336569775
1750931837.9200056,-1.852035,-1.554697,-1.488325,1.029796,1.153214,-0.377081,0.0,0.0,0.0,0.0,0.0,0.0,5.281220742,4.13461803,0.284882888,-0.041808063,0.0,0.0,0.6774091783435853,-0.5201436030841825,0.4995423886027034,-0.04379839216279113,0.9589306069066214,-0.2113596109130075,-0.18401333336569775
1750931837.921749,-1.852035,-1.554697,-1.488325,1.029796,1.153214,-0.377081,0.0,0.0,0.0,0.0,0.0,0.0,5.281220742,4.13461803,0.284882888,-0.041808063,0.0,0.0,0.6774091783435853,-0.5201436030841825,0.4995423886027034,-0.04379839216279113,0.9589306069066214,-0.2113596109130075,-0.18401333336569775
1750931837.9245355,-1.852035,-1.554697,-1.488325,1.029796,1.153214,-0.377081,0.0,0.0,0.0,0.0,0.0,0.0,5.281220742,4.13461803,0.284882888,-0.041808063,0.0,0.0,0.6774091783435853,-0.5201436030841825,0.4995423886027034,-0.04379839216279113,0.9589306069066214,-0.2113596109130075,-0.18401333336569775
1750931837.928884,-1.852035,-1.554697,-1.488325,1.029796,1.153214,-0.377081,0.0,0.0,0.0,0.0,0.0,0.0,5.281220742,4.13461803,0.284882888,-0.041808063,0.0,0.0,0.6774091783435853,-0.5201436030841825,0.4995423886027034,-0.04379839216279113,0.9589306069066214,-0.2113596109130075,-0.18401333336569775
1750931837.9290955,-1.852035,-1.554697,-1.488325,1.029796,1.153214,-0.377081,0.0,0.0,0.0,0.0,0.0,0.0,5.281220742,4.13461803,0.284882888,-0.041808063,0.0,0.0,0.6774091783435853,-0.5201436030841825,0.4995423886027034,-0.04379839216279113,0.9589306069066214,-0.2113596109130075,-0.18401333336569775
1750931837.9313176,-1.852035,-1.554697,-1.488325,1.029796,1.153214,-0.377081,0.0,0.0,0.0,0.0,0.0,0.0,5.281220742,4.13461803,0.284882888,-0.041808063,0.0,0.0,0.6774091783435853,-0.5201436030841825,0.4995423886027034,-0.04379839216279113,0.9589306069066214,-0.2113596109130075,-0.18401333336569775
1750931837.9358356,-1.852035,-1.554697,-1.488325,1.029796,1.153214,-0.377081,0.0,0.0,0.0,0.0,0.0,0.0,5.281220742,4.13461803,0.284882888,-0.041808063,0.0,0.0,0.6774091783435853,-0.5201436030841825,0.4995423886027034,-0.04379839216279113,0.9589306069066214,-0.2113596109130075,-0.18401333336569775
1750931837.9359088,-1.852035,-1.554697,-1.488325,1.029796,1.153214,-0.377081,0.0,0.0,0.0,0.0,0.0,0.0,5.281220742,4.13461803,0.284882888,-0.041808063,0.0,0.0,0.6774091783435853,-0.5201436030841825,0.4995423886027034,-0.04379839216279113,0.9589306069066214,-0.2113596109130075,-0.18401333336569775
1750931837.9372258,-1.852035,-1.554697,-1.488325,1.029796,1.153214,-0.377081,0.0,0.0,0.0,0.0,0.0,0.0,5.281220742,4.13461803,0.284882888,-0.041808063,0.0,0.0,0.6774091783435853,-0.5201436030841825,0.4995423886027034,-0.04379839216279113,0.9589306069066214,-0.2113596109130075,-0.18401333336569775
1750931837.9392016,-1.852035,-1.554697,-1.488325,1.029796,1.153214,-0.377081,0.0,0.0,0.0,0.0,0.0,0.0,5.281220742,4.13461803,0.284882888,-0.041808063,0.0,0.0,0.6774091783435853,-0.5201436030841825,0.4995423886027034,-0.04379839216279113,0.9589306069066214,-0.2113596109130075,-0.18401333336569775
1750931837.941086,-1.852035,-1.554697,-1.488325,1.029796,1.153214,-0.377081,0.0,0.0,0.0,0.0,0.0,0.0,5.281220742,4.13461803,0.284882888,-0.041808063,0.0,0.0,0.6774091783435853,-0.5201436030841825,0.4995423886027034,-0.04379839216279113,0.9589306069066214,-0.2113596109130075,-0.18401333336569775
1750931837.9431307,-1.852035,-1.554697,-1.488325,1.029796,1.153214,-0.377081,0.0,0.0,0.0,0.0,0.0,0.0,5.281220742,4.13461803,0.284882888,-0.041808063,0.0,0.0,0.6774091783435853,-0.5201436030841825,0.4995423886027034,-0.04379839216279113,0.9589306069066214,-0.2113596109130075,-0.18401333336569775
1750931837.94501,-1.852035,-1.554697,-1.488325,1.029796,1.153214,-0.377081,0.0,0.0,0.0,0.0,0.0,0.0,5.281220742,4.13461803,0.284882888,-0.041808063,0.0,0.0,0.6774091783435853,-0.5201436030841825,0.4995423886027034,-0.04379839216279113,0.9589306069066214,-0.2113596109130075,-0.18401333336569775
1750931837.9470887,-1.852035,-1.554697,-1.488325,1.029796,1.153214,-0.377081,0.0,0.0,0.0,0.0,0.0,0.0,5.281220742,4.13461803,0.284882888,-0.041808063,0.0,0.0,0.6774091783435853,-0.5201436030841825,0.4995423886027034,-0.04379839216279113,0.9589306069066214,-0.2113596109130075,-0.18401333336569775
1750931837.9490929,-1.852034773,-1.554697772,-1.488324267,1.029796429,1.153212915,-0.377082088,0.00022749,-0.000772217,0.000732847,0.000428882,-0.001085484,-0.001087723,5.369142043,3.983866293,0.299244858,-0.032086682,-0.030579556,-0.503030589,0.6774084447153889,-0.5201442275873143,0.4995421200185253,-0.04379834819060378,0.9589306731872427,-0.2113592561743359,-0.18401340588627724
1750931837.9513566,-1.85203409,-1.554700089,-1.488322069,1.029797716,1.153209658,-0.377085351,0.000454967,-0.001544418,0.001465685,0.000857762,-0.002170971,-0.002175451,5.369132279,3.983866186,0.299244666,-0.032086662,-0.030579639,-0.503031274,0.6774062433914206,-0.5201461000346644,0.4995413151578801,-0.04379821771265463,0.9589308719630942,-0.21135819186680102,-0.184013623550245
1750931837.9531655,-1.85203409,-1.554700089,-1.488322069,1.029797716,1.153209658,-0.377085351,0.000454967,-0.001544418,0.001465685,0.000857762,-0.002170971,-0.002175451,5.369132279,3.983866186,0.299244666,-0.032086662,-0.030579639,-0.503031274,0.6774062433914206,-0.5201461000346644,0.4995413151578801,-0.04379821771265463,0.9589308719630942,-0.21135819186680102,-0.184013623550245
1750931837.9568307,-1.85203136,-1.554709355,-1.488313275,1.029802862,1.153196632,-0.377098404,0.000909834,-0.003088703,0.0029313,0.001715505,-0.004341965,-0.004350941,5.369088245,3.983867754,0.299243688,-0.032086662,-0.030580054,-0.503035661,0.677397438776446,-0.5201535911225372,0.49953809569576557,-0.043797694183937134,0.9589316669529117,-0.21135393602408784,-0.18401449352213076
1750931837.9571912,-1.85203136,-1.554709355,-1.488313275,1.029802862,1.153196632,-0.377098404,0.000909834,-0.003088703,0.0029313,0.001715505,-0.004341965,-0.004350941,5.369088245,3.983867754,0.299243688,-0.032086662,-0.030580054,-0.503035661,0.677397438776446,-0.5201535911225372,0.49953809569576557,-0.043797694183937134,0.9589316669529117,-0.21135393602408784,-0.18401449352213076
1750931837.9593267,-1.852029313,-1.554716305,-1.488306679,1.029806722,1.153186863,-0.377108193,0.001137199,-0.003860754,0.003664059,0.002144365,-0.005427479,-0.005438714,5.369053977,3.98386943,0.299242902,-0.032086682,-0.030580386,-0.503039362,0.6773908357307082,-0.5201592088137468,0.49953568038647633,-0.043797301706128944,0.9589322632284817,-0.21135074394271658,-0.18401514594626314
1750931837.9611435,-1.852026812,-1.554724798,-1.488298618,1.02981144,1.153174922,-0.377120159,0.001364501,-0.004632723,0.004396774,0.002573213,-0.006513007,-0.006526511,5.369011541,3.983871701,0.299241917,-0.032086715,-0.030580802,-0.503044068,0.6773827649420328,-0.5201660760861077,0.4995327284655945,-0.043796821768836286,0.9589329920355227,-0.21134684212016897,-0.18401594364234125
1750931837.9647076,-1.852020445,-1.554746416,-1.488278101,1.029823448,1.153144528,-0.377150616,0.001818869,-0.006176345,0.005862035,0.003430868,-0.008684119,-0.008702201,5.368902171,3.983878026,0.299239353,-0.032086822,-0.030581881,-0.503056495,0.6773622213673854,-0.5201835545634094,0.4995252154267813,-0.04379560056719032,0.9589348469179224,-0.21133691108832345,-0.18401797398380942
1750931837.967885,-1.852020445,-1.554746416,-1.488278101,1.029823448,1.153144528,-0.377150616,0.001818869,-0.006176345,0.005862035,0.003430868,-0.008684119,-0.008702201,5.368902171,3.983878026,0.299239353,-0.032086822,-0.030581881,-0.503056495,0.6773622213673854,-0.5201835545634094,0.4995252154267813,-0.04379560056719032,0.9589348469179224,-0.21133691108832345,-0.18401797398380942
1750931837.968868,-1.85201658,-1.554759541,-1.488265644,1.029830738,1.153126074,-0.377169108,0.002045909,-0.006947966,0.006594565,0.003859669,-0.009769709,-0.009790102,5.36883524,3.98388208,0.299237774,-0.032086896,-0.030582546,-0.503064216,0.6773497483509596,-0.5201941664307684,0.4995206535930367,-0.04379485930891012,0.9589359729844702,-0.21133088170865344,-0.1840192067439786
1750931837.96909,-1.852012261,-1.554774208,-1.488251722,1.029838886,1.153105449,-0.377189776,0.002272837,-0.007719438,0.007327015,0.004288451,-0.010855326,-0.010878049,5.368760146,3.983886729,0.299235996,-0.032086983,-0.030583293,-0.503072942,0.6773358081259986,-0.5202060269481306,0.49951555581059964,-0.043794030471169566,0.9589372316114869,-0.21132414299607036,-0.18402058393387488
1750931837.9711115,-1.852007489,-1.554790418,-1.488236336,1.029847892,1.153082653,-0.37721262,0.00249964,-0.008490744,0.008059377,0.00471721,-0.011940972,-0.011966045,5.36867689,3.983891972,0.29923402,-0.032087083,-0.030584123,-0.503082671,0.6773204005462018,-0.5202191359695435,0.49950992051111204,-0.0437931144544575,0.958938622653111,-0.21131669436899234,-0.18402210680104492
1750931837.9731529,-1.852002263,-1.554808171,-1.488219485,1.029857755,1.153057685,-0.377237641,0.002726306,-0.009261867,0.008791642,0.005145944,-0.01302665,-0.013054096,5.368585474,3.98389781,0.299231846,-0.032087197,-0.030585037,-0.503093406,0.677303524791113,-0.5202334940635662,0.49950374867898567,-0.04379211104031526,0.9589401460620856,-0.2113085364946475,-0.1840237747834477
1750931837.975161,-1.851996584,-1.554827466,-1.48820117,1.029868476,1.153030546,-0.377264837,0.002952822,-0.010032792,0.009523801,0.005574652,-0.014112364,-0.014142207,5.3684859,3.983904241,0.299229473,-0.032087325,-0.030586033,-0.503105143,0.6772851822663423,-0.5202490998062598,0.49949703999023987,-0.04379102080407924,0.9589418018965518,-0.21129966901618072,-0.18402558774796415
1750931837.977115,-1.851990452,-1.554848302,-1.48818139,1.029880054,1.153001236,-0.377294209,0.003179176,-0.010803502,0.010255846,0.00600333,-0.015198116,-0.015230382,5.36837817,3.983911267,0.299226902,-0.032087466,-0.030587112,-0.503117885,0.6772653726818152,-0.5202659539578508,0.4994897952600805,-0.04378984304870181,0.9589435901298886,-0.21129009269485452,-0.18402754501315827
1750931837.9802165,-1.851990452,-1.554848302,-1.48818139,1.029880054,1.153001236,-0.377294209,0.003179176,-0.010803502,0.010255846,0.00600333,-0.015198116,-0.015230382,5.36837817,3.983911267,0.299226902,-0.032087466,-0.030587112,-0.503117885,0.6772653726818152,-0.5202659539578508,0.4994897952600805,-0.04378984304870181,0.9589435901298886,-0.21129009269485452,-0.18402754501315827
1750931837.9811308,-1.851983867,-1.55487068,-1.488160146,1.029892489,1.152969754,-0.377325758,0.003405356,-0.011573979,0.010987767,0.006431977,-0.01628391,-0.016318627,5.368262286,3.983918888,0.299224133,-0.03208762,-0.030588273,-0.50313163,0.67724409504074,-0.5202840568817503,0.4994820137431403,-0.04378857804426288,0.9589455106603582,-0.21127980696583376,-0.18402964757257556
1750931837.983225,-1.85197683,-1.554894598,-1.488137439,1.029905782,1.1529361,-0.377359484,0.003631348,-0.012344209,0.011719556,0.006860591,-0.017369747,-0.017406946,5.368138249,3.983927102,0.299221165,-0.032087788,-0.030589518,-0.503146378,0.6772213499337552,-0.5203034085702527,0.4994736957679822,-0.0437872257558065,0.9589475636127283,-0.21126881139612144,-0.18403189515160848
1750931837.9852593,-1.851969342,-1.554920056,-1.488113268,1.029919931,1.152900275,-0.377395386,0.00385714,-0.013114173,0.012451203,0.007289169,-0.018455632,-0.018495345,5.368006063,3.98393591,0.299217999,-0.03208797,-0.030590845,-0.503162128,0.6771971381047123,-0.5203240085061962,0.4994648407375261,-0.04378578627250548,0.9589497487094766,-0.21125710707904893,-0.1840342877811673
1750931837.987065,-1.851961402,-1.554947054,-1.488087634,1.029934938,1.152862278,-0.377433465,0.00408272,-0.013883855,0.013182701,0.007717709,-0.019541567,-0.019583829,5.367865729,3.983945312,0.299214635,-0.032088165,-0.030592255,-0.50317888,0.6771714585393113,-0.5203458568032955,0.4994554492622094,-0.04378425951903753,0.9589520662079968,-0.21124469295244822,-0.18403682520954714
1750931837.9894404,-1.851953011,-1.554975591,-1.488060537,1.029950802,1.152822108,-0.377473722,0.004308076,-0.014653239,0.01391404,0.008146209,-0.020627554,-0.020672401,5.367717251,3.983955308,0.299211072,-0.032088374,-0.030593748,-0.503196635,0.6771443110898084,-0.5203689542318696,0.49944552123834013,-0.04378264554420684,0.9589545159633984,-0.21123156929642842,-0.18403950770180463
1750931837.9912968,-1.85194417,-1.555005667,-1.488031978,1.029967523,1.152779767,-0.377516155,0.004533194,-0.015422309,0.014645211,0.008574666,-0.021713598,-0.021761068,5.367560631,3.983965898,0.299207311,-0.032088597,-0.030595323,-0.50321539,0.6771156968252883,-0.5203932992776202,0.49943505575267866,-0.04378094462020256,0.9589570978708246,-0.21121773610291125,-0.18404233558311894
1750931837.9951775,-1.851934878,-1.55503728,-1.488001957,1.029985101,1.152735254,-0.377560766,0.004758063,-0.016191047,0.015376206,0.009003078,-0.022799701,-0.022849835,5.367395872,3.983977082,0.299203351,-0.032088834,-0.030596981,-0.503235147,0.6770856147457018,-0.5204188931304875,0.49942405493716696,-0.04377915587969169,0.9589598120797471,-0.2112031937060635,-0.18404530772284508
1750931838.007457,-1.851914948,-1.555105118,-1.487937529,1.030022827,1.152639711,-0.377656521,0.005207002,-0.017727464,0.016837632,0.00985976,-0.024972094,-0.025027685,5.367041949,3.984001229,0.299194836,-0.032089348,-0.030600544,-0.503277661,0.6770210487564193,-0.5204738263540198,0.49940044101036346,-0.043775317041909234,0.958965636799376,-0.21117198025340947,-0.1840516878806099
1750931838.007532,-1.85190431,-1.555141341,-1.487903123,1.030042974,1.15258868,-0.377707665,0.005431047,-0.018495109,0.017568045,0.010288024,-0.02605839,-0.026116779,5.366852792,3.984014193,0.299190281,-0.032089626,-0.030602449,-0.503300417,0.6769865648382997,-0.5205031654218053,0.49938782917935837,-0.043773267352244245,0.9589687471733124,-0.21115530979250993,-0.18405509543771356
1750931838.0075512,-1.85190431,-1.555141341,-1.487903123,1.030042974,1.15258868,-0.377707665,0.005431047,-0.018495109,0.017568045,0.010288024,-0.02605839,-0.026116779,5.366852792,3.984014193,0.299190281,-0.032089626,-0.030602449,-0.503300417,0.6769865648382997,-0.5205031654218053,0.49938782917935837,-0.043773267352244245,0.9589687471733124,-0.21115530979250993,-0.18405509543771356
1750931838.007569,-1.85190431,-1.555141341,-1.487903123,1.030042974,1.15258868,-0.377707665,0.005431047,-0.018495109,0.017568045,0.010288024,-0.02605839,-0.026116779,5.366852792,3.984014193,0.299190281,-0.032089626,-0.030602449,-0.503300417,0.6769865648382997,-0.5205031654218053,0.49938782917935837,-0.043773267352244245,0.9589687471733124,-0.21115530979250993,-0.18405509543771356
1750931838.0075932,-1.851893224,-1.555179098,-1.487867257,1.030063979,1.152535477,-0.377760988,0.005654792,-0.019262356,0.018298246,0.010716235,-0.027144757,-0.027205992,5.366655509,3.98402775,0.299185527,-0.032089917,-0.030604436,-0.503324172,0.6769506132858657,-0.5205337533302099,0.49937468128703294,-0.04377112962754266,0.9589719898559685,-0.21113792928061229,-0.18405864745213185
1750931838.0076115,-1.851893224,-1.555179098,-1.487867257,1.030063979,1.152535477,-0.377760988,0.005654792,-0.019262356,0.018298246,0.010716235,-0.027144757,-0.027205992,5.366655509,3.98402775,0.299185527,-0.032089917,-0.030604436,-0.503324172,0.6769506132858657,-0.5205337533302099,0.49937468128703294,-0.04377112962754266,0.9589719898559685,-0.21113792928061229,-0.18405864745213185
1750931838.0091531,-1.851869711,-1.555259215,-1.487791144,1.030108556,1.152422552,-0.377874169,0.006101335,-0.020795593,0.019757979,0.011572487,-0.029317715,-0.029384795,5.36623658,3.984056642,0.299175424,-0.032090543,-0.030608657,-0.503374676,0.6768743080442403,-0.520598674042814,0.499346774757936,-0.043766593197871996,0.9589788708990735,-0.2111010406457843,-0.18406618681131273
1750931838.011108,-1.851857286,-1.555301572,-1.487750898,1.030132129,1.15236283,-0.377934029,0.006324107,-0.021561549,0.020487492,0.012000523,-0.030404311,-0.030474395,5.366014943,3.984071978,0.299170075,-0.032090877,-0.030610891,-0.503401424,0.6768339541345724,-0.5206330079382576,0.4993320162957239,-0.0437641935151042,0.9589825094045034,-0.21108153194224552,-0.1840701738335929
1750931838.0130603,-1.851844415,-1.555345461,-1.487709194,1.030156558,1.152300935,-0.377996067,0.006546529,-0.022327041,0.021216759,0.012428496,-0.03149099,-0.031564133,5.365785194,3.984087907,0.299164526,-0.032091225,-0.030613207,-0.503429167,0.6767921330495883,-0.5206685892264032,0.49931672139469807,-0.04376170714762805,0.9589862797487062,-0.2110613137883681,-0.18407430582020248
1750931838.0151012,-1.8518311,-1.55539088,-1.487666032,1.030181843,1.152236866,-0.378060285,0.00676859,-0.023092052,0.021945769,0.012856404,-0.032577753,-0.032654016,5.36554734,3.984104428,0.299158779,-0.032091587,-0.030615604,-0.503457907,0.6767488446012666,-0.5207054193363058,0.4993008897270342,-0.043759133628204855,0.958990181935692,-0.21104038593567467,-0.1840785828910548
1750931838.0171847,-1.851817341,-1.555437828,-1.487621411,1.030207984,1.152170624,-0.378126683,0.006990276,-0.023856567,0.022674515,0.013284245,-0.033664605,-0.033744047,5.365301384,3.984121541,0.299152834,-0.032091963,-0.030618084,-0.503487641,0.6767040889026481,-0.52074349804031,0.4992845220561994,-0.04375647222594392,0.958994216062014,-0.211018748899524,-0.1840830038619078
1750931838.0190563,-1.851803139,-1.555486306,-1.487575334,1.03023498,1.152102208,-0.378195262,0.007211575,-0.024620569,0.023402988,0.013712017,-0.034751548,-0.034834232,5.365047332,3.984139247,0.299146689,-0.032092353,-0.030620645,-0.50351837,0.6766578648586868,-0.5207828256127112,0.499267616682583,-0.04375372365533183,0.9589983817417947,-0.21099640198567327,-0.18408757109596507
1750931838.0210388,-1.851788495,-1.55553631,-1.4875278,1.030262832,1.152031617,-0.37826602,0.007432474,-0.02538404,0.024131179,0.014139716,-0.035838584,-0.035924575,5.364785186,3.984157544,0.299140346,-0.032092758,-0.030623288,-0.503550091,0.6766101746829456,-0.5208234007673403,0.49925017544407735,-0.043750888799044076,0.9590026792098254,-0.21097334565914597,-0.18409228234517855
1750931838.0232189,-1.851773409,-1.555587841,-1.487478809,1.030291539,1.151958853,-0.37833896,0.007652962,-0.026146966,0.024859078,0.014567342,-0.036925717,-0.037015081,5.364514954,3.984176434,0.299133804,-0.032093177,-0.030626012,-0.503582806,0.67656101626036,-0.5208652251219652,0.49923219776228733,-0.04374796544676862,0.959007108374726,-0.2109495801090847,-0.1840971381032737
1750931838.0258987,-1.851757883,-1.555640898,-1.487428363,1.030321101,1.151883915,-0.378414081,0.007873025,-0.026909328,0.025586678,0.014994891,-0.03801295,-0.038105756,5.364236639,3.984195915,0.299127063,-0.032093611,-0.030628818,-0.503616512,0.6765103904483045,-0.5209082978243939,0.4992136824610456,-0.043744954967905786,0.9590116690320287,-0.21092510477560858,-0.18410213945160214
1750931838.0271432,-1.851741918,-1.555695478,-1.487376463,1.030351518,1.151806801,-0.378491383,0.008092652,-0.02767111,0.026313969,0.015422361,-0.039100285,-0.039196604,5.363950246,3.984215988,0.299120123,-0.032094059,-0.030631705,-0.503651208,0.6764582978925198,-0.520952618812972,0.4991946305879231,-0.043741858204205904,0.9590163611629812,-0.21089991970537356,-0.184107285925421
1750931838.0326753,-1.851725513,-1.555751582,-1.487323108,1.030382791,1.151727513,-0.378570867,0.008311829,-0.028432297,0.027040943,0.015849751,-0.040187725,-0.04028763,5.363655782,3.984236653,0.299112984,-0.032094522,-0.030634674,-0.503686895,0.6764047373631319,-0.5209981880471533,0.49917504236876453,-0.04373867355915183,0.9590211849913255,-0.21087402477539272,-0.18411257656158875
1750931838.036054,-1.851725513,-1.555751582,-1.487323108,1.030382791,1.151727513,-0.378570867,0.008311829,-0.028432297,0.027040943,0.015849751,-0.040187725,-0.04028763,5.363655782,3.984236653,0.299112984,-0.032094522,-0.030634674,-0.503686895,0.6764047373631319,-0.5209981880471533,0.49917504236876453,-0.04373867355915183,0.9590211849913255,-0.21087402477539272,-0.18411257656158875
1750931838.037625,-1.851673676,-1.555929018,-1.487154324,1.030481734,1.151476599,-0.378822415,0.008966538,-0.030712115,0.029219871,0.017131411,-0.043450708,-0.043561826,5.362724012,3.984302192,0.299090373,-0.032095998,-0.030644066,-0.503799886,0.6762352515181067,-0.5211423880608202,0.49911305764927494,-0.043728595135219976,0.9590364443610562,-0.21079208384980141,-0.18412931798347887
1750931838.039323,-1.851655525,-1.555991201,-1.487095158,1.030516424,1.151388609,-0.37891063,0.009183793,-0.031470752,0.029945486,0.017558454,-0.044538599,-0.044653614,5.362397316,3.98432522,0.299082438,-0.03209652,-0.030647359,-0.503839523,0.6761758215779475,-0.5211929512100923,0.49909132329781125,-0.04372506164377819,0.9590417934629586,-0.21076335095847437,-0.18413518748016278
1750931838.0415628,-1.851636941,-1.556054901,-1.487034542,1.030551968,1.151298444,-0.379001029,0.009400535,-0.03222871,0.03067074,0.017985405,-0.045626609,-0.045745604,5.362062576,3.984348839,0.299074304,-0.032097057,-0.030650732,-0.503880146,0.6761149242105908,-0.5212447630296595,0.49906905111356004,-0.043721440615858524,0.9590472736634161,-0.2107339080230243,-0.18414120266411416
1750931838.0432343,-1.851617924,-1.556120115,-1.486972476,1.030588366,1.151206103,-0.379093613,0.009616754,-0.032985973,0.031395624,0.018412261,-0.046714743,-0.046837801,5.3617198,3.984373048,0.29906597,-0.032097608,-0.030654186,-0.503921753,0.6760525592968714,-0.5212978239733957,0.4990462430680547,-0.04371773167322076,0.9590528850761729,-0.21070375549243617,-0.18414736214727828
1750931838.0451643,-1.851598474,-1.556186844,-1.48690896,1.030625617,1.151111585,-0.379188381,0.009832435,-0.033742524,0.032120128,0.01883902,-0.047803001,-0.047930211,5.361368993,3.984397847,0.299057438,-0.032098175,-0.03065772,-0.503964342,0.6759887267203006,-0.521352132827257,0.4990228985875091,-0.04371393596612245,0.9590586274507018,-0.21067289365688846,-0.18415366624902968
1750931838.047162,-1.851578594,-1.556255085,-1.486843995,1.030663722,1.151014891,-0.379285334,0.010047567,-0.034498347,0.032844244,0.01926568,-0.048891388,-0.049022837,5.361010162,3.984423236,0.299048705,-0.032098757,-0.030661335,-0.504007914,0.6759234271474248,-0.5214076902323819,0.49899901702277033,-0.04371005264476601,0.9590645008907491,-0.21064132191373788,-0.18416011493101056
1750931838.0490088,-1.851558284,-1.556324837,-1.486777583,1.03070268,1.150916019,-0.379384472,0.010262137,-0.035253425,0.033567964,0.019692239,-0.049979906,-0.050115686,5.360643313,3.984449214,0.299039774,-0.032099355,-0.03066503,-0.504052467,0.675856660202802,-0.5214644957371557,0.4989745989038842,-0.043706082860184556,0.9590705051446011,-0.21060904037065845,-0.18416670870938845
1750931838.0511804,-1.851537546,-1.556396098,-1.486709724,1.030742491,1.150814971,-0.379485797,0.010476133,-0.036007742,0.034291277,0.020118693,-0.051068558,-0.051208762,5.360268454,3.984475782,0.299030643,-0.032099968,-0.030668804,-0.504097999,0.6757884255519717,-0.5215225505570013,0.4989496439111926,-0.04370202471351022,0.9590766402713162,-0.21057604907141164,-0.18417344726995397
1750931838.052956,-1.85151638,-1.556468867,-1.486640418,1.030783155,1.150711745,-0.379589307,0.010689542,-0.03676128,0.035014177,0.020545042,-0.052157347,-0.052302069,5.359885591,3.984502939,0.299021312,-0.032100596,-0.030672659,-0.50414451,0.6757187240954189,-0.521581852855692,0.4989241527162237,-0.043697880010674636,0.9590829062010366,-0.21054234825875145,-0.18418032985429456
1750931838.055133,-1.851494788,-1.556543143,-1.486569667,1.030824671,1.150606341,-0.379695005,0.010902352,-0.037514025,0.035736653,0.020971282,-0.053246276,-0.053395613,5.359494731,3.984530685,0.299011783,-0.032101239,-0.030676594,-0.504191998,0.6756475544587265,-0.5216424044070974,0.49889812420863044,-0.04369364777001435,0.959089302696468,-0.2105079375549777,-0.18418735793778668
1750931838.0575924,-1.851472771,-1.556618923,-1.486497472,1.03086704,1.15049876,-0.37980289,0.01111455,-0.038265958,0.036458697,0.021397411,-0.054335347,-0.054489398,5.359095883,3.98455902,0.299002053,-0.032101899,-0.030680608,-0.504240463,0.6755749177174318,-0.5217042042029362,0.49887155938362404,-0.04368932783894794,0.9590958299076171,-0.21047281694208259,-0.18419453036196465
1750931838.0594528,-1.85145033,-1.556696206,-1.486423833,1.03091026,1.150389,-0.379912963,0.011326124,-0.039017064,0.037180299,0.021823428,-0.055424564,-0.055583429,5.358689052,3.984587943,0.298992124,-0.032102574,-0.030684702,-0.504289902,0.6755008134234545,-0.5217672527085365,0.4988444582111608,-0.04368492080020153,0.9591024875145191,-0.21043698708485348,-0.1842018474521656
1750931838.0698144,-1.851427467,-1.556774991,-1.486348751,1.030954333,1.150277061,-0.380025224,0.01153706,-0.039767326,0.037901453,0.022249329,-0.056513928,-0.056677712,5.358274247,3.984617454,0.298981995,-0.032103265,-0.030688876,-0.504340315,0.6754252419337178,-0.5218315493871244,0.4988168195054521,-0.043680426856529925,0.9591092756600433,-0.21040044674212938,-0.18420930938258995
1750931838.0727825,-1.851404183,-1.556855275,-1.486272227,1.030999258,1.150162944,-0.380139674,0.011747348,-0.040516728,0.038622147,0.022675112,-0.057603444,-0.05777225,5.357851475,3.984647554,0.298971666,-0.032103972,-0.030693128,-0.5043917,0.6753482032009794,-0.5218970947383762,0.4987886443810666,-0.04367584497977604,0.9591161942687112,-0.21036319660819738,-0.18421691553597155
1750931838.0739179,-1.851331815,-1.557105108,-1.486034015,1.031139139,1.149807516,-0.380496162,0.012374189,-0.042759605,0.040781391,0.023951732,-0.060872924,-0.061057447,5.35653544,3.984741378,0.29893948,-0.032106189,-0.030706359,-0.504551676,0.6751082816877759,-0.5221012214022259,0.4987009001446108,-0.043661575804921644,0.959137731214871,-0.21024718766623676,-0.1842406020307661
1750931838.0808887,-1.851306859,-1.557191373,-1.485951733,1.031187468,1.14968468,-0.380619372,0.012581754,-0.0435054,0.041500163,0.024377021,-0.061963072,-0.062153056,5.356080882,3.984773827,0.298928352,-0.032106961,-0.030710927,-0.504606936,0.675025373453638,-0.522171760288624,0.4986705787392579,-0.04365664494661176,0.9591451704183545,-0.21020709826634698,-0.18424878630154815
1750931838.081236,-1.851306859,-1.557191373,-1.485951733,1.031187468,1.14968468,-0.380619372,0.012581754,-0.0435054,0.041500163,0.024377021,-0.061963072,-0.062153056,5.356080882,3.984773827,0.298928352,-0.032106961,-0.030710927,-0.504606936,0.675025373453638,-0.522171760288624,0.4986705787392579,-0.04365664494661176,0.9591451704183545,-0.21020709826634698,-0.18424878630154815
1750931838.0873759,-1.85122951,-1.557459105,-1.48569627,1.031337555,1.149303088,-0.381002155,0.013200128,-0.045737061,0.043653428,0.025652103,-0.065234515,-0.065441582,5.354669689,3.984874694,0.298893765,-0.032109375,-0.030725101,-0.504778504,0.6747678429505506,-0.5223908690161949,0.4985763942399447,-0.043641327642014484,0.9591682670426994,-0.21008257068089714,-0.18427420740856035
1750931838.0874178,-1.85122951,-1.557459105,-1.48569627,1.031337555,1.149303088,-0.381002155,0.013200128,-0.045737061,0.043653428,0.025652103,-0.065234515,-0.065441582,5.354669689,3.984874694,0.298893765,-0.032109375,-0.030725101,-0.504778504,0.6747678429505506,-0.5223908690161949,0.4985763942399447,-0.043641327642014484,0.9591682670426994,-0.21008257068089714,-0.18427420740856035
1750931838.0894434,-1.851148471,-1.5577402,-1.485427901,1.03149529,1.148901862,-0.381404676,0.013811757,-0.04795979,0.045801931,0.026925957,-0.068507517,-0.068732754,5.353187401,3.984980835,0.298857375,-0.03211194,-0.030739975,-0.504958719,0.6744971065563391,-0.522621213352713,0.49847737986806745,-0.0436252247217885,0.959192530769721,-0.20995165288475381,-0.18430092819763855
1750931838.0941355,-1.851120645,-1.557836858,-1.485335582,1.031549567,1.148763756,-0.38154324,0.014014076,-0.048698638,0.046516999,0.027350292,-0.069598877,-0.069830421,5.352677549,3.985017385,0.298844844,-0.03211283,-0.030745088,-0.505020704,0.6744039258205409,-0.5227004924733037,0.4984433021160136,-0.04361968143205254,0.95920087769684,-0.20990659329471587,-0.18431012372841787
1750931838.0987387,-1.851120645,-1.557836858,-1.485335582,1.031549567,1.148763756,-0.38154324,0.014014076,-0.048698638,0.046516999,0.027350292,-0.069598877,-0.069830421,5.352677549,3.985017385,0.298844844,-0.03211283,-0.030745088,-0.505020704,0.6744039258205409,-0.5227004924733037,0.4984433021160136,-0.04361968143205254,0.95920087769684,-0.20990659329471587,-0.18431012372841787
1750931838.0998676,-1.851005319,-1.558238238,-1.484952022,1.031775154,1.148189498,-0.382119455,0.014815234,-0.051643281,0.049371539,0.029046147,-0.073966187,-0.07422427,5.350559617,3.985169435,0.298792713,-0.032116561,-0.030766311,-0.505278174,0.6740165299495993,-0.5230300911945106,0.498301622481942,-0.04359663741231217,0.9592355563658617,-0.2097192549874716,-0.18434835149063622
1750931838.1017234,-1.85097549,-1.558342258,-1.484852567,1.03183367,1.148040473,-0.382269003,0.015013431,-0.052376672,0.050083696,0.029469728,-0.075058495,-0.07532355,5.350010552,3.985208907,0.298779178,-0.032117538,-0.030771808,-0.505344914,0.6739160122919803,-0.5231156122698827,0.49826486124817776,-0.04359065791316293,0.9592445484648116,-0.2096706449633064,-0.1843582692040379
1750931838.1047275,-1.850945266,-1.558447744,-1.484751688,1.031893033,1.147889264,-0.382420749,0.015210766,-0.053108923,0.050795245,0.029893152,-0.076151002,-0.076423166,5.349453675,3.985248962,0.298765442,-0.032118533,-0.030777381,-0.5054126,0.6738140277948406,-0.5232023812635518,0.49822756271102864,-0.04358459112431954,0.959253669277662,-0.2096213247937543,-0.18436833129791919
1750931838.1059887,-1.850914648,-1.558554693,-1.484649386,1.031953242,1.147735869,-0.382574696,0.015407227,-0.053840017,0.051506177,0.030316415,-0.077243709,-0.077523124,5.348888996,3.985289601,0.298751505,-0.032119546,-0.03078303,-0.50548123,0.673710575209428,-0.5232903998002953,0.498189727994497,-0.043578436504062366,0.9592629186964783,-0.2095712947292106,-0.18437853755602224
1750931838.1070282,-1.850883637,-1.558663103,-1.484545663,1.032014298,1.147580289,-0.382730842,0.0156028,-0.054569937,0.052216483,0.030739516,-0.078336619,-0.078623428,5.348316526,3.985330823,0.298737366,-0.032120577,-0.030788755,-0.505550802,0.6736056555861311,-0.5233796657838415,0.4981513573546701,-0.043572194651509466,0.9592722967431279,-0.20952055446755447,-0.1843888874363747
1750931838.1117427,-1.850852237,-1.558772972,-1.484440521,1.0320762,1.147422522,-0.38288919,0.015797474,-0.055298666,0.052926153,0.031162452,-0.079429735,-0.079724082,5.347736275,3.985372627,0.298723027,-0.032121627,-0.030794555,-0.505621314,0.6734992681791013,-0.5234701810234923,0.4981124487048981,-0.0435658656837305,0.9592818030764981,-0.20946910326430954,-0.18439938289261143
1750931838.111799,-1.850820448,-1.558884297,-1.484333959,1.032138948,1.14726257,-0.383049739,0.015991236,-0.05602619,0.05363518,0.03158522,-0.08052306,-0.080825091,5.347148255,3.985415013,0.298708485,-0.032122695,-0.030800431,-0.505692764,0.6733914137623828,-0.5235619442866482,0.49807300413200073,-0.043559448624236205,0.9592914378594737,-0.20941694226194227,-0.1844100213619487
1750931838.1141777,-1.850755712,-1.559111306,-1.484116585,1.032266979,1.146936103,-0.383377445,0.016375973,-0.057477551,0.055051267,0.032430246,-0.082710345,-0.083028194,5.345948949,3.985501531,0.298678798,-0.032124887,-0.030812407,-0.505838471,0.6731713024960143,-0.5237492163796998,0.49799250501050313,-0.04354635322819003,0.9593110916640412,-0.20931048928417614,-0.18443173156073253
1750931838.1149912,-1.850755712,-1.559111306,-1.484116585,1.032266979,1.146936103,-0.383377445,0.016375973,-0.057477551,0.055051267,0.032430246,-0.082710345,-0.083028194,5.345948949,3.985501531,0.298678798,-0.032124887,-0.030812407,-0.505838471,0.6731713024960143,-0.5237492163796998,0.49799250501050313,-0.04354635322819003,0.9593110916640412,-0.20931048928417614,-0.18443173156073253
1750931838.1170187,-1.850722769,-1.559226985,-1.484005776,1.032332262,1.146769589,-0.383544603,0.016566923,-0.058201355,0.055758309,0.032852498,-0.083804312,-0.084130297,5.345337687,3.985545662,0.298663651,-0.032126011,-0.030818508,-0.505912723,0.6730590459503115,-0.5238447248528195,0.4979514502073331,-0.0435396742563547,0.9593211105445796,-0.2092561970507751,-0.18444280312609687
1750931838.1191835,-1.850689445,-1.55934411,-1.483893553,1.032398389,1.146600886,-0.383713966,0.016756911,-0.058923888,0.056464672,0.033274573,-0.084898497,-0.085232774,5.3447187,3.985590374,0.298648303,-0.032127155,-0.030824682,-0.505987906,0.6729453219008188,-0.5239414821763216,0.4979098590894474,-0.043532907923042576,0.9593312572387563,-0.20920119465779083,-0.18445401856892144
1750931838.1225579,-1.850655742,-1.55946268,-1.483779917,1.03246536,1.146429994,-0.383885535,0.016945924,-0.059645132,0.057170348,0.033696468,-0.085992904,-0.086335629,5.344092,3.985635667,0.298632753,-0.032128317,-0.030830931,-0.506064017,0.6728301298934314,-0.5240394883475861,0.49786773060469,-0.04352605404299364,0.9593415316282371,-0.20914548168641994,-0.1844653783309754
1750931838.1230657,-1.850621662,-1.55958269,-1.483664872,1.032533175,1.146256914,-0.384059309,0.01713395,-0.06036507,0.057875326,0.034118182,-0.087087536,-0.087438867,5.343457599,3.98568154,0.298617001,-0.032129499,-0.030837254,-0.506141054,0.672713471187178,-0.5241387422782331,0.4978250660056559,-0.043519112779378165,0.9593519336187135,-0.20908905819494558,-0.1844768820965977
1750931838.1250808,-1.850587207,-1.559704139,-1.483548417,1.032601833,1.146081644,-0.38423529,0.017320977,-0.061083687,0.058579599,0.034539711,-0.088182395,-0.088542492,5.342815509,3.985727993,0.298601047,-0.032130701,-0.03084365,-0.506219015,0.6725953449817977,-0.5242392448010269,0.49778186449987827,-0.043512084205200634,0.9593624630284023,-0.20903192433502124,-0.1844885299117397
1750931838.1272748,-1.850552379,-1.559827024,-1.483430554,1.032671334,1.145904184,-0.384413479,0.017506991,-0.061800966,0.059283157,0.034961053,-0.089277484,-0.08964651,5.342165742,3.985775025,0.29858489,-0.032131922,-0.03085012,-0.506297897,0.6724757511894826,-0.5243409960352896,0.49773812623908203,-0.04350496800462313,0.9593731197836278,-0.2089740798898753,-0.18450032176049347
1750931838.1292813,-1.85051718,-1.559951342,-1.483311284,1.032741677,1.145724534,-0.384593877,0.01769198,-0.06251689,0.059985992,0.035382206,-0.090372804,-0.090750924,5.341508311,3.985822637,0.298568531,-0.032133163,-0.030856663,-0.506377699,0.672354689797395,-0.5244439962299771,0.4976938515342001,-0.04349776377163704,0.9593839037232463,-0.20891552528959995,-0.18451225736135324
1750931838.1314938,-1.850481612,-1.560077091,-1.48319061,1.032812862,1.145542693,-0.384776483,0.017875931,-0.063231444,0.060688095,0.035803168,-0.09146836,-0.09185574,5.340843227,3.985870828,0.298551969,-0.032134424,-0.030863279,-0.506458418,0.6722321613858763,-0.5245482439884165,0.49764903978754566,-0.04349047289297218,0.9593948146145646,-0.20885626001092772,-0.18452433745302757
1750931838.133316,-1.850445677,-1.560204267,-1.483068533,1.032884889,1.14535866,-0.3849613,0.018058833,-0.06394461,0.061389457,0.036223935,-0.092564153,-0.092960961,5.340170504,3.985919598,0.298535205,-0.032135706,-0.030869967,-0.506540053,0.6721081651553757,-0.5246537408852492,0.4976036919034137,-0.043483094311147746,0.959405852496619,-0.20879628396282754,-0.18453656143885935
1750931838.1355255,-1.850409377,-1.560332868,-1.482945053,1.032957758,1.145172436,-0.385148327,0.018240673,-0.064656372,0.062090069,0.036644505,-0.093660186,-0.094066592,5.339490154,3.985968946,0.298518238,-0.032137008,-0.030876728,-0.506622599,0.6719827020029021,-0.5247604856350258,0.497557807584924,-0.04347562805989604,0.959417017318009,-0.20873559740885794,-0.1845489285251478
1750931838.1384883,-1.850372715,-1.560462891,-1.482820173,1.033031467,1.14498402,-0.385337566,0.018421437,-0.065366714,0.062789923,0.037064877,-0.094756462,-0.095172639,5.338802189,3.986018873,0.298501069,-0.03213833,-0.030883562,-0.506706057,0.6718557713994179,-0.5248684792361484,0.49751138618475355,-0.043468074169620126,0.9594283086433033,-0.2086742004426849,-0.18456144009906544
1750931838.1393452,-1.850372715,-1.560462891,-1.482820173,1.033031467,1.14498402,-0.385337566,0.018421437,-0.065366714,0.062789923,0.037064877,-0.094756462,-0.095172639,5.338802189,3.986018873,0.298501069,-0.03213833,-0.030883562,-0.506706057,0.6718557713994179,-0.5248684792361484,0.49751138618475355,-0.043468074169620126,0.9594283086433033,-0.2086742004426849,-0.18456144009906544
1750931838.14128,-1.850298311,-1.560727193,-1.482566217,1.033181407,1.144600607,-0.385722683,0.01877969,-0.066783072,0.064187318,0.037905012,-0.096949751,-0.097385994,5.337403471,3.986120458,0.29846612,-0.032141037,-0.030897443,-0.506875693,0.6715975072024828,-0.5250882120383733,0.4974169333826358,-0.04345270448710314,0.9594512708180198,-0.20854927396604775,-0.18458689478583687
1750931838.1433675,-1.850298311,-1.560727193,-1.482566217,1.033181407,1.144600607,-0.385722683,0.01877969,-0.066783072,0.064187318,0.037905012,-0.096949751,-0.097385994,5.337403471,3.986120458,0.29846612,-0.032141037,-0.030897443,-0.506875693,0.6715975072024828,-0.5250882120383733,0.4974169333826358,-0.04345270448710314,0.9594512708180198,-0.20854927396604775,-0.18458689478583687
1750931838.1451037,-1.850260574,-1.560861465,-1.482437145,1.033257637,1.144405611,-0.385918562,0.018957154,-0.067489055,0.064884843,0.038324771,-0.09804677,-0.098493311,5.336692744,3.986172116,0.298448341,-0.032142421,-0.030904491,-0.506961866,0.6714661743450531,-0.5251999509428056,0.49736890218359353,-0.0434448881087139,0.9594629413785417,-0.20848574466385436,-0.18459983773128455
1750931838.1474383,-1.850222483,-1.560997148,-1.482306678,1.033334706,1.14420842,-0.386116657,0.019133493,-0.068193552,0.065581574,0.03874432,-0.099144041,-0.099601062,5.335974455,3.986224352,0.298430358,-0.032143828,-0.03091161,-0.507048941,0.6713333734758494,-0.5253129389415933,0.4973203342368664,-0.04343698405442981,0.9594747380257694,-0.20842150467488565,-0.18461292450880254
1750931838.149132,-1.850184041,-1.561134239,-1.482174819,1.033412614,1.144009035,-0.386316967,0.019308694,-0.068896547,0.066277502,0.039163659,-0.100241567,-0.10070925,5.33524862,3.986277163,0.298412172,-0.032145255,-0.030918799,-0.507136914,0.6711991056518446,-0.5254271747640451,0.49727122878120766,-0.043428992753747106,0.9594866605662037,-0.20835655366514375,-0.18462615559203305
1750931838.1512065,-1.850145249,-1.561272733,-1.482041569,1.033491361,1.143807454,-0.386519494,0.019482745,-0.069598023,0.066972618,0.039582783,-0.101339352,-0.101817879,5.33451525,3.986330551,0.298393782,-0.032146704,-0.030926059,-0.507225783,0.6710633704860265,-0.5255426591989139,0.49722158819667694,-0.04342091384873301,0.9594987090833449,-0.20829089195259473,-0.18463952945544482
1750931838.153116,-1.850106111,-1.56141263,-1.481906929,1.033570945,1.143603677,-0.386724239,0.019655633,-0.070297965,0.067666914,0.04000169,-0.102437396,-0.102926955,5.333774362,3.986384515,0.298375189,-0.032148175,-0.030933389,-0.507315544,0.6709261676701663,-0.5256593923896332,0.4971714092686333,-0.043412747634044575,0.959510883045761,-0.20822451941714376,-0.1846530481013142
1750931838.1579137,-1.850066628,-1.561553924,-1.481770902,1.033651367,1.143397704,-0.386931202,0.019827346,-0.070996355,0.06836038,0.040420378,-0.103535703,-0.104036481,5.333025968,3.986439053,0.298356391,-0.032149668,-0.030940789,-0.507406196,0.6707874979082641,-0.5257773736740871,0.4971206947707937,-0.043404493842772104,0.959523182622626,-0.2081574361012429,-0.18466670983086322
1750931838.1579607,-1.850026802,-1.561696614,-1.481633488,1.033732627,1.143189534,-0.387140385,0.01999787,-0.071693177,0.069053009,0.040838844,-0.104634275,-0.105146462,5.332270083,3.986494167,0.29833739,-0.032151183,-0.030948259,-0.507497736,0.6706473601815585,-0.5258966035581294,0.4970694437625169,-0.04339615216329009,0.9595356077324338,-0.2080896416141852,-0.1846805147378831
1750931838.1601827,-1.849986637,-1.561840696,-1.48149469,1.033814723,1.142979167,-0.387351788,0.020167195,-0.072388415,0.06974479,0.041257086,-0.105733115,-0.106256903,5.331506722,3.986549856,0.298318184,-0.03215272,-0.030955797,-0.507590162,0.6705057554675469,-0.5260170817989118,0.49701765543462995,-0.04338772310813534,0.9595481579130751,-0.20802113633143543,-0.18469446382740953
1750931838.1617475,-1.849986637,-1.561840696,-1.48149469,1.033814723,1.142979167,-0.387351788,0.020167195,-0.072388415,0.06974479,0.041257086,-0.105733115,-0.106256903,5.331506722,3.986549856,0.298318184,-0.03215272,-0.030955797,-0.507590162,0.6705057554675469,-0.5260170817989118,0.49701765543462995,-0.04338772310813534,0.9595481579130751,-0.20802113633143543,-0.18469446382740953
1750931838.1631336,-1.849905297,-1.562133023,-1.481212948,1.033981423,1.142551838,-0.38778126,0.020502192,-0.073774072,0.071125776,0.042092888,-0.107931608,-0.10847918,5.329957628,3.986662956,0.29827916,-0.032155862,-0.030971081,-0.507777657,0.6702181432837812,-0.5262617844580206,0.49691246914092113,-0.04337060206111864,0.959573633297821,-0.20788199281020264,-0.18472279291341934
1750931838.1650512,-1.849864126,-1.562281262,-1.481070007,1.034066026,1.142334875,-0.38799933,0.020667839,-0.074464459,0.071814963,0.042510441,-0.109031265,-0.109591025,5.329171925,3.986720367,0.29825934,-0.032157468,-0.030978826,-0.507872722,0.670072135939618,-0.5263860081639592,0.49685907166075566,-0.04336191031706577,0.9595865582051534,-0.20781135481099186,-0.18473717237541126
1750931838.1670485,-1.849822626,-1.56243088,-1.480925689,1.034151464,1.142115712,-0.388219624,0.020832236,-0.075153197,0.072503268,0.042927761,-0.1101312,-0.110703347,5.328378805,3.986778352,0.298239316,-0.032159097,-0.030986639,-0.507968661,0.6699246615615844,-0.526511480343201,0.4968051366857366,-0.0433531314344485,0.95959960765209,-0.2077400053683213,-0.18475169595528024
1750931838.1691291,-1.849780798,-1.562581873,-1.480779995,1.034237737,1.14189435,-0.388442144,0.020995369,-0.075840268,0.073190682,0.043344843,-0.111231414,-0.11181615,5.327578282,3.986836909,0.298219087,-0.032160748,-0.030994519,-0.508065471,0.6697757194300458,-0.5266382015728615,0.4967506659512355,-0.043344263750227194,0.9596127817358423,-0.20766794488500284,-0.18476636218854584
1750931838.1713529,-1.849738645,-1.56273424,-1.480632927,1.034324844,1.141670787,-0.388666889,0.021157227,-0.076525657,0.073877195,0.043761686,-0.112331911,-0.112929438,5.326770373,3.98689604,0.298198653,-0.032162424,-0.031002467,-0.50816315,0.6696253100844735,-0.5267661703890616,0.49669565756143225,-0.04333530930791717,0.9596260800130891,-0.20759517299978286,-0.18478117239883918
1750931838.1770253,-1.84969617,-1.562887975,-1.480484487,1.034412784,1.141445022,-0.388893862,0.021317797,-0.077209347,0.0745628,0.044178286,-0.113432692,-0.114043217,5.325955093,3.986955742,0.298178014,-0.032164123,-0.031010481,-0.508261695,0.669473433211764,-0.5268953885121459,0.49664011287437837,-0.043326267096779995,0.9596395023792998,-0.2075216900835288,-0.18479612603500115
1750931838.1773448,-1.849610263,-1.563199539,-1.480183497,1.034591162,1.140986887,-0.389354492,0.02163502,-0.078571565,0.075931247,0.04501075,-0.115635117,-0.116272261,5.324302482,3.987076863,0.298136119,-0.032167594,-0.03102671,-0.508461369,0.6691652778005719,-0.527157569458757,0.4965274134178574,-0.043307919742319984,0.9596667187891088,-0.2073725910636039,-0.18482646296379096
1750931838.179301,-1.849566836,-1.563357361,-1.480030952,1.034681599,1.140754515,-0.389588152,0.021791649,-0.079250061,0.076614071,0.045426608,-0.116736766,-0.117387534,5.323465183,3.987138281,0.298114863,-0.032169365,-0.031034924,-0.508562492,0.6690089985322557,-0.527290532875009,0.49647025877599316,-0.04329861463270571,0.9596805124580439,-0.20729697452750465,-0.18484184680666246
1750931838.1846318,-1.849523097,-1.563516538,-1.479877042,1.034772868,1.140519939,-0.389824042,0.021946939,-0.079926792,0.077295952,0.045842213,-0.117838708,-0.118503315,5.322620577,3.98720027,0.298093401,-0.032171162,-0.031043203,-0.508664469,0.6688512524939967,-0.527424744043167,0.4964125676826573,-0.043289222478586936,0.9596944296483424,-0.20722064660924697,-0.18485737350181017
1750931838.184696,-1.849523097,-1.563516538,-1.479877042,1.034772868,1.140519939,-0.389824042,0.021946939,-0.079926792,0.077295952,0.045842213,-0.117838708,-0.118503315,5.322620577,3.98720027,0.298093401,-0.032171162,-0.031043203,-0.508664469,0.6688512524939967,-0.527424744043167,0.4964125676826573,-0.043289222478586936,0.9596944296483424,-0.20722064660924697,-0.18485737350181017
1750931838.1858823,-1.849479049,-1.563677067,-1.479721769,1.034864968,1.14028316,-0.390062165,0.022100878,-0.080601743,0.077976879,0.046257563,-0.118940947,-0.119619607,5.32176868,3.98726283,0.298071733,-0.032172983,-0.031051547,-0.508767297,0.6686920385682945,-0.5275602043125585,0.49635433954801655,-0.043279741703833564,0.9597084701577133,-0.2071436072618049,-0.18487304356275966
1750931838.1872423,-1.849434694,-1.563838944,-1.479565135,1.034957898,1.140044176,-0.390302521,0.022253453,-0.081274897,0.078656843,0.046672656,-0.120043485,-0.120736415,5.320909508,3.98732596,0.298049858,-0.032174829,-0.031059957,-0.508870972,0.6685313571714554,-0.527696912997702,0.49629557525262,-0.04327017334967828,0.959722633745765,-0.20706585684345102,-0.1848888566249154
1750931838.1891692,-1.849390036,-1.564002165,-1.479407142,1.035051659,1.139802986,-0.390545111,0.022404652,-0.081946238,0.079335837,0.047087487,-0.121146323,-0.121853742,5.320043078,3.98738966,0.298027777,-0.0321767,-0.031068431,-0.508975491,0.6683692088238421,-0.5278348701171417,0.49623627392262115,-0.04326051767826079,0.9597369203880394,-0.20698739441800512,-0.18490481282631963
1750931838.1910968,-1.849345077,-1.564166728,-1.479247792,1.035146248,1.13955959,-0.390789937,0.022554462,-0.082615749,0.080013851,0.047502055,-0.122249464,-0.122971592,5.319169407,3.98745393,0.29800549,-0.032178597,-0.031076969,-0.509080852,0.6682055923060476,-0.5279740762844491,0.4961764352562348,-0.0432507741551845,0.9597513295722144,-0.20690822082965526,-0.18492091302081168
1750931838.1931798,-1.849299819,-1.564332627,-1.479087087,1.035241667,1.139313988,-0.391036998,0.02270287,-0.083283414,0.080690877,0.047916358,-0.123352911,-0.124089971,5.318288511,3.98751877,0.297982995,-0.03218052,-0.031085571,-0.50918705,0.6680405091269105,-0.5281145300295355,0.4961160612616421,-0.04324094295858179,0.9597658615681706,-0.2068283357866601,-0.18493715509891634
1750931838.1951149,-1.849254266,-1.56449986,-1.478925029,1.035337913,1.139066178,-0.391286297,0.022849864,-0.083949217,0.081366905,0.048330392,-0.124456665,-0.125208882,5.317400409,3.987584178,0.297960294,-0.032182468,-0.031094236,-0.509294082,0.6678739581042248,-0.528256232850731,0.49605515000067246,-0.04323102429607982,0.9597805157489023,-0.2067477394513083,-0.18495354108223164
1750931838.1970685,-1.849208421,-1.564668423,-1.47876162,1.035434988,1.138816161,-0.391537834,0.022995432,-0.084613141,0.082041926,0.048744154,-0.125560729,-0.12632833,5.316505117,3.987650156,0.297937385,-0.032184443,-0.031102964,-0.509401946,0.6677059399865971,-0.5283991838348882,0.49599370136338794,-0.043221017779100784,0.95979529228821,-0.20666643092465126,-0.18497007015296968
1750931838.1992593,-1.849162286,-1.564838311,-1.478596862,1.03553289,1.138563935,-0.39179161,0.02313956,-0.08527517,0.082715932,0.049157643,-0.126665105,-0.127448318,5.315602652,3.987716701,0.297914269,-0.032186444,-0.031111755,-0.509510638,0.6675364548339555,-0.5285433830966902,0.495931716943914,-0.043210923880470625,0.9598101908778767,-0.20658441112459774,-0.18498674175376276
1750931838.2017536,-1.849115863,-1.565009522,-1.478430757,1.035631618,1.1383095,-0.392047628,0.023282237,-0.085935289,0.083388914,0.049570855,-0.127769796,-0.12856885,5.314693032,3.987783815,0.297890946,-0.032188471,-0.031120609,-0.509620154,0.6673655009090632,-0.5286888316634687,0.4958691963272528,-0.04320074150532938,0.9598252112900975,-0.20650167991550183,-0.1850035564452345
1750931838.2031054,-1.849069158,-1.565182051,-1.478263307,1.035731173,1.138052856,-0.392305886,0.023423449,-0.086593479,0.084060863,0.049983788,-0.128874802,-0.129689931,5.313776275,3.987851497,0.297867414,-0.032190526,-0.031129524,-0.509730491,0.6671930810898845,-0.5288355278155338,0.4958061376586391,-0.043190472007781276,0.9598403534075914,-0.20641823653141428,-0.18502051433664382
1750931838.2051115,-1.849022171,-1.565355895,-1.478094514,1.035831553,1.137794001,-0.392566388,0.023563184,-0.087249726,0.08473177,0.050396439,-0.129980128,-0.130811565,5.312852399,3.987919747,0.297843675,-0.032192608,-0.031138501,-0.509841646,0.6670191927339049,-0.5289834731841931,0.49574254287118624,-0.043180114421591226,0.9598556169855865,-0.20633408161462455,-0.1850376151597474
1750931838.2070851,-1.848974906,-1.565531049,-1.477924381,1.035932759,1.137532935,-0.392829133,0.02370143,-0.087904013,0.085401626,0.050808805,-0.131085774,-0.131933756,5.311921422,3.987988563,0.297819727,-0.032194717,-0.031147538,-0.509953615,0.6668438374793716,-0.5291326664080683,0.49567841164933496,-0.04316966949064807,0.9598710019734158,-0.206249214511281,-0.18505485867736274
1750931838.2090704,-1.848927366,-1.56570751,-1.477752909,1.036034788,1.137269657,-0.393094123,0.023838173,-0.088556323,0.086070422,0.051220884,-0.132191744,-0.133056508,5.310983362,3.988057947,0.297795571,-0.032196853,-0.031156637,-0.510066394,0.6666670146788307,-0.5292831082643273,0.4956137436300937,-0.04315913703119267,0.9598865078793296,-0.20616363618011524,-0.1850722453501378
1750931838.2110355,-1.848879554,-1.565885273,-1.4775801,1.036137642,1.137004168,-0.393361359,0.023973402,-0.089206641,0.08673815,0.051632673,-0.133298038,-0.134179824,5.310038237,3.988127897,0.297771207,-0.032199018,-0.031165796,-0.51017998,0.6664887247429394,-0.5294347985319489,0.49554853935984716,-0.04314851604564699,0.9599021349408479,-0.2060773458386939,-0.18508977397776502
1750931838.212998,-1.848831473,-1.566064335,-1.477405957,1.036241319,1.136736465,-0.393630843,0.024107103,-0.089854949,0.0874048,0.052044168,-0.13440466,-0.13530371,5.309086067,3.988198414,0.297746633,-0.03220121,-0.031175014,-0.51029437,0.6663089668118051,-0.5295877377754409,0.4954827982189711,-0.043137807531122375,0.9599178826625879,-0.2059903434094565,-0.18510744590112033
1750931838.2177327,-1.848831473,-1.566064335,-1.477405957,1.036241319,1.136736465,-0.393630843,0.024107103,-0.089854949,0.0874048,0.052044168,-0.13440466,-0.13530371,5.309086067,3.988198414,0.297746633,-0.03220121,-0.031175014,-0.51029437,0.6663089668118051,-0.5295877377754409,0.4954827982189711,-0.043137807531122375,0.9599178826625879,-0.2059903434094565,-0.18510744590112033
1750931838.2177775,-1.848783127,-1.566244691,-1.477230481,1.036345818,1.136466549,-0.393902574,0.024239264,-0.090501232,0.088070364,0.052455369,-0.135511611,-0.136428169,5.308126869,3.988269496,0.297721851,-0.032203431,-0.031184292,-0.510409559,0.6661277426527656,-0.5297419248752184,0.4954165202123859,-0.04312701157233397,0.9599337508407384,-0.20590262962997694,-0.18512526024595202
1750931838.221134,-1.848734517,-1.566426338,-1.477053676,1.03645114,1.136194418,-0.394176556,0.024369873,-0.091145473,0.088734833,0.05286627,-0.136618894,-0.137553204,5.307160663,3.988341144,0.297696859,-0.03220568,-0.03119363,-0.510525544,0.6659450497216604,-0.5298973611270171,0.49534970608386186,-0.043116127474197866,0.9599497394868747,-0.2058142032010345,-0.18514321745998039
1750931838.2211924,-1.848636523,-1.566793488,-1.476696084,1.036664247,1.135643512,-0.394731271,0.024626383,-0.092427766,0.090060449,0.053687168,-0.138834461,-0.139805022,5.305207302,3.988486136,0.297646247,-0.032210266,-0.031212479,-0.510759887,0.6655752631242878,-0.5302119779123576,0.4952144659178603,-0.04309409654510688,0.959982076801554,-0.20563521455143915,-0.18517956042479378
1750931838.223107,-1.848636523,-1.566793488,-1.476696084,1.036664247,1.135643512,-0.394731271,0.024626383,-0.092427766,0.090060449,0.053687168,-0.138834461,-0.139805022,5.305207302,3.988486136,0.297646247,-0.032210266,-0.031212479,-0.510759887,0.6655752631242878,-0.5302119779123576,0.4952144659178603,-0.04309409654510688,0.959982076801554,-0.20563521455143915,-0.18517956042479378
1750931838.2251067,-1.848587144,-1.566978981,-1.476515302,1.036772032,1.135364735,-0.395012008,0.024752258,-0.093065785,0.090721578,0.054097158,-0.139942751,-0.140931812,5.304220185,3.98855948,0.297620627,-0.032212603,-0.031221991,-0.510878237,0.6653881686032586,-0.5303711594302226,0.49514604193481554,-0.043082948843771424,0.9599984253668102,-0.20554465199622238,-0.18519794504238346
1750931838.2270575,-1.848537515,-1.567165749,-1.476333198,1.036880636,1.135083741,-0.395294999,0.024876531,-0.093701696,0.091381576,0.054506838,-0.14105138,-0.142059195,5.303226138,3.988633388,0.297594796,-0.03221497,-0.03123156,-0.510997368,0.6651996066155554,-0.5305315893248835,0.4950770805977482,-0.04307171351741042,0.9600148933699785,-0.20545337752580387,-0.18521647244708705
1750931838.2290432,-1.848487639,-1.567353787,-1.476149776,1.036990059,1.134800529,-0.395580245,0.024999188,-0.094335485,0.092040435,0.054916206,-0.14216035,-0.143187175,5.302225178,3.98870786,0.297568755,-0.032217366,-0.031241185,-0.511117276,0.6650095772197456,-0.5306932673852535,0.495007582376936,-0.04306039087219373,0.9600314806449101,-0.20536139065736897,-0.1852351428210831
1750931838.2314227,-1.848437519,-1.56754309,-1.475965037,1.0371003,1.134515099,-0.395867748,0.025120217,-0.094967134,0.092698145,0.055325259,-0.143269665,-0.144315755,5.301217327,3.988782896,0.297542503,-0.032219793,-0.031250867,-0.511237956,0.6648180802383465,-0.5308561942895047,0.4949375481018111,-0.04304897990368836,0.9600481870735339,-0.20526869196733608,-0.18525395521848304
1750931838.2332988,-1.848387159,-1.567733654,-1.475778984,1.03721136,1.13422745,-0.396157509,0.025239606,-0.095596628,0.093354697,0.055733995,-0.144379325,-0.145444939,5.300202604,3.988858496,0.29751604,-0.03222225,-0.031260605,-0.511359406,0.6646251158874793,-0.5310203697686549,0.49486697681774433,-0.04303748100825198,0.9600650125749695,-0.20517528032504842,-0.1852729100581785
1750931838.2352912,-1.848336562,-1.567925475,-1.475591619,1.037323236,1.133937582,-0.396449528,0.025357341,-0.09622395,0.094010083,0.056142409,-0.145489332,-0.146574732,5.299181029,3.988934659,0.297489366,-0.032224738,-0.031270399,-0.51148162,0.6644306846102832,-0.531185793189805,0.4947958687225291,-0.043025894483798316,0.9600819566311012,-0.20508115697168788,-0.18529200741105745
1750931838.237384,-1.848285731,-1.568118548,-1.475402945,1.037435929,1.133645493,-0.396743808,0.02547341,-0.096849083,0.094664293,0.0565505,-0.14659969,-0.147705137,5.298152624,3.989011386,0.297462481,-0.032227256,-0.031280247,-0.511604595,0.6642347855061768,-0.5313524655755013,0.4947242243316323,-0.043014219986075394,0.9600990192734596,-0.20498632090929542,-0.18531124712008723
1750931838.2391539,-1.848234669,-1.56831287,-1.475212963,1.037549438,1.133351183,-0.397040349,0.0255878,-0.097472013,0.095317319,0.056958264,-0.147710399,-0.148836157,5.297117407,3.989088675,0.297435384,-0.032229807,-0.03129015,-0.511728326,0.6640374189147511,-0.5315203860168934,0.49465204317782807,-0.04300245773217869,0.9601162002473256,-0.20489077249192633,-0.18533062887523796
1750931838.2411072,-1.848183381,-1.568508435,-1.475021676,1.037663762,1.133054651,-0.397339153,0.0257005,-0.098092721,0.095969152,0.0573657,-0.148821461,-0.149967797,5.2960754,3.989166527,0.297408075,-0.032232388,-0.031300107,-0.51185281,0.6638385852225719,-0.5316895553916406,0.4945793249093316,-0.04299060758958021,0.9601334992732466,-0.20479451159058928,-0.1853501531015311
1750931838.2432125,-1.848131868,-1.568705239,-1.474829087,1.037778901,1.132755897,-0.397640221,0.025811495,-0.098711192,0.096619782,0.057772803,-0.149932878,-0.151100061,5.295026624,3.989244941,0.297380555,-0.032235002,-0.031310117,-0.511978042,0.6636382837015992,-0.5318599731067849,0.49450607108834244,-0.04297866912473546,0.9601509162950346,-0.20469753822917308,-0.18536981895925866
1750931838.2450778,-1.848080136,-1.568903278,-1.474635198,1.037894853,1.132454919,-0.397943554,0.025920775,-0.09932741,0.097269201,0.058179571,-0.151044653,-0.152232951,5.2939711,3.989323917,0.297352821,-0.032237647,-0.031320181,-0.512104018,0.6634365151140895,-0.5320316394052066,0.49443227940529755,-0.042966643466470104,0.9601684507657852,-0.20459985231165273,-0.18538962791188524
1750931838.2471015,-1.848028186,-1.569102547,-1.474440011,1.038011619,1.132151718,-0.398249153,0.026028325,-0.099941359,0.0979174,0.058586001,-0.152156787,-0.153366473,5.292908849,3.989403455,0.297324876,-0.032240325,-0.031330297,-0.512230734,0.6632332791078034,-0.5322045537280129,0.49435795211594885,-0.04295452940044468,0.960186102873518,-0.20450145392338456,-0.18540957795047738
1750931838.2490506,-1.847976024,-1.569303042,-1.474243529,1.038129197,1.131846292,-0.39855702,0.026134133,-0.100553022,0.09856437,0.05899209,-0.153269282,-0.154500629,5.291839891,3.989483555,0.297296717,-0.032243036,-0.031340465,-0.512358185,0.6630285757826355,-0.5323787169127998,0.4942830868128776,-0.04294232770569337,0.9602038720462701,-0.20440234266976492,-0.18542967106069844
1750931838.251027,-1.847923651,-1.569504758,-1.474045755,1.038247587,1.13153864,-0.398867156,0.026238188,-0.101162383,0.099210101,0.059397836,-0.15438214,-0.155635423,5.29076425,3.989564216,0.297268345,-0.03224578,-0.031350685,-0.512486367,0.6628224046279544,-0.5325541284279062,0.49420768571173873,-0.04293003829908268,0.9602217582504038,-0.20430251868986338,-0.1854499060423604
1750931838.2531471,-1.847871072,-1.56970769,-1.47384669,1.038366788,1.131228763,-0.399179562,0.026340475,-0.101769426,0.099854586,0.059803235,-0.155495362,-0.156770859,5.289681945,3.989645438,0.29723976,-0.032248557,-0.031360956,-0.512615276,0.6626147664723687,-0.5327307884075507,0.494131748016677,-0.042917660438349436,0.9602397612712265,-0.2042019823408162,-0.18547028253700848
1750931838.255068,-1.84781829,-1.569911834,-1.473646337,1.038486799,1.130916659,-0.39949424,0.026440983,-0.102374134,0.100497815,0.060208285,-0.156608951,-0.157906941,5.288593,3.989727221,0.297210961,-0.032251368,-0.031371277,-0.512744906,0.662405660548581,-0.532908697193619,0.4940552737180618,-0.04290519447164519,0.9602578808049582,-0.2041007334028294,-0.18549080102190552
1750931838.2571397,-1.847765309,-1.570117185,-1.473444699,1.038607621,1.130602327,-0.39981119,0.026539699,-0.102976492,0.101139779,0.060612982,-0.157722908,-0.159043672,5.287497436,3.989809565,0.297181948,-0.032254213,-0.031381648,-0.512875255,0.6621950877472089,-0.533087853827582,0.49397826252322413,-0.04289264114638421,0.9602761167896416,-0.20399877104722244,-0.18551146129044685
1750931838.2591588,-1.847712133,-1.570323738,-1.473241779,1.038729251,1.130285767,-0.400130415,0.026636611,-0.103576482,0.101780469,0.061017323,-0.158837235,-0.160181056,5.286395275,3.989892469,0.29715272,-0.032257091,-0.031392069,-0.513006316,0.6619830472328777,-0.5332682597134917,0.4939007143733392,-0.04287999945128976,0.9602944687214567,-0.2038960960339833,-0.18553226407321483
1750931838.2611122,-1.847658764,-1.570531489,-1.473037578,1.03885169,1.129966978,-0.400451915,0.026731705,-0.10417409,0.102419876,0.061421307,-0.159951933,-0.161319096,5.285286539,3.989975933,0.297123278,-0.032260005,-0.031402539,-0.513138085,0.6617695392674446,-0.5334499136131822,0.4938226301628077,-0.0428672697438099,0.9603129366747882,-0.203792708155273,-0.18555320784749382
1750931838.2631211,-1.847605207,-1.570740433,-1.4728321,1.038974936,1.129645959,-0.400775692,0.026824969,-0.104769298,0.103057992,0.061824929,-0.161067005,-0.162457796,5.284171252,3.990059957,0.297093622,-0.032262953,-0.031413057,-0.513270559,0.6615545637363367,-0.5336328162245157,0.4937440088590273,-0.042854452192663504,0.9603315201425506,-0.20368860731446295,-0.1855742940125572
1750931838.2653959,-1.847605207,-1.570740433,-1.4728321,1.038974936,1.129645959,-0.400775692,0.026824969,-0.104769298,0.103057992,0.061824929,-0.161067005,-0.162457796,5.284171252,3.990059957,0.297093622,-0.032262953,-0.031413057,-0.513270559,0.6615545637363367,-0.5336328162245157,0.4937440088590273,-0.042854452192663504,0.9603315201425506,-0.20368860731446295,-0.1855742940125572
1750931838.267714,-1.847551465,-1.570950565,-1.472625347,1.039098989,1.12932271,-0.401101747,0.02691639,-0.10536209,0.103694806,0.062228186,-0.162182452,-0.16359716,5.283049435,3.990144541,0.29706375,-0.032265936,-0.031423624,-0.513403731,0.6613381207521335,-0.5338169672288944,0.49366485114895947,-0.042841546365675026,0.9603502190636489,-0.203583793541276,-0.1855955216505571
1750931838.2712612,-1.847497543,-1.57116188,-1.472417322,1.039223849,1.128997229,-0.401430081,0.027005957,-0.10595245,0.104330311,0.062631077,-0.163298276,-0.16473719,5.281921112,3.990229685,0.297033662,-0.032268955,-0.031434237,-0.513537598,0.6611202108838723,-0.5340023664945853,0.49358515598593433,-0.04282855318102557,0.9603690331965649,-0.20347826605908842,-0.18561689134101486
1750931838.2733345,-1.847497543,-1.57116188,-1.472417322,1.039223849,1.128997229,-0.401430081,0.027005957,-0.10595245,0.104330311,0.062631077,-0.163298276,-0.16473719,5.281921112,3.990229685,0.297033662,-0.032268955,-0.031434237,-0.513537598,0.6611202108838723,-0.5340023664945853,0.49358515598593433,-0.04282855318102557,0.9603690331965649,-0.20347826605908842,-0.18561689134101486
1750931838.27525,-1.847497543,-1.57116188,-1.472417322,1.039223849,1.128997229,-0.401430081,0.027005957,-0.10595245,0.104330311,0.062631077,-0.163298276,-0.16473719,5.281921112,3.990229685,0.297033662,-0.032268955,-0.031434237,-0.513537598,0.6611202108838723,-0.5340023664945853,0.49358515598593433,-0.04282855318102557,0.9603690331965649,-0.20347826605908842,-0.18561689134101486
1750931838.2772431,-1.847497543,-1.57116188,-1.472417322,1.039223849,1.128997229,-0.401430081,0.027005957,-0.10595245,0.104330311,0.062631077,-0.163298276,-0.16473719,5.281921112,3.990229685,0.297033662,-0.032268955,-0.031434237,-0.513537598,0.6611202108838723,-0.5340023664945853,0.49358515598593433,-0.04282855318102557,0.9603690331965649,-0.20347826605908842,-0.18561689134101486
1750931838.28085,-1.847497543,-1.57116188,-1.472417322,1.039223849,1.128997229,-0.401430081,0.027005957,-0.10595245,0.104330311,0.062631077,-0.163298276,-0.16473719,5.281921112,3.990229685,0.297033662,-0.032268955,-0.031434237,-0.513537598,0.6611202108838723,-0.5340023664945853,0.49358515598593433,-0.04282855318102557,0.9603690331965649,-0.20347826605908842,-0.18561689134101486
1750931838.2823055,-1.847497543,-1.57116188,-1.472417322,1.039223849,1.128997229,-0.401430081,0.027005957,-0.10595245,0.104330311,0.062631077,-0.163298276,-0.16473719,5.281921112,3.990229685,0.297033662,-0.032268955,-0.031434237,-0.513537598,0.6611202108838723,-0.5340023664945853,0.49358515598593433,-0.04282855318102557,0.9603690331965649,-0.20347826605908842,-0.18561689134101486
1750931838.285762,-1.847225346,-1.57223603,-1.471358203,1.039860211,1.12733633,-0.40310599,0.027425518,-0.108867207,0.107487874,0.064639914,-0.168883103,-0.170447468,5.276182708,3.99066379,0.296879982,-0.032284592,-0.031487997,-0.514217175,0.6600086490718007,-0.5349480908562438,0.4931786336352638,-0.042762264881591974,0.9604648229758971,-0.20293993409151834,-0.18572586163215282
1750931838.2871883,-1.847170416,-1.57245434,-1.471142599,1.039989892,1.126997446,-0.403448029,0.027503688,-0.109442635,0.108115332,0.065040537,-0.170001222,-0.171591573,5.275015834,3.990752287,0.296848595,-0.03228783,-0.031498883,-0.514355105,0.6597819344369803,-0.535140981171434,0.49309571972205024,-0.0427487426694659,0.9604843232727949,-0.20283012781441323,-0.18574807939295063
1750931838.2888935,-1.847115332,-1.572673799,-1.470925743,1.040120373,1.126656325,-0.403792357,0.027579914,-0.110015519,0.108741416,0.065440772,-0.171119728,-0.172736369,5.273842618,3.990841342,0.296816991,-0.032291106,-0.031509812,-0.514493695,0.6595537520837548,-0.5353351200177996,0.49301226827006783,-0.04273513287880713,0.960503936827242,-0.20271960791997848,-0.18577043984975214
1750931838.2912793,-1.847115332,-1.572673799,-1.470925743,1.040120373,1.126656325,-0.403792357,0.027579914,-0.110015519,0.108741416,0.065440772,-0.171119728,-0.172736369,5.273842618,3.990841342,0.296816991,-0.032291106,-0.031509812,-0.514493695,0.6595537520837548,-0.5353351200177996,0.49301226827006783,-0.04273513287880713,0.960503936827242,-0.20271960791997848,-0.18577043984975214
1750931838.2916503,-1.847115332,-1.572673799,-1.470925743,1.040120373,1.126656325,-0.403792357,0.027579914,-0.110015519,0.108741416,0.065440772,-0.171119728,-0.172736369,5.273842618,3.990841342,0.296816991,-0.032291106,-0.031509812,-0.514493695,0.6595537520837548,-0.5353351200177996,0.49301226827006783,-0.04273513287880713,0.960503936827242,-0.20271960791997848,-0.18577043984975214
1750931838.2931497,-1.847060098,-1.572894401,-1.470707635,1.040251655,1.126312967,-0.404138975,0.027654184,-0.11058584,0.109366119,0.065840616,-0.172238624,-0.173881859,5.272663084,3.990930956,0.296785168,-0.03229442,-0.031520785,-0.514632939,0.6593241028321032,-0.5355305072088913,0.4929282799502338,-0.042721434778429955,0.9605236637969687,-0.2026083744158366,-0.18579294096679852
1750931838.2950757,-1.847004717,-1.57311614,-1.470488279,1.040383736,1.12596737,-0.404487885,0.027726485,-0.111153584,0.109989431,0.066240064,-0.173357911,-0.175028047,5.271477256,3.991021127,0.296753128,-0.032297772,-0.031531799,-0.514772833,0.6590929861382694,-0.535727143185457,0.4928437560248991,-0.042707648627757146,0.9605435037867563,-0.2024964277358648,-0.18581558286635574
1750931838.2970476,-1.846949193,-1.573339013,-1.470267678,1.040516615,1.125619535,-0.404839088,0.027796805,-0.111718734,0.110611343,0.066639115,-0.174477591,-0.176174935,5.27028516,3.991111857,0.296720868,-0.032301163,-0.031542855,-0.514913371,0.6588604016469267,-0.5359250274639676,0.49275869503363334,-0.04269377407423956,0.9605634564385473,-0.20238376761671256,-0.1858383663708687
1750931838.2993128,-1.846893531,-1.573563014,-1.470045835,1.040650292,1.125269459,-0.405192585,0.02786513,-0.112281273,0.111231846,0.067037765,-0.175597664,-0.177322528,5.269086819,3.991203144,0.29668839,-0.032304594,-0.031553953,-0.515054548,0.6586263500746795,-0.536124159904077,0.4926730965914229,-0.042679812386694306,0.9605835215310687,-0.20227039339732422,-0.1858612916464832
1750931838.301839,-1.846837734,-1.573788137,-1.469822752,1.040784766,1.124917144,-0.405548378,0.027931449,-0.112841187,0.111850932,0.067436011,-0.176718133,-0.178470828,5.267882258,3.991294988,0.296655692,-0.032308063,-0.03156509,-0.515196359,0.658390831099275,-0.5363245409120491,0.4925869621057809,-0.04266576160383489,0.9606036989759831,-0.20215630585821565,-0.18588435733590716
1750931838.3046207,-1.846781807,-1.574014377,-1.469598432,1.040920036,1.124562587,-0.405906469,0.027995748,-0.113398457,0.11246859,0.06783385,-0.177838998,-0.179619838,5.266671503,3.991387391,0.296622774,-0.032311573,-0.031576268,-0.515338797,0.6581538445960343,-0.5365261709723055,0.49250029060222955,-0.04265162268417068,0.9606239883957182,-0.2020415044799039,-0.18590756431250263
1750931838.3058755,-1.846725753,-1.574241729,-1.469372878,1.041056101,1.124205787,-0.406266858,0.028058015,-0.113953069,0.113084812,0.068231279,-0.178960262,-0.180769563,5.265454579,3.99148035,0.296589636,-0.032315122,-0.031587484,-0.515481859,0.6579153909301393,-0.5367290489959914,0.4924130827405058,-0.04263739632710974,0.9606443895034975,-0.2019259895326474,-0.1859309121721257
1750931838.307242,-1.846669576,-1.574470187,-1.469146093,1.04119296,1.123846745,-0.406629547,0.028118237,-0.114505006,0.11369959,0.068628294,-0.180081925,-0.181920004,5.264231511,3.991573867,0.296556278,-0.032318712,-0.031598739,-0.515625538,0.6576754699260582,-0.5369331754330651,0.4923253390142942,-0.04262308131084809,0.960664902097486,-0.20180976128719155,-0.1859544005040035
1750931838.3090882,-1.846613281,-1.574699747,-1.468918081,1.041330614,1.123485459,-0.406994539,0.028176402,-0.115054251,0.114312913,0.069024893,-0.181203989,-0.183071165,5.263002324,3.991667941,0.296522699,-0.032322343,-0.031610032,-0.515769829,0.6574340805865009,-0.5371385510427599,0.49223705758685327,-0.04260867781145282,0.9606855260132229,-0.20169281791938426,-0.18597803064769564
1750931838.3110948,-1.846556872,-1.574930402,-1.468688843,1.04146906,1.123121929,-0.407361833,0.028232497,-0.115600789,0.114924772,0.069421072,-0.182326456,-0.18422305,5.261767045,3.991762572,0.296488899,-0.032326015,-0.031621363,-0.515914726,0.6571912247419721,-0.5373451746788699,0.4921482399198388,-0.04259418622042908,0.9607062608370087,-0.20157516139937418,-0.18600180105474529
1750931838.3130336,-1.846500352,-1.575162148,-1.468458383,1.041608298,1.122756153,-0.407731431,0.028286509,-0.116144604,0.11553516,0.069816828,-0.183449326,-0.18537566,5.260525698,3.991857759,0.296454877,-0.032329728,-0.03163273,-0.516060224,0.6569469013101904,-0.5375530462721142,0.4920588858693523,-0.042579606975501706,0.9607271063422492,-0.2014567908575711,-0.18602571227233375
1750931838.3150363,-1.846443727,-1.575394979,-1.468226703,1.041748327,1.122388132,-0.408103336,0.028338426,-0.116685679,0.116144066,0.070212158,-0.1845726,-0.186529,5.259278311,3.991953504,0.296420633,-0.032333484,-0.031644133,-0.516206317,0.656701110219488,-0.5377621671810475,0.491968994401008,-0.04256493850361279,0.9607480623015168,-0.20133770626205713,-0.18604976439436355
1750931838.3170328,-1.846387,-1.575628889,-1.467993807,1.041889146,1.122017863,-0.408477548,0.028388235,-0.117223998,0.116751481,0.070607058,-0.185696281,-0.187683073,5.25802491,3.992049806,0.296386167,-0.032337281,-0.031655571,-0.516352999,0.6564538519224998,-0.537972536317532,0.4918785667298967,-0.0425501824648694,0.9607691283834914,-0.20121790769801376,-0.18607395717581268
1750931838.319154,-1.846330176,-1.575863873,-1.467759698,1.042030755,1.121645346,-0.408854069,0.028435923,-0.117759545,0.117357397,0.071001526,-0.186820369,-0.18883788,5.256765521,3.992146664,0.296351479,-0.032341121,-0.031667044,-0.516500264,0.6562051262435796,-0.5381841539845744,0.49178760183261516,-0.04253533833593247,0.9607903044031277,-0.20109739448107133,-0.18609829093927058
1750931838.3210723,-1.846273258,-1.576099925,-1.467524379,1.042173152,1.121270581,-0.4092329,0.028481478,-0.118292303,0.117961804,0.071395558,-0.187944865,-0.189993426,5.25550017,3.992244079,0.296316567,-0.032345005,-0.031678551,-0.516648107,0.6559549331585286,-0.5383970198745429,0.49169610108422923,-0.042520405766257735,0.9608115900280046,-0.2009761675351408,-0.1861227649811201
1750931838.323069,-1.846216251,-1.57633704,-1.467287852,1.042316337,1.120893566,-0.409614043,0.028524887,-0.118822257,0.118564694,0.071789151,-0.189069771,-0.191149713,5.254228884,3.99234205,0.296281432,-0.032348931,-0.031690091,-0.516796522,0.6557032725815344,-0.5386111343170891,0.49160406356374176,-0.04250538506390936,0.9608329850752485,-0.2008542262004233,-0.18614737937823664
1750931838.325152,-1.84615916,-1.576575213,-1.467050121,1.042460308,1.120514302,-0.409997499,0.028566138,-0.119349391,0.119166056,0.072182302,-0.190195088,-0.192306745,5.252951691,3.992440579,0.296246072,-0.032352902,-0.031701664,-0.516945503,0.6554501446728928,-0.5388264970726867,0.49151148826677454,-0.04249027591461525,0.9608544890516014,-0.20073157065100777,-0.18617213504191577
1750931838.327191,-1.846101988,-1.576814436,-1.466811189,1.042605066,1.120132786,-0.41038327,0.028605217,-0.119873688,0.119765883,0.072575007,-0.191320817,-0.193464523,5.251668617,3.992539663,0.296210489,-0.032356916,-0.031713268,-0.517095043,0.6551955494431407,-0.5390431083913868,0.49141837769651386,-0.04247507854986656,0.9608761020646519,-0.20060820053552564,-0.1861970302156344
1750931838.329126,-1.84604474,-1.577054705,-1.466571059,1.042750608,1.119749018,-0.410771358,0.028642113,-0.120395131,0.120364164,0.072967263,-0.192446959,-0.194623052,5.25037969,3.992639304,0.296174681,-0.032360975,-0.031724904,-0.517245138,0.6549394863172853,-0.5392609687015941,0.49132473035936125,-0.04245979269531302,0.9608978234897142,-0.20048411628344223,-0.18622206618724982
1750931838.3311803,-1.845987421,-1.577296015,-1.466329733,1.042896934,1.119362998,-0.411161763,0.028676812,-0.120913706,0.120960891,0.073359067,-0.193573515,-0.195782333,5.249084937,3.992739502,0.296138647,-0.032365079,-0.031736571,-0.51739578,0.6546819562459097,-0.5394800769811126,0.4912305453391007,-0.04244441865859682,0.9609196531426941,-0.20035931760658002,-0.18624724260263237
1750931838.3419452,-1.845987421,-1.577296015,-1.466329733,1.042896934,1.119362998,-0.411161763,0.028676812,-0.120913706,0.120960891,0.073359067,-0.193573515,-0.195782333,5.249084937,3.992739502,0.296138647,-0.032365079,-0.031736571,-0.51739578,0.6546819562459097,-0.5394800769811126,0.4912305453391007,-0.04244441865859682,0.9609196531426941,-0.20035931760658002,-0.18624724260263237
1750931838.3421006,-1.845872585,-1.57778173,-1.46584351,1.043191936,1.118584195,-0.411949533,0.028739569,-0.121942182,0.122149644,0.074141305,-0.195827874,-0.198103165,5.246478064,3.992941567,0.296065903,-0.032373423,-0.031759993,-0.517698682,0.6541624937356685,-0.5399220392364114,0.49104056707639365,-0.042413405872213004,0.9609636363562917,-0.20010757606619406,-0.18629801556679065
1750931838.3421247,-1.845815078,-1.578026125,-1.465598618,1.043340609,1.118191412,-0.412346901,0.028767603,-0.122452052,0.122741653,0.074531733,-0.196955678,-0.199264721,5.245166,3.993043434,0.296029192,-0.032377665,-0.031771747,-0.51785093,0.6539005613265988,-0.5401448933233436,0.490944772080298,-0.042397766545354466,0.9609857891731152,-0.19998063346026107,-0.18632361267462397
1750931838.3449714,-1.845757516,-1.578271537,-1.465352544,1.043490062,1.117796372,-0.412746592,0.028793389,-0.122958989,0.123332071,0.074921694,-0.198083901,-0.200427041,5.243848222,3.993145858,0.295992254,-0.032381952,-0.031783528,-0.518003701,0.6536371615392113,-0.5403689951676419,0.4908484412368944,-0.04238203968813441,0.961008049067032,-0.1998529764425234,-0.18634934973676384
1750931838.3458471,-1.845699906,-1.578517959,-1.465105291,1.043640295,1.117399076,-0.413148609,0.028816916,-0.123462975,0.123920889,0.075311187,-0.199212544,-0.201590127,5.242524758,3.993248838,0.295955089,-0.032386286,-0.031795337,-0.518156988,0.6533722946238825,-0.5405943460846097,0.4907515732027245,-0.04236622381472638,0.9610304158918291,-0.19972460432646125,-0.1863752269940857
1750931838.3469636,-1.84564225,-1.578765387,-1.464856862,1.043791307,1.116999522,-0.413552953,0.02883817,-0.123963995,0.124508097,0.075700208,-0.200341606,-0.202753983,5.241195637,3.993352375,0.295917696,-0.032390668,-0.031807172,-0.518310785,0.6531059596813279,-0.5408209452095215,0.4906541688232954,-0.04235031962388212,0.9610528893548924,-0.19959551719784546,-0.1864012441076847
1750931838.3497443,-1.845584555,-1.579013813,-1.46460726,1.043943096,1.116597709,-0.413959626,0.028857139,-0.124462032,0.125093687,0.076088753,-0.201471089,-0.203918611,5.239860888,3.993456469,0.295880074,-0.032395097,-0.031819032,-0.518465085,0.6528381576745358,-0.5410487934890236,0.49055622752216765,-0.04233432702214644,0.9610754690299428,-0.1994657153712399,-0.18642740135478192
1750931838.3510876,-1.845526823,-1.579263233,-1.464356488,1.044095661,1.116193637,-0.414368628,0.028873811,-0.124957071,0.125677649,0.076476818,-0.202600994,-0.205084013,5.238520539,3.993561119,0.295842224,-0.032399575,-0.031830917,-0.518619883,0.6525688882254151,-0.5412778893853086,0.4904577501467845,-0.0423182462276284,0.9610981546451194,-0.19933519921208218,-0.18645369808358192
1750931838.3530526,-1.845469061,-1.579513639,-1.46410455,1.044249003,1.115787305,-0.414779962,0.028888172,-0.125449096,0.126259973,0.076864402,-0.203731322,-0.206250192,5.237174619,3.993666326,0.295804146,-0.0324041,-0.031842826,-0.51877517,0.6522981517179817,-0.5415082341414733,0.49035873584974704,-0.04230207667482404,0.9611209461410787,-0.19920396740540422,-0.18648013451255777
1750931838.3549678,-1.845411272,-1.579765027,-1.46385145,1.044403119,1.115378712,-0.41519363,0.02890021,-0.125938089,0.126840652,0.077251499,-0.204862074,-0.207417151,5.235823159,3.99377209,0.295765837,-0.032408675,-0.031854758,-0.518930942,0.6520259467822387,-0.5417398277728572,0.49025918468040885,-0.0422858184384017,0.9611438429151792,-0.19907202049252853,-0.18650671152068013
1750931838.3569388,-1.845353462,-1.58001739,-1.463597189,1.044558008,1.114967857,-0.415609631,0.028909912,-0.126424036,0.127419675,0.077638107,-0.205993249,-0.208584891,5.234466187,3.99387841,0.295727298,-0.032413299,-0.031866712,-0.51908719,0.6517522756746633,-0.5419726689945439,0.490159096376153,-0.04226947256845821,0.9611668446977158,-0.19893935905141708,-0.18653342800375652
1750931838.3590147,-1.845295634,-1.580270721,-1.463341772,1.044713671,1.114554738,-0.41602797,0.028917266,-0.126906919,0.127997034,0.078024221,-0.20712485,-0.209753417,5.233103732,3.993985288,0.295688529,-0.032417973,-0.031878688,-0.519243909,0.6514771361633546,-0.5422067596626705,0.490058472604447,-0.04225303776108503,0.9611899515398626,-0.19880598191324658,-0.18656028359290971
1750931838.3610127,-1.845295634,-1.580270721,-1.463341772,1.044713671,1.114554738,-0.41602797,0.028917266,-0.126906919,0.127997034,0.078024221,-0.20712485,-0.209753417,5.233103732,3.993985288,0.295688529,-0.032417973,-0.031878688,-0.519243909,0.6514771361633546,-0.5422067596626705,0.490058472604447,-0.04225303776108503,0.9611899515398626,-0.19880598191324658,-0.18656028359290971
1750931838.362942,-1.845237794,-1.580525015,-1.463085202,1.044870105,1.114139357,-0.416448646,0.028922259,-0.127386724,0.128572719,0.07840984,-0.208256877,-0.210922729,5.231735826,3.994092723,0.29564953,-0.032422697,-0.031890685,-0.519401091,0.6512005296888618,-0.5424420983433474,0.48995731172169105,-0.04223651421902596,0.9612131627932926,-0.19867188996436133,-0.18658727898099042
1750931838.3657384,-1.845179947,-1.580780266,-1.462827482,1.04502731,1.113721711,-0.416871661,0.028924878,-0.127863432,0.12914672,0.078794959,-0.209389331,-0.212092831,5.230362497,3.994200715,0.295610298,-0.032427471,-0.031902702,-0.51955873,0.6509224561223595,-0.5426786852476819,0.48985561337675493,-0.042219902728811654,0.9612364782486484,-0.19853708244860677,-0.18661441420881794
1750931838.3674898,-1.845122096,-1.581036467,-1.462568616,1.045185284,1.113301799,-0.417297018,0.028925111,-0.128337029,0.129719029,0.079179574,-0.210522211,-0.213263724,5.228983777,3.994309264,0.295570835,-0.032432297,-0.031914739,-0.519716818,0.650642914299768,-0.5429165212344536,0.48975337951317055,-0.04220320245781235,0.9612598975893275,-0.19840156001217624,-0.18664168873431122
1750931838.3693826,-1.845064248,-1.581293612,-1.462308607,1.045344028,1.112879622,-0.417724717,0.028922945,-0.128807499,0.130289636,0.079563682,-0.21165552,-0.214435412,5.227599695,3.994418371,0.295531139,-0.032437174,-0.031926793,-0.519875349,0.6503619057529457,-0.5431556053470944,0.4896506080946403,-0.042186413448240624,0.961283420687565,-0.19826532159023394,-0.18666910265576622
1750931838.3736079,-1.845006406,-1.581551695,-1.462047459,1.045503539,1.112455177,-0.41815476,0.028918368,-0.129274824,0.130858532,0.07994728,-0.212789257,-0.215607896,5.226210282,3.994528035,0.29549121,-0.032442103,-0.031938866,-0.520034315,0.650079429551659,-0.5433959377567271,0.48954730047542416,-0.04216953647742275,0.961307046987666,-0.1981283679616783,-0.18669665614031392
1750931838.3736649,-1.845006406,-1.581551695,-1.462047459,1.045503539,1.112455177,-0.41815476,0.028918368,-0.129274824,0.130858532,0.07994728,-0.212789257,-0.215607896,5.226210282,3.994528035,0.29549121,-0.032442103,-0.031938866,-0.520034315,0.650079429551659,-0.5433959377567271,0.48954730047542416,-0.04216953647742275,0.961307046987666,-0.1981283679616783,-0.18669665614031392
1750931838.3751304,-1.844948576,-1.581810709,-1.461785174,1.045663817,1.112028464,-0.418587149,0.028911366,-0.129738989,0.131425708,0.080330364,-0.213923423,-0.216781179,5.224815568,3.994638257,0.295451048,-0.032447084,-0.031950955,-0.52019371,0.6497954861730583,-0.5436375189230724,0.48944345624320196,-0.04215257076100773,0.9613307763875548,-0.1979906988642263,-0.18672434847013009
1750931838.377021,-1.844890762,-1.582070649,-1.461521757,1.04582486,1.111599483,-0.419021885,0.028901927,-0.130199979,0.131991154,0.08071293,-0.215058019,-0.217955263,5.223415586,3.994749038,0.295410652,-0.032452118,-0.03196306,-0.520353526,0.6495100751560232,-0.5438803482131973,0.4893390751327851,-0.04213551646004469,0.9613546083683335,-0.19785231436566114,-0.18675218050069692
1750931838.3790011,-1.84483297,-1.582331507,-1.461257211,1.045986668,1.111168232,-0.41945897,0.028890039,-0.130657775,0.132554862,0.081094976,-0.216193046,-0.21913015,5.222010365,3.994860376,0.295370021,-0.032457205,-0.031975181,-0.520513756,0.6492231971028506,-0.544124426133476,0.4892341572827272,-0.042118373751038815,0.9613785427852414,-0.1977132140162405,-0.1867801516972882
1750931838.3811157,-1.844775204,-1.582593278,-1.460991539,1.046149239,1.11073471,-0.419898406,0.028875688,-0.131112363,0.133116821,0.081476496,-0.217328503,-0.220305843,5.220599937,3.994972272,0.295329156,-0.032462345,-0.031987316,-0.520674393,0.6489348512067953,-0.5443697527787307,0.4891287026306553,-0.0421011425377581,0.9614025792091659,-0.19757339812515495,-0.1868082622376695
1750931838.3829885,-1.844717469,-1.582855954,-1.460724745,1.046312574,1.110298918,-0.420340194,0.028858863,-0.131563727,0.133677022,0.081857489,-0.218464391,-0.221482343,5.219184334,3.995084727,0.295288055,-0.03246754,-0.031999464,-0.52083543,0.6486450382328378,-0.5446163277166441,0.48902271197407055,-0.04208382199527179,0.9614267176668151,-0.19743286617653366,-0.1868365109822051
1750931838.385232,-1.84465977,-1.58311953,-1.460456832,1.046476669,1.109860853,-0.420784336,0.02883955,-0.132011849,0.134235456,0.082237949,-0.219600711,-0.222659653,5.217763588,3.99519774,0.295246718,-0.032472789,-0.032011625,-0.520996858,0.6483537575707504,-0.544864151340814,0.4889161845531636,-0.04206641319623163,0.9614509573816458,-0.19729161895689898,-0.18686489911186213
1750931838.387189,-1.844602112,-1.583383999,-1.460187804,1.046641525,1.109420514,-0.421230833,0.028817737,-0.132456715,0.134792114,0.082617874,-0.220737463,-0.223837775,5.21633773,3.995311313,0.295205144,-0.032478093,-0.032023797,-0.521158671,0.6480610097074208,-0.5451132230859507,0.488809120518961,-0.04204891640496741,0.96147529829284,-0.19714965554747568,-0.18689342609994172
1750931838.3890755,-1.844544501,-1.583649355,-1.459917665,1.04680714,1.108977902,-0.421679688,0.028793411,-0.132898307,0.135346987,0.082997259,-0.221874648,-0.22501671,5.214906792,3.995425444,0.295163333,-0.032483453,-0.032035981,-0.52132086,0.6477667939571597,-0.5453635439733794,0.4887015187330685,-0.04203133033830682,0.9614997399437405,-0.19700697591711877,-0.18692209285716643
1750931838.3909705,-1.84448694,-1.583915591,-1.459646417,1.046973514,1.108533016,-0.422130901,0.02876656,-0.13333661,0.135900064,0.083376102,-0.223012265,-0.226196462,5.213470807,3.995540135,0.295121285,-0.032488869,-0.032048174,-0.52148342,0.6474711109562127,-0.5456151127141224,0.4885933812354608,-0.04201365526805776,0.9615242823018472,-0.1968635805433908,-0.18695089721788022
1750931838.3931162,-1.844429436,-1.584182699,-1.459374066,1.047140644,1.108085853,-0.422584474,0.02873717,-0.133771608,0.136451336,0.083754398,-0.224150316,-0.227377031,5.212029807,3.995655386,0.295078998,-0.03249434,-0.032060377,-0.52164634,0.647173961086158,-0.5458679300180732,0.4884847072295053,-0.04199589248215495,0.961548924630379,-0.19671946933744833,-0.18697984099999074
1750931838.3950887,-1.844371993,-1.584450675,-1.459100613,1.047308531,1.107636414,-0.423040409,0.02870523,-0.134203284,0.137000795,0.084132143,-0.2252888,-0.22855842,5.210583825,3.995771196,0.295036472,-0.032499869,-0.032072588,-0.521809615,0.6468753435222464,-0.5461219956061377,0.4883754960403296,-0.041978040673645016,0.9615736669753558,-0.1965746416889844,-0.18700892311763273
1750931838.3970647,-1.844314617,-1.58471951,-1.458826064,1.047477172,1.107184698,-0.423498708,0.028670727,-0.134631622,0.137548431,0.084509335,-0.226427718,-0.229740631,5.209132893,3.995887567,0.294993708,-0.032505455,-0.032084806,-0.521973236,0.6465752585992366,-0.546377310158646,0.4882657483363095,-0.041960099911921185,0.9615985087317119,-0.19642909812603124,-0.18703814431747168
1750931838.3989503,-1.844257312,-1.584989199,-1.458550421,1.047646568,1.106730703,-0.423959372,0.028633647,-0.135056606,0.138094233,0.084885969,-0.227567069,-0.230923666,5.207677045,3.996004498,0.294950703,-0.032511098,-0.032097031,-0.522137196,0.6462737061642907,-0.5466338727967578,0.48815546399293314,-0.041942070812747395,0.9616234498608875,-0.19628283785115644,-0.18706750369500402
1750931838.4070745,-1.844200084,-1.585259734,-1.458273688,1.047816716,1.106274429,-0.424422403,0.028593979,-0.13547822,0.138638194,0.085262041,-0.228706855,-0.232107526,5.206216314,3.996121989,0.294907457,-0.0325168,-0.032109262,-0.522301486,0.6459706864920761,-0.5468916841660537,0.48804464323290336,-0.041923952836200894,0.9616484898234822,-0.19613586170140687,-0.1870970014549959
1750931838.412972,-1.844200084,-1.585259734,-1.458273688,1.047816716,1.106274429,-0.424422403,0.028593979,-0.13547822,0.138638194,0.085262041,-0.228706855,-0.232107526,5.206216314,3.996121989,0.294907457,-0.0325168,-0.032109262,-0.522301486,0.6459706864920761,-0.5468916841660537,0.48804464323290336,-0.041923952836200894,0.9616484898234822,-0.19613586170140687,-0.1870970014549959
1750931838.4131317,-1.844200084,-1.585259734,-1.458273688,1.047816716,1.106274429,-0.424422403,0.028593979,-0.13547822,0.138638194,0.085262041,-0.228706855,-0.232107526,5.206216314,3.996121989,0.294907457,-0.0325168,-0.032109262,-0.522301486,0.6459706864920761,-0.5468916841660537,0.48804464323290336,-0.041923952836200894,0.9616484898234822,-0.19613586170140687,-0.1870970014549959
1750931838.413492,-1.844200084,-1.585259734,-1.458273688,1.047816716,1.106274429,-0.424422403,0.028593979,-0.13547822,0.138638194,0.085262041,-0.228706855,-0.232107526,5.206216314,3.996121989,0.294907457,-0.0325168,-0.032109262,-0.522301486,0.6459706864920761,-0.5468916841660537,0.48804464323290336,-0.041923952836200894,0.9616484898234822,-0.19613586170140687,-0.1870970014549959
1750931838.4135127,-1.844028912,-1.586076352,-1.457436988,1.048331665,1.104891924,-0.425825715,0.028459316,-0.13672268,0.140258928,0.086386852,-0.23212882,-0.235664076,5.201805158,3.996477831,0.294776273,-0.03253426,-0.032145977,-0.522796259,0.6450528219401745,-0.5476726096367126,0.487708960593263,-0.04186906586129486,0.9617241997766697,-0.19569063439220782,-0.18718632561969406
1750931838.4135275,-1.844028912,-1.586076352,-1.457436988,1.048331665,1.104891924,-0.425825715,0.028459316,-0.13672268,0.140258928,0.086386852,-0.23212882,-0.235664076,5.201805158,3.996477831,0.294776273,-0.03253426,-0.032145977,-0.522796259,0.6450528219401745,-0.5476726096367126,0.487708960593263,-0.04186906586129486,0.9617241997766697,-0.19569063439220782,-0.18718632561969406
1750931838.4195576,-1.843915277,-1.586624873,-1.456873808,1.048678707,1.103958842,-0.42677312,0.028356366,-0.137535173,0.141330033,0.087133849,-0.234412302,-0.238039269,5.19884059,3.996717869,0.294687603,-0.032546199,-0.032170464,-0.523127613,0.644433575631432,-0.5481994681507446,0.48748248822670687,-0.041832031663265504,0.9617751613955444,-0.19539023321194726,-0.18724656689744365
1750931838.4196577,-1.843915277,-1.586624873,-1.456873808,1.048678707,1.103958842,-0.42677312,0.028356366,-0.137535173,0.141330033,0.087133849,-0.234412302,-0.238039269,5.19884059,3.996717869,0.294687603,-0.032546199,-0.032170464,-0.523127613,0.644433575631432,-0.5481994681507446,0.48748248822670687,-0.041832031663265504,0.9617751613955444,-0.19539023321194726,-0.18724656689744365
