mathias31415/motion_primitives_from_planned_trajectory/data/trajectory_20250626_115605_executed.csv
timestamp,shoulder_lift_joint_pos,elbow_joint_pos,wrist_1_joint_pos,wrist_2_joint_pos,wrist_3_joint_pos,shoulder_pan_joint_pos,shoulder_lift_joint_vel,elbow_joint_vel,wrist_1_joint_vel,wrist_2_joint_vel,wrist_3_joint_vel,shoulder_pan_joint_vel,shoulder_lift_joint_eff,elbow_joint_eff,wrist_1_joint_eff,wrist_2_joint_eff,wrist_3_joint_eff,shoulder_pan_joint_eff
1750931780.897797108,-1.772426000,-2.315765000,-0.641101000,1.574923000,-0.393775000,-1.963493000,0.000000000,0.000000000,0.000000000,0.000000000,0.000000000,0.000000000,3.532626684,2.644873592,0.301336577,0.000340629,0.000000000,0.000000000
1750931780.899733067,-1.772426000,-2.315765000,-0.641101000,1.574923000,-0.393775000,-1.963493000,0.000000000,0.000000000,0.000000000,0.000000000,0.000000000,0.000000000,3.532626684,2.644873592,0.301336577,0.000340629,0.000000000,0.000000000
1750931780.901196003,-1.772426000,-2.315765000,-0.641101000,1.574923000,-0.393775000,-1.963493000,0.000000000,0.000000000,0.000000000,0.000000000,0.000000000,0.000000000,3.532626684,2.644873592,0.301336577,0.000340629,0.000000000,0.000000000
1750931780.903306961,-1.772426000,-2.315765000,-0.641101000,1.574923000,-0.393775000,-1.963493000,0.000000000,0.000000000,0.000000000,0.000000000,0.000000000,0.000000000,3.532626684,2.644873592,0.301336577,0.000340629,0.000000000,0.000000000
1750931780.905573845,-1.772426000,-2.315765000,-0.641101000,1.574923000,-0.393775000,-1.963493000,0.000000000,0.000000000,0.000000000,0.000000000,0.000000000,0.000000000,3.532626684,2.644873592,0.301336577,0.000340629,0.000000000,0.000000000
1750931780.907226086,-1.772426000,-2.315765000,-0.641101000,1.574923000,-0.393775000,-1.963493000,0.000000000,0.000000000,0.000000000,0.000000000,0.000000000,0.000000000,3.532626684,2.644873592,0.301336577,0.000340629,0.000000000,0.000000000
1750931780.909256458,-1.772426000,-2.315765000,-0.641101000,1.574923000,-0.393775000,-1.963493000,0.000000000,0.000000000,0.000000000,0.000000000,0.000000000,0.000000000,3.532626684,2.644873592,0.301336577,0.000340629,0.000000000,0.000000000
1750931780.911131382,-1.772426000,-2.315765000,-0.641101000,1.574923000,-0.393775000,-1.963493000,0.000000000,0.000000000,0.000000000,0.000000000,0.000000000,0.000000000,3.532626684,2.644873592,0.301336577,0.000340629,0.000000000,0.000000000
1750931780.913134336,-1.772426050,-2.315764520,-0.641101534,1.574922656,-0.393774025,-1.963492000,-0.000050182,0.000479742,-0.000534050,-0.000343623,0.000975150,0.001000000,3.500464887,2.771304353,0.289976904,-0.007073978,0.027469899,0.360449105
1750931780.915172100,-1.772426201,-2.315763081,-0.641103136,1.574921626,-0.393771099,-1.963489000,-0.000100364,0.000959483,-0.001068101,-0.000687245,0.001950299,0.002000000,3.500469592,2.771307952,0.289976874,-0.007074046,0.027469899,0.360449697
1750931780.917277098,-1.772426452,-2.315760682,-0.641105806,1.574919907,-0.393766224,-1.963484000,-0.000150545,0.001439225,-0.001602151,-0.001030868,0.002925449,0.003000000,3.500477435,2.771313950,0.289976825,-0.007074158,0.027469899,0.360450684
1750931780.919263601,-1.772426803,-2.315757324,-0.641109545,1.574917502,-0.393759398,-1.963477000,-0.000200727,0.001918967,-0.002136202,-0.001374490,0.003900598,0.004000000,3.500488415,2.771322347,0.289976756,-0.007074315,0.027469899,0.360452066
1750931780.921389580,-1.772427255,-2.315753006,-0.641114351,1.574914409,-0.393750621,-1.963468000,-0.000250909,0.002398709,-0.002670252,-0.001718113,0.004875748,0.005000000,3.500502531,2.771333144,0.289976667,-0.007074517,0.027469899,0.360453843
1750931780.923841238,-1.772427807,-2.315747729,-0.641120226,1.574910630,-0.393739895,-1.963457000,-0.000301091,0.002878450,-0.003204303,-0.002061736,0.005850897,0.006000000,3.500519785,2.771346339,0.289976558,-0.007074764,0.027469899,0.360456015
1750931780.925301552,-1.772428459,-2.315741493,-0.641127168,1.574906162,-0.393727218,-1.963444000,-0.000351273,0.003358192,-0.003738353,-0.002405358,0.006826047,0.007000000,3.500540175,2.771361934,0.289976430,-0.007075056,0.027469899,0.360458582
1750931780.928755760,-1.772429212,-2.315734297,-0.641135179,1.574901008,-0.393712590,-1.963429000,-0.000401454,0.003837934,-0.004272403,-0.002748981,0.007801197,0.008000000,3.500563703,2.771379928,0.289976282,-0.007075393,0.027469899,0.360461543
1750931780.929000854,-1.772430065,-2.315726141,-0.641144258,1.574895167,-0.393696013,-1.963412000,-0.000451636,0.004317675,-0.004806454,-0.003092603,0.008776346,0.009000000,3.500590368,2.771400321,0.289976114,-0.007075774,0.027469899,0.360464900
1750931780.931160688,-1.772431018,-2.315717026,-0.641154405,1.574888638,-0.393677485,-1.963393000,-0.000501818,0.004797417,-0.005340504,-0.003436226,0.009751496,0.010000000,3.500620169,2.771423113,0.289975927,-0.007076201,0.027469899,0.360468651
1750931780.933098793,-1.772432072,-2.315706951,-0.641165620,1.574881422,-0.393657007,-1.963372000,-0.000552000,0.005277159,-0.005874555,-0.003779848,0.010726645,0.011000000,3.500653108,2.771448303,0.289975720,-0.007076672,0.027469899,0.360472798
1750931780.941891909,-1.772433226,-2.315695917,-0.641177903,1.574873518,-0.393634578,-1.963349000,-0.000602182,0.005756900,-0.006408605,-0.004123471,0.011701795,0.012000000,3.500689183,2.771475893,0.289975493,-0.007077189,0.027469899,0.360477339
1750931780.941955805,-1.772433226,-2.315695917,-0.641177903,1.574873518,-0.393634578,-1.963349000,-0.000602182,0.005756900,-0.006408605,-0.004123471,0.011701795,0.012000000,3.500689183,2.771475893,0.289975493,-0.007077189,0.027469899,0.360477339
1750931780.941974640,-1.772433226,-2.315695917,-0.641177903,1.574873518,-0.393634578,-1.963349000,-0.000602182,0.005756900,-0.006408605,-0.004123471,0.011701795,0.012000000,3.500689183,2.771475893,0.289975493,-0.007077189,0.027469899,0.360477339
1750931780.945412397,-1.772438847,-2.315642186,-0.641237717,1.574835033,-0.393525362,-1.963237000,-0.000802909,0.007675867,-0.008544807,-0.005497961,0.015602393,0.016000000,3.500864852,2.771610239,0.289974387,-0.007079704,0.027469899,0.360499453
1750931780.945460558,-1.772440503,-2.315626355,-0.641255341,1.574823693,-0.393493182,-1.963204000,-0.000853090,0.008155609,-0.009078857,-0.005841584,0.016577543,0.017000000,3.500916612,2.771649822,0.289974062,-0.007080444,0.027469899,0.360505968
1750931780.947117329,-1.772442259,-2.315609564,-0.641274032,1.574811666,-0.393459052,-1.963169000,-0.000903272,0.008635351,-0.009612908,-0.006185207,0.017552692,0.018000000,3.500971507,2.771691803,0.289973716,-0.007081230,0.027469899,0.360512879
1750931780.949868202,-1.772444116,-2.315591813,-0.641293792,1.574798952,-0.393422971,-1.963132000,-0.000953454,0.009115092,-0.010146958,-0.006528829,0.018527842,0.019000000,3.501029540,2.771736183,0.289973351,-0.007082061,0.027469899,0.360520185
1750931780.951080561,-1.772446073,-2.315573103,-0.641314620,1.574785551,-0.393384940,-1.963093000,-0.001003636,0.009594834,-0.010681008,-0.006872452,0.019502992,0.020000000,3.501090709,2.771782961,0.289972966,-0.007082937,0.027469899,0.360527886
1750931780.953134298,-1.772448130,-2.315553434,-0.641336516,1.574771462,-0.393344959,-1.963052000,-0.001053818,0.010074576,-0.011215059,-0.007216074,0.020478141,0.021000000,3.501155015,2.771832137,0.289972561,-0.007083857,0.027469899,0.360535982
1750931780.955095053,-1.772450288,-2.315532805,-0.641359480,1.574756687,-0.393303028,-1.963009000,-0.001103999,0.010554318,-0.011749109,-0.007559697,0.021453291,0.022000000,3.501222457,2.771883710,0.289972137,-0.007084823,0.027469899,0.360544472
1750931780.957286119,-1.772450288,-2.315532805,-0.641359480,1.574756687,-0.393303028,-1.963009000,-0.001103999,0.010554318,-0.011749109,-0.007559697,0.021453291,0.022000000,3.501222457,2.771883710,0.289972137,-0.007084823,0.027469899,0.360544472
1750931780.960472107,-1.772452546,-2.315511217,-0.641383513,1.574741224,-0.393259146,-1.962964000,-0.001154181,0.011034059,-0.012283160,-0.007903320,0.022428440,0.023000000,3.501293036,2.771937682,0.289971692,-0.007085833,0.027469899,0.360553358
1750931780.961264610,-1.772452546,-2.315511217,-0.641383513,1.574741224,-0.393259146,-1.962964000,-0.001154181,0.011034059,-0.012283160,-0.007903320,0.022428440,0.023000000,3.501293036,2.771937682,0.289971692,-0.007085833,0.027469899,0.360553358
1750931780.963183641,-1.772454905,-2.315488669,-0.641408613,1.574725073,-0.393213314,-1.962917000,-0.001204363,0.011513801,-0.012817210,-0.008246942,0.023403590,0.024000000,3.501366751,2.771994051,0.289971228,-0.007086889,0.027469898,0.360562639
1750931780.965157986,-1.772457364,-2.315465161,-0.641434782,1.574708236,-0.393165532,-1.962868000,-0.001254545,0.011993543,-0.013351261,-0.008590565,0.024378740,0.025000000,3.501443602,2.772052818,0.289970745,-0.007087989,0.027469898,0.360572315
1750931780.967334032,-1.772459923,-2.315440695,-0.641462018,1.574690711,-0.393115799,-1.962817000,-0.001304727,0.012473284,-0.013885311,-0.008934187,0.025353889,0.026000000,3.501523589,2.772113982,0.289970241,-0.007089134,0.027469898,0.360582386
1750931780.969185591,-1.772462583,-2.315415268,-0.641490323,1.574672499,-0.393064116,-1.962764000,-0.001354908,0.012953026,-0.014419361,-0.009277810,0.026329039,0.027000000,3.501606713,2.772177543,0.289969717,-0.007090324,0.027469898,0.360592852
1750931780.971236944,-1.772465343,-2.315388883,-0.641519696,1.574653600,-0.393010483,-1.962709000,-0.001405090,0.013432768,-0.014953412,-0.009621433,0.027304188,0.028000000,3.501692973,2.772243501,0.289969174,-0.007091559,0.027469898,0.360603713
1750931780.973081589,-1.772468203,-2.315361537,-0.641550136,1.574634013,-0.392954899,-1.962652000,-0.001455272,0.013912509,-0.015487462,-0.009965055,0.028279338,0.029000000,3.501782369,2.772311856,0.289968611,-0.007092839,0.027469898,0.360614969
1750931780.975131273,-1.772471164,-2.315333232,-0.641581645,1.574613740,-0.392897365,-1.962593000,-0.001505454,0.014392251,-0.016021513,-0.010308678,0.029254487,0.030000000,3.501874901,2.772382608,0.289968028,-0.007094164,0.027469898,0.360626621
1750931780.977094173,-1.772474225,-2.315303968,-0.641614222,1.574592779,-0.392837881,-1.962532000,-0.001555636,0.014871993,-0.016555563,-0.010652300,0.030229637,0.031000000,3.501970568,2.772455757,0.289967426,-0.007095533,0.027469898,0.360638667
1750931780.979176760,-1.772477386,-2.315273744,-0.641647868,1.574571130,-0.392776447,-1.962469000,-0.001605817,0.015351735,-0.017089614,-0.010995923,0.031204787,0.032000000,3.502069372,2.772531302,0.289966803,-0.007096948,0.027469898,0.360651109
1750931780.981147766,-1.772480648,-2.315242561,-0.641682581,1.574548795,-0.392713062,-1.962404000,-0.001655999,0.015831476,-0.017623664,-0.011339545,0.032179936,0.033000000,3.502171311,2.772609243,0.289966161,-0.007098408,0.027469898,0.360663946
1750931780.983144522,-1.772484010,-2.315210419,-0.641718362,1.574525772,-0.392647727,-1.962337000,-0.001706181,0.016311218,-0.018157714,-0.011683168,0.033155086,0.034000000,3.502276386,2.772689580,0.289965499,-0.007099912,0.027469897,0.360677178
1750931780.985124588,-1.772487473,-2.315177316,-0.641755212,1.574502062,-0.392580442,-1.962268000,-0.001756363,0.016790960,-0.018691765,-0.012026791,0.034130235,0.035000000,3.502384597,2.772772313,0.289964817,-0.007101462,0.027469897,0.360690805
1750931780.987251043,-1.772491036,-2.315143255,-0.641793129,1.574477665,-0.392511206,-1.962197000,-0.001806545,0.017270701,-0.019225815,-0.012370413,0.035105385,0.036000000,3.502495943,2.772857441,0.289964115,-0.007103056,0.027469897,0.360704828
1750931780.989312410,-1.772494699,-2.315108234,-0.641832115,1.574452581,-0.392440020,-1.962124000,-0.001856726,0.017750443,-0.019759866,-0.012714036,0.036080535,0.037000000,3.502610425,2.772944965,0.289963394,-0.007104695,0.027469897,0.360719246
1750931780.991331100,-1.772498463,-2.315072253,-0.641872169,1.574426809,-0.392366884,-1.962049000,-0.001906908,0.018230185,-0.020293916,-0.013057658,0.037055684,0.038000000,3.502728042,2.773034884,0.289962652,-0.007106379,0.027469897,0.360734059
1750931780.993326902,-1.772502327,-2.315035313,-0.641913291,1.574400350,-0.392291797,-1.961972000,-0.001957090,0.018709927,-0.020827967,-0.013401281,0.038030834,0.039000000,3.502848794,2.773127198,0.289961891,-0.007108109,0.027469897,0.360749268
1750931781.004117250,-1.772506291,-2.314997413,-0.641955481,1.574373204,-0.392214761,-1.961893000,-0.002007272,0.019189668,-0.021362017,-0.013744904,0.039005983,0.040000000,3.502972681,2.773221907,0.289961110,-0.007109883,0.027469897,0.360764872
1750931781.004162073,-1.772506291,-2.314997413,-0.641955481,1.574373204,-0.392214761,-1.961893000,-0.002007272,0.019189668,-0.021362017,-0.013744904,0.039005983,0.040000000,3.502972681,2.773221907,0.289961110,-0.007109883,0.027469897,0.360764872
1750931781.009370565,-1.772518786,-2.314877958,-0.642088459,1.574287642,-0.391971948,-1.961644000,-0.002157817,0.020628893,-0.022964168,-0.014775771,0.041931432,0.043000000,3.503363152,2.773520399,0.289958647,-0.007115474,0.027469896,0.360814056
1750931781.009417057,-1.772523152,-2.314836220,-0.642134922,1.574257747,-0.391887110,-1.961557000,-0.002207999,0.021108635,-0.023498219,-0.015119394,0.042906582,0.044000000,3.503499579,2.773624684,0.289957786,-0.007117428,0.027469896,0.360831242
1750931781.009432316,-1.772527618,-2.314793523,-0.642182452,1.574227164,-0.391800322,-1.961468000,-0.002258181,0.021588377,-0.024032269,-0.015463017,0.043881731,0.045000000,3.503639140,2.773731362,0.289956905,-0.007119427,0.027469896,0.360848823
1750931781.009446859,-1.772527618,-2.314793523,-0.642182452,1.574227164,-0.391800322,-1.961468000,-0.002258181,0.021588377,-0.024032269,-0.015463017,0.043881731,0.045000000,3.503639140,2.773731362,0.289956905,-0.007119427,0.027469896,0.360848823
1750931781.014859200,-1.772532185,-2.314749867,-0.642231051,1.574195895,-0.391711583,-1.961377000,-0.002308363,0.022068118,-0.024566319,-0.015806639,0.044856881,0.046000000,3.503781836,2.773840434,0.289956005,-0.007121471,0.027469896,0.360866799
1750931781.015406847,-1.772541619,-2.314659675,-0.642331452,1.574131294,-0.391528255,-1.961189000,-0.002408726,0.023027602,-0.025634420,-0.016493884,0.046807180,0.048000000,3.504076631,2.774065756,0.289954144,-0.007125693,0.027469896,0.360903939
1750931781.015758514,-1.772541619,-2.314659675,-0.642331452,1.574131294,-0.391528255,-1.961189000,-0.002408726,0.023027602,-0.025634420,-0.016493884,0.046807180,0.048000000,3.504076631,2.774065756,0.289954144,-0.007125693,0.027469896,0.360903939
1750931781.017110348,-1.772546486,-2.314613140,-0.642383255,1.574097962,-0.391433666,-1.961092000,-0.002458908,0.023507344,-0.026168471,-0.016837507,0.047782330,0.049000000,3.504228729,2.774182006,0.289953184,-0.007127871,0.027469895,0.360923102
1750931781.019138336,-1.772551454,-2.314565646,-0.642436126,1.574063944,-0.391337126,-1.960993000,-0.002509090,0.023987085,-0.026702521,-0.017181129,0.048757479,0.050000000,3.504383962,2.774300647,0.289952203,-0.007130095,0.027469895,0.360942661
1750931781.021028757,-1.772556523,-2.314517192,-0.642490065,1.574029238,-0.391238636,-1.960892000,-0.002559271,0.024466827,-0.027236572,-0.017524752,0.049732629,0.051000000,3.504542329,2.774421681,0.289951203,-0.007132363,0.027469895,0.360962616
1750931781.023151636,-1.772561692,-2.314467778,-0.642545072,1.573993845,-0.391138196,-1.960789000,-0.002609453,0.024946569,-0.027770622,-0.017868375,0.050707778,0.052000000,3.504703829,2.774545106,0.289950183,-0.007134677,0.027469895,0.360982966
1750931781.025367498,-1.772566961,-2.314417406,-0.642601148,1.573957764,-0.391035805,-1.960684000,-0.002659635,0.025426310,-0.028304672,-0.018211997,0.051682928,0.053000000,3.504868463,2.774670922,0.289949143,-0.007137035,0.027469895,0.361003713
1750931781.027251482,-1.772572330,-2.314366073,-0.642658291,1.573920997,-0.390931464,-1.960577000,-0.002709817,0.025906052,-0.028838723,-0.018555620,0.052658077,0.054000000,3.505036230,2.774799130,0.289948083,-0.007139438,0.027469894,0.361024854
1750931781.030562639,-1.772577800,-2.314313781,-0.642716503,1.573883542,-0.390825173,-1.960468000,-0.002759999,0.026385794,-0.029372773,-0.018899242,0.053633227,0.055000000,3.505207131,2.774929727,0.289947003,-0.007141886,0.027469894,0.361046392
1750931781.031044722,-1.772583370,-2.314260530,-0.642775782,1.573845400,-0.390716931,-1.960357000,-0.002810180,0.026865536,-0.029906824,-0.019242865,0.054608377,0.056000000,3.505381165,2.775062715,0.289945903,-0.007144379,0.027469894,0.361068325
1750931781.033581495,-1.772589041,-2.314206319,-0.642836130,1.573806570,-0.390606739,-1.960244000,-0.002860362,0.027345277,-0.030440874,-0.019586488,0.055583526,0.057000000,3.505558332,2.775198093,0.289944783,-0.007146918,0.027469894,0.361090655
1750931781.035330534,-1.772594812,-2.314151149,-0.642897546,1.573767054,-0.390494597,-1.960129000,-0.002910544,0.027825019,-0.030974925,-0.019930110,0.056558676,0.058000000,3.505738633,2.775335861,0.289943643,-0.007149501,0.027469894,0.361113380
1750931781.037169456,-1.772600683,-2.314095019,-0.642960030,1.573726850,-0.390380504,-1.960012000,-0.002960726,0.028304761,-0.031508975,-0.020273733,0.057533825,0.059000000,3.505922066,2.775476017,0.289942482,-0.007152129,0.027469894,0.361136501
1750931781.039194107,-1.772606654,-2.314037930,-0.643023582,1.573685959,-0.390264462,-1.959893000,-0.003010908,0.028784502,-0.032043025,-0.020617355,0.058508975,0.060000000,3.506108631,2.775618563,0.289941302,-0.007154802,0.027469893,0.361160018
1750931781.041271925,-1.772612726,-2.313979881,-0.643088202,1.573644380,-0.390146468,-1.959772000,-0.003061089,0.029264244,-0.032577076,-0.020960978,0.059484125,0.061000000,3.506298329,2.775763497,0.289940102,-0.007157520,0.027469893,0.361183931
1750931781.043076754,-1.772618899,-2.313920873,-0.643153890,1.573602115,-0.390026525,-1.959649000,-0.003111271,0.029743986,-0.033111126,-0.021304601,0.060459274,0.062000000,3.506491160,2.775910819,0.289938882,-0.007160283,0.027469893,0.361208241
1750931781.045108795,-1.772625172,-2.313860905,-0.643220646,1.573559162,-0.389904631,-1.959524000,-0.003161453,0.030223728,-0.033645177,-0.021648223,0.061434424,0.063000000,3.506687123,2.776060529,0.289937642,-0.007163091,0.027469893,0.361232946
1750931781.047042608,-1.772631545,-2.313799978,-0.643288471,1.573515522,-0.389780787,-1.959397000,-0.003211635,0.030703469,-0.034179227,-0.021991846,0.062409573,0.064000000,3.506886217,2.776212626,0.289936381,-0.007165944,0.027469892,0.361258047
1750931781.049090385,-1.772638018,-2.313738091,-0.643357363,1.573471195,-0.389654993,-1.959268000,-0.003261817,0.031183211,-0.034713278,-0.022335468,0.063384723,0.065000000,3.507088444,2.776367111,0.289935101,-0.007168842,0.027469892,0.361283545
1750931781.051141024,-1.772644592,-2.313675245,-0.643427324,1.573426180,-0.389527248,-1.959137000,-0.003311998,0.031662953,-0.035247328,-0.022679091,0.064359872,0.066000000,3.507293802,2.776523982,0.289933800,-0.007171784,0.027469892,0.361309439
1750931781.053169250,-1.772644592,-2.313675245,-0.643427324,1.573426180,-0.389527248,-1.959137000,-0.003311998,0.031662953,-0.035247328,-0.022679091,0.064359872,0.066000000,3.507293802,2.776523982,0.289933800,-0.007171784,0.027469892,0.361309439
1750931781.055124760,-1.772651266,-2.313611439,-0.643498352,1.573380478,-0.389397554,-1.959004000,-0.003362180,0.032142694,-0.035781378,-0.023022714,0.065335022,0.067000000,3.507502292,2.776683239,0.289932479,-0.007174772,0.027469892,0.361335729
1750931781.057364941,-1.772658041,-2.313546674,-0.643570449,1.573334089,-0.389265908,-1.958869000,-0.003412362,0.032622436,-0.036315429,-0.023366336,0.066310172,0.068000000,3.507713914,2.776844883,0.289931139,-0.007177805,0.027469892,0.361362415
1750931781.059411049,-1.772664916,-2.313480950,-0.643643614,1.573287013,-0.389132313,-1.958732000,-0.003462544,0.033102178,-0.036849479,-0.023709959,0.067285321,0.069000000,3.507928666,2.777008911,0.289929778,-0.007180883,0.027469891,0.361389498
1750931781.063023567,-1.772671891,-2.313414266,-0.643717847,1.573239249,-0.388996767,-1.958593000,-0.003512726,0.033581919,-0.037383530,-0.024053581,0.068260471,0.070000000,3.508146550,2.777175325,0.289928397,-0.007184006,0.027469891,0.361416977
1750931781.064518213,-1.772678966,-2.313346622,-0.643793148,1.573190799,-0.388859271,-1.958452000,-0.003562907,0.034061661,-0.037917580,-0.024397204,0.069235620,0.071000000,3.508367565,2.777344124,0.289926995,-0.007187174,0.027469891,0.361444852
1750931781.083112240,-1.772686142,-2.313278019,-0.643869517,1.573141660,-0.388719825,-1.958309000,-0.003613089,0.034541403,-0.038451630,-0.024740826,0.070210770,0.072000000,3.508591710,2.777515306,0.289925574,-0.007190386,0.027469891,0.361473124
1750931781.083187103,-1.772693419,-2.313208456,-0.643946955,1.573091835,-0.388578428,-1.958164000,-0.003663271,0.035021145,-0.038985681,-0.025084449,0.071185920,0.073000000,3.508818986,2.777688873,0.289924132,-0.007193644,0.027469890,0.361501792
1750931781.083205223,-1.772700796,-2.313137934,-0.644025460,1.573041323,-0.388435081,-1.958017000,-0.003713453,0.035500886,-0.039519731,-0.025428072,0.072161069,0.074000000,3.509049392,2.777864823,0.289922671,-0.007196947,0.027469890,0.361530857
1750931781.083222628,-1.772708273,-2.313066453,-0.644105034,1.572990123,-0.388289784,-1.957868000,-0.003763635,0.035980628,-0.040053782,-0.025771694,0.073136219,0.075000000,3.509282928,2.778043156,0.289921189,-0.007200295,0.027469890,0.361560319
1750931781.083239317,-1.772715850,-2.312994012,-0.644185675,1.572938236,-0.388142536,-1.957717000,-0.003813816,0.036460370,-0.040587832,-0.026115317,0.074111368,0.076000000,3.509519594,2.778223871,0.289919686,-0.007203687,0.027469890,0.361590177
1750931781.083256721,-1.772715850,-2.312994012,-0.644185675,1.572938236,-0.388142536,-1.957717000,-0.003813816,0.036460370,-0.040587832,-0.026115317,0.074111368,0.076000000,3.509519594,2.778223871,0.289919686,-0.007203687,0.027469890,0.361590177
1750931781.083273649,-1.772723528,-2.312920611,-0.644267385,1.572885662,-0.387993338,-1.957564000,-0.003863998,0.036940111,-0.041121883,-0.026458939,0.075086518,0.077000000,3.509759390,2.778406968,0.289918164,-0.007207125,0.027469889,0.361620432
1750931781.083292007,-1.772731306,-2.312846251,-0.644350163,1.572832400,-0.387842190,-1.957409000,-0.003914180,0.037419853,-0.041655933,-0.026802562,0.076061667,0.078000000,3.510002316,2.778592447,0.289916621,-0.007210608,0.027469889,0.361651084
1750931781.083309889,-1.772739185,-2.312770932,-0.644434009,1.572778451,-0.387689091,-1.957252000,-0.003964362,0.037899595,-0.042189983,-0.027146185,0.077036817,0.079000000,3.510248371,2.778780307,0.289915058,-0.007214136,0.027469889,0.361682132
1750931781.083442926,-1.772747163,-2.312694653,-0.644518923,1.572723815,-0.387534043,-1.957093000,-0.004014544,0.038379337,-0.042724034,-0.027489807,0.078011967,0.080000000,3.510497555,2.778970548,0.289913475,-0.007217709,0.027469889,0.361713577
1750931781.085468054,-1.772755243,-2.312617415,-0.644604905,1.572668492,-0.387377044,-1.956932000,-0.004064725,0.038859078,-0.043258084,-0.027833430,0.078987116,0.081000000,3.510749868,2.779163169,0.289911872,-0.007221327,0.027469888,0.361745419
1750931781.087159157,-1.772763422,-2.312539217,-0.644691955,1.572612482,-0.387218094,-1.956769000,-0.004114907,0.039338820,-0.043792135,-0.028177052,0.079962266,0.082000000,3.511005310,2.779358170,0.289910248,-0.007224990,0.027469888,0.361777658
1750931781.089202166,-1.772771702,-2.312460059,-0.644780073,1.572555784,-0.387057195,-1.956604000,-0.004165089,0.039818562,-0.044326185,-0.028520675,0.080937415,0.083000000,3.511263881,2.779555550,0.289908604,-0.007228697,0.027469888,0.361810294
1750931781.091358185,-1.772780083,-2.312379943,-0.644869260,1.572498399,-0.386894345,-1.956437000,-0.004215271,0.040298303,-0.044860236,-0.028864298,0.081912565,0.084000000,3.511525580,2.779755308,0.289906939,-0.007232450,0.027469888,0.361843327
1750931781.093305826,-1.772788563,-2.312298866,-0.644959514,1.572440327,-0.386729544,-1.956268000,-0.004265452,0.040778045,-0.045394286,-0.029207920,0.082887715,0.085000000,3.511790407,2.779957445,0.289905254,-0.007236248,0.027469887,0.361876757
1750931781.095162630,-1.772797145,-2.312216830,-0.645050837,1.572381567,-0.386562794,-1.956097000,-0.004315634,0.041257787,-0.045928336,-0.029551543,0.083862864,0.086000000,3.512058362,2.780161960,0.289903549,-0.007240091,0.027469887,0.361910584
1750931781.100404739,-1.772805826,-2.312133835,-0.645143228,1.572322121,-0.386394093,-1.955924000,-0.004365816,0.041737528,-0.046462387,-0.029895165,0.084838014,0.087000000,3.512329445,2.780368852,0.289901824,-0.007243979,0.027469887,0.361944809
1750931781.101731062,-1.772823490,-2.311964966,-0.645331213,1.572201165,-0.386050840,-1.955572000,-0.004466180,0.042697012,-0.047530488,-0.030582410,0.086788313,0.089000000,3.512880993,2.780789765,0.289898311,-0.007251891,0.027469886,0.362014449
1750931781.103118420,-1.772832473,-2.311879092,-0.645426808,1.572139657,-0.385876288,-1.955393000,-0.004516361,0.043176754,-0.048064538,-0.030926033,0.087763462,0.090000000,3.513161458,2.781003785,0.289896525,-0.007255914,0.027469886,0.362049866
1750931781.105121136,-1.772841555,-2.311792259,-0.645523472,1.572077461,-0.385699786,-1.955212000,-0.004566543,0.043656495,-0.048598589,-0.031269656,0.088738612,0.091000000,3.513445049,2.781220181,0.289894718,-0.007259982,0.027469885,0.362085679
1750931781.107198715,-1.772850739,-2.311704466,-0.645621203,1.572014578,-0.385521334,-1.955029000,-0.004616725,0.044136237,-0.049132639,-0.031613278,0.089713762,0.092000000,3.513731767,2.781438951,0.289892890,-0.007264095,0.027469885,0.362121890
1750931781.109197617,-1.772860022,-2.311615714,-0.645720002,1.571951008,-0.385340931,-1.954844000,-0.004666907,0.044615979,-0.049666689,-0.031956901,0.090688911,0.093000000,3.514021612,2.781660095,0.289891042,-0.007268253,0.027469885,0.362158499
1750931781.111014128,-1.772869406,-2.311526002,-0.645819870,1.571886751,-0.385158578,-1.954657000,-0.004717089,0.045095720,-0.050200740,-0.032300523,0.091664061,0.094000000,3.514314583,2.781883613,0.289889173,-0.007272457,0.027469885,0.362195505
1750931781.112998724,-1.772878891,-2.311435331,-0.645920805,1.571821806,-0.384974275,-1.954468000,-0.004767270,0.045575462,-0.050734790,-0.032644146,0.092639210,0.095000000,3.514610680,2.782109504,0.289887284,-0.007276705,0.027469884,0.362232909
1750931781.115048885,-1.772888475,-2.311343700,-0.646022809,1.571756174,-0.384788021,-1.954277000,-0.004817452,0.046055204,-0.051268841,-0.032987769,0.093614360,0.096000000,3.514909902,2.782337767,0.289885375,-0.007280999,0.027469884,0.362270710
1750931781.117013216,-1.772898160,-2.311251110,-0.646125880,1.571689855,-0.384599818,-1.954084000,-0.004867634,0.046534946,-0.051802891,-0.033331391,0.094589510,0.097000000,3.515212250,2.782568402,0.289883444,-0.007285337,0.027469884,0.362308909
1750931781.119055271,-1.772907946,-2.311157561,-0.646230020,1.571622849,-0.384409663,-1.953889000,-0.004917816,0.047014687,-0.052336941,-0.033675014,0.095564659,0.098000000,3.515517723,2.782801408,0.289881494,-0.007289721,0.027469883,0.362347506
1750931781.121127367,-1.772917832,-2.311063052,-0.646335228,1.571555155,-0.384217559,-1.953692000,-0.004967998,0.047494429,-0.052870992,-0.034018636,0.096539809,0.099000000,3.515826321,2.783036784,0.289879523,-0.007294150,0.027469883,0.362386501
1750931781.123117685,-1.772917832,-2.311063052,-0.646335228,1.571555155,-0.384217559,-1.953692000,-0.004967998,0.047494429,-0.052870992,-0.034018636,0.096539809,0.099000000,3.515826321,2.783036784,0.289879523,-0.007294150,0.027469883,0.362386501
1750931781.125222445,-1.772927818,-2.310967583,-0.646441504,1.571486774,-0.384023504,-1.953493000,-0.005018179,0.047974171,-0.053405042,-0.034362259,0.097514958,0.100000000,3.516138044,2.783274531,0.289877531,-0.007298623,0.027469883,0.362425894
1750931781.127296448,-1.772937904,-2.310871155,-0.646548848,1.571417706,-0.383827499,-1.953292000,-0.005068361,0.048453912,-0.053939093,-0.034705882,0.098490108,0.101000000,3.516452891,2.783514648,0.289875518,-0.007303142,0.027469882,0.362465685
1750931781.131306648,-1.772958379,-2.310675420,-0.646766741,1.571277508,-0.383429638,-1.952884000,-0.005168725,0.049413396,-0.055007194,-0.035393127,0.100440407,0.103000000,3.517091958,2.784001986,0.289871432,-0.007312315,0.027469882,0.362546460
1750931781.131489277,-1.772958379,-2.310675420,-0.646766741,1.571277508,-0.383429638,-1.952884000,-0.005168725,0.049413396,-0.055007194,-0.035393127,0.100440407,0.103000000,3.517091958,2.784001986,0.289871432,-0.007312315,0.027469882,0.362546460
1750931781.139411211,-1.772979254,-2.310475848,-0.646988906,1.571134561,-0.383023976,-1.952468000,-0.005269088,0.050372879,-0.056075294,-0.036080372,0.102390706,0.105000000,3.517743519,2.784498796,0.289867262,-0.007321669,0.027469881,0.362628828
1750931781.141443014,-1.773000531,-2.310272437,-0.647215343,1.570988865,-0.382610512,-1.952044000,-0.005369452,0.051332363,-0.057143395,-0.036767617,0.104341005,0.107000000,3.518407573,2.785005071,0.289863010,-0.007331202,0.027469880,0.362712789
1750931781.143909693,-1.773011320,-2.310169293,-0.647330164,1.570914986,-0.382400855,-1.951829000,-0.005419634,0.051812104,-0.057677446,-0.037111240,0.105316155,0.108000000,3.518744285,2.785261757,0.289860853,-0.007336037,0.027469880,0.362755367
1750931781.145087004,-1.773022210,-2.310065189,-0.647446053,1.570840420,-0.382189248,-1.951612000,-0.005469816,0.052291846,-0.058211496,-0.037454862,0.106291305,0.109000000,3.519084118,2.785520807,0.289858675,-0.007340917,0.027469880,0.362798344
1750931781.147033453,-1.773033200,-2.309960125,-0.647563010,1.570765167,-0.381975690,-1.951393000,-0.005519997,0.052771588,-0.058745547,-0.037798485,0.107266454,0.110000000,3.519427074,2.785782221,0.289856477,-0.007345841,0.027469879,0.362841719
1750931781.149114370,-1.773044290,-2.309854102,-0.647681035,1.570689226,-0.381760182,-1.951172000,-0.005570179,0.053251329,-0.059279597,-0.038142107,0.108241604,0.111000000,3.519773151,2.786045998,0.289854257,-0.007350811,0.027469879,0.362885492
1750931781.151041746,-1.773055480,-2.309747120,-0.647800129,1.570612598,-0.381542724,-1.950949000,-0.005620361,0.053731071,-0.059813647,-0.038485730,0.109216753,0.112000000,3.520122350,2.786312138,0.289852017,-0.007355826,0.027469879,0.362929665
1750931781.153147221,-1.773066771,-2.309639178,-0.647920290,1.570535283,-0.381323315,-1.950724000,-0.005670543,0.054210813,-0.060347698,-0.038829353,0.110191903,0.113000000,3.520474670,2.786580640,0.289849756,-0.007360886,0.027469878,0.362974236
1750931781.155092478,-1.773078163,-2.309530277,-0.648041519,1.570457281,-0.381101956,-1.950497000,-0.005720725,0.054690555,-0.060881748,-0.039172975,0.111167052,0.114000000,3.520830112,2.786851503,0.289847474,-0.007365992,0.027469878,0.363019206
1750931781.157183647,-1.773089654,-2.309420416,-0.648163817,1.570378591,-0.380878647,-1.950268000,-0.005770906,0.055170296,-0.061415799,-0.039516598,0.112142202,0.115000000,3.521188673,2.787124727,0.289845171,-0.007371142,0.027469877,0.363064574
1750931781.159228086,-1.773101246,-2.309309596,-0.648287182,1.570299214,-0.380653387,-1.950037000,-0.005821088,0.055650038,-0.061949849,-0.039860220,0.113117352,0.116000000,3.521550356,2.787400310,0.289842848,-0.007376338,0.027469877,0.363110342
1750931781.161215782,-1.773112939,-2.309197816,-0.648411616,1.570219150,-0.380426177,-1.949804000,-0.005871270,0.056129780,-0.062483900,-0.040203843,0.114092501,0.117000000,3.521915158,2.787678253,0.289840503,-0.007381578,0.027469877,0.363156508
1750931781.163905382,-1.773112939,-2.309197816,-0.648411616,1.570219150,-0.380426177,-1.949804000,-0.005871270,0.056129780,-0.062483900,-0.040203843,0.114092501,0.117000000,3.521915158,2.787678253,0.289840503,-0.007381578,0.027469877,0.363156508
1750931781.165221691,-1.773124731,-2.309085076,-0.648537118,1.570138399,-0.380197017,-1.949569000,-0.005921452,0.056609521,-0.063017950,-0.040547466,0.115067651,0.118000000,3.522283080,2.787958555,0.289838138,-0.007386864,0.027469876,0.363203074
1750931781.167088270,-1.773136624,-2.308971378,-0.648663688,1.570056961,-0.379965907,-1.949332000,-0.005971633,0.057089263,-0.063552000,-0.040891088,0.116042800,0.119000000,3.522654122,2.788241214,0.289835752,-0.007392195,0.027469876,0.363250038
1750931781.169143915,-1.773148618,-2.308856719,-0.648791326,1.569974835,-0.379732846,-1.949093000,-0.006021815,0.057569005,-0.064086051,-0.041234711,0.117017950,0.120000000,3.523028283,2.788526230,0.289833344,-0.007397571,0.027469876,0.363297402
1750931781.171059608,-1.773160712,-2.308741102,-0.648920032,1.569892022,-0.379497835,-1.948852000,-0.006071997,0.058048746,-0.064620101,-0.041578333,0.117993100,0.121000000,3.523405563,2.788813603,0.289830916,-0.007402993,0.027469875,0.363345165
1750931781.173034668,-1.773172906,-2.308624524,-0.649049806,1.569808521,-0.379260874,-1.948609000,-0.006122179,0.058528488,-0.065154152,-0.041921956,0.118968249,0.122000000,3.523785961,2.789103331,0.289828467,-0.007408459,0.027469875,0.363393328
1750931781.175212860,-1.773185200,-2.308506988,-0.649180649,1.569724334,-0.379021962,-1.948364000,-0.006172361,0.059008230,-0.065688202,-0.042265579,0.119943399,0.123000000,3.524169478,2.789395414,0.289825996,-0.007413971,0.027469874,0.363441889
1750931781.177045584,-1.773197595,-2.308388492,-0.649312559,1.569639459,-0.378781100,-1.948117000,-0.006222542,0.059487972,-0.066222252,-0.042609201,0.120918548,0.124000000,3.524556112,2.789689852,0.289823505,-0.007419528,0.027469874,0.363490851
1750931781.179122210,-1.773210091,-2.308269036,-0.649445538,1.569553897,-0.378538288,-1.947868000,-0.006272724,0.059967713,-0.066756303,-0.042952824,0.121893698,0.125000000,3.524945865,2.789986643,0.289820992,-0.007425130,0.027469874,0.363540211
1750931781.181153297,-1.773222686,-2.308148621,-0.649579585,1.569467648,-0.378293525,-1.947617000,-0.006322906,0.060447455,-0.067290353,-0.043296446,0.122868847,0.126000000,3.525338734,2.790285787,0.289818459,-0.007430777,0.027469873,0.363589972
1750931781.183138847,-1.773235382,-2.308027246,-0.649714699,1.569380711,-0.378046812,-1.947364000,-0.006373088,0.060927197,-0.067824404,-0.043640069,0.123843997,0.127000000,3.525734721,2.790587283,0.289815904,-0.007436469,0.027469873,0.363640132
1750931781.190835714,-1.773235382,-2.308027246,-0.649714699,1.569380711,-0.378046812,-1.947364000,-0.006373088,0.060927197,-0.067824404,-0.043640069,0.123843997,0.127000000,3.525734721,2.790587283,0.289815904,-0.007436469,0.027469873,0.363640132
1750931781.190922260,-1.773274072,-2.307657365,-0.650126452,1.569115778,-0.377294972,-1.946593000,-0.006523633,0.062366422,-0.069426555,-0.044670937,0.126769446,0.130000000,3.526941380,2.791505875,0.289808114,-0.007453817,0.027469872,0.363793010
1750931781.191245794,-1.773287170,-2.307532153,-0.650265839,1.569026093,-0.377040458,-1.946332000,-0.006573815,0.062846164,-0.069960605,-0.045014559,0.127744595,0.131000000,3.527349832,2.791816771,0.289805474,-0.007459690,0.027469871,0.363844770
1750931781.193394661,-1.773300368,-2.307405981,-0.650406295,1.568935720,-0.376783994,-1.946069000,-0.006623997,0.063325905,-0.070494656,-0.045358182,0.128719745,0.132000000,3.527761399,2.792130016,0.289802814,-0.007465609,0.027469871,0.363896929
1750931781.195086241,-1.773313666,-2.307278849,-0.650547818,1.568844660,-0.376525579,-1.945804000,-0.006674179,0.063805647,-0.071028706,-0.045701804,0.129694895,0.133000000,3.528176081,2.792445608,0.289800132,-0.007471572,0.027469870,0.363949489
1750931781.196992874,-1.773327064,-2.307150758,-0.650690409,1.568752913,-0.376265214,-1.945537000,-0.006724360,0.064285389,-0.071562757,-0.046045427,0.130670044,0.134000000,3.528593878,2.792763547,0.289797429,-0.007477581,0.027469870,0.364002448
1750931781.199170828,-1.773340563,-2.307021707,-0.650834069,1.568660478,-0.376002899,-1.945268000,-0.006774542,0.064765130,-0.072096807,-0.046389050,0.131645194,0.135000000,3.529014790,2.793083831,0.289794705,-0.007483635,0.027469870,0.364055808
1750931781.201164007,-1.773354162,-2.306891697,-0.650978797,1.568567357,-0.375738633,-1.944997000,-0.006824724,0.065244872,-0.072630858,-0.046732672,0.132620343,0.136000000,3.529438815,2.793406461,0.289791959,-0.007489734,0.027469869,0.364109568
1750931781.203233480,-1.773354162,-2.306891697,-0.650978797,1.568567357,-0.375738633,-1.944997000,-0.006824724,0.065244872,-0.072630858,-0.046732672,0.132620343,0.136000000,3.529438815,2.793406461,0.289791959,-0.007489734,0.027469869,0.364109568
1750931781.206218004,-1.773367862,-2.306760728,-0.651124592,1.568473548,-0.375472417,-1.944724000,-0.006874906,0.065724614,-0.073164908,-0.047076295,0.133595493,0.137000000,3.529865954,2.793731434,0.289789192,-0.007495879,0.027469869,0.364163729
1750931781.207056284,-1.773381662,-2.306628799,-0.651271456,1.568379051,-0.375204251,-1.944449000,-0.006925088,0.066204355,-0.073698958,-0.047419917,0.134570642,0.138000000,3.530296207,2.794058752,0.289786404,-0.007502068,0.027469868,0.364218290
1750931781.209100246,-1.773395562,-2.306495910,-0.651419388,1.568283868,-0.374934135,-1.944172000,-0.006975269,0.066684097,-0.074233009,-0.047763540,0.135545792,0.139000000,3.530729572,2.794388411,0.289783594,-0.007508303,0.027469868,0.364273252
1750931781.211316109,-1.773409563,-2.306362063,-0.651568388,1.568187997,-0.374662068,-1.943893000,-0.007025451,0.067163839,-0.074767059,-0.048107163,0.136520942,0.140000000,3.531166050,2.794720413,0.289780763,-0.007514584,0.027469867,0.364328614
1750931781.213155508,-1.773423664,-2.306227255,-0.651718456,1.568091439,-0.374388051,-1.943612000,-0.007075633,0.067643581,-0.075301110,-0.048450785,0.137496091,0.141000000,3.531605641,2.795054755,0.289777910,-0.007520909,0.027469867,0.364384377
1750931781.215143442,-1.773437866,-2.306091488,-0.651869593,1.567994194,-0.374112084,-1.943329000,-0.007125815,0.068123322,-0.075835160,-0.048794408,0.138471241,0.142000000,3.532048343,2.795391438,0.289775036,-0.007527280,0.027469867,0.364440541
1750931781.217133284,-1.773452168,-2.305954762,-0.652021797,1.567896262,-0.373834166,-1.943044000,-0.007175997,0.068603064,-0.076369211,-0.049138030,0.139446390,0.143000000,3.532494157,2.795730460,0.289772141,-0.007533696,0.027469866,0.364497106
1750931781.219076872,-1.773466570,-2.305817076,-0.652175070,1.567797642,-0.373554298,-1.942757000,-0.007226178,0.069082806,-0.076903261,-0.049481653,0.140421540,0.144000000,3.532943083,2.796071821,0.289769224,-0.007540157,0.027469866,0.364554071
1750931781.221098900,-1.773481072,-2.305678431,-0.652329410,1.567698335,-0.373272480,-1.942468000,-0.007276360,0.069562547,-0.077437311,-0.049825276,0.141396690,0.145000000,3.533395119,2.796415519,0.289766285,-0.007546663,0.027469865,0.364611438
1750931781.223159552,-1.773495675,-2.305538826,-0.652484819,1.567598341,-0.372988711,-1.942177000,-0.007326542,0.070042289,-0.077971362,-0.050168898,0.142371839,0.146000000,3.533850266,2.796761553,0.289763325,-0.007553215,0.027469865,0.364669205
1750931781.225088596,-1.773510378,-2.305398261,-0.652641296,1.567497659,-0.372702993,-1.941884000,-0.007376724,0.070522031,-0.078505412,-0.050512521,0.143346989,0.147000000,3.534308523,2.797109924,0.289760344,-0.007559812,0.027469864,0.364727374
1750931781.227123022,-1.773525182,-2.305256738,-0.652798840,1.567396291,-0.372415324,-1.941589000,-0.007426905,0.071001773,-0.079039463,-0.050856143,0.144322138,0.148000000,3.534769889,2.797460629,0.289757340,-0.007566454,0.027469864,0.364785944
1750931781.229346275,-1.773540086,-2.305114254,-0.652957453,1.567294235,-0.372125704,-1.941292000,-0.007477087,0.071481514,-0.079573513,-0.051199766,0.145297288,0.149000000,3.535234366,2.797813669,0.289754316,-0.007573142,0.027469864,0.364844916
1750931781.231386423,-1.773555090,-2.304970812,-0.653117135,1.567191492,-0.371834134,-1.940993000,-0.007527269,0.071961256,-0.080107563,-0.051543388,0.146272437,0.150000000,3.535701951,2.798169042,0.289751269,-0.007579875,0.027469863,0.364904288
1750931781.234513998,-1.773570195,-2.304826409,-0.653277884,1.567088061,-0.371540614,-1.940692000,-0.007577451,0.072440998,-0.080641614,-0.051887011,0.147247587,0.151000000,3.536172644,2.798526747,0.289748201,-0.007586653,0.027469863,0.364964063
1750931781.241344690,-1.773600706,-2.304534726,-0.653602586,1.566879139,-0.370947723,-1.940084000,-0.007677814,0.073400481,-0.081709715,-0.052574256,0.149197886,0.153000000,3.537123356,2.799249151,0.289741999,-0.007600346,0.027469862,0.365084816
1750931781.241405010,-1.773600706,-2.304534726,-0.653602586,1.566879139,-0.370947723,-1.940084000,-0.007677814,0.073400481,-0.081709715,-0.052574256,0.149197886,0.153000000,3.537123356,2.799249151,0.289741999,-0.007600346,0.027469862,0.365084816
1750931781.243560791,-1.773600706,-2.304534726,-0.653602586,1.566879139,-0.370947723,-1.940084000,-0.007677814,0.073400481,-0.081709715,-0.052574256,0.149197886,0.153000000,3.537123356,2.799249151,0.289741999,-0.007600346,0.027469862,0.365084816
1750931781.243649244,-1.773600706,-2.304534726,-0.653602586,1.566879139,-0.370947723,-1.940084000,-0.007677814,0.073400481,-0.081709715,-0.052574256,0.149197886,0.153000000,3.537123356,2.799249151,0.289741999,-0.007600346,0.027469862,0.365084816
1750931781.245646238,-1.773631618,-2.304239206,-0.653931561,1.566667467,-0.370347031,-1.939468000,-0.007778178,0.074359964,-0.082777816,-0.053261501,0.151148185,0.155000000,3.538086498,2.799980874,0.289735710,-0.007614219,0.027469861,0.365207176
1750931781.247108698,-1.773647224,-2.304090006,-0.654097651,1.566560601,-0.370043760,-1.939157000,-0.007828360,0.074839706,-0.083311866,-0.053605124,0.152123335,0.156000000,3.538572729,2.800350228,0.289732533,-0.007621224,0.027469860,0.365268959
1750931781.249053717,-1.773662931,-2.303939847,-0.654264809,1.566453047,-0.369738538,-1.938844000,-0.007878542,0.075319448,-0.083845916,-0.053948747,0.153098485,0.157000000,3.539062067,2.800721908,0.289729335,-0.007628274,0.027469860,0.365331144
1750931781.251032352,-1.773678738,-2.303788728,-0.654433035,1.566344806,-0.369431366,-1.938529000,-0.007928723,0.075799190,-0.084379967,-0.054292369,0.154073634,0.158000000,3.539554510,2.801095914,0.289726114,-0.007635370,0.027469859,0.365393731
1750931781.253049612,-1.773694646,-2.303636650,-0.654602329,1.566235877,-0.369122243,-1.938212000,-0.007978905,0.076278931,-0.084914017,-0.054635992,0.155048784,0.159000000,3.540050059,2.801472246,0.289722871,-0.007642510,0.027469859,0.365456720
1750931781.255007982,-1.773710654,-2.303483612,-0.654772691,1.566126262,-0.368811171,-1.937893000,-0.008029087,0.076758673,-0.085448068,-0.054979614,0.156023933,0.160000000,3.540548714,2.801850901,0.289719607,-0.007649697,0.027469858,0.365520111
1750931781.257037401,-1.773726762,-2.303329615,-0.654944121,1.566015959,-0.368498148,-1.937572000,-0.008079269,0.077238415,-0.085982118,-0.055323237,0.156999083,0.161000000,3.541050472,2.802231880,0.289716320,-0.007656928,0.027469858,0.365583905
1750931781.259098530,-1.773742971,-2.303174659,-0.655116619,1.565904969,-0.368183174,-1.937249000,-0.008129451,0.077718156,-0.086516169,-0.055666860,0.157974232,0.162000000,3.541555335,2.802615181,0.289713012,-0.007664205,0.027469858,0.365648101
1750931781.261289835,-1.773759280,-2.303018743,-0.655290186,1.565793291,-0.367866251,-1.936924000,-0.008179632,0.078197898,-0.087050219,-0.056010482,0.158949382,0.163000000,3.542063302,2.803000803,0.289709681,-0.007671527,0.027469857,0.365712699
1750931781.263381958,-1.773775690,-2.302861867,-0.655464820,1.565680927,-0.367547377,-1.936597000,-0.008229814,0.078677640,-0.087584269,-0.056354105,0.159924532,0.164000000,3.542574373,2.803388745,0.289706328,-0.007678895,0.027469857,0.365777700
1750931781.268048525,-1.773792199,-2.302704032,-0.655640523,1.565567875,-0.367226553,-1.936268000,-0.008279996,0.079157382,-0.088118320,-0.056697727,0.160899681,0.165000000,3.543088546,2.803779007,0.289702954,-0.007686308,0.027469856,0.365843103
1750931781.268095970,-1.773808810,-2.302545238,-0.655817293,1.565454136,-0.366903778,-1.935937000,-0.008330178,0.079637123,-0.088652370,-0.057041350,0.161874831,0.166000000,3.543605823,2.804171587,0.289699557,-0.007693766,0.027469856,0.365908910
1750931781.271699905,-1.773825520,-2.302385484,-0.655995132,1.565339710,-0.366579053,-1.935604000,-0.008380360,0.080116865,-0.089186421,-0.057384973,0.162849980,0.167000000,3.544126201,2.804566485,0.289696138,-0.007701270,0.027469855,0.365975119
1750931781.275749683,-1.773825520,-2.302385484,-0.655995132,1.565339710,-0.366579053,-1.935604000,-0.008380360,0.080116865,-0.089186421,-0.057384973,0.162849980,0.167000000,3.544126201,2.804566485,0.289696138,-0.007701270,0.027469855,0.365975119
1750931781.275771379,-1.773842331,-2.302224770,-0.656174039,1.565224596,-0.366252378,-1.935269000,-0.008430541,0.080596607,-0.089720471,-0.057728595,0.163825130,0.168000000,3.544649681,2.804963698,0.289692697,-0.007708819,0.027469855,0.366041731
1750931781.275784969,-1.773859242,-2.302063097,-0.656354014,1.565108795,-0.365923753,-1.934932000,-0.008480723,0.081076348,-0.090254522,-0.058072218,0.164800279,0.169000000,3.545176263,2.805363227,0.289689234,-0.007716414,0.027469854,0.366108746
1750931781.277569294,-1.773876254,-2.301900465,-0.656535057,1.564992307,-0.365593177,-1.934593000,-0.008530905,0.081556090,-0.090788572,-0.058415840,0.165775429,0.170000000,3.545705945,2.805765071,0.289685749,-0.007724054,0.027469854,0.366176164
1750931781.279052734,-1.773893366,-2.301736873,-0.656717168,1.564875132,-0.365260651,-1.934252000,-0.008581087,0.082035832,-0.091322622,-0.058759463,0.166750579,0.171000000,3.546238728,2.806169228,0.289682241,-0.007731739,0.027469853,0.366243985
1750931781.281107903,-1.773910578,-2.301572321,-0.656900348,1.564757269,-0.364926175,-1.933909000,-0.008631269,0.082515574,-0.091856673,-0.059103085,0.167725728,0.172000000,3.546774611,2.806575697,0.289678711,-0.007739470,0.027469853,0.366312209
1750931781.283069372,-1.773927891,-2.301406810,-0.657084595,1.564638720,-0.364589748,-1.933564000,-0.008681450,0.082995315,-0.092390723,-0.059446708,0.168700878,0.173000000,3.547313594,2.806984477,0.289675159,-0.007747246,0.027469852,0.366380837
1750931781.285127401,-1.773945304,-2.301240340,-0.657269911,1.564519482,-0.364251371,-1.933217000,-0.008731632,0.083475057,-0.092924774,-0.059790331,0.169676027,0.174000000,3.547855676,2.807395568,0.289671585,-0.007755068,0.027469852,0.366449868
1750931781.287104845,-1.773962817,-2.301072910,-0.657456294,1.564399558,-0.363911044,-1.932868000,-0.008781814,0.083954799,-0.093458824,-0.060133953,0.170651177,0.175000000,3.548400857,2.807808968,0.289667988,-0.007762935,0.027469851,0.366519303
1750931781.289116383,-1.773980431,-2.300904521,-0.657643746,1.564278947,-0.363568767,-1.932517000,-0.008831996,0.084434540,-0.093992874,-0.060477576,0.171626327,0.176000000,3.548949136,2.808224676,0.289664368,-0.007770848,0.027469851,0.366589141
1750931781.291095495,-1.773998145,-2.300735172,-0.657832266,1.564157648,-0.363224539,-1.932164000,-0.008882178,0.084914282,-0.094526925,-0.060821198,0.172601476,0.177000000,3.549500513,2.808642692,0.289660727,-0.007778806,0.027469850,0.366659382
1750931781.298973083,-1.774015960,-2.300564864,-0.658021854,1.564035662,-0.362878361,-1.931809000,-0.008932359,0.085394024,-0.095060975,-0.061164821,0.173576626,0.178000000,3.550054987,2.809063014,0.289657063,-0.007786809,0.027469850,0.366730028
1750931781.299032688,-1.774051890,-2.300221369,-0.658404234,1.563789628,-0.362180154,-1.931093000,-0.009032723,0.086353507,-0.096129076,-0.061852066,0.175526925,0.180000000,3.551173226,2.809910571,0.289649667,-0.007802953,0.027469849,0.366872530
1750931781.299051046,-1.774051890,-2.300221369,-0.658404234,1.563789628,-0.362180154,-1.931093000,-0.009032723,0.086353507,-0.096129076,-0.061852066,0.175526925,0.180000000,3.551173226,2.809910571,0.289649667,-0.007802953,0.027469849,0.366872530
1750931781.301728964,-1.774070006,-2.300048182,-0.658597026,1.563665580,-0.361828125,-1.930732000,-0.009082905,0.086833249,-0.096663127,-0.062195689,0.176502074,0.181000000,3.551736990,2.810337805,0.289645935,-0.007811092,0.027469848,0.366944388
1750931781.303240538,-1.774106538,-2.299698930,-0.658985815,1.563415423,-0.361118216,-1.930004000,-0.009183268,0.087792732,-0.097731227,-0.062882934,0.178452374,0.183000000,3.552873804,2.811199177,0.289638404,-0.007827509,0.027469847,0.367089315
1750931781.305582762,-1.774106538,-2.299698930,-0.658985815,1.563415423,-0.361118216,-1.930004000,-0.009183268,0.087792732,-0.097731227,-0.062882934,0.178452374,0.183000000,3.552873804,2.811199177,0.289638404,-0.007827509,0.027469847,0.367089315
1750931781.307167053,-1.774143472,-2.299345840,-0.659378876,1.563162517,-0.360400506,-1.929268000,-0.009283632,0.088752216,-0.098799328,-0.063570179,0.180402673,0.185000000,3.554022996,2.812069749,0.289630783,-0.007844107,0.027469846,0.367235858
1750931781.308985949,-1.774162089,-2.299167856,-0.659577008,1.563035033,-0.360038725,-1.928897000,-0.009333814,0.089231957,-0.099333379,-0.063913802,0.181377822,0.186000000,3.554602233,2.812508481,0.289626938,-0.007852474,0.027469846,0.367309737
1750931781.310945272,-1.774180807,-2.298988912,-0.659776209,1.562906862,-0.359674994,-1.928524000,-0.009383995,0.089711699,-0.099867429,-0.064257424,0.182352972,0.187000000,3.555184564,2.812949510,0.289623070,-0.007860887,0.027469845,0.367384020
1750931781.312911034,-1.774199625,-2.298809009,-0.659976478,1.562778003,-0.359309313,-1.928149000,-0.009434177,0.090191441,-0.100401480,-0.064601047,0.183328122,0.188000000,3.555769987,2.813392835,0.289619180,-0.007869345,0.027469845,0.367458708
1750931781.314937592,-1.774218544,-2.298628147,-0.660177815,1.562648457,-0.358941682,-1.927772000,-0.009484359,0.090671183,-0.100935530,-0.064944669,0.184303271,0.189000000,3.556358502,2.813838453,0.289615267,-0.007877849,0.027469844,0.367533800
1750931781.317890644,-1.774218544,-2.298628147,-0.660177815,1.562648457,-0.358941682,-1.927772000,-0.009484359,0.090671183,-0.100935530,-0.064944669,0.184303271,0.189000000,3.556358502,2.813838453,0.289615267,-0.007877849,0.027469844,0.367533800
1750931781.319274187,-1.774237563,-2.298446324,-0.660380220,1.562518225,-0.358572100,-1.927393000,-0.009534541,0.091150924,-0.101469580,-0.065288292,0.185278421,0.190000000,3.556950109,2.814286365,0.289611331,-0.007886399,0.027469844,0.367609297
1750931781.321177959,-1.774256682,-2.298263543,-0.660583693,1.562387304,-0.358200568,-1.927012000,-0.009584723,0.091630666,-0.102003631,-0.065631915,0.186253570,0.191000000,3.557544808,2.814736569,0.289607372,-0.007894994,0.027469843,0.367685199
1750931781.323343754,-1.774275902,-2.298079802,-0.660788235,1.562255697,-0.357827086,-1.926629000,-0.009634904,0.092110408,-0.102537681,-0.065975537,0.187228720,0.192000000,3.558142597,2.815189064,0.289603390,-0.007903634,0.027469843,0.367761506
1750931781.325311184,-1.774295222,-2.297895101,-0.660993844,1.562123402,-0.357451653,-1.926244000,-0.009685086,0.092590149,-0.103071732,-0.066319160,0.188203869,0.193000000,3.558743477,2.815643848,0.289599386,-0.007912320,0.027469842,0.367838218
1750931781.327188730,-1.774314642,-2.297709441,-0.661200522,1.561990420,-0.357074270,-1.925857000,-0.009735268,0.093069891,-0.103605782,-0.066662782,0.189179019,0.194000000,3.559347447,2.816100921,0.289595358,-0.007921052,0.027469841,0.367915336
1750931781.329217196,-1.774334163,-2.297522822,-0.661408267,1.561856751,-0.356694937,-1.925468000,-0.009785450,0.093549633,-0.104139833,-0.067006405,0.190154169,0.195000000,3.559954506,2.816560282,0.289591308,-0.007929829,0.027469841,0.367992858
1750931781.331375360,-1.774353784,-2.297335243,-0.661617081,1.561722395,-0.356313654,-1.925077000,-0.009835632,0.094029374,-0.104673883,-0.067350028,0.191129318,0.196000000,3.560564653,2.817021928,0.289587234,-0.007938652,0.027469840,0.368070786
1750931781.334587097,-1.774373505,-2.297146704,-0.661826963,1.561587351,-0.355930420,-1.924684000,-0.009885813,0.094509116,-0.105207933,-0.067693650,0.192104468,0.197000000,3.561177890,2.817485860,0.289583137,-0.007947520,0.027469840,0.368149119
1750931781.335203171,-1.774393327,-2.296957206,-0.662037913,1.561451620,-0.355545236,-1.924289000,-0.009935995,0.094988858,-0.105741984,-0.068037273,0.193079617,0.198000000,3.561794214,2.817952076,0.289579017,-0.007956434,0.027469839,0.368227858
1750931781.337156534,-1.774413249,-2.296766749,-0.662249931,1.561315202,-0.355158101,-1.923892000,-0.009986177,0.095468600,-0.106276034,-0.068380895,0.194054767,0.199000000,3.562413625,2.818420575,0.289574874,-0.007965393,0.027469839,0.368307002
1750931781.339129925,-1.774433272,-2.296575332,-0.662463017,1.561178096,-0.354769017,-1.923493000,-0.010036359,0.095948341,-0.106810085,-0.068724518,0.195029917,0.200000000,3.563036123,2.818891355,0.289570708,-0.007974398,0.027469838,0.368386552
1750931781.341149807,-1.774453395,-2.296382955,-0.662677171,1.561040304,-0.354377982,-1.923092000,-0.010086541,0.096428083,-0.107344135,-0.069068141,0.196005066,0.201000000,3.563661708,2.819364416,0.289566519,-0.007983449,0.027469838,0.368466508
1750931781.343172073,-1.774473618,-2.296189619,-0.662892393,1.560901824,-0.353984996,-1.922689000,-0.010136722,0.096907825,-0.107878185,-0.069411763,0.196980216,0.202000000,3.564290378,2.819839757,0.289562307,-0.007992545,0.027469837,0.368546869
1750931781.345138788,-1.774493942,-2.295995324,-0.663108684,1.560762657,-0.353590061,-1.922284000,-0.010186904,0.097387566,-0.108412236,-0.069755386,0.197955365,0.203000000,3.564922134,2.820317375,0.289558071,-0.008001687,0.027469837,0.368627637
1750931781.352858067,-1.774493942,-2.295995324,-0.663108684,1.560762657,-0.353590061,-1.922284000,-0.010186904,0.097387566,-0.108412236,-0.069755386,0.197955365,0.203000000,3.564922134,2.820317375,0.289558071,-0.008001687,0.027469837,0.368627637
1750931781.352927685,-1.774514366,-2.295800069,-0.663326042,1.560622802,-0.353193175,-1.921877000,-0.010237086,0.097867308,-0.108946286,-0.070099008,0.198930515,0.204000000,3.565556975,2.820797270,0.289553812,-0.008010875,0.027469836,0.368708811
1750931781.352945566,-1.774555515,-2.295406681,-0.663763964,1.560341032,-0.352393552,-1.921057000,-0.010337450,0.098826792,-0.110014387,-0.070786254,0.200880814,0.206000000,3.566835908,2.821763886,0.289545224,-0.008029387,0.027469835,0.368872376
1750931781.353757143,-1.774576240,-2.295208548,-0.663984527,1.560199116,-0.351990816,-1.920644000,-0.010387631,0.099306533,-0.110548438,-0.071129876,0.201855964,0.207000000,3.567480000,2.822250605,0.289540894,-0.008038711,0.027469835,0.368954768
1750931781.355134249,-1.774597065,-2.295009455,-0.664206158,1.560056512,-0.351586128,-1.920229000,-0.010437813,0.099786275,-0.111082488,-0.071473499,0.202831113,0.208000000,3.568127174,2.822739595,0.289536542,-0.008048081,0.027469834,0.369037567
1750931781.357191324,-1.774617991,-2.294809403,-0.664428857,1.559913222,-0.351179491,-1.919812000,-0.010487995,0.100266017,-0.111616538,-0.071817121,0.203806263,0.209000000,3.568777431,2.823230856,0.289532165,-0.008057497,0.027469834,0.369120772
1750931781.359120131,-1.774639017,-2.294608391,-0.664652624,1.559769244,-0.350770903,-1.919393000,-0.010538177,0.100745758,-0.112150589,-0.072160744,0.204781412,0.210000000,3.569430769,2.823724387,0.289527766,-0.008066958,0.027469833,0.369204384
1750931781.361306429,-1.774660144,-2.294406419,-0.664877459,1.559624579,-0.350360365,-1.918972000,-0.010588359,0.101225500,-0.112684639,-0.072504366,0.205756562,0.211000000,3.570087188,2.824220187,0.289523343,-0.008076466,0.027469832,0.369288402
1750931781.363124371,-1.774681371,-2.294203489,-0.665103362,1.559479226,-0.349947877,-1.918549000,-0.010638540,0.101705242,-0.113218690,-0.072847989,0.206731712,0.212000000,3.570746688,2.824718253,0.289518896,-0.008086018,0.027469832,0.369372827
1750931781.365650654,-1.774681371,-2.294203489,-0.665103362,1.559479226,-0.349947877,-1.918549000,-0.010638540,0.101705242,-0.113218690,-0.072847989,0.206731712,0.212000000,3.570746688,2.824718253,0.289518896,-0.008086018,0.027469832,0.369372827
1750931781.367093086,-1.774702698,-2.293999599,-0.665330334,1.559333187,-0.349533439,-1.918124000,-0.010688722,0.102184983,-0.113752740,-0.073191612,0.207706861,0.213000000,3.571409268,2.825218585,0.289514425,-0.008095617,0.027469831,0.369457659
1750931781.368985415,-1.774724125,-2.293794749,-0.665558373,1.559186460,-0.349117050,-1.917697000,-0.010738904,0.102664725,-0.114286791,-0.073535234,0.208682011,0.214000000,3.572074927,2.825721182,0.289509931,-0.008105261,0.027469831,0.369542898
1750931781.371188164,-1.774745653,-2.293588940,-0.665787481,1.559039046,-0.348698711,-1.917268000,-0.010789086,0.103144467,-0.114820841,-0.073878857,0.209657160,0.215000000,3.572743666,2.826226042,0.289505413,-0.008114951,0.027469830,0.369628544
1750931781.373124123,-1.774767282,-2.293382171,-0.666017657,1.558890944,-0.348278421,-1.916837000,-0.010839267,0.103624209,-0.115354891,-0.074222479,0.210632310,0.216000000,3.573415482,2.826733164,0.289500872,-0.008124686,0.027469830,0.369714597
1750931781.375100613,-1.774789010,-2.293174443,-0.666248900,1.558742156,-0.347856181,-1.916404000,-0.010889449,0.104103950,-0.115888942,-0.074566102,0.211607459,0.217000000,3.574090376,2.827242547,0.289496307,-0.008134468,0.027469829,0.369801057
1750931781.377318382,-1.774810840,-2.292965755,-0.666481212,1.558592680,-0.347431991,-1.915969000,-0.010939631,0.104583692,-0.116422992,-0.074909725,0.212582609,0.218000000,3.574768348,2.827754189,0.289491717,-0.008144295,0.027469829,0.369887924
1750931781.379095316,-1.774832769,-2.292756108,-0.666714592,1.558442517,-0.347005851,-1.915532000,-0.010989813,0.105063434,-0.116957043,-0.075253347,0.213557759,0.219000000,3.575449396,2.828268089,0.289487104,-0.008154168,0.027469828,0.369975199
1750931781.381145716,-1.774854799,-2.292545501,-0.666949040,1.558291667,-0.346577760,-1.915093000,-0.011039995,0.105543175,-0.117491093,-0.075596970,0.214532908,0.220000000,3.576133521,2.828784247,0.289482468,-0.008164086,0.027469828,0.370062882
1750931781.383062840,-1.774876929,-2.292333935,-0.667184557,1.558140129,-0.346147719,-1.914652000,-0.011090176,0.106022917,-0.118025144,-0.075940592,0.215508058,0.221000000,3.576820721,2.829302660,0.289477807,-0.008174050,0.027469827,0.370150972
1750931781.384986877,-1.774899160,-2.292121410,-0.667421141,1.557987904,-0.345715728,-1.914209000,-0.011140358,0.106502659,-0.118559194,-0.076284215,0.216483207,0.222000000,3.577510996,2.829823327,0.289473122,-0.008184060,0.027469826,0.370239469
1750931781.387005329,-1.774921490,-2.291907925,-0.667658793,1.557834992,-0.345281786,-1.913764000,-0.011190540,0.106982401,-0.119093244,-0.076627838,0.217458357,0.223000000,3.578204345,2.830346247,0.289468413,-0.008194116,0.027469826,0.370328374
1750931781.389052629,-1.774943922,-2.291693480,-0.667897514,1.557681393,-0.344845895,-1.913317000,-0.011240722,0.107462142,-0.119627295,-0.076971460,0.218433507,0.224000000,3.578900768,2.830871419,0.289463680,-0.008204218,0.027469825,0.370417687
1750931781.391263247,-1.774966453,-2.291478076,-0.668137303,1.557527106,-0.344408052,-1.912868000,-0.011290904,0.107941884,-0.120161345,-0.077315083,0.219408656,0.225000000,3.579600265,2.831398842,0.289458924,-0.008214365,0.027469825,0.370507408
1750931781.393141747,-1.774989085,-2.291261713,-0.668378159,1.557372133,-0.343968260,-1.912417000,-0.011341085,0.108421626,-0.120695396,-0.077658705,0.220383806,0.226000000,3.580302834,2.831928513,0.289454143,-0.008224558,0.027469824,0.370597537
1750931781.395223618,-1.775011818,-2.291044390,-0.668620084,1.557216472,-0.343526517,-1.911964000,-0.011391267,0.108901367,-0.121229446,-0.078002328,0.221358955,0.227000000,3.581008476,2.832460432,0.289449337,-0.008234797,0.027469824,0.370688074
1750931781.397191763,-1.775034650,-2.290826107,-0.668863077,1.557060123,-0.343082824,-1.911509000,-0.011441449,0.109381109,-0.121763496,-0.078345950,0.222334105,0.228000000,3.581717188,2.832994597,0.289444508,-0.008245081,0.027469823,0.370779020
1750931781.405780077,-1.775057583,-2.290606865,-0.669107138,1.556903088,-0.342637181,-1.911052000,-0.011491631,0.109860851,-0.122297547,-0.078689573,0.223309254,0.229000000,3.582428972,2.833531008,0.289439654,-0.008255412,0.027469823,0.370870373
1750931781.407176971,-1.775080617,-2.290386664,-0.669352267,1.556745365,-0.342189587,-1.910593000,-0.011541813,0.110340592,-0.122831597,-0.079033196,0.224284404,0.230000000,3.583143826,2.834069662,0.289434776,-0.008265788,0.027469822,0.370962135
1750931781.407223225,-1.775080617,-2.290386664,-0.669352267,1.556745365,-0.342189587,-1.910593000,-0.011541813,0.110340592,-0.122831597,-0.079033196,0.224284404,0.230000000,3.583143826,2.834069662,0.289434776,-0.008265788,0.027469822,0.370962135
1750931781.407240868,-1.775080617,-2.290386664,-0.669352267,1.556745365,-0.342189587,-1.910593000,-0.011541813,0.110340592,-0.122831597,-0.079033196,0.224284404,0.230000000,3.583143826,2.834069662,0.289434776,-0.008265788,0.027469822,0.370962135
1750931781.411175728,-1.775150319,-2.289720302,-0.670094063,1.556268073,-0.340835104,-1.909204000,-0.011692358,0.111779818,-0.124433749,-0.080064063,0.227209853,0.233000000,3.585306805,2.835699072,0.289419997,-0.008297192,0.027469820,0.371239872
1750931781.411303997,-1.775150319,-2.289720302,-0.670094063,1.556268073,-0.340835104,-1.909204000,-0.011692358,0.111779818,-0.124433749,-0.080064063,0.227209853,0.233000000,3.585306805,2.835699072,0.289419997,-0.008297192,0.027469820,0.371239872
1750931781.412998199,-1.775173754,-2.289496263,-0.670343465,1.556107601,-0.340379709,-1.908737000,-0.011742540,0.112259559,-0.124967799,-0.080407686,0.228185002,0.234000000,3.586033935,2.836246687,0.289415021,-0.008307752,0.027469820,0.371333268
1750931781.415098429,-1.775197290,-2.289271264,-0.670593935,1.555946442,-0.339922364,-1.908268000,-0.011792722,0.112739301,-0.125501849,-0.080751309,0.229160152,0.235000000,3.586764132,2.836796539,0.289410021,-0.008318357,0.027469819,0.371427073
1750931781.417064905,-1.775220925,-2.289045306,-0.670845472,1.555784596,-0.339463069,-1.907797000,-0.011842903,0.113219043,-0.126035900,-0.081094931,0.230135302,0.236000000,3.587497396,2.837348626,0.289404997,-0.008329009,0.027469819,0.371521287
1750931781.419016361,-1.775244661,-2.288818388,-0.671098078,1.555622063,-0.339001823,-1.907324000,-0.011893085,0.113698784,-0.126569950,-0.081438554,0.231110451,0.237000000,3.588233726,2.837902947,0.289399948,-0.008339706,0.027469818,0.371615910
1750931781.420986414,-1.775268498,-2.288590511,-0.671351752,1.555458842,-0.338538627,-1.906849000,-0.011943267,0.114178526,-0.127104001,-0.081782176,0.232085601,0.238000000,3.588973121,2.838459501,0.289394875,-0.008350449,0.027469818,0.371710941
1750931781.422968388,-1.775292434,-2.288361674,-0.671606494,1.555294934,-0.338073481,-1.906372000,-0.011993449,0.114658268,-0.127638051,-0.082125799,0.233060750,0.239000000,3.589715582,2.839018286,0.289389776,-0.008361238,0.027469817,0.371806382
1750931781.425601721,-1.775292434,-2.288361674,-0.671606494,1.555294934,-0.338073481,-1.906372000,-0.011993449,0.114658268,-0.127638051,-0.082125799,0.233060750,0.239000000,3.589715582,2.839018286,0.289389776,-0.008361238,0.027469817,0.371806382
1750931781.427261353,-1.775316471,-2.288131878,-0.671862304,1.555130339,-0.337606384,-1.905893000,-0.012043631,0.115138010,-0.128172102,-0.082469422,0.234035900,0.240000000,3.590461107,2.839579301,0.289384654,-0.008372073,0.027469817,0.371902233
1750931781.429048061,-1.775340609,-2.287901122,-0.672119183,1.554965056,-0.337137337,-1.905412000,-0.012093812,0.115617751,-0.128706152,-0.082813044,0.235011049,0.241000000,3.591209695,2.840142545,0.289379506,-0.008382953,0.027469816,0.371998492
1750931781.431224346,-1.775364847,-2.287669407,-0.672377129,1.554799087,-0.336666340,-1.904929000,-0.012143994,0.116097493,-0.129240202,-0.083156667,0.235986199,0.242000000,3.591961347,2.840708015,0.289374334,-0.008393880,0.027469816,0.372095161
1750931781.433075190,-1.775389185,-2.287436732,-0.672636143,1.554632430,-0.336193392,-1.904444000,-0.012194176,0.116577235,-0.129774253,-0.083500289,0.236961349,0.243000000,3.592716061,2.841275711,0.289369136,-0.008404853,0.027469815,0.372192240
1750931781.435080528,-1.775413623,-2.287203098,-0.672896226,1.554465085,-0.335718494,-1.903957000,-0.012244358,0.117056976,-0.130308303,-0.083843912,0.237936498,0.244000000,3.593473837,2.841845631,0.289363914,-0.008415871,0.027469814,0.372289728
1750931781.437414169,-1.775438162,-2.286968504,-0.673157377,1.554297054,-0.335241646,-1.903468000,-0.012294540,0.117536718,-0.130842354,-0.084187535,0.238911648,0.245000000,3.594234674,2.842417774,0.289358668,-0.008426936,0.027469814,0.372387625
1750931781.439230442,-1.775462801,-2.286732951,-0.673419595,1.554128335,-0.334762848,-1.902977000,-0.012344721,0.118016460,-0.131376404,-0.084531157,0.239886797,0.246000000,3.594998572,2.842992138,0.289353396,-0.008438046,0.027469813,0.372485933
1750931781.441148996,-1.775487541,-2.286496438,-0.673682882,1.553958929,-0.334282099,-1.902484000,-0.012394903,0.118496201,-0.131910455,-0.084874780,0.240861947,0.247000000,3.595765529,2.843568722,0.289348099,-0.008449202,0.027469813,0.372584650
1750931781.443143606,-1.775512381,-2.286258966,-0.673947237,1.553788836,-0.333799400,-1.901989000,-0.012445085,0.118975943,-0.132444505,-0.085218402,0.241837097,0.248000000,3.596535546,2.844147524,0.289342777,-0.008460405,0.027469812,0.372683777
1750931781.445284605,-1.775537321,-2.286020534,-0.674212660,1.553618056,-0.333314751,-1.901492000,-0.012495267,0.119455685,-0.132978555,-0.085562025,0.242812246,0.249000000,3.597308622,2.844728543,0.289337430,-0.008471653,0.027469812,0.372783314
1750931781.447314739,-1.775562362,-2.285781143,-0.674479151,1.553446588,-0.332828151,-1.900993000,-0.012545448,0.119935427,-0.133512606,-0.085905647,0.243787396,0.250000000,3.598084756,2.845311778,0.289332058,-0.008482947,0.027469811,0.372883261
1750931781.449286699,-1.775562362,-2.285781143,-0.674479151,1.553446588,-0.332828151,-1.900993000,-0.012545448,0.119935427,-0.133512606,-0.085905647,0.243787396,0.250000000,3.598084756,2.845311778,0.289332058,-0.008482947,0.027469811,0.372883261
1750931781.451213598,-1.775587503,-2.285540793,-0.674746711,1.553274433,-0.332339601,-1.900492000,-0.012595630,0.120415168,-0.134046656,-0.086249270,0.244762545,0.251000000,3.598863947,2.845897226,0.289326661,-0.008494288,0.027469811,0.372983619
1750931781.453118563,-1.775612745,-2.285299483,-0.675015338,1.553101591,-0.331849101,-1.899989000,-0.012645812,0.120894910,-0.134580707,-0.086592893,0.245737695,0.252000000,3.599646194,2.846484887,0.289321239,-0.008505674,0.027469810,0.373084387
1750931781.457780838,-1.775638086,-2.285057213,-0.675285034,1.552928062,-0.331356650,-1.899484000,-0.012695994,0.121374652,-0.135114757,-0.086936515,0.246712844,0.253000000,3.600431498,2.847074759,0.289315791,-0.008517106,0.027469810,0.373185564
1750931781.460428715,-1.775663529,-2.284813984,-0.675555797,1.552753845,-0.330862250,-1.898977000,-0.012746176,0.121854393,-0.135648807,-0.087280138,0.247687994,0.254000000,3.601219857,2.847666840,0.289310318,-0.008528584,0.027469809,0.373287153
1750931781.461102009,-1.775663529,-2.284813984,-0.675555797,1.552753845,-0.330862250,-1.898977000,-0.012746176,0.121854393,-0.135648807,-0.087280138,0.247687994,0.254000000,3.601219857,2.847666840,0.289310318,-0.008528584,0.027469809,0.373287153
1750931781.461127520,-1.775663529,-2.284813984,-0.675555797,1.552753845,-0.330862250,-1.898977000,-0.012746176,0.121854393,-0.135648807,-0.087280138,0.247687994,0.254000000,3.601219857,2.847666840,0.289310318,-0.008528584,0.027469809,0.373287153
1750931781.463202000,-1.775740457,-2.284078540,-0.676374496,1.552227072,-0.329367345,-1.897444000,-0.012896721,0.123293619,-0.137250959,-0.088311006,0.250613443,0.257000000,3.603603261,2.849456326,0.289293748,-0.008563295,0.027469807,0.373594381
1750931781.465059757,-1.775766301,-2.283831473,-0.676649532,1.552050106,-0.328865143,-1.896929000,-0.012946903,0.123773360,-0.137785009,-0.088654628,0.251588592,0.258000000,3.604403835,2.850057231,0.289288173,-0.008574957,0.027469807,0.373697612
1750931781.467201710,-1.775792245,-2.283583447,-0.676925636,1.551872453,-0.328360991,-1.896412000,-0.012997085,0.124253102,-0.138319060,-0.088998251,0.252563742,0.259000000,3.605207462,2.850660337,0.289282573,-0.008586666,0.027469806,0.373801254
1750931781.469110012,-1.775818289,-2.283334461,-0.677202809,1.551694113,-0.327854888,-1.895893000,-0.013047266,0.124732844,-0.138853110,-0.089341873,0.253538892,0.260000000,3.606014140,2.851265644,0.289276948,-0.008598420,0.027469806,0.373905306
1750931781.471172571,-1.775844434,-2.283084515,-0.677481049,1.551515086,-0.327346835,-1.895372000,-0.013097448,0.125212585,-0.139387160,-0.089685496,0.254514041,0.261000000,3.606823868,2.851873149,0.289271297,-0.008610221,0.027469805,0.374009770
1750931781.473105669,-1.775870679,-2.282833610,-0.677760357,1.551335371,-0.326836832,-1.894849000,-0.013147630,0.125692327,-0.139921211,-0.090029119,0.255489191,0.262000000,3.607636647,2.852482852,0.289265620,-0.008622067,0.027469805,0.374114645
1750931781.476051092,-1.775897025,-2.282581746,-0.678040734,1.551154969,-0.326324879,-1.894324000,-0.013197812,0.126172069,-0.140455261,-0.090372741,0.256464340,0.263000000,3.608452475,2.853094751,0.289259918,-0.008633960,0.027469804,0.374219930
1750931781.477124691,-1.775923470,-2.282328922,-0.678322178,1.550973880,-0.325810975,-1.893797000,-0.013247994,0.126651811,-0.140989312,-0.090716364,0.257439490,0.264000000,3.609271352,2.853708844,0.289254190,-0.008645899,0.027469804,0.374325627
1750931781.479218721,-1.775950016,-2.282075139,-0.678604691,1.550792104,-0.325295121,-1.893268000,-0.013298175,0.127131552,-0.141523362,-0.091059986,0.258414639,0.265000000,3.610093277,2.854325130,0.289248436,-0.008657883,0.027469803,0.374431736
1750931781.481293678,-1.775976663,-2.281820396,-0.678888272,1.550609640,-0.324777316,-1.892737000,-0.013348357,0.127611294,-0.142057413,-0.091403609,0.259389789,0.266000000,3.610918249,2.854943607,0.289242656,-0.008669914,0.027469803,0.374538255
1750931781.483327627,-1.776003410,-2.281564693,-0.679172921,1.550426489,-0.324257561,-1.892204000,-0.013398539,0.128091036,-0.142591463,-0.091747231,0.260364939,0.267000000,3.611746268,2.855564273,0.289236851,-0.008681991,0.027469802,0.374645186
1750931781.485135555,-1.776030257,-2.281308032,-0.679458638,1.550242651,-0.323735856,-1.891669000,-0.013448721,0.128570777,-0.143125513,-0.092090854,0.261340088,0.268000000,3.612577333,2.856187128,0.289231020,-0.008694115,0.027469801,0.374752529
1750931781.487128258,-1.776057205,-2.281050410,-0.679745423,1.550058126,-0.323212201,-1.891132000,-0.013498903,0.129050519,-0.143659564,-0.092434477,0.262315238,0.269000000,3.613411443,2.856812169,0.289225162,-0.008706284,0.027469801,0.374860283
1750931781.489126921,-1.776084253,-2.280791830,-0.680033276,1.549872913,-0.322686595,-1.890593000,-0.013549084,0.129530261,-0.144193614,-0.092778099,0.263290387,0.270000000,3.614248598,2.857439395,0.289219279,-0.008718500,0.027469800,0.374968449
1750931781.491120100,-1.776111401,-2.280532289,-0.680322197,1.549687013,-0.322159039,-1.890052000,-0.013599266,0.130010002,-0.144727665,-0.093121722,0.264265537,0.271000000,3.615088796,2.858068804,0.289213369,-0.008730761,0.027469800,0.375077027
1750931781.493090153,-1.776138650,-2.280271790,-0.680612187,1.549500426,-0.321629533,-1.889509000,-0.013649448,0.130489744,-0.145261715,-0.093465344,0.265240687,0.272000000,3.615932038,2.858700395,0.289207434,-0.008743069,0.027469799,0.375186017
1750931781.495145321,-1.776165999,-2.280010330,-0.680903244,1.549313152,-0.321098077,-1.888964000,-0.013699630,0.130969486,-0.145795766,-0.093808967,0.266215836,0.273000000,3.616778323,2.859334166,0.289201472,-0.008755423,0.027469799,0.375295418
1750931781.497431040,-1.776193448,-2.279747912,-0.681195370,1.549125190,-0.320564670,-1.888417000,-0.013749812,0.131449228,-0.146329816,-0.094152590,0.267190986,0.274000000,3.617627649,2.859970115,0.289195484,-0.008767823,0.027469798,0.375405232
1750931781.499245405,-1.776220998,-2.279484533,-0.681488563,1.548936542,-0.320029313,-1.887868000,-0.013799993,0.131928969,-0.146863866,-0.094496212,0.268166135,0.275000000,3.618480016,2.860608242,0.289189470,-0.008780269,0.027469798,0.375515458
1750931781.501594543,-1.776248648,-2.279220196,-0.681782825,1.548747206,-0.319492005,-1.887317000,-0.013850175,0.132408711,-0.147397917,-0.094839835,0.269141285,0.276000000,3.619335423,2.861248543,0.289183430,-0.008792762,0.027469797,0.375626095
1750931781.503143072,-1.776276399,-2.278954899,-0.682078155,1.548557182,-0.318952748,-1.886764000,-0.013900357,0.132888453,-0.147931967,-0.095183457,0.270116434,0.277000000,3.620193870,2.861891018,0.289177363,-0.008805301,0.027469797,0.375737145
1750931781.505288363,-1.776304250,-2.278688642,-0.682374553,1.548366472,-0.318411540,-1.886209000,-0.013950539,0.133368194,-0.148466018,-0.095527080,0.271091584,0.278000000,3.621055356,2.862535666,0.289171270,-0.008817886,0.027469796,0.375848607
1750931781.507247686,-1.776332201,-2.278421426,-0.682672019,1.548175074,-0.317868381,-1.885652000,-0.014000720,0.133847936,-0.149000068,-0.095870703,0.272066734,0.279000000,3.621919880,2.863182483,0.289165151,-0.008830517,0.027469796,0.375960482
1750931781.513733149,-1.776332201,-2.278421426,-0.682672019,1.548175074,-0.317868381,-1.885652000,-0.014000720,0.133847936,-0.149000068,-0.095870703,0.272066734,0.279000000,3.621919880,2.863182483,0.289165151,-0.008830517,0.027469796,0.375960482
1750931781.513782263,-1.776360253,-2.278153250,-0.682970553,1.547982989,-0.317323273,-1.885093000,-0.014050902,0.134327678,-0.149534119,-0.096214325,0.273041883,0.280000000,3.622787442,2.863831470,0.289159005,-0.008843194,0.027469795,0.376072769
1750931781.513796806,-1.776388405,-2.277884115,-0.683270155,1.547790217,-0.316776214,-1.884532000,-0.014101084,0.134807420,-0.150068169,-0.096557948,0.274017033,0.281000000,3.623658040,2.864482623,0.289152833,-0.008855918,0.027469795,0.376185469
1750931781.516612530,-1.776416657,-2.277614021,-0.683570826,1.547596757,-0.316227205,-1.883969000,-0.014151266,0.135287161,-0.150602219,-0.096901570,0.274992182,0.282000000,3.624531674,2.865135942,0.289146634,-0.008868688,0.027469794,0.376298581
1750931781.517993927,-1.776445010,-2.277342966,-0.683872564,1.547402610,-0.315676245,-1.883404000,-0.014201448,0.135766903,-0.151136270,-0.097245193,0.275967332,0.283000000,3.625408344,2.865791424,0.289140408,-0.008881504,0.027469794,0.376412106
1750931781.519928932,-1.776445010,-2.277342966,-0.683872564,1.547402610,-0.315676245,-1.883404000,-0.014201448,0.135766903,-0.151136270,-0.097245193,0.275967332,0.283000000,3.625408344,2.865791424,0.289140408,-0.008881504,0.027469794,0.376412106
1750931781.523341417,-1.776473463,-2.277070953,-0.684175371,1.547207776,-0.315123335,-1.882837000,-0.014251629,0.136246645,-0.151670320,-0.097588816,0.276942482,0.284000000,3.626288048,2.866449069,0.289134156,-0.008894366,0.027469793,0.376526043
1750931781.524637699,-1.776502016,-2.276797980,-0.684479246,1.547012255,-0.314568475,-1.882268000,-0.014301811,0.136726386,-0.152204371,-0.097932438,0.277917631,0.285000000,3.627170786,2.867108874,0.289127877,-0.008907275,0.027469793,0.376640393
1750931781.525403500,-1.776530670,-2.276524047,-0.684784188,1.546816047,-0.314011665,-1.881697000,-0.014351993,0.137206128,-0.152738421,-0.098276061,0.278892781,0.286000000,3.628056557,2.867770838,0.289121571,-0.008920230,0.027469792,0.376755157
1750931781.527806759,-1.776530670,-2.276524047,-0.684784188,1.546816047,-0.314011665,-1.881697000,-0.014351993,0.137206128,-0.152738421,-0.098276061,0.278892781,0.286000000,3.628056557,2.867770838,0.289121571,-0.008920230,0.027469792,0.376755157
1750931781.531399012,-1.776559424,-2.276249155,-0.685090199,1.546619151,-0.313452904,-1.881124000,-0.014402175,0.137685870,-0.153272471,-0.098619683,0.279867930,0.287000000,3.628945360,2.868434959,0.289115238,-0.008933231,0.027469792,0.376870333
1750931781.532734156,-1.776588279,-2.275973304,-0.685397278,1.546421568,-0.312892193,-1.880549000,-0.014452357,0.138165611,-0.153806522,-0.098963306,0.280843080,0.288000000,3.629837194,2.869101236,0.289108879,-0.008946279,0.027469791,0.376985922
1750931781.533701658,-1.776617234,-2.275696493,-0.685705425,1.546223298,-0.312329532,-1.879972000,-0.014502538,0.138645353,-0.154340572,-0.099306928,0.281818229,0.289000000,3.630732060,2.869769666,0.289102492,-0.008959373,0.027469791,0.377101924
1750931781.537588596,-1.776617234,-2.275696493,-0.685705425,1.546223298,-0.312329532,-1.879972000,-0.014502538,0.138645353,-0.154340572,-0.099306928,0.281818229,0.289000000,3.630732060,2.869769666,0.289102492,-0.008959373,0.027469791,0.377101924
1750931781.537920475,-1.776675444,-2.275139993,-0.686324924,1.545824695,-0.311198358,-1.878812000,-0.014602902,0.139604837,-0.155408673,-0.099994174,0.283768529,0.291000000,3.632530880,2.871112981,0.289089639,-0.008985700,0.027469790,0.377335168
1750931781.539818764,-1.776675444,-2.275139993,-0.686324924,1.545824695,-0.311198358,-1.878812000,-0.014602902,0.139604837,-0.155408673,-0.099994174,0.283768529,0.291000000,3.632530880,2.871112981,0.289089639,-0.008985700,0.027469790,0.377335168
1750931781.541210890,-1.776704700,-2.274860303,-0.686636275,1.545624363,-0.310629846,-1.878229000,-0.014653084,0.140084578,-0.155942724,-0.100337796,0.284743678,0.292000000,3.633434834,2.871787862,0.289083171,-0.008998933,0.027469789,0.377452410
1750931781.547743320,-1.776734057,-2.274579654,-0.686948695,1.545423344,-0.310059383,-1.877644000,-0.014703266,0.140564320,-0.156476774,-0.100681419,0.285718828,0.293000000,3.634341815,2.872464890,0.289076677,-0.009012212,0.027469789,0.377570065
1750931781.547796965,-1.776763514,-2.274298046,-0.687262182,1.545221638,-0.309486971,-1.877057000,-0.014753447,0.141044062,-0.157010824,-0.101025041,0.286693977,0.294000000,3.635251823,2.873144063,0.289070155,-0.009025538,0.027469788,0.377688133
1750931781.548748493,-1.776793071,-2.274015478,-0.687576738,1.545019244,-0.308912608,-1.876468000,-0.014803629,0.141523803,-0.157544875,-0.101368664,0.287669127,0.295000000,3.636164857,2.873825380,0.289063606,-0.009038910,0.027469788,0.377806615
1750931781.551296949,-1.776793071,-2.274015478,-0.687576738,1.545019244,-0.308912608,-1.876468000,-0.014803629,0.141523803,-0.157544875,-0.101368664,0.287669127,0.295000000,3.636164857,2.873825380,0.289063606,-0.009038910,0.027469788,0.377806615
1750931781.551383495,-1.776793071,-2.274015478,-0.687576738,1.545019244,-0.308912608,-1.876468000,-0.014803629,0.141523803,-0.157544875,-0.101368664,0.287669127,0.295000000,3.636164857,2.873825380,0.289063606,-0.009038910,0.027469788,0.377806615
1750931781.553590536,-1.776822728,-2.273731951,-0.687892362,1.544816163,-0.308336294,-1.875877000,-0.014853811,0.142003545,-0.158078925,-0.101712287,0.288644277,0.296000000,3.637080917,2.874508838,0.289057030,-0.009052328,0.027469787,0.377925510
1750931781.555128336,-1.776852486,-2.273447464,-0.688209054,1.544612395,-0.307758030,-1.875284000,-0.014903993,0.142483287,-0.158612976,-0.102055909,0.289619426,0.297000000,3.638000001,2.875194436,0.289050427,-0.009065793,0.027469787,0.378044819
1750931781.557080269,-1.776882344,-2.273162018,-0.688526814,1.544407940,-0.307177816,-1.874689000,-0.014954175,0.142963029,-0.159147026,-0.102399532,0.290594576,0.298000000,3.638922110,2.875882173,0.289043796,-0.009079304,0.027469786,0.378164542
1750931781.559019566,-1.776912303,-2.272875612,-0.688845642,1.544202797,-0.306595652,-1.874092000,-0.015004356,0.143442770,-0.159681077,-0.102743154,0.291569725,0.299000000,3.639847241,2.876572046,0.289037137,-0.009092861,0.027469786,0.378284678
1750931781.561117172,-1.776942361,-2.272588246,-0.689165538,1.543996967,-0.306011538,-1.873493000,-0.015054538,0.143922512,-0.160215127,-0.103086777,0.292544875,0.300000000,3.640775395,2.877264054,0.289030452,-0.009106465,0.027469785,0.378405229
1750931781.563106060,-1.776972521,-2.272299922,-0.689486502,1.543790450,-0.305425473,-1.872892000,-0.015104720,0.144402254,-0.160749177,-0.103430400,0.293520024,0.301000000,3.641706570,2.877958195,0.289023739,-0.009120116,0.027469785,0.378526193
1750931781.565096140,-1.777002780,-2.272010637,-0.689808535,1.543583245,-0.304837457,-1.872289000,-0.015154902,0.144881995,-0.161283228,-0.103774022,0.294495174,0.302000000,3.642640766,2.878654467,0.289016998,-0.009133813,0.027469784,0.378647570
1750931781.567130327,-1.777033140,-2.271720394,-0.690131635,1.543375354,-0.304247492,-1.871684000,-0.015205084,0.145361737,-0.161817278,-0.104117645,0.295470324,0.303000000,3.643577982,2.879352868,0.289010229,-0.009147556,0.027469784,0.378769362
1750931781.569202423,-1.777063601,-2.271429190,-0.690455804,1.543166775,-0.303655576,-1.871077000,-0.015255265,0.145841479,-0.162351329,-0.104461267,0.296445473,0.304000000,3.644518218,2.880053398,0.289003433,-0.009161346,0.027469783,0.378891568
1750931781.571319103,-1.777094161,-2.271137028,-0.690781041,1.542957509,-0.303061710,-1.870468000,-0.015305447,0.146321220,-0.162885379,-0.104804890,0.297420623,0.305000000,3.645461472,2.880756053,0.288996609,-0.009175182,0.027469783,0.379014188
1750931781.573633432,-1.777124822,-2.270843906,-0.691107345,1.542747555,-0.302465894,-1.869857000,-0.015355629,0.146800962,-0.163419430,-0.105148512,0.298395772,0.306000000,3.646407743,2.881460832,0.288989758,-0.009189065,0.027469782,0.379137222
1750931781.575978518,-1.777124822,-2.270843906,-0.691107345,1.542747555,-0.302465894,-1.869857000,-0.015355629,0.146800962,-0.163419430,-0.105148512,0.298395772,0.306000000,3.646407743,2.881460832,0.288989758,-0.009189065,0.027469782,0.379137222
1750931781.578468084,-1.777186446,-2.270254783,-0.691763159,1.542325587,-0.301268410,-1.868629000,-0.015455993,0.147760446,-0.164487530,-0.105835758,0.300346072,0.308000000,3.648309335,2.882876755,0.288975971,-0.009216970,0.027469781,0.379384532
1750931781.580347538,-1.777217408,-2.269958782,-0.692092668,1.542113571,-0.300666743,-1.868012000,-0.015506174,0.148240187,-0.165021581,-0.106179380,0.301321221,0.309000000,3.649264654,2.883587896,0.288969036,-0.009230992,0.027469781,0.379508809
1750931781.581476450,-1.777248470,-2.269661822,-0.692423246,1.541900869,-0.300063125,-1.867393000,-0.015556356,0.148719929,-0.165555631,-0.106523003,0.302296371,0.310000000,3.650222988,2.884301153,0.288962072,-0.009245061,0.027469780,0.379633499
1750931781.583399534,-1.777279633,-2.269363902,-0.692754891,1.541687479,-0.299457557,-1.866772000,-0.015606538,0.149199671,-0.166089682,-0.106866625,0.303271520,0.311000000,3.651184335,2.885016526,0.288955081,-0.009259176,0.027469780,0.379758605
1750931781.585287333,-1.777310897,-2.269065023,-0.693087604,1.541473403,-0.298850039,-1.866149000,-0.015656720,0.149679412,-0.166623732,-0.107210248,0.304246670,0.312000000,3.652148695,2.885734012,0.288948062,-0.009273337,0.027469779,0.379884124
1750931781.587932825,-1.777342260,-2.268765185,-0.693421386,1.541258638,-0.298240571,-1.865524000,-0.015706901,0.150159154,-0.167157782,-0.107553871,0.305221819,0.313000000,3.653116067,2.886453609,0.288941014,-0.009287546,0.027469779,0.380010059
1750931781.590555429,-1.777342260,-2.268765185,-0.693421386,1.541258638,-0.298240571,-1.865524000,-0.015706901,0.150159154,-0.167157782,-0.107553871,0.305221819,0.313000000,3.653116067,2.886453609,0.288941014,-0.009287546,0.027469779,0.380010059
1750931781.591804743,-1.777342260,-2.268765185,-0.693421386,1.541258638,-0.298240571,-1.865524000,-0.015706901,0.150159154,-0.167157782,-0.107553871,0.305221819,0.313000000,3.653116067,2.886453609,0.288941014,-0.009287546,0.027469779,0.380010059
1750931781.593407154,-1.777342260,-2.268765185,-0.693421386,1.541258638,-0.298240571,-1.865524000,-0.015706901,0.150159154,-0.167157782,-0.107553871,0.305221819,0.313000000,3.653116067,2.886453609,0.288941014,-0.009287546,0.027469779,0.380010059
1750931781.602537394,-1.777436953,-2.267859912,-0.694429139,1.540610223,-0.296400463,-1.863637000,-0.015857447,0.151598379,-0.168759934,-0.108584738,0.308147268,0.316000000,3.656036245,2.888625051,0.288919702,-0.009330450,0.027469778,0.380390348
1750931781.604315758,-1.777532550,-2.266946004,-0.695446505,1.539955622,-0.294542803,-1.861732000,-0.016007992,0.153037604,-0.170362085,-0.109615606,0.311072717,0.319000000,3.658983502,2.890815430,0.288898134,-0.009373774,0.027469776,0.380774370
1750931781.607443094,-1.777564616,-2.266639449,-0.695787763,1.539736047,-0.293919683,-1.861093000,-0.016058174,0.153517346,-0.170896135,-0.109959229,0.312047867,0.320000000,3.659971934,2.891549756,0.288890888,-0.009388308,0.027469776,0.380903207
1750931781.609625340,-1.777596782,-2.266331935,-0.696130090,1.539515785,-0.293294612,-1.860452000,-0.016108356,0.153997088,-0.171430186,-0.110302851,0.313023016,0.321000000,3.660963371,2.892286178,0.288883614,-0.009402889,0.027469775,0.381032459
1750931781.611463070,-1.777629049,-2.266023461,-0.696473484,1.539294835,-0.292667591,-1.859809000,-0.016158538,0.154476829,-0.171964236,-0.110646474,0.313998166,0.322000000,3.661957813,2.893024695,0.288876310,-0.009417517,0.027469775,0.381162125
1750931781.613831282,-1.777661416,-2.265714028,-0.696817947,1.539073199,-0.292038619,-1.859164000,-0.016208719,0.154956571,-0.172498287,-0.110990097,0.314973315,0.323000000,3.662955258,2.893765305,0.288868978,-0.009432191,0.027469775,0.381292207
1750931781.615858078,-1.777693884,-2.265403635,-0.697163477,1.538850875,-0.291407697,-1.858517000,-0.016258901,0.155436313,-0.173032337,-0.111333719,0.315948465,0.324000000,3.663955706,2.894508006,0.288861617,-0.009446912,0.027469774,0.381422703
1750931781.617815971,-1.777726452,-2.265092282,-0.697510076,1.538627864,-0.290774825,-1.857868000,-0.016309083,0.155916055,-0.173566388,-0.111677342,0.316923614,0.325000000,3.664959156,2.895252796,0.288854228,-0.009461679,0.027469774,0.381553615
1750931781.619561434,-1.777759120,-2.264779970,-0.697857743,1.538404166,-0.290140003,-1.857217000,-0.016359265,0.156395796,-0.174100438,-0.112020964,0.317898764,0.326000000,3.665965607,2.895999673,0.288846809,-0.009476494,0.027469773,0.381684942
1750931781.621406317,-1.777791889,-2.264466699,-0.698206478,1.538179780,-0.289503230,-1.856564000,-0.016409447,0.156875538,-0.174634488,-0.112364587,0.318873914,0.327000000,3.666975058,2.896748635,0.288839362,-0.009491355,0.027469773,0.381816683
1750931781.623372078,-1.777824758,-2.264152468,-0.698556281,1.537954707,-0.288864507,-1.855909000,-0.016459628,0.157355280,-0.175168539,-0.112708209,0.319849063,0.328000000,3.667987509,2.897499681,0.288831885,-0.009506262,0.027469773,0.381948840
1750931781.625818729,-1.777857728,-2.263837278,-0.698907152,1.537728947,-0.288223834,-1.855252000,-0.016509810,0.157835021,-0.175702589,-0.113051832,0.320824213,0.329000000,3.669002958,2.898252808,0.288824380,-0.009521217,0.027469772,0.382081412
1750931781.627634525,-1.777890797,-2.263521128,-0.699259091,1.537502500,-0.287581210,-1.854593000,-0.016559992,0.158314763,-0.176236640,-0.113395455,0.321799362,0.330000000,3.670021404,2.899008015,0.288816845,-0.009536218,0.027469772,0.382214399
1750931781.629534721,-1.777923968,-2.263204019,-0.699612098,1.537275365,-0.286936637,-1.853932000,-0.016610174,0.158794505,-0.176770690,-0.113739077,0.322774512,0.331000000,3.671042847,2.899765299,0.288809282,-0.009551265,0.027469771,0.382347801
1750931781.633613825,-1.777957238,-2.262885950,-0.699966174,1.537047544,-0.286290112,-1.853269000,-0.016660356,0.159274247,-0.177304741,-0.114082700,0.323749662,0.332000000,3.672067286,2.900524659,0.288801689,-0.009566360,0.027469771,0.382481619
1750931781.635448217,-1.778024080,-2.262246934,-0.700677529,1.536589838,-0.284991213,-1.851937000,-0.016760719,0.160233730,-0.178372841,-0.114769945,0.325699961,0.334000000,3.674125148,2.902049597,0.288786415,-0.009596689,0.027469770,0.382750500
1750931781.637311220,-1.778057652,-2.261925987,-0.701034809,1.536359955,-0.284338838,-1.851268000,-0.016810901,0.160713472,-0.178906892,-0.115113568,0.326675110,0.335000000,3.675158569,2.902815172,0.288778734,-0.009611924,0.027469770,0.382885564
1750931781.641572237,-1.778057652,-2.261925987,-0.701034809,1.536359955,-0.284338838,-1.851268000,-0.016810901,0.160713472,-0.178906892,-0.115113568,0.326675110,0.335000000,3.675158569,2.902815172,0.288778734,-0.009611924,0.027469770,0.382885564
1750931781.641623974,-1.778057652,-2.261925987,-0.701034809,1.536359955,-0.284338838,-1.851268000,-0.016810901,0.160713472,-0.178906892,-0.115113568,0.326675110,0.335000000,3.675158569,2.902815172,0.288778734,-0.009611924,0.027469770,0.382885564
1750931781.643512487,-1.778125096,-2.261281214,-0.701752573,1.535898126,-0.283028237,-1.849924000,-0.016911265,0.161672955,-0.179974993,-0.115800813,0.328625409,0.337000000,3.677234387,2.904352524,0.288763284,-0.009642534,0.027469769,0.383156937
1750931781.645708084,-1.778158969,-2.260957388,-0.702113057,1.535666181,-0.282370011,-1.849249000,-0.016961446,0.162152697,-0.180509043,-0.116144435,0.329600559,0.338000000,3.678276783,2.905124297,0.288755515,-0.009657909,0.027469769,0.383293247
1750931781.648338079,-1.778192942,-2.260632603,-0.702474609,1.535433548,-0.281709835,-1.848572000,-0.017011628,0.162632438,-0.181043093,-0.116488058,0.330575709,0.339000000,3.679322167,2.905898132,0.288747716,-0.009673331,0.027469768,0.383429973
1750931781.649475813,-1.778227015,-2.260306859,-0.702837229,1.535200229,-0.281047708,-1.847893000,-0.017061810,0.163112180,-0.181577144,-0.116831681,0.331550858,0.340000000,3.680370541,2.906674026,0.288739888,-0.009688799,0.027469768,0.383567114
1750931781.652283907,-1.778261189,-2.259980155,-0.703200917,1.534966222,-0.280383631,-1.847212000,-0.017111992,0.163591922,-0.182111194,-0.117175303,0.332526008,0.341000000,3.681421903,2.907451979,0.288732029,-0.009704315,0.027469768,0.383704670
1750931781.657544374,-1.778364313,-2.258994285,-0.704298391,1.534260077,-0.278379699,-1.845157000,-0.017262537,0.165031147,-0.183713346,-0.118206171,0.335451456,0.344000000,3.684593905,2.909798165,0.288708276,-0.009751143,0.027469766,0.384119832
1750931781.657604456,-1.778364313,-2.258994285,-0.704298391,1.534260077,-0.278379699,-1.845157000,-0.017262537,0.165031147,-0.183713346,-0.118206171,0.335451456,0.344000000,3.684593905,2.909798165,0.288708276,-0.009751143,0.027469766,0.384119832
1750931781.659408331,-1.778398888,-2.258663743,-0.704666352,1.534023321,-0.277707821,-1.844468000,-0.017312719,0.165510889,-0.184247396,-0.118549793,0.336426606,0.345000000,3.685657209,2.910584329,0.288700298,-0.009766846,0.027469766,0.384259051
1750931781.661223888,-1.778433564,-2.258332242,-0.705035380,1.533785878,-0.277033993,-1.843777000,-0.017362901,0.165990630,-0.184781446,-0.118893416,0.337401756,0.346000000,3.686723496,2.911372542,0.288692290,-0.009782595,0.027469766,0.384398685
1750931781.664228201,-1.778468340,-2.257999781,-0.705405477,1.533547748,-0.276358214,-1.843084000,-0.017413082,0.166470372,-0.185315497,-0.119237039,0.338376905,0.347000000,3.687792765,2.912162801,0.288684252,-0.009798392,0.027469765,0.384538735
1750931781.667230368,-1.778503216,-2.257666360,-0.705776642,1.533308930,-0.275680485,-1.842389000,-0.017463264,0.166950114,-0.185849547,-0.119580661,0.339352055,0.348000000,3.688865016,2.912955103,0.288676184,-0.009814236,0.027469765,0.384679201
1750931781.669342279,-1.778573270,-2.256996641,-0.706522177,1.532829233,-0.274319176,-1.840993000,-0.017563628,0.167909597,-0.186917648,-0.120267906,0.341302354,0.350000000,3.691018458,2.914545832,0.288659958,-0.009846064,0.027469764,0.384961379
1750931781.671428680,-1.778608447,-2.256660342,-0.706896546,1.532588353,-0.273635596,-1.840292000,-0.017613810,0.168389339,-0.187451699,-0.120611529,0.342277504,0.351000000,3.692099648,2.915344254,0.288651799,-0.009862048,0.027469764,0.385103091
1750931781.675242424,-1.778643725,-2.256323084,-0.707271984,1.532346787,-0.272950066,-1.839589000,-0.017663991,0.168869081,-0.187985749,-0.120955152,0.343252653,0.352000000,3.693183816,2.916144712,0.288643610,-0.009878079,0.027469764,0.385245220
1750931781.677293301,-1.778714582,-2.255645688,-0.708026063,1.531861592,-0.271573155,-1.838177000,-0.017764355,0.169828564,-0.189053850,-0.121642397,0.345202952,0.354000000,3.695361080,2.917751727,0.288627140,-0.009910283,0.027469763,0.385530724
1750931781.679408789,-1.778750161,-2.255305551,-0.708404705,1.531617963,-0.270881774,-1.837468000,-0.017814537,0.170308306,-0.189587900,-0.121986019,0.346178102,0.355000000,3.696454175,2.918558280,0.288618860,-0.009926455,0.027469763,0.385674099
1750931781.681935310,-1.778785840,-2.254964455,-0.708784414,1.531373647,-0.270188442,-1.836757000,-0.017864719,0.170788047,-0.190121951,-0.122329642,0.347153251,0.356000000,3.697550244,2.919366860,0.288610549,-0.009942674,0.027469763,0.385817890
1750931781.684157848,-1.778821619,-2.254622399,-0.709165192,1.531128645,-0.269493161,-1.836044000,-0.017914900,0.171267789,-0.190656001,-0.122673265,0.348128401,0.357000000,3.698649286,2.920177466,0.288602207,-0.009958940,0.027469762,0.385962097
1750931781.685713291,-1.778857499,-2.254279384,-0.709547038,1.530882954,-0.268795929,-1.835329000,-0.017965082,0.171747531,-0.191190052,-0.123016887,0.349103551,0.358000000,3.699751300,2.920990096,0.288593834,-0.009975253,0.027469762,0.386106720
1750931781.687593460,-1.778893480,-2.253935409,-0.709929953,1.530636577,-0.268096747,-1.834612000,-0.018015264,0.172227273,-0.191724102,-0.123360510,0.350078700,0.359000000,3.700856285,2.921804746,0.288585431,-0.009991614,0.027469762,0.386251758
1750931781.691002131,-1.778929560,-2.253590475,-0.710313935,1.530389512,-0.267395614,-1.833893000,-0.018065446,0.172707014,-0.192258152,-0.123704132,0.351053850,0.360000000,3.701964241,2.922621416,0.288576996,-0.010008021,0.027469761,0.386397212
1750931781.691067934,-1.778965742,-2.253244581,-0.710698985,1.530141760,-0.266692531,-1.833172000,-0.018115628,0.173186756,-0.192792203,-0.124047755,0.352028999,0.361000000,3.703075165,2.923440103,0.288568531,-0.010024475,0.027469761,0.386543082
1750931781.693232536,-1.778965742,-2.253244581,-0.710698985,1.530141760,-0.266692531,-1.833172000,-0.018115628,0.173186756,-0.192792203,-0.124047755,0.352028999,0.361000000,3.703075165,2.923440103,0.288568531,-0.010024475,0.027469761,0.386543082
1750931781.695221901,-1.779002023,-2.252897728,-0.711085104,1.529893321,-0.265987498,-1.832449000,-0.018165809,0.173666498,-0.193326253,-0.124391378,0.353004149,0.362000000,3.704189058,2.924260806,0.288560035,-0.010040976,0.027469761,0.386689368
1750931781.697195053,-1.779038405,-2.252549915,-0.711472290,1.529644195,-0.265280515,-1.831724000,-0.018215991,0.174146239,-0.193860304,-0.124735000,0.353979299,0.363000000,3.705305919,2.925083521,0.288551508,-0.010057525,0.027469761,0.386836069
1750931781.700924873,-1.779074887,-2.252201143,-0.711860545,1.529394381,-0.264571581,-1.830997000,-0.018266173,0.174625981,-0.194394354,-0.125078623,0.354954448,0.364000000,3.706425745,2.925908246,0.288542950,-0.010074120,0.027469760,0.386983187
1750931781.701600075,-1.779111469,-2.251851411,-0.712249868,1.529143880,-0.263860697,-1.830268000,-0.018316355,0.175105723,-0.194928404,-0.125422245,0.355929598,0.365000000,3.707548537,2.926734981,0.288534360,-0.010090762,0.027469760,0.387130719
1750931781.705355883,-1.779148152,-2.251500720,-0.712640258,1.528892692,-0.263147862,-1.829537000,-0.018366537,0.175585465,-0.195462455,-0.125765868,0.356904747,0.366000000,3.708674294,2.927563722,0.288525739,-0.010107452,0.027469760,0.387278668
1750931781.705899715,-1.779184936,-2.251149069,-0.713031717,1.528640817,-0.262433078,-1.828804000,-0.018416718,0.176065206,-0.195996505,-0.126109490,0.357879897,0.367000000,3.709803013,2.928394468,0.288517087,-0.010124189,0.027469760,0.387427032
1750931781.707143068,-1.779221819,-2.250796459,-0.713424245,1.528388254,-0.261716343,-1.828069000,-0.018466900,0.176544948,-0.196530556,-0.126453113,0.358855046,0.368000000,3.710934696,2.929227216,0.288508404,-0.010140972,0.027469759,0.387575812
1750931781.712792635,-1.779258803,-2.250442890,-0.713817840,1.528135005,-0.260997658,-1.827332000,-0.018517082,0.177024690,-0.197064606,-0.126796736,0.359830196,0.369000000,3.712069339,2.930061964,0.288499689,-0.010157803,0.027469759,0.387725008
1750931781.712875366,-1.779295888,-2.250088360,-0.714212503,1.527881067,-0.260277022,-1.826593000,-0.018567264,0.177504431,-0.197598657,-0.127140358,0.360805346,0.370000000,3.713206943,2.930898710,0.288490943,-0.010174681,0.027469759,0.387874619
1750931781.713357210,-1.779333072,-2.249732872,-0.714608234,1.527626443,-0.259554436,-1.825852000,-0.018617446,0.177984173,-0.198132707,-0.127483981,0.361780495,0.371000000,3.714347507,2.931737452,0.288482165,-0.010191606,0.027469759,0.388024646
1750931781.716422081,-1.779370357,-2.249376424,-0.715005034,1.527371132,-0.258829900,-1.825109000,-0.018667627,0.178463915,-0.198666757,-0.127827603,0.362755645,0.372000000,3.715491029,2.932578187,0.288473356,-0.010208579,0.027469758,0.388175089
1750931781.717243433,-1.779407743,-2.249019016,-0.715402901,1.527115133,-0.258103414,-1.824364000,-0.018717809,0.178943657,-0.199200808,-0.128171226,0.363730794,0.373000000,3.716637509,2.933420915,0.288464515,-0.010225598,0.027469758,0.388325947
1750931781.723770618,-1.779445229,-2.248660649,-0.715801837,1.526858447,-0.257374977,-1.823617000,-0.018767991,0.179423398,-0.199734858,-0.128514849,0.364705944,0.374000000,3.717786945,2.934265631,0.288455642,-0.010242665,0.027469758,0.388477221
1750931781.723843813,-1.779482815,-2.248301323,-0.716201841,1.526601073,-0.256644590,-1.822868000,-0.018818173,0.179903140,-0.200268909,-0.128858471,0.365681094,0.375000000,3.718939337,2.935112335,0.288446737,-0.010259778,0.027469758,0.388628911
1750931781.723886967,-1.779520501,-2.247941037,-0.716602913,1.526343013,-0.255912253,-1.822117000,-0.018868355,0.180382882,-0.200802959,-0.129202094,0.366656243,0.376000000,3.720094683,2.935961024,0.288437801,-0.010276939,0.027469758,0.388781016
1750931781.725280046,-1.779558288,-2.247579791,-0.717005053,1.526084265,-0.255177965,-1.821364000,-0.018918536,0.180862623,-0.201337010,-0.129545716,0.367631393,0.377000000,3.721252982,2.936811696,0.288428833,-0.010294148,0.027469757,0.388933537
1750931781.727254391,-1.779558288,-2.247579791,-0.717005053,1.526084265,-0.255177965,-1.821364000,-0.018918536,0.180862623,-0.201337010,-0.129545716,0.367631393,0.377000000,3.721252982,2.936811696,0.288428833,-0.010294148,0.027469757,0.388933537
1750931781.729249239,-1.779596175,-2.247217586,-0.717408261,1.525824830,-0.254441727,-1.820609000,-0.018968718,0.181342365,-0.201871060,-0.129889339,0.368606542,0.378000000,3.722414234,2.937664349,0.288419832,-0.010311403,0.027469757,0.389086473
1750931781.731327295,-1.779634163,-2.246854422,-0.717812537,1.525564708,-0.253703539,-1.819852000,-0.019018900,0.181822107,-0.202405110,-0.130232962,0.369581692,0.379000000,3.723578438,2.938518980,0.288410800,-0.010328706,0.027469757,0.389239825
1750931781.733265162,-1.779672251,-2.246490298,-0.718217881,1.525303898,-0.252963400,-1.819093000,-0.019069082,0.182301848,-0.202939161,-0.130576584,0.370556841,0.380000000,3.724745592,2.939375587,0.288401735,-0.010346056,0.027469757,0.389393592
1750931781.735550404,-1.779710439,-2.246125214,-0.718624293,1.525042401,-0.252221311,-1.818332000,-0.019119263,0.182781590,-0.203473211,-0.130920207,0.371531991,0.381000000,3.725915696,2.940234168,0.288392638,-0.010363453,0.027469757,0.389547774
1750931781.737598419,-1.779748728,-2.245759171,-0.719031774,1.524780217,-0.251477272,-1.817569000,-0.019169445,0.183261332,-0.204007262,-0.131263829,0.372507141,0.382000000,3.727088748,2.941094722,0.288383509,-0.010380897,0.027469756,0.389702372
1750931781.740764141,-1.779787117,-2.245392169,-0.719440323,1.524517346,-0.250731283,-1.816804000,-0.019219627,0.183741074,-0.204541312,-0.131607452,0.373482290,0.383000000,3.728264747,2.941957244,0.288374348,-0.010398389,0.027469756,0.389857386
1750931781.741119862,-1.779825607,-2.245024207,-0.719849939,1.524253787,-0.249983343,-1.816037000,-0.019269809,0.184220815,-0.205075363,-0.131951075,0.374457440,0.384000000,3.729443693,2.942821735,0.288365154,-0.010415928,0.027469756,0.390012815
1750931781.743197441,-1.779864196,-2.244655286,-0.720260624,1.523989542,-0.249233453,-1.815268000,-0.019319991,0.184700557,-0.205609413,-0.132294697,0.375432589,0.385000000,3.730625584,2.943688190,0.288355928,-0.010433514,0.027469756,0.390168659
