mathias31415/motion_primitives_from_planned_trajectory/data/trajectory_20250626_094324_planned.csv
time_from_start,shoulder_pan_joint_pos,shoulder_lift_joint_pos,elbow_joint_pos,wrist_1_joint_pos,wrist_2_joint_pos,wrist_3_joint_pos,shoulder_pan_joint_vel,shoulder_lift_joint_vel,elbow_joint_vel,wrist_1_joint_vel,wrist_2_joint_vel,wrist_3_joint_vel,shoulder_pan_joint_acc,shoulder_lift_joint_acc,elbow_joint_acc,wrist_1_joint_acc,wrist_2_joint_acc,wrist_3_joint_acc,pose_x,pose_y,pose_z,pose_qx,pose_qy,pose_qz,pose_qw
0.000000,-2.365059,-1.547831,-1.787508,-1.412463,1.570416,-0.794985,-0.000500,0.000020,0.000070,-0.000077,-0.000005,-0.000500,-0.499948,0.020159,0.069850,-0.077144,-0.004635,-0.500000,-0.594623,-0.339981,0.562474,-0.000364,0.999843,0.012539,0.012502
0.100000,-2.367559,-1.547730,-1.787159,-1.412849,1.570393,-0.797485,-0.049995,0.002016,0.006985,-0.007714,-0.000463,-0.050000,-0.499948,0.020159,0.069850,-0.077144,-0.004635,-0.500000,-0.595470,-0.338488,0.562732,-0.000365,0.999844,0.012494,0.012502
0.200000,-2.375058,-1.547428,-1.786111,-1.414006,1.570323,-0.804985,-0.099990,0.004032,0.013970,-0.015429,-0.000927,-0.100000,-0.499948,0.020159,0.069850,-0.077144,-0.004635,-0.500000,-0.597987,-0.333997,0.563508,-0.000366,0.999845,0.012358,0.012501
0.300000,-2.387557,-1.546924,-1.784365,-1.415934,1.570207,-0.817485,-0.149984,0.006048,0.020955,-0.023143,-0.001390,-0.150000,-0.499948,0.020159,0.069850,-0.077144,-0.004635,-0.500000,-0.602105,-0.326470,0.564800,-0.000367,0.999848,0.012133,0.012498
0.400000,-2.405055,-1.546218,-1.781920,-1.418635,1.570045,-0.834985,-0.199979,0.008063,0.027940,-0.030858,-0.001854,-0.200000,-0.499948,0.020159,0.069850,-0.077144,-0.004635,-0.500000,-0.607707,-0.315843,0.566611,-0.000370,0.999852,0.011821,0.012487
0.500000,-2.425909,-1.545377,-1.779006,-1.421852,1.569852,-0.855842,-0.209440,0.008445,0.029262,-0.032317,-0.001942,-0.209461,-0.000000,0.000000,0.000000,-0.000000,-0.000000,-0.000000,-0.614134,-0.303048,0.568770,-0.000372,0.999857,0.011455,0.012465
0.600000,-2.446853,-1.544533,-1.776080,-1.425084,1.569658,-0.876788,-0.209440,0.008445,0.029262,-0.032317,-0.001942,-0.209461,0.000000,-0.000000,-0.000000,0.000000,0.000000,0.000000,-0.620311,-0.290061,0.570939,-0.000375,0.999861,0.011094,0.012433
0.700000,-2.467797,-1.543688,-1.773154,-1.428316,1.569464,-0.897734,-0.209440,0.008445,0.029262,-0.032317,-0.001942,-0.209461,0.000000,-0.000000,-0.000000,0.000000,0.000000,0.000000,-0.626207,-0.276944,0.573109,-0.000377,0.999865,0.010739,0.012392
0.800000,-2.488741,-1.542844,-1.770228,-1.431548,1.569269,-0.918680,-0.209440,0.008445,0.029262,-0.032317,-0.001942,-0.209461,0.000000,-0.000000,-0.000000,0.000000,0.000000,0.000000,-0.631819,-0.263702,0.575280,-0.000380,0.999870,0.010391,0.012341
0.900000,-2.509685,-1.541999,-1.767302,-1.434779,1.569075,-0.939626,-0.209440,0.008445,0.029262,-0.032317,-0.001942,-0.209461,0.000000,-0.000000,-0.000000,0.000000,0.000000,0.000000,-0.637145,-0.250342,0.577452,-0.000382,0.999874,0.010049,0.012281
1.000000,-2.530629,-1.541155,-1.764375,-1.438011,1.568881,-0.960572,-0.209440,0.008445,0.029262,-0.032317,-0.001942,-0.209461,0.000000,-0.000000,-0.000000,0.000000,0.000000,0.000000,-0.642181,-0.236869,0.579625,-0.000385,0.999878,0.009715,0.012212
1.100000,-2.551573,-1.540311,-1.761449,-1.441243,1.568687,-0.981518,-0.209440,0.008445,0.029262,-0.032317,-0.001942,-0.209461,0.000000,-0.000000,-0.000000,0.000000,0.000000,0.000000,-0.646927,-0.223292,0.581799,-0.000387,0.999882,0.009388,0.012135
1.200000,-2.572517,-1.539466,-1.758523,-1.444475,1.568493,-1.002465,-0.209440,0.008445,0.029262,-0.032317,-0.001942,-0.209461,0.000000,-0.000000,-0.000000,0.000000,0.000000,0.000000,-0.651378,-0.209615,0.583974,-0.000389,0.999886,0.009068,0.012050
1.300000,-2.593461,-1.538622,-1.755597,-1.447706,1.568299,-1.023411,-0.209440,0.008445,0.029262,-0.032317,-0.001942,-0.209461,0.000000,-0.000000,-0.000000,0.000000,0.000000,0.000000,-0.655534,-0.195845,0.586150,-0.000392,0.999890,0.008757,0.011957
1.400000,-2.614405,-1.537777,-1.752671,-1.450938,1.568104,-1.044357,-0.209440,0.008445,0.029262,-0.032317,-0.001942,-0.209461,0.000000,-0.000000,-0.000000,0.000000,0.000000,0.000000,-0.659392,-0.181989,0.588326,-0.000394,0.999894,0.008453,0.011856
1.500000,-2.635349,-1.536933,-1.749745,-1.454170,1.567910,-1.065303,-0.209440,0.008445,0.029262,-0.032317,-0.001942,-0.209461,0.000000,-0.000000,-0.000000,0.000000,0.000000,0.000000,-0.662950,-0.168054,0.590504,-0.000396,0.999898,0.008157,0.011747
1.600000,-2.656293,-1.536088,-1.746818,-1.457402,1.567716,-1.086249,-0.209440,0.008445,0.029262,-0.032317,-0.001942,-0.209461,0.000000,-0.000000,-0.000000,0.000000,0.000000,0.000000,-0.666206,-0.154046,0.592682,-0.000398,0.999901,0.007869,0.011632
1.700000,-2.677237,-1.535244,-1.743892,-1.460633,1.567522,-1.107195,-0.209440,0.008445,0.029262,-0.032317,-0.001942,-0.209461,0.000000,-0.000000,-0.000000,0.000000,0.000000,0.000000,-0.669160,-0.139971,0.594861,-0.000400,0.999905,0.007590,0.011510
1.800000,-2.698181,-1.534399,-1.740966,-1.463865,1.567328,-1.128142,-0.209440,0.008445,0.029262,-0.032317,-0.001942,-0.209461,0.000000,-0.000000,-0.000000,0.000000,0.000000,0.000000,-0.671808,-0.125837,0.597040,-0.000402,0.999908,0.007320,0.011381
1.900000,-2.719125,-1.533555,-1.738040,-1.467097,1.567134,-1.149088,-0.209440,0.008445,0.029262,-0.032317,-0.001942,-0.209461,0.000000,-0.000000,-0.000000,0.000000,0.000000,0.000000,-0.674151,-0.111650,0.599221,-0.000404,0.999912,0.007058,0.011246
2.000000,-2.740068,-1.532710,-1.735114,-1.470329,1.566939,-1.170034,-0.209440,0.008445,0.029262,-0.032317,-0.001942,-0.209461,-0.000000,0.000000,0.000000,-0.000000,-0.000000,-0.000000,-0.676187,-0.097417,0.601402,-0.000406,0.999915,0.006805,0.011106
2.100000,-2.761012,-1.531866,-1.732188,-1.473560,1.566745,-1.190980,-0.209440,0.008445,0.029262,-0.032317,-0.001942,-0.209461,0.000000,-0.000000,-0.000000,0.000000,0.000000,0.000000,-0.677916,-0.083145,0.603583,-0.000407,0.999918,0.006561,0.010960
2.200000,-2.781956,-1.531021,-1.729261,-1.476792,1.566551,-1.211926,-0.209440,0.008445,0.029262,-0.032317,-0.001942,-0.209461,0.000000,-0.000000,-0.000000,0.000000,0.000000,0.000000,-0.679335,-0.068840,0.605766,-0.000409,0.999921,0.006326,0.010808
2.300000,-2.802900,-1.530177,-1.726335,-1.480024,1.566357,-1.232872,-0.209440,0.008445,0.029262,-0.032317,-0.001942,-0.209461,0.000000,-0.000000,-0.000000,0.000000,0.000000,0.000000,-0.680445,-0.054510,0.607948,-0.000411,0.999925,0.006101,0.010652
2.400000,-2.823844,-1.529332,-1.723409,-1.483256,1.566163,-1.253818,-0.209440,0.008445,0.029262,-0.032317,-0.001942,-0.209461,0.000000,-0.000000,-0.000000,0.000000,0.000000,0.000000,-0.681246,-0.040161,0.610132,-0.000413,0.999928,0.005884,0.010491
2.500000,-2.844788,-1.528488,-1.720483,-1.486487,1.565968,-1.274765,-0.209440,0.008445,0.029262,-0.032317,-0.001942,-0.209461,0.000000,-0.000000,-0.000000,0.000000,0.000000,0.000000,-0.681736,-0.025800,0.612316,-0.000414,0.999930,0.005678,0.010326
2.600000,-2.865732,-1.527643,-1.717557,-1.489719,1.565774,-1.295711,-0.209440,0.008445,0.029262,-0.032317,-0.001942,-0.209461,0.000000,-0.000000,-0.000000,0.000000,0.000000,0.000000,-0.681916,-0.011434,0.614500,-0.000416,0.999933,0.005480,0.010157
2.700000,-2.886676,-1.526799,-1.714630,-1.492951,1.565580,-1.316657,-0.209440,0.008445,0.029262,-0.032317,-0.001942,-0.209461,0.000000,-0.000000,-0.000000,0.000000,0.000000,0.000000,-0.681785,0.002931,0.616685,-0.000417,0.999936,0.005292,0.009984
2.800000,-2.907620,-1.525954,-1.711704,-1.496183,1.565386,-1.337603,-0.209440,0.008445,0.029262,-0.032317,-0.001942,-0.209461,0.000000,-0.000000,-0.000000,0.000000,0.000000,0.000000,-0.681344,0.017286,0.618870,-0.000419,0.999939,0.005114,0.009808
2.900000,-2.928564,-1.525110,-1.708778,-1.499414,1.565192,-1.358549,-0.209440,0.008445,0.029262,-0.032317,-0.001942,-0.209461,0.000000,-0.000000,-0.000000,0.000000,0.000000,0.000000,-0.680593,0.031627,0.621055,-0.000420,0.999941,0.004946,0.009630
3.000000,-2.949508,-1.524265,-1.705852,-1.502646,1.564998,-1.379495,-0.209440,0.008445,0.029262,-0.032317,-0.001942,-0.209461,0.000000,-0.000000,-0.000000,0.000000,0.000000,0.000000,-0.679532,0.045944,0.623241,-0.000421,0.999944,0.004787,0.009448
3.100000,-2.970452,-1.523421,-1.702926,-1.505878,1.564803,-1.400441,-0.209440,0.008445,0.029262,-0.032317,-0.001942,-0.209461,0.000000,-0.000000,-0.000000,0.000000,0.000000,0.000000,-0.678162,0.060233,0.625427,-0.000423,0.999946,0.004638,0.009264
3.200000,-2.991396,-1.522576,-1.700000,-1.509110,1.564609,-1.421388,-0.209440,0.008445,0.029262,-0.032317,-0.001942,-0.209461,0.000000,-0.000000,-0.000000,0.000000,0.000000,0.000000,-0.676484,0.074486,0.627614,-0.000424,0.999949,0.004499,0.009078
3.300000,-3.012340,-1.521732,-1.697073,-1.512341,1.564415,-1.442334,-0.209440,0.008445,0.029262,-0.032317,-0.001942,-0.209461,0.000000,-0.000000,-0.000000,0.000000,0.000000,0.000000,-0.674499,0.088695,0.629801,-0.000425,0.999951,0.004369,0.008891
3.400000,-3.033284,-1.520887,-1.694147,-1.515573,1.564221,-1.463280,-0.209440,0.008445,0.029262,-0.032317,-0.001942,-0.209461,0.000000,-0.000000,-0.000000,0.000000,0.000000,0.000000,-0.672207,0.102855,0.631988,-0.000426,0.999953,0.004250,0.008702
3.500000,-3.054228,-1.520043,-1.691221,-1.518805,1.564027,-1.484226,-0.209440,0.008445,0.029262,-0.032317,-0.001942,-0.209461,0.000000,-0.000000,-0.000000,0.000000,0.000000,0.000000,-0.669610,0.116959,0.634175,-0.000427,0.999955,0.004140,0.008512
3.600000,-3.075172,-1.519198,-1.688295,-1.522037,1.563833,-1.505172,-0.209440,0.008445,0.029262,-0.032317,-0.001942,-0.209461,0.000000,-0.000000,-0.000000,0.000000,0.000000,0.000000,-0.666709,0.131000,0.636362,-0.000428,0.999957,0.004040,0.008322
3.700000,-3.096116,-1.518354,-1.685369,-1.525268,1.563638,-1.526118,-0.209440,0.008445,0.029262,-0.032317,-0.001942,-0.209461,0.000000,-0.000000,-0.000000,0.000000,0.000000,0.000000,-0.663506,0.144970,0.638550,-0.000429,0.999959,0.003949,0.008131
3.800000,-3.117060,-1.517509,-1.682443,-1.528500,1.563444,-1.547064,-0.209440,0.008445,0.029262,-0.032317,-0.001942,-0.209461,0.000000,-0.000000,-0.000000,0.000000,0.000000,0.000000,-0.660002,0.158864,0.640737,-0.000430,0.999961,0.003869,0.007940
3.900000,-3.138004,-1.516665,-1.679516,-1.531732,1.563250,-1.568011,-0.209440,0.008445,0.029262,-0.032317,-0.001942,-0.209461,0.000000,-0.000000,-0.000000,0.000000,0.000000,0.000000,-0.656199,0.172675,0.642925,-0.000431,0.999963,0.003798,0.007750
4.000000,-3.158948,-1.515820,-1.676590,-1.534964,1.563056,-1.588957,-0.209440,0.008445,0.029262,-0.032317,-0.001942,-0.209461,-0.000000,0.000000,0.000000,-0.000000,-0.000000,-0.000000,-0.652099,0.186397,0.645113,-0.000432,0.999964,0.003736,0.007560
4.100000,-3.179891,-1.514976,-1.673664,-1.538195,1.562862,-1.609903,-0.209440,0.008445,0.029262,-0.032317,-0.001942,-0.209461,0.000000,-0.000000,-0.000000,0.000000,0.000000,0.000000,-0.647704,0.200022,0.647300,-0.000433,0.999966,0.003685,0.007371
4.200000,-3.200835,-1.514131,-1.670738,-1.541427,1.562668,-1.630849,-0.209440,0.008445,0.029262,-0.032317,-0.001942,-0.209461,0.000000,-0.000000,-0.000000,0.000000,0.000000,0.000000,-0.643017,0.213544,0.649488,-0.000433,0.999967,0.003642,0.007184
4.300000,-3.221779,-1.513287,-1.667812,-1.544659,1.562473,-1.651795,-0.209440,0.008445,0.029262,-0.032317,-0.001942,-0.209461,0.000000,-0.000000,-0.000000,0.000000,0.000000,0.000000,-0.638040,0.226957,0.651676,-0.000434,0.999969,0.003610,0.006997
4.400000,-3.242723,-1.512442,-1.664885,-1.547891,1.562279,-1.672741,-0.209440,0.008445,0.029262,-0.032317,-0.001942,-0.209461,0.000000,-0.000000,-0.000000,0.000000,0.000000,0.000000,-0.632774,0.240254,0.653863,-0.000434,0.999970,0.003586,0.006813
4.500000,-3.263667,-1.511598,-1.661959,-1.551122,1.562085,-1.693687,-0.209440,0.008445,0.029262,-0.032317,-0.001942,-0.209461,0.000000,-0.000000,-0.000000,0.000000,0.000000,0.000000,-0.627224,0.253429,0.656051,-0.000435,0.999972,0.003572,0.006631
4.600000,-3.284611,-1.510754,-1.659033,-1.554354,1.561891,-1.714634,-0.209440,0.008445,0.029262,-0.032317,-0.001942,-0.209461,0.000000,-0.000000,-0.000000,0.000000,0.000000,0.000000,-0.621392,0.266476,0.658238,-0.000436,0.999973,0.003567,0.006452
4.700000,-3.305555,-1.509909,-1.656107,-1.557586,1.561697,-1.735580,-0.209440,0.008445,0.029262,-0.032317,-0.001942,-0.209461,0.000000,-0.000000,-0.000000,0.000000,0.000000,0.000000,-0.615280,0.279389,0.660425,-0.000436,0.999974,0.003571,0.006275
4.800000,-3.326499,-1.509065,-1.653181,-1.560818,1.561503,-1.756526,-0.209440,0.008445,0.029262,-0.032317,-0.001942,-0.209461,0.000000,-0.000000,-0.000000,0.000000,0.000000,0.000000,-0.608893,0.292161,0.662612,-0.000436,0.999975,0.003584,0.006102
4.900000,-3.347443,-1.508220,-1.650255,-1.564049,1.561308,-1.777472,-0.209440,0.008445,0.029262,-0.032317,-0.001942,-0.209461,0.000000,-0.000000,-0.000000,0.000000,0.000000,0.000000,-0.602232,0.304787,0.664799,-0.000437,0.999976,0.003605,0.005932
5.000000,-3.368387,-1.507376,-1.647328,-1.567281,1.561114,-1.798418,-0.209440,0.008445,0.029262,-0.032317,-0.001942,-0.209461,0.000000,-0.000000,-0.000000,0.000000,0.000000,0.000000,-0.595302,0.317259,0.666985,-0.000437,0.999977,0.003636,0.005765
5.100000,-3.389331,-1.506531,-1.644402,-1.570513,1.560920,-1.819364,-0.209440,0.008445,0.029262,-0.032317,-0.001942,-0.209461,0.000000,-0.000000,-0.000000,0.000000,0.000000,0.000000,-0.588106,0.329574,0.669172,-0.000437,0.999977,0.003675,0.005603
5.200000,-3.410275,-1.505687,-1.641476,-1.573745,1.560726,-1.840311,-0.209440,0.008445,0.029262,-0.032317,-0.001942,-0.209461,0.000000,-0.000000,-0.000000,0.000000,0.000000,0.000000,-0.580648,0.341724,0.671357,-0.000437,0.999978,0.003722,0.005444
5.300000,-3.431219,-1.504842,-1.638550,-1.576976,1.560532,-1.861257,-0.209440,0.008445,0.029262,-0.032317,-0.001942,-0.209461,0.000000,-0.000000,-0.000000,0.000000,0.000000,0.000000,-0.572931,0.353704,0.673543,-0.000438,0.999979,0.003777,0.005291
5.400000,-3.452163,-1.503998,-1.635624,-1.580208,1.560338,-1.882203,-0.209440,0.008445,0.029262,-0.032317,-0.001942,-0.209461,0.000000,-0.000000,-0.000000,0.000000,0.000000,0.000000,-0.564960,0.365508,0.675728,-0.000438,0.999979,0.003840,0.005142
5.500000,-3.473107,-1.503153,-1.632697,-1.583440,1.560143,-1.903149,-0.209440,0.008445,0.029262,-0.032317,-0.001942,-0.209461,0.000000,-0.000000,-0.000000,0.000000,0.000000,0.000000,-0.556738,0.377130,0.677913,-0.000438,0.999980,0.003911,0.004998
5.600000,-3.494051,-1.502309,-1.629771,-1.586672,1.559949,-1.924095,-0.209440,0.008445,0.029262,-0.032317,-0.001942,-0.209461,0.000000,-0.000000,-0.000000,0.000000,0.000000,0.000000,-0.548269,0.388566,0.680097,-0.000438,0.999980,0.003990,0.004860
5.700000,-3.514995,-1.501464,-1.626845,-1.589903,1.559755,-1.945041,-0.209440,0.008445,0.029262,-0.032317,-0.001942,-0.209461,0.000000,-0.000000,-0.000000,0.000000,0.000000,0.000000,-0.539558,0.399810,0.682281,-0.000438,0.999980,0.004076,0.004727
5.800000,-3.535939,-1.500620,-1.623919,-1.593135,1.559561,-1.965987,-0.209440,0.008445,0.029262,-0.032317,-0.001942,-0.209461,0.000000,-0.000000,-0.000000,0.000000,0.000000,0.000000,-0.530610,0.410856,0.684464,-0.000437,0.999981,0.004169,0.004600
5.900000,-3.556883,-1.499775,-1.620993,-1.596367,1.559367,-1.986934,-0.209440,0.008445,0.029262,-0.032317,-0.001942,-0.209461,0.000000,-0.000000,-0.000000,0.000000,0.000000,0.000000,-0.521428,0.421700,0.686647,-0.000437,0.999981,0.004270,0.004479
6.000000,-3.577827,-1.498931,-1.618067,-1.599599,1.559173,-2.007880,-0.209440,0.008445,0.029262,-0.032317,-0.001942,-0.209461,0.000000,-0.000000,-0.000000,0.000000,0.000000,0.000000,-0.512018,0.432336,0.688829,-0.000437,0.999981,0.004377,0.004364
6.100000,-3.598770,-1.498086,-1.615140,-1.602830,1.558978,-2.028826,-0.209440,0.008445,0.029262,-0.032317,-0.001942,-0.209461,0.000000,-0.000000,-0.000000,0.000000,0.000000,0.000000,-0.502384,0.442759,0.691011,-0.000437,0.999981,0.004491,0.004256
6.200000,-3.619714,-1.497242,-1.612214,-1.606062,1.558784,-2.049772,-0.209440,0.008445,0.029262,-0.032317,-0.001942,-0.209461,0.000000,-0.000000,-0.000000,0.000000,0.000000,0.000000,-0.492531,0.452965,0.693192,-0.000436,0.999981,0.004611,0.004155
6.300000,-3.640658,-1.496397,-1.609288,-1.609294,1.558590,-2.070718,-0.209440,0.008445,0.029262,-0.032317,-0.001942,-0.209461,0.000000,-0.000000,-0.000000,0.000000,0.000000,0.000000,-0.482464,0.462948,0.695372,-0.000436,0.999980,0.004737,0.004060
6.400000,-3.661602,-1.495553,-1.606362,-1.612526,1.558396,-2.091664,-0.209440,0.008445,0.029262,-0.032317,-0.001942,-0.209461,0.000000,-0.000000,-0.000000,0.000000,0.000000,0.000000,-0.472188,0.472705,0.697552,-0.000435,0.999980,0.004869,0.003973
6.500000,-3.682546,-1.494708,-1.603436,-1.615757,1.558202,-2.112610,-0.209440,0.008445,0.029262,-0.032317,-0.001942,-0.209461,0.000000,-0.000000,-0.000000,0.000000,0.000000,0.000000,-0.461708,0.482230,0.699731,-0.000435,0.999980,0.005007,0.003893
6.600000,-3.703490,-1.493864,-1.600510,-1.618989,1.558008,-2.133557,-0.209440,0.008445,0.029262,-0.032317,-0.001942,-0.209461,0.000000,-0.000000,-0.000000,0.000000,0.000000,0.000000,-0.451029,0.491519,0.701909,-0.000434,0.999979,0.005150,0.003821
6.700000,-3.724434,-1.493019,-1.597583,-1.622221,1.557813,-2.154503,-0.209440,0.008445,0.029262,-0.032317,-0.001942,-0.209461,0.000000,-0.000000,-0.000000,0.000000,0.000000,0.000000,-0.440158,0.500568,0.704086,-0.000434,0.999979,0.005298,0.003757
6.800000,-3.745378,-1.492175,-1.594657,-1.625453,1.557619,-2.175449,-0.209440,0.008445,0.029262,-0.032317,-0.001942,-0.209461,0.000000,-0.000000,-0.000000,0.000000,0.000000,0.000000,-0.429099,0.509373,0.706263,-0.000433,0.999978,0.005452,0.003700
6.900000,-3.766322,-1.491330,-1.591731,-1.628684,1.557425,-2.196395,-0.209440,0.008445,0.029262,-0.032317,-0.001942,-0.209461,0.000000,-0.000000,-0.000000,0.000000,0.000000,0.000000,-0.417857,0.517930,0.708438,-0.000432,0.999978,0.005609,0.003652
7.000000,-3.787266,-1.490486,-1.588805,-1.631916,1.557231,-2.217341,-0.209440,0.008445,0.029262,-0.032317,-0.001942,-0.209461,0.000000,-0.000000,-0.000000,0.000000,0.000000,0.000000,-0.406440,0.526234,0.710613,-0.000432,0.999977,0.005771,0.003612
7.100000,-3.808210,-1.489641,-1.585879,-1.635148,1.557037,-2.238287,-0.209440,0.008445,0.029262,-0.032317,-0.001942,-0.209461,0.000000,-0.000000,-0.000000,0.000000,0.000000,0.000000,-0.394851,0.534283,0.712787,-0.000431,0.999976,0.005937,0.003580
7.200000,-3.829154,-1.488797,-1.582952,-1.638380,1.556843,-2.259233,-0.209440,0.008445,0.029262,-0.032317,-0.001942,-0.209461,0.000000,-0.000000,-0.000000,0.000000,0.000000,0.000000,-0.383098,0.542072,0.714960,-0.000430,0.999975,0.006107,0.003557
7.300000,-3.850098,-1.487952,-1.580026,-1.641611,1.556648,-2.280180,-0.209440,0.008445,0.029262,-0.032317,-0.001942,-0.209461,0.000000,-0.000000,-0.000000,0.000000,0.000000,0.000000,-0.371186,0.549598,0.717132,-0.000429,0.999974,0.006281,0.003543
7.400000,-3.871042,-1.487108,-1.577100,-1.644843,1.556454,-2.301126,-0.209440,0.008445,0.029262,-0.032317,-0.001942,-0.209461,0.000000,-0.000000,-0.000000,0.000000,0.000000,0.000000,-0.359120,0.556857,0.719303,-0.000428,0.999973,0.006457,0.003538
7.500000,-3.891986,-1.486263,-1.574174,-1.648075,1.556260,-2.322072,-0.209440,0.008445,0.029262,-0.032317,-0.001942,-0.209461,0.000000,-0.000000,-0.000000,0.000000,0.000000,0.000000,-0.346908,0.563847,0.721473,-0.000427,0.999972,0.006636,0.003541
7.600000,-3.912930,-1.485419,-1.571248,-1.651307,1.556066,-2.343018,-0.209440,0.008445,0.029262,-0.032317,-0.001942,-0.209461,0.000000,-0.000000,-0.000000,0.000000,0.000000,0.000000,-0.334555,0.570565,0.723642,-0.000426,0.999970,0.006818,0.003554
7.700000,-3.933874,-1.484574,-1.568322,-1.654538,1.555872,-2.363964,-0.209440,0.008445,0.029262,-0.032317,-0.001942,-0.209461,0.000000,-0.000000,-0.000000,0.000000,0.000000,0.000000,-0.322067,0.577006,0.725810,-0.000425,0.999969,0.007002,0.003576
7.800000,-3.954818,-1.483730,-1.565395,-1.657770,1.555678,-2.384910,-0.209440,0.008445,0.029262,-0.032317,-0.001942,-0.209461,0.000000,-0.000000,-0.000000,0.000000,0.000000,0.000000,-0.309451,0.583169,0.727977,-0.000424,0.999968,0.007188,0.003608
7.900000,-3.975762,-1.482885,-1.562469,-1.661002,1.555483,-2.405856,-0.209440,0.008445,0.029262,-0.032317,-0.001942,-0.209461,0.000000,-0.000000,-0.000000,0.000000,0.000000,0.000000,-0.296712,0.589051,0.730143,-0.000422,0.999966,0.007376,0.003648
8.000000,-3.996706,-1.482041,-1.559543,-1.664234,1.555289,-2.426803,-0.209440,0.008445,0.029262,-0.032317,-0.001942,-0.209461,-0.000000,0.000000,0.000000,-0.000000,-0.000000,-0.000000,-0.283858,0.594650,0.732307,-0.000421,0.999964,0.007565,0.003699
8.100000,-4.017650,-1.481196,-1.556617,-1.667465,1.555095,-2.447749,-0.209440,0.008445,0.029262,-0.032317,-0.001942,-0.209461,0.000000,-0.000000,-0.000000,0.000000,0.000000,0.000000,-0.270895,0.599962,0.734470,-0.000420,0.999963,0.007755,0.003759
8.200000,-4.038593,-1.480352,-1.553691,-1.670697,1.554901,-2.468695,-0.209440,0.008445,0.029262,-0.032317,-0.001942,-0.209461,0.000000,-0.000000,-0.000000,0.000000,0.000000,0.000000,-0.257829,0.604986,0.736632,-0.000418,0.999961,0.007946,0.003828
8.300000,-4.059537,-1.479508,-1.550765,-1.673929,1.554707,-2.489641,-0.209440,0.008445,0.029262,-0.032317,-0.001942,-0.209461,0.000000,-0.000000,-0.000000,0.000000,0.000000,0.000000,-0.244666,0.609720,0.738793,-0.000417,0.999959,0.008137,0.003907
8.400000,-4.080481,-1.478663,-1.547838,-1.677161,1.554513,-2.510587,-0.209440,0.008445,0.029262,-0.032317,-0.001942,-0.209461,0.000000,-0.000000,-0.000000,0.000000,0.000000,0.000000,-0.231414,0.614162,0.740952,-0.000416,0.999957,0.008328,0.003996
8.500000,-4.101425,-1.477819,-1.544912,-1.680392,1.554318,-2.531533,-0.209440,0.008445,0.029262,-0.032317,-0.001942,-0.209461,0.000000,-0.000000,-0.000000,0.000000,0.000000,0.000000,-0.218078,0.618309,0.743111,-0.000414,0.999955,0.008519,0.004095
8.600000,-4.122369,-1.476974,-1.541986,-1.683624,1.554124,-2.552480,-0.209440,0.008445,0.029262,-0.032317,-0.001942,-0.209461,0.000000,-0.000000,-0.000000,0.000000,0.000000,0.000000,-0.204666,0.622161,0.745267,-0.000412,0.999953,0.008709,0.004203
8.700000,-4.143313,-1.476130,-1.539060,-1.686856,1.553930,-2.573426,-0.209440,0.008445,0.029262,-0.032317,-0.001942,-0.209461,0.000000,-0.000000,-0.000000,0.000000,0.000000,0.000000,-0.191185,0.625716,0.747423,-0.000411,0.999951,0.008899,0.004321
8.800000,-4.164257,-1.475285,-1.536134,-1.690088,1.553736,-2.594372,-0.209440,0.008445,0.029262,-0.032317,-0.001942,-0.209461,0.000000,-0.000000,-0.000000,0.000000,0.000000,0.000000,-0.177640,0.628973,0.749577,-0.000409,0.999949,0.009087,0.004449
8.900000,-4.185201,-1.474441,-1.533207,-1.693319,1.553542,-2.615318,-0.209440,0.008445,0.029262,-0.032317,-0.001942,-0.209461,0.000000,-0.000000,-0.000000,0.000000,0.000000,0.000000,-0.164038,0.631929,0.751729,-0.000407,0.999946,0.009273,0.004587
9.000000,-4.206145,-1.473596,-1.530281,-1.696551,1.553348,-2.636264,-0.209440,0.008445,0.029262,-0.032317,-0.001942,-0.209461,0.000000,-0.000000,-0.000000,0.000000,0.000000,0.000000,-0.150387,0.634586,0.753880,-0.000405,0.999944,0.009458,0.004735
9.100000,-4.227089,-1.472752,-1.527355,-1.699783,1.553153,-2.657210,-0.209440,0.008445,0.029262,-0.032317,-0.001942,-0.209461,0.000000,-0.000000,-0.000000,0.000000,0.000000,0.000000,-0.136693,0.636941,0.756029,-0.000404,0.999941,0.009640,0.004892
9.200000,-4.248033,-1.471907,-1.524429,-1.703015,1.552959,-2.678156,-0.209440,0.008445,0.029262,-0.032317,-0.001942,-0.209461,0.000000,-0.000000,-0.000000,0.000000,0.000000,0.000000,-0.122963,0.638994,0.758177,-0.000402,0.999939,0.009820,0.005059
9.300000,-4.268977,-1.471063,-1.521503,-1.706246,1.552765,-2.699103,-0.209440,0.008445,0.029262,-0.032317,-0.001942,-0.209461,0.000000,-0.000000,-0.000000,0.000000,0.000000,0.000000,-0.109204,0.640744,0.760324,-0.000400,0.999936,0.009997,0.005236
9.400000,-4.289921,-1.470218,-1.518577,-1.709478,1.552571,-2.720049,-0.209440,0.008445,0.029262,-0.032317,-0.001942,-0.209461,0.000000,-0.000000,-0.000000,0.000000,0.000000,0.000000,-0.095422,0.642191,0.762469,-0.000398,0.999933,0.010171,0.005422
9.500000,-4.310865,-1.469374,-1.515650,-1.712710,1.552377,-2.740995,-0.209440,0.008445,0.029262,-0.032317,-0.001942,-0.209461,0.000000,-0.000000,-0.000000,0.000000,0.000000,0.000000,-0.081624,0.643335,0.764612,-0.000396,0.999931,0.010341,0.005618
9.600000,-4.331809,-1.468529,-1.512724,-1.715942,1.552182,-2.761941,-0.209440,0.008445,0.029262,-0.032317,-0.001942,-0.209461,0.000000,-0.000000,-0.000000,0.000000,0.000000,0.000000,-0.067818,0.644175,0.766753,-0.000394,0.999928,0.010507,0.005824
9.700000,-4.352753,-1.467685,-1.509798,-1.719173,1.551988,-2.782887,-0.209440,0.008445,0.029262,-0.032317,-0.001942,-0.209461,0.000000,-0.000000,-0.000000,0.000000,0.000000,0.000000,-0.054009,0.644712,0.768893,-0.000391,0.999925,0.010669,0.006039
9.800000,-4.373697,-1.466840,-1.506872,-1.722405,1.551794,-2.803833,-0.209440,0.008445,0.029262,-0.032317,-0.001942,-0.209461,0.000000,-0.000000,-0.000000,0.000000,0.000000,0.000000,-0.040206,0.644947,0.771031,-0.000389,0.999922,0.010827,0.006263
9.900000,-4.394641,-1.465996,-1.503946,-1.725637,1.551600,-2.824779,-0.209440,0.008445,0.029262,-0.032317,-0.001942,-0.209461,0.000000,-0.000000,-0.000000,0.000000,0.000000,0.000000,-0.026413,0.644878,0.773167,-0.000387,0.999919,0.010980,0.006496
10.000000,-4.415585,-1.465151,-1.501020,-1.728869,1.551406,-2.845726,-0.209440,0.008445,0.029262,-0.032317,-0.001942,-0.209461,0.000000,-0.000000,-0.000000,0.000000,0.000000,0.000000,-0.012639,0.644508,0.775302,-0.000385,0.999915,0.011127,0.006739
10.100000,-4.436529,-1.464307,-1.498093,-1.732100,1.551212,-2.866672,-0.209440,0.008445,0.029262,-0.032317,-0.001942,-0.209461,0.000000,-0.000000,-0.000000,0.000000,0.000000,0.000000,0.001110,0.643836,0.777434,-0.000382,0.999912,0.011269,0.006991
10.200000,-4.457472,-1.463462,-1.495167,-1.735332,1.551017,-2.887618,-0.209440,0.008445,0.029262,-0.032317,-0.001942,-0.209461,0.000000,-0.000000,-0.000000,0.000000,0.000000,0.000000,0.014827,0.642863,0.779565,-0.000380,0.999909,0.011406,0.007251
10.300000,-4.478416,-1.462618,-1.492241,-1.738564,1.550823,-2.908564,-0.209440,0.008445,0.029262,-0.032317,-0.001942,-0.209461,0.000000,-0.000000,-0.000000,0.000000,0.000000,0.000000,0.028506,0.641591,0.781694,-0.000377,0.999905,0.011536,0.007521
10.400000,-4.499360,-1.461773,-1.489315,-1.741796,1.550629,-2.929510,-0.209440,0.008445,0.029262,-0.032317,-0.001942,-0.209461,0.000000,-0.000000,-0.000000,0.000000,0.000000,0.000000,0.042139,0.640020,0.783821,-0.000375,0.999902,0.011660,0.007799
10.500000,-4.520304,-1.460929,-1.486389,-1.745027,1.550435,-2.950456,-0.209440,0.008445,0.029262,-0.032317,-0.001942,-0.209461,0.000000,-0.000000,-0.000000,0.000000,0.000000,0.000000,0.055721,0.638153,0.785946,-0.000372,0.999898,0.011777,0.008085
10.600000,-4.541248,-1.460084,-1.483462,-1.748259,1.550241,-2.971402,-0.209440,0.008445,0.029262,-0.032317,-0.001942,-0.209461,0.000000,-0.000000,-0.000000,0.000000,0.000000,0.000000,0.069244,0.635990,0.788069,-0.000369,0.999894,0.011887,0.008380
10.700000,-4.562192,-1.459240,-1.480536,-1.751491,1.550047,-2.992349,-0.209440,0.008445,0.029262,-0.032317,-0.001942,-0.209461,0.000000,-0.000000,-0.000000,0.000000,0.000000,0.000000,0.082702,0.633533,0.790191,-0.000367,0.999890,0.011989,0.008683
10.800000,-4.583136,-1.458395,-1.477610,-1.754723,1.549852,-3.013295,-0.209440,0.008445,0.029262,-0.032317,-0.001942,-0.209461,0.000000,-0.000000,-0.000000,0.000000,0.000000,0.000000,0.096089,0.630783,0.792310,-0.000364,0.999886,0.012085,0.008994
10.900000,-4.604080,-1.457551,-1.474684,-1.757954,1.549658,-3.034241,-0.209440,0.008445,0.029262,-0.032317,-0.001942,-0.209461,0.000000,-0.000000,-0.000000,0.000000,0.000000,0.000000,0.109397,0.627744,0.794427,-0.000361,0.999882,0.012172,0.009312
11.000000,-4.625024,-1.456706,-1.471758,-1.761186,1.549464,-3.055187,-0.209440,0.008445,0.029262,-0.032317,-0.001942,-0.209461,0.000000,-0.000000,-0.000000,0.000000,0.000000,0.000000,0.122621,0.624416,0.796542,-0.000358,0.999878,0.012251,0.009638
11.100000,-4.645968,-1.455862,-1.468832,-1.764418,1.549270,-3.076133,-0.209440,0.008445,0.029262,-0.032317,-0.001942,-0.209461,0.000000,-0.000000,-0.000000,0.000000,0.000000,0.000000,0.135754,0.620802,0.798655,-0.000355,0.999874,0.012322,0.009972
11.200000,-4.666912,-1.455017,-1.465905,-1.767650,1.549076,-3.097079,-0.209440,0.008445,0.029262,-0.032317,-0.001942,-0.209461,0.000000,-0.000000,-0.000000,0.000000,0.000000,0.000000,0.148790,0.616904,0.800765,-0.000352,0.999870,0.012384,0.010313
11.300000,-4.687856,-1.454173,-1.462979,-1.770881,1.548882,-3.118025,-0.209440,0.008445,0.029262,-0.032317,-0.001942,-0.209461,0.000000,-0.000000,-0.000000,0.000000,0.000000,0.000000,0.161722,0.612725,0.802874,-0.000349,0.999866,0.012437,0.010660
11.400000,-4.708800,-1.453328,-1.460053,-1.774113,1.548687,-3.138972,-0.209440,0.008445,0.029262,-0.032317,-0.001942,-0.209461,0.000000,-0.000000,-0.000000,0.000000,0.000000,0.000000,0.174545,0.608268,0.804980,-0.000346,0.999861,0.012480,0.011015
11.500000,-4.729744,-1.452484,-1.457127,-1.777345,1.548493,-3.159918,-0.209440,0.008445,0.029262,-0.032317,-0.001942,-0.209461,0.000000,-0.000000,-0.000000,0.000000,0.000000,0.000000,0.187251,0.603534,0.807084,-0.000343,0.999857,0.012515,0.011375
11.600000,-4.750688,-1.451639,-1.454201,-1.780577,1.548299,-3.180864,-0.209440,0.008445,0.029262,-0.032317,-0.001942,-0.209461,0.000000,-0.000000,-0.000000,0.000000,0.000000,0.000000,0.199836,0.598528,0.809186,-0.000340,0.999852,0.012539,0.011742
11.700000,-4.769543,-1.450879,-1.451566,-1.783486,1.548124,-3.199721,-0.163483,0.006592,0.022841,-0.025226,-0.001516,-0.163500,0.499948,-0.020159,-0.069850,0.077144,0.004635,0.500000,0.211056,0.593791,0.811077,-0.000337,0.999848,0.012552,0.012078
11.800000,-4.783417,-1.450320,-1.449628,-1.785627,1.547996,-3.213596,-0.113488,0.004576,0.015856,-0.017512,-0.001052,-0.113500,0.499948,-0.020159,-0.069850,0.077144,0.004635,0.500000,0.219243,0.590166,0.812466,-0.000335,0.999845,0.012557,0.012328
11.900000,-4.792291,-1.449962,-1.448388,-1.786996,1.547913,-3.222471,-0.063493,0.002560,0.008871,-0.009797,-0.000589,-0.063500,0.499948,-0.020159,-0.069850,0.077144,0.004635,0.500000,0.224448,0.587787,0.813355,-0.000334,0.999843,0.012558,0.012489
12.000000,-4.796166,-1.449806,-1.447847,-1.787594,1.547877,-3.226347,-0.013499,0.000544,0.001886,-0.002083,-0.000125,-0.013500,0.499948,-0.020159,-0.069850,0.077144,0.004635,0.500000,0.226713,0.586733,0.813742,-0.000333,0.999842,0.012557,0.012560
12.027506,-4.796355,-1.449798,-1.447820,-1.787623,1.547876,-3.226536,0.000000,-0.000000,-0.000000,0.000000,0.000000,0.000000,0.499948,-0.020159,-0.069850,0.077144,0.004635,0.500000,0.226824,0.586682,0.813761,-0.000333,0.999842,0.012557,0.012563
