mathias31415/motion_primitives_from_planned_trajectory/data/trajectory_20250625_162401_executed.csv
timestamp,shoulder_lift_joint_pos,elbow_joint_pos,wrist_1_joint_pos,wrist_2_joint_pos,wrist_3_joint_pos,shoulder_pan_joint_pos,shoulder_lift_joint_vel,elbow_joint_vel,wrist_1_joint_vel,wrist_2_joint_vel,wrist_3_joint_vel,shoulder_pan_joint_vel,shoulder_lift_joint_eff,elbow_joint_eff,wrist_1_joint_eff,wrist_2_joint_eff,wrist_3_joint_eff,shoulder_pan_joint_eff
1750861452.656418324,-1.726960000,-2.202995000,-0.808030000,1.595100000,-0.030976000,-1.600672000,0.000000000,0.000000000,0.000000000,0.000000000,0.000000000,0.000000000,3.620542350,3.121618019,0.300563776,0.002005540,0.000000000,0.000000000
1750861452.659337759,-1.726960000,-2.202995000,-0.808030000,1.595100000,-0.030976000,-1.600672000,0.000000000,0.000000000,0.000000000,0.000000000,0.000000000,0.000000000,3.620542350,3.121618019,0.300563776,0.002005540,0.000000000,0.000000000
1750861452.660525084,-1.726960000,-2.202995000,-0.808030000,1.595100000,-0.030976000,-1.600672000,0.000000000,0.000000000,0.000000000,0.000000000,0.000000000,0.000000000,3.620542350,3.121618019,0.300563776,0.002005540,0.000000000,0.000000000
1750861452.662771225,-1.726960000,-2.202995000,-0.808030000,1.595100000,-0.030976000,-1.600672000,0.000000000,0.000000000,0.000000000,0.000000000,0.000000000,0.000000000,3.620542350,3.121618019,0.300563776,0.002005540,0.000000000,0.000000000
1750861452.664555073,-1.726960000,-2.202995000,-0.808030000,1.595100000,-0.030976000,-1.600672000,0.000000000,0.000000000,0.000000000,0.000000000,0.000000000,0.000000000,3.620542350,3.121618019,0.300563776,0.002005540,0.000000000,0.000000000
1750861452.666719913,-1.726960000,-2.202995000,-0.808030000,1.595100000,-0.030976000,-1.600672000,0.000000000,0.000000000,0.000000000,0.000000000,0.000000000,0.000000000,3.620542350,3.121618019,0.300563776,0.002005540,0.000000000,0.000000000
1750861452.669026375,-1.726960000,-2.202995000,-0.808030000,1.595100000,-0.030976000,-1.600672000,0.000000000,0.000000000,0.000000000,0.000000000,0.000000000,0.000000000,3.620542350,3.121618019,0.300563776,0.002005540,0.000000000,0.000000000
1750861452.670787811,-1.726960000,-2.202995000,-0.808030000,1.595100000,-0.030976000,-1.600672000,0.000000000,0.000000000,0.000000000,0.000000000,0.000000000,0.000000000,3.620542350,3.121618019,0.300563776,0.002005540,0.000000000,0.000000000
1750861452.672873974,-1.726960000,-2.202995000,-0.808030000,1.595100000,-0.030976000,-1.600672000,0.000000000,0.000000000,0.000000000,0.000000000,0.000000000,0.000000000,3.620542350,3.121618019,0.300563776,0.002005540,0.000000000,0.000000000
1750861452.674968004,-1.726960000,-2.202995000,-0.808030000,1.595100000,-0.030976000,-1.600672000,0.000000000,0.000000000,0.000000000,0.000000000,0.000000000,0.000000000,3.620542350,3.121618019,0.300563776,0.002005540,0.000000000,0.000000000
1750861452.677208900,-1.726960000,-2.202995000,-0.808030000,1.595100000,-0.030976000,-1.600672000,0.000000000,0.000000000,0.000000000,0.000000000,0.000000000,0.000000000,3.620542350,3.121618019,0.300563776,0.002005540,0.000000000,0.000000000
1750861452.679009438,-1.726960000,-2.202995000,-0.808030000,1.595100000,-0.030976000,-1.600672000,0.000000000,0.000000000,0.000000000,0.000000000,0.000000000,0.000000000,3.620542350,3.121618019,0.300563776,0.002005540,0.000000000,0.000000000
1750861452.680740595,-1.726960000,-2.202995000,-0.808030000,1.595100000,-0.030976000,-1.600672000,0.000000000,0.000000000,0.000000000,0.000000000,0.000000000,0.000000000,3.620542350,3.121618019,0.300563776,0.002005540,0.000000000,0.000000000
1750861452.682478666,-1.726960000,-2.202995000,-0.808030000,1.595100000,-0.030976000,-1.600672000,0.000000000,0.000000000,0.000000000,0.000000000,0.000000000,0.000000000,3.620542350,3.121618019,0.300563776,0.002005540,0.000000000,0.000000000
1750861452.684436083,-1.726960000,-2.202995000,-0.808030000,1.595100000,-0.030976000,-1.600672000,0.000000000,0.000000000,0.000000000,0.000000000,0.000000000,0.000000000,3.620542350,3.121618019,0.300563776,0.002005540,0.000000000,0.000000000
1750861452.686516047,-1.726960000,-2.202995000,-0.808030000,1.595100000,-0.030976000,-1.600672000,0.000000000,0.000000000,0.000000000,0.000000000,0.000000000,0.000000000,3.620542350,3.121618019,0.300563776,0.002005540,0.000000000,0.000000000
1750861452.688483953,-1.726960000,-2.202995000,-0.808030000,1.595100000,-0.030976000,-1.600672000,0.000000000,0.000000000,0.000000000,0.000000000,0.000000000,0.000000000,3.620542350,3.121618019,0.300563776,0.002005540,0.000000000,0.000000000
1750861452.690553427,-1.726960000,-2.202995000,-0.808030000,1.595100000,-0.030976000,-1.600672000,0.000000000,0.000000000,0.000000000,0.000000000,0.000000000,0.000000000,3.620542350,3.121618019,0.300563776,0.002005540,0.000000000,0.000000000
1750861452.692438364,-1.726960000,-2.202995000,-0.808030000,1.595100000,-0.030976000,-1.600672000,0.000000000,0.000000000,0.000000000,0.000000000,0.000000000,0.000000000,3.620542350,3.121618019,0.300563776,0.002005540,0.000000000,0.000000000
1750861452.694474936,-1.726960000,-2.202995000,-0.808030000,1.595100000,-0.030976000,-1.600672000,0.000000000,0.000000000,0.000000000,0.000000000,0.000000000,0.000000000,3.620542350,3.121618019,0.300563776,0.002005540,0.000000000,0.000000000
1750861452.696485519,-1.726960000,-2.202995000,-0.808030000,1.595100000,-0.030976000,-1.600672000,0.000000000,0.000000000,0.000000000,0.000000000,0.000000000,0.000000000,3.620542350,3.121618019,0.300563776,0.002005540,0.000000000,0.000000000
1750861452.704431295,-1.726960000,-2.202995000,-0.808030000,1.595100000,-0.030976000,-1.600672000,0.000000000,0.000000000,0.000000000,0.000000000,0.000000000,0.000000000,3.620542350,3.121618019,0.300563776,0.002005540,0.000000000,0.000000000
1750861452.709599972,-1.726960000,-2.202995000,-0.808030000,1.595100000,-0.030976000,-1.600672000,0.000000000,0.000000000,0.000000000,0.000000000,0.000000000,0.000000000,3.620542350,3.121618019,0.300563776,0.002005540,0.000000000,0.000000000
1750861452.709728003,-1.726960000,-2.202995000,-0.808030000,1.595100000,-0.030976000,-1.600672000,0.000000000,0.000000000,0.000000000,0.000000000,0.000000000,0.000000000,3.620542350,3.121618019,0.300563776,0.002005540,0.000000000,0.000000000
1750861452.709873199,-1.726960000,-2.202995000,-0.808030000,1.595100000,-0.030976000,-1.600672000,0.000000000,0.000000000,0.000000000,0.000000000,0.000000000,0.000000000,3.620542350,3.121618019,0.300563776,0.002005540,0.000000000,0.000000000
1750861452.709970713,-1.726960000,-2.202995000,-0.808030000,1.595100000,-0.030976000,-1.600672000,0.000000000,0.000000000,0.000000000,0.000000000,0.000000000,0.000000000,3.620542350,3.121618019,0.300563776,0.002005540,0.000000000,0.000000000
1750861452.710150242,-1.726960000,-2.202995000,-0.808030000,1.595100000,-0.030976000,-1.600672000,0.000000000,0.000000000,0.000000000,0.000000000,0.000000000,0.000000000,3.620542350,3.121618019,0.300563776,0.002005540,0.000000000,0.000000000
1750861452.710292578,-1.726960000,-2.202995000,-0.808030000,1.595100000,-0.030976000,-1.600672000,0.000000000,0.000000000,0.000000000,0.000000000,0.000000000,0.000000000,3.620542350,3.121618019,0.300563776,0.002005540,0.000000000,0.000000000
1750861452.712268829,-1.726960000,-2.202995000,-0.808030000,1.595100000,-0.030976000,-1.600672000,0.000000000,0.000000000,0.000000000,0.000000000,0.000000000,0.000000000,3.620542350,3.121618019,0.300563776,0.002005540,0.000000000,0.000000000
1750861452.714294434,-1.726960000,-2.202995000,-0.808030000,1.595100000,-0.030976000,-1.600672000,0.000000000,0.000000000,0.000000000,0.000000000,0.000000000,0.000000000,3.620542350,3.121618019,0.300563776,0.002005540,0.000000000,0.000000000
1750861452.716703653,-1.726960000,-2.202995000,-0.808030000,1.595100000,-0.030976000,-1.600672000,0.000000000,0.000000000,0.000000000,0.000000000,0.000000000,0.000000000,3.620542350,3.121618019,0.300563776,0.002005540,0.000000000,0.000000000
1750861452.718342543,-1.726959965,-2.202993912,-0.808031143,1.595099955,-0.030977407,-1.600673407,0.000034948,0.001088180,-0.001142779,-0.000044628,-0.001406767,-0.001407049,3.721192413,3.332412023,0.276185209,-0.002830789,-0.039629069,-0.491826722
1750861452.721660614,-1.726959860,-2.202990647,-0.808034571,1.595099821,-0.030981627,-1.600677628,0.000069879,0.002176373,-0.002285554,-0.000089256,-0.002813524,-0.002814088,3.721194041,3.332422995,0.276185343,-0.002830803,-0.039628829,-0.491824811
1750861452.722363710,-1.726959686,-2.202985206,-0.808040285,1.595099598,-0.030988661,-1.600684663,0.000104776,0.003264593,-0.003428320,-0.000133884,-0.004220265,-0.004221111,3.721194421,3.332442051,0.276185610,-0.002830818,-0.039628349,-0.491820352
1750861452.724626780,-1.726959441,-2.202977589,-0.808048284,1.595099286,-0.030998508,-1.600694513,0.000139621,0.004352854,-0.004571074,-0.000178511,-0.005626981,-0.005628109,3.721193553,3.332469193,0.276186007,-0.002830833,-0.039627629,-0.491813347
1750861452.726492167,-1.726959127,-2.202967795,-0.808058569,1.595098884,-0.031011169,-1.600707176,0.000174397,0.005441169,-0.005713809,-0.000223137,-0.007033662,-0.007035072,3.721191439,3.332504419,0.276186536,-0.002830849,-0.039626669,-0.491803794
1750861452.728417873,-1.726958744,-2.202955824,-0.808071140,1.595098393,-0.031026643,-1.600722653,0.000209087,0.006529551,-0.006856523,-0.000267763,-0.008440301,-0.008441993,3.721188078,3.332547728,0.276187197,-0.002830865,-0.039625468,-0.491791694
1750861452.730394363,-1.726958291,-2.202941677,-0.808085995,1.595097813,-0.031044930,-1.600740944,0.000243674,0.007618014,-0.007999210,-0.000312387,-0.009846888,-0.009848863,3.721183474,3.332599121,0.276187988,-0.002830882,-0.039624028,-0.491777047
1750861452.732432365,-1.726957769,-2.202925352,-0.808103136,1.595097144,-0.031066030,-1.600762048,0.000278140,0.008706571,-0.009141867,-0.000357010,-0.011253416,-0.011255673,3.721177628,3.332658597,0.276188911,-0.002830899,-0.039622347,-0.491759852
1750861452.734427929,-1.726957178,-2.202906850,-0.808122563,1.595096385,-0.031089944,-1.600785966,0.000312469,0.009795237,-0.010284488,-0.000401632,-0.012659876,-0.012662415,3.721170541,3.332726155,0.276189966,-0.002830917,-0.039620427,-0.491740110
1750861452.736574173,-1.726956519,-2.202886171,-0.808144274,1.595095537,-0.031116670,-1.600812698,0.000346642,0.010884023,-0.011427070,-0.000446252,-0.014066259,-0.014069081,3.721162216,3.332801795,0.276191151,-0.002830935,-0.039618266,-0.491717820
1750861452.738453150,-1.726955792,-2.202863314,-0.808168271,1.595094600,-0.031146209,-1.600842243,0.000380644,0.011972945,-0.012569609,-0.000490871,-0.015472557,-0.015475661,3.721152656,3.332885515,0.276192468,-0.002830954,-0.039615864,-0.491692982
1750861452.740489721,-1.726955792,-2.202863314,-0.808168271,1.595094600,-0.031146209,-1.600842243,0.000380644,0.011972945,-0.012569609,-0.000490871,-0.015472557,-0.015475661,3.721152656,3.332885515,0.276192468,-0.002830954,-0.039615864,-0.491692982
1750861452.742550611,-1.726954997,-2.202838279,-0.808194553,1.595093574,-0.031178560,-1.600874600,0.000414456,0.013062015,-0.013712099,-0.000535488,-0.016878761,-0.016882148,3.721141863,3.332977314,0.276193916,-0.002830974,-0.039613223,-0.491665596
1750861452.744451761,-1.726954134,-2.202811066,-0.808223119,1.595092458,-0.031213723,-1.600909771,0.000448062,0.014151246,-0.014854536,-0.000580102,-0.018284862,-0.018288532,3.721129841,3.333077192,0.276195496,-0.002830994,-0.039610341,-0.491635661
1750861452.746700764,-1.726953205,-2.202781674,-0.808253971,1.595091253,-0.031251699,-1.600947755,0.000481444,0.015240653,-0.015996917,-0.000624714,-0.019690853,-0.019694806,3.721116593,3.333185147,0.276197206,-0.002831015,-0.039607219,-0.491603178
1750861452.748341560,-1.726952209,-2.202750103,-0.808287107,1.595089959,-0.031292487,-1.600988550,0.000514586,0.016330249,-0.017139236,-0.000669324,-0.021096725,-0.021100961,3.721102122,3.333301178,0.276199047,-0.002831036,-0.039603856,-0.491568145
1750861452.750521660,-1.726951147,-2.202716353,-0.808322528,1.595088576,-0.031336086,-1.601032158,0.000547469,0.017420047,-0.018281490,-0.000713931,-0.022502468,-0.022506988,3.721086433,3.333425284,0.276201020,-0.002831057,-0.039600253,-0.491530563
1750861452.752430916,-1.726950019,-2.202680423,-0.808360233,1.595087104,-0.031382497,-1.601078578,0.000580077,0.018510060,-0.019423673,-0.000758536,-0.023908075,-0.023912878,3.721069530,3.333557463,0.276203123,-0.002831079,-0.039596409,-0.491490431
1750861452.754369497,-1.726948826,-2.202642313,-0.808400222,1.595085542,-0.031431718,-1.601127810,0.000612393,0.019600303,-0.020565782,-0.000803137,-0.025313537,-0.025318624,3.721051417,3.333697713,0.276205358,-0.002831102,-0.039592325,-0.491447748
1750861452.756388426,-1.726947570,-2.202602021,-0.808442496,1.595083891,-0.031483751,-1.601179853,0.000644399,0.020690788,-0.021707813,-0.000847735,-0.026718846,-0.026724216,3.721032099,3.333846034,0.276207723,-0.002831125,-0.039587999,-0.491402515
1750861452.758950472,-1.726946249,-2.202559549,-0.808487054,1.595082151,-0.031538594,-1.601234706,0.000676078,0.021781529,-0.022849760,-0.000892330,-0.028123992,-0.028129647,3.721011581,3.334002423,0.276210219,-0.002831148,-0.039583433,-0.491354731
1750861452.760378122,-1.726944865,-2.202514895,-0.808533895,1.595080322,-0.031596247,-1.601292371,0.000707413,0.022872540,-0.023991620,-0.000936921,-0.029528968,-0.029534907,3.720989869,3.334166878,0.276212846,-0.002831172,-0.039578627,-0.491304396
1750861452.762525797,-1.726943420,-2.202468059,-0.808583020,1.595078403,-0.031656709,-1.601352846,0.000738388,0.023963833,-0.025133388,-0.000981509,-0.030933765,-0.030939988,3.720966967,3.334339398,0.276215603,-0.002831196,-0.039573579,-0.491251508
1750861452.764516115,-1.726941912,-2.202419040,-0.808634428,1.595076396,-0.031719981,-1.601416131,0.000768984,0.025055423,-0.026275059,-0.001026093,-0.032338374,-0.032344882,3.720942883,3.334519980,0.276218491,-0.002831221,-0.039568290,-0.491196067
1750861452.766316652,-1.726940344,-2.202367837,-0.808688120,1.595074299,-0.031786063,-1.601482225,0.000799185,0.026147323,-0.027416630,-0.001070672,-0.033742787,-0.033749580,3.720917621,3.334708623,0.276221510,-0.002831246,-0.039562760,-0.491138074
1750861452.768309355,-1.726938716,-2.202314450,-0.808744095,1.595072113,-0.031854952,-1.601551129,0.000828974,0.027239546,-0.028558096,-0.001115248,-0.035146994,-0.035154073,3.720891190,3.334905325,0.276224659,-0.002831272,-0.039556989,-0.491077527
1750861452.770505667,-1.726937028,-2.202258879,-0.808802353,1.595069838,-0.031926650,-1.601622842,0.000858333,0.028332106,-0.029699453,-0.001159819,-0.036550989,-0.036558353,3.720863594,3.335110082,0.276227938,-0.002831298,-0.039550976,-0.491014425
1750861452.774037838,-1.726935283,-2.202201121,-0.808862893,1.595067474,-0.032001156,-1.601697362,0.000887245,0.029425016,-0.030840696,-0.001204385,-0.037954761,-0.037962411,3.720834841,3.335322892,0.276231348,-0.002831324,-0.039544722,-0.490948769
1750861452.774931669,-1.726935283,-2.202201121,-0.808862893,1.595067474,-0.032001156,-1.601697362,0.000887245,0.029425016,-0.030840696,-0.001204385,-0.037954761,-0.037962411,3.720834841,3.335322892,0.276231348,-0.002831324,-0.039544722,-0.490948769
1750861452.780544281,-1.726931620,-2.202079048,-0.808990820,1.595062478,-0.032158589,-1.601854827,0.000943661,0.031611940,-0.033122825,-0.001293504,-0.040761605,-0.040769828,3.720773895,3.335772664,0.276238558,-0.002831378,-0.039531489,-0.490809788
1750861452.780601740,-1.726931620,-2.202079048,-0.808990820,1.595062478,-0.032158589,-1.601854827,0.000943661,0.031611940,-0.033122825,-0.001293504,-0.040761605,-0.040769828,3.720773895,3.335772664,0.276238558,-0.002831378,-0.039531489,-0.490809788
1750861452.780621052,-1.726931620,-2.202079048,-0.808990820,1.595062478,-0.032158589,-1.601854827,0.000943661,0.031611940,-0.033122825,-0.001293504,-0.040761605,-0.040769828,3.720773895,3.335772664,0.276238558,-0.002831378,-0.039531489,-0.490809788
1750861452.784423351,-1.726931620,-2.202079048,-0.808990820,1.595062478,-0.032158589,-1.601854827,0.000943661,0.031611940,-0.033122825,-0.001293504,-0.040761605,-0.040769828,3.720773895,3.335772664,0.276238558,-0.002831378,-0.039531489,-0.490809788
1750861452.784784794,-1.726931620,-2.202079048,-0.808990820,1.595062478,-0.032158589,-1.601854827,0.000943661,0.031611940,-0.033122825,-0.001293504,-0.040761605,-0.040769828,3.720773895,3.335772664,0.276238558,-0.002831378,-0.039531489,-0.490809788
1750861452.786366463,-1.726923638,-2.201808642,-0.809274055,1.595051417,-0.032507128,-1.602203436,0.001050382,0.035990578,-0.037685527,-0.001471678,-0.046372252,-0.046381624,3.720638460,3.336768735,0.276254536,-0.002831489,-0.039502121,-0.490501139
1750861452.788345098,-1.726921512,-2.201735566,-0.809350566,1.595048429,-0.032601274,-1.602297601,0.001075689,0.037086314,-0.038825854,-0.001516207,-0.047774230,-0.047783890,3.720601829,3.337037845,0.276258855,-0.002831518,-0.039494174,-0.490417579
1750861452.790372133,-1.726919336,-2.201660297,-0.809429358,1.595045352,-0.032698224,-1.602394571,0.001100413,0.038182508,-0.039966032,-0.001560730,-0.049175917,-0.049185865,3.720564106,3.337314987,0.276263303,-0.002831547,-0.039485984,-0.490331459
1750861452.792309999,-1.726917111,-2.201582835,-0.809510430,1.595042186,-0.032797978,-1.602494345,0.001124536,0.039279172,-0.041106058,-0.001605247,-0.050577305,-0.050587542,3.720525303,3.337600157,0.276267881,-0.002831576,-0.039477551,-0.490242776
1750861452.794354916,-1.726914838,-2.201503180,-0.809593782,1.595038931,-0.032900533,-1.602596921,0.001148043,0.040376320,-0.042245927,-0.001649758,-0.051978385,-0.051988911,3.720485427,3.337893351,0.276272587,-0.002831605,-0.039468876,-0.490151532
1750861452.796924353,-1.726912519,-2.201421330,-0.809679414,1.595035587,-0.033005891,-1.602702300,0.001170915,0.041473965,-0.043385635,-0.001694262,-0.053379148,-0.053389964,3.720444490,3.338194566,0.276277423,-0.002831634,-0.039459958,-0.490057724
1750861452.798377991,-1.726910155,-2.201337284,-0.809767325,1.595032154,-0.033114050,-1.602810481,0.001193135,0.042572121,-0.044525177,-0.001738759,-0.054779587,-0.054790692,3.720402501,3.338503799,0.276282388,-0.002831664,-0.039450796,-0.489961352
1750861452.800421476,-1.726907747,-2.201251041,-0.809857514,1.595028632,-0.033225009,-1.602921463,0.001214688,0.043670801,-0.045664550,-0.001783250,-0.056179691,-0.056191087,3.720359471,3.338821045,0.276287481,-0.002831694,-0.039441392,-0.489862415
1750861452.802304268,-1.726905297,-2.201162600,-0.809949983,1.595025021,-0.033338768,-1.603035245,0.001235555,0.044770019,-0.046803749,-0.001827733,-0.057579453,-0.057591140,3.720315411,3.339146302,0.276292704,-0.002831724,-0.039431744,-0.489760912
1750861452.804564714,-1.726905297,-2.201162600,-0.809949983,1.595025021,-0.033338768,-1.603035245,0.001235555,0.044770019,-0.046803749,-0.001827733,-0.057579453,-0.057591140,3.720315411,3.339146302,0.276292704,-0.002831724,-0.039431744,-0.489760912
1750861452.806441069,-1.726902805,-2.201071960,-0.810044729,1.595021321,-0.033455327,-1.603151827,0.001255720,0.045869787,-0.047942769,-0.001872208,-0.058978863,-0.058990842,3.720270332,3.339479566,0.276298054,-0.002831754,-0.039421852,-0.489656842
1750861452.808377504,-1.726900274,-2.200979121,-0.810141754,1.595017533,-0.033574683,-1.603271208,0.001275165,0.046970119,-0.049081607,-0.001916677,-0.060377914,-0.060390185,3.720224246,3.339820832,0.276303533,-0.002831784,-0.039411717,-0.489550204
1750861452.810281992,-1.726897705,-2.200884080,-0.810241056,1.595013655,-0.033696838,-1.603393387,0.001293875,0.048071029,-0.050220258,-0.001961137,-0.061776597,-0.061789159,3.720177164,3.340170096,0.276309141,-0.002831814,-0.039401338,-0.489440998
1750861452.812286377,-1.726895099,-2.200786836,-0.810342635,1.595009688,-0.033821790,-1.603518364,0.001311831,0.049172530,-0.051358718,-0.002005590,-0.063174902,-0.063187757,3.720129098,3.340527356,0.276314876,-0.002831844,-0.039390715,-0.489329221
1750861452.814483166,-1.726892458,-2.200687389,-0.810446490,1.595005632,-0.033949537,-1.603646138,0.001329018,0.050274634,-0.052496982,-0.002050034,-0.064572821,-0.064585970,3.720080060,3.340892605,0.276320739,-0.002831874,-0.039379848,-0.489214873
1750861452.816191912,-1.726889784,-2.200585737,-0.810552622,1.595001488,-0.034080081,-1.603776708,0.001345418,0.051377356,-0.053635047,-0.002094470,-0.065970347,-0.065983789,3.720030063,3.341265841,0.276326730,-0.002831904,-0.039368736,-0.489097954
1750861452.818249941,-1.726887077,-2.200481879,-0.810661030,1.594997255,-0.034213418,-1.603910073,0.001361014,0.052480708,-0.054772908,-0.002138898,-0.067367468,-0.067381205,3.719979119,3.341647059,0.276332849,-0.002831935,-0.039357380,-0.488978461
1750861452.820359230,-1.726884340,-2.200375814,-0.810771714,1.594992932,-0.034349550,-1.604046233,0.001375789,0.053584704,-0.055910561,-0.002183317,-0.068764179,-0.068778210,3.719927242,3.342036253,0.276339095,-0.002831965,-0.039345779,-0.488856394
1750861452.822371006,-1.726881575,-2.200267540,-0.810884672,1.594988521,-0.034488475,-1.604185186,0.001389727,0.054689357,-0.057048001,-0.002227727,-0.070160468,-0.070174795,3.719874445,3.342433421,0.276345468,-0.002831995,-0.039333932,-0.488731752
1750861452.824309349,-1.726878782,-2.200157056,-0.810999906,1.594984021,-0.034630192,-1.604326931,0.001402811,0.055794681,-0.058185225,-0.002272128,-0.071556329,-0.071570951,3.719820742,3.342838557,0.276351969,-0.002832024,-0.039321841,-0.488604533
1750861452.826336861,-1.726875964,-2.200044361,-0.811117413,1.594979433,-0.034774700,-1.604471469,0.001415024,0.056900688,-0.059322229,-0.002316520,-0.072951751,-0.072966670,3.719766145,3.343251657,0.276358596,-0.002832054,-0.039309504,-0.488474737
1750861452.828343630,-1.726873122,-2.199929453,-0.811237194,1.594974755,-0.034921998,-1.604618798,0.001426348,0.058007392,-0.060459007,-0.002360902,-0.074346727,-0.074361943,3.719710671,3.343672715,0.276365350,-0.002832084,-0.039296922,-0.488342362
1750861452.833333492,-1.726870259,-2.199812331,-0.811359249,1.594969989,-0.035072087,-1.604768917,0.001436769,0.059114805,-0.061595556,-0.002405275,-0.075741247,-0.075756761,3.719654332,3.344101727,0.276372230,-0.002832113,-0.039284093,-0.488207407
1750861452.834085941,-1.726870259,-2.199812331,-0.811359249,1.594969989,-0.035072087,-1.604768917,0.001436769,0.059114805,-0.061595556,-0.002405275,-0.075741247,-0.075756761,3.719654332,3.344101727,0.276372230,-0.002832113,-0.039284093,-0.488207407
1750861452.834719658,-1.726864475,-2.199571438,-0.811610176,1.594960191,-0.035380627,-1.605077521,0.001454828,0.061331816,-0.063867949,-0.002493990,-0.078528887,-0.078544997,3.719539122,3.344983592,0.276386369,-0.002832171,-0.039257698,-0.487929752
1750861452.836679459,-1.726864475,-2.199571438,-0.811610176,1.594960191,-0.035380627,-1.605077521,0.001454828,0.061331816,-0.063867949,-0.002493990,-0.078528887,-0.078544997,3.719539122,3.344983592,0.276386369,-0.002832171,-0.039257698,-0.487929752
1750861452.838512182,-1.726858626,-2.199321672,-0.811870191,1.594950037,-0.035700315,-1.605397274,0.001469067,0.063551825,-0.066139375,-0.002582665,-0.081314600,-0.081331309,3.719420636,3.345897211,0.276401012,-0.002832228,-0.039230317,-0.487641762
1750861452.840927124,-1.726855682,-2.199193457,-0.812003605,1.594944828,-0.035864336,-1.605561329,0.001474713,0.064662987,-0.067274715,-0.002626986,-0.082706713,-0.082723722,3.719360203,3.346365915,0.276408522,-0.002832256,-0.039216257,-0.487493889
1750861452.842334747,-1.726852727,-2.199063020,-0.812139290,1.594939529,-0.036031142,-1.605728169,0.001479354,0.065774938,-0.068409801,-0.002671297,-0.084098317,-0.084115628,3.719298998,3.346842542,0.276416157,-0.002832283,-0.039201949,-0.487343428
1750861452.844325066,-1.726849765,-2.198930357,-0.812277245,1.594934142,-0.036200729,-1.605897791,0.001482973,0.066887691,-0.069544628,-0.002715596,-0.085489405,-0.085507017,3.719237039,3.347327086,0.276423917,-0.002832311,-0.039187393,-0.487190378
1750861452.846414328,-1.726846796,-2.198795468,-0.812417468,1.594928667,-0.036373099,-1.606070196,0.001485553,0.068001260,-0.070679193,-0.002759885,-0.086879967,-0.086897882,3.719174340,3.347819541,0.276431802,-0.002832337,-0.039172590,-0.487034738
1750861452.848303080,-1.726843823,-2.198658352,-0.812559961,1.594923103,-0.036548249,-1.606245382,0.001487079,0.069115657,-0.071813490,-0.002804161,-0.088269995,-0.088288213,3.719110920,3.348319902,0.276439811,-0.002832363,-0.039157539,-0.486876506
1750861452.852258444,-1.726843823,-2.198658352,-0.812559961,1.594923103,-0.036548249,-1.606245382,0.001487079,0.069115657,-0.071813490,-0.002804161,-0.088269995,-0.088288213,3.719110920,3.348319902,0.276439811,-0.002832363,-0.039157539,-0.486876506
1750861452.852316141,-1.726840849,-2.198519005,-0.812704722,1.594917450,-0.036726178,-1.606423349,0.001487533,0.070230896,-0.072947517,-0.002848426,-0.089659480,-0.089678001,3.719046794,3.348828162,0.276447945,-0.002832389,-0.039142240,-0.486715682
1750861452.854335070,-1.726840849,-2.198519005,-0.812704722,1.594917450,-0.036726178,-1.606423349,0.001487533,0.070230896,-0.072947517,-0.002848426,-0.089659480,-0.089678001,3.719046794,3.348828162,0.276447945,-0.002832389,-0.039142240,-0.486715682
1750861452.856331587,-1.726837874,-2.198377427,-0.812851751,1.594911709,-0.036906886,-1.606604094,0.001486899,0.071346989,-0.074081269,-0.002892680,-0.091048413,-0.091067238,3.718981982,3.349344317,0.276456203,-0.002832414,-0.039126693,-0.486552263
1750861452.858272076,-1.726834902,-2.198233617,-0.813001047,1.594905880,-0.037090372,-1.606787617,0.001485160,0.072463951,-0.075214742,-0.002936921,-0.092436785,-0.092455916,3.718916500,3.349868359,0.276464585,-0.002832439,-0.039110897,-0.486386249
1750861452.860151291,-1.726831934,-2.198087571,-0.813152610,1.594899962,-0.037276633,-1.606973917,0.001482300,0.073581793,-0.076347931,-0.002981149,-0.093824588,-0.093844024,3.718850367,3.350400284,0.276473090,-0.002832463,-0.039094852,-0.486217638
1750861452.862165213,-1.726828973,-2.197939289,-0.813306439,1.594893955,-0.037465670,-1.607162993,0.001478302,0.074700530,-0.077480834,-0.003025366,-0.095211812,-0.095231555,3.718783600,3.350940084,0.276481719,-0.002832486,-0.039078558,-0.486046428
1750861452.864217997,-1.726826022,-2.197788768,-0.813462533,1.594887860,-0.037657480,-1.607354843,0.001473150,0.075820173,-0.078613444,-0.003069569,-0.096598449,-0.096618499,3.718716219,3.351487753,0.276490470,-0.002832509,-0.039062014,-0.485872618
1750861452.866171122,-1.726823082,-2.197636008,-0.813620892,1.594881677,-0.037852063,-1.607549467,0.001466827,0.076940737,-0.079745760,-0.003113760,-0.097984490,-0.098004847,3.718648241,3.352043286,0.276499345,-0.002832531,-0.039045221,-0.485696207
1750861452.868176937,-1.726820155,-2.197481005,-0.813781516,1.594875405,-0.038049418,-1.607746862,0.001459317,0.078062233,-0.080877775,-0.003157937,-0.099369926,-0.099390592,3.718579687,3.352606675,0.276508342,-0.002832552,-0.039028178,-0.485517193
1750861452.870187521,-1.726817245,-2.197323758,-0.813944403,1.594869045,-0.038249542,-1.607947029,0.001450603,0.079184676,-0.082009487,-0.003202102,-0.100754748,-0.100775723,3.718510576,3.353177915,0.276517461,-0.002832572,-0.039010885,-0.485335575
1750861452.872203588,-1.726814354,-2.197164265,-0.814109554,1.594862597,-0.038452436,-1.608149965,0.001440669,0.080308078,-0.083140892,-0.003246252,-0.102138947,-0.102160232,3.718440926,3.353756998,0.276526703,-0.002832592,-0.038993341,-0.485151351
1750861452.874160051,-1.726811483,-2.197002525,-0.814276966,1.594856060,-0.038658098,-1.608355669,0.001429499,0.081432452,-0.084271984,-0.003290389,-0.103522514,-0.103544110,3.718370759,3.354343918,0.276536066,-0.002832611,-0.038975547,-0.484964519
1750861452.876207352,-1.726808636,-2.196838535,-0.814446641,1.594849435,-0.038866526,-1.608564141,0.001417076,0.082557811,-0.085402761,-0.003334512,-0.104905441,-0.104927349,3.718300094,3.354938668,0.276545551,-0.002832629,-0.038957501,-0.484775079
1750861452.878236532,-1.726805816,-2.196672293,-0.814618577,1.594842722,-0.039077719,-1.608775378,0.001403383,0.083684168,-0.086533219,-0.003378620,-0.106287719,-0.106309939,3.718228952,3.355541241,0.276555157,-0.002832645,-0.038939205,-0.484583029
1750861452.888078690,-1.726800263,-2.196333046,-0.814969230,1.594829031,-0.039508396,-1.609206145,0.001372126,0.085939928,-0.088793158,-0.003466794,-0.109050289,-0.109073136,3.718085319,3.356769829,0.276574730,-0.002832676,-0.038901856,-0.484191091
1750861452.888865471,-1.726797536,-2.196160037,-0.815147946,1.594822053,-0.039727877,-1.609425672,0.001354528,0.087069356,-0.089922632,-0.003510858,-0.110430565,-0.110453726,3.718012870,3.357395830,0.276584698,-0.002832690,-0.038882804,-0.483991201
1750861452.890286684,-1.726792195,-2.195807237,-0.815512153,1.594807834,-0.040175117,-1.609873006,0.001315313,0.089331376,-0.092180568,-0.003598942,-0.113189051,-0.113212843,3.717866817,3.358671209,0.276604992,-0.002832714,-0.038843941,-0.483583569
1750861452.892235279,-1.726789585,-2.195627442,-0.815697643,1.594800592,-0.040402874,-1.610100810,0.001293663,0.090463993,-0.093309023,-0.003642960,-0.114567243,-0.114591353,3.717793256,3.359320572,0.276615319,-0.002832724,-0.038824131,-0.483375824
1750861452.894200087,-1.726787021,-2.195445380,-0.815885389,1.594793262,-0.040633386,-1.610331371,0.001270631,0.091597698,-0.094437131,-0.003686963,-0.115944723,-0.115969151,3.717719369,3.359977708,0.276625764,-0.002832734,-0.038804067,-0.483165459
1750861452.896373749,-1.726784504,-2.195261050,-0.816075391,1.594785844,-0.040866652,-1.610564687,0.001246199,0.092732504,-0.095564887,-0.003730950,-0.117321482,-0.117346229,3.717645177,3.360642609,0.276636328,-0.002832741,-0.038783749,-0.482952470
1750861452.899211884,-1.726782037,-2.195074450,-0.816267648,1.594778338,-0.041102671,-1.610800756,0.001220352,0.093868425,-0.096692287,-0.003774920,-0.118697511,-0.118722577,3.717570705,3.361315267,0.276647010,-0.002832748,-0.038763178,-0.482736857
1750861452.900245905,-1.726779623,-2.194885576,-0.816462160,1.594770744,-0.041341442,-1.611039576,0.001193074,0.095005472,-0.097819328,-0.003818874,-0.120072801,-0.120098187,3.717495976,3.361995675,0.276657810,-0.002832753,-0.038742352,-0.482518618
1750861452.902196884,-1.726777266,-2.194694427,-0.816658925,1.594763063,-0.041582962,-1.611281148,0.001164348,0.096143659,-0.098946006,-0.003862812,-0.121447342,-0.121473050,3.717421012,3.362683825,0.276668728,-0.002832757,-0.038721272,-0.482297751
1750861452.904173613,-1.726774967,-2.194501001,-0.816857944,1.594755293,-0.041827230,-1.611525468,0.001134159,0.097282998,-0.100072317,-0.003906732,-0.122821126,-0.122847156,3.717345837,3.363379709,0.276679763,-0.002832759,-0.038699937,-0.482074255
1750861452.906379223,-1.726772730,-2.194305294,-0.817059214,1.594747436,-0.042074246,-1.611772536,0.001102491,0.098423503,-0.101198257,-0.003950635,-0.124194143,-0.124220496,3.717270476,3.364083319,0.276690915,-0.002832760,-0.038678347,-0.481848128
1750861452.908158302,-1.726770558,-2.194107306,-0.817262737,1.594739491,-0.042324006,-1.612022350,0.001069327,0.099565185,-0.102323822,-0.003994521,-0.125566385,-0.125593062,3.717194953,3.364794646,0.276702184,-0.002832759,-0.038656502,-0.481619369
1750861452.910209417,-1.726768454,-2.193907033,-0.817468509,1.594731458,-0.042576511,-1.612274908,0.001034651,0.100708058,-0.103449008,-0.004038389,-0.126937843,-0.126964844,3.717119292,3.365513684,0.276713568,-0.002832757,-0.038634400,-0.481387976
1750861452.912296772,-1.726766420,-2.193704473,-0.817676532,1.594723337,-0.042831757,-1.612530208,0.000998449,0.101852135,-0.104573812,-0.004082239,-0.128308506,-0.128335834,3.717043518,3.366240422,0.276725069,-0.002832753,-0.038612043,-0.481153947
1750861452.914295197,-1.726764461,-2.193499623,-0.817886804,1.594715129,-0.043089744,-1.612788250,0.000960703,0.102997428,-0.105698229,-0.004126072,-0.129678367,-0.129706021,3.716967656,3.366974854,0.276736685,-0.002832747,-0.038589429,-0.480917280
1750861452.916298151,-1.726762579,-2.193292482,-0.818099325,1.594706833,-0.043350470,-1.613049032,0.000921398,0.104143950,-0.106822257,-0.004169885,-0.131047416,-0.131075398,3.716891732,3.367716970,0.276748416,-0.002832740,-0.038566559,-0.480677974
1750861452.918267250,-1.726760777,-2.193083047,-0.818314093,1.594698449,-0.043613933,-1.613312551,0.000880518,0.105291713,-0.107945891,-0.004213680,-0.132415645,-0.132443955,3.716815771,3.368466763,0.276760261,-0.002832731,-0.038543431,-0.480436028
1750861452.920264959,-1.726759058,-2.192871315,-0.818531108,1.594689978,-0.043880132,-1.613578807,0.000838047,0.106440730,-0.109069127,-0.004257457,-0.133783043,-0.133811682,3.716739799,3.369224223,0.276772221,-0.002832720,-0.038520046,-0.480191439
1750861452.922303677,-1.726757425,-2.192657283,-0.818750369,1.594681419,-0.044149065,-1.613847798,0.000793970,0.107591015,-0.110191961,-0.004301214,-0.135149601,-0.135178571,3.716663842,3.369989342,0.276784295,-0.002832707,-0.038496403,-0.479944206
1750861452.924245596,-1.726755883,-2.192440950,-0.818971876,1.594672773,-0.044420730,-1.614119521,0.000748270,0.108742578,-0.111314391,-0.004344952,-0.136515312,-0.136544613,3.716587927,3.370762111,0.276796482,-0.002832692,-0.038472503,-0.479694328
1750861452.932270765,-1.726754433,-2.192222312,-0.819195627,1.594664040,-0.044695126,-1.614393975,0.000700932,0.109895434,-0.112436411,-0.004388670,-0.137880164,-0.137909798,3.716512080,3.371542521,0.276808782,-0.002832675,-0.038448344,-0.479441802
1750861452.932322264,-1.726754433,-2.192222312,-0.819195627,1.594664040,-0.044695126,-1.614393975,0.000700932,0.109895434,-0.112436411,-0.004388670,-0.137880164,-0.137909798,3.716512080,3.371542521,0.276808782,-0.002832675,-0.038448344,-0.479441802
1750861452.932339191,-1.726753080,-2.192001367,-0.819421621,1.594655219,-0.044972250,-1.614671160,0.000651941,0.111049594,-0.113558019,-0.004432368,-0.139244150,-0.139274117,3.716436328,3.372330564,0.276821194,-0.002832657,-0.038423926,-0.479186627
1750861452.936397552,-1.726750676,-2.191552546,-0.819880338,1.594637314,-0.045534679,-1.615233709,0.000548934,0.113361879,-0.115799983,-0.004519705,-0.141969485,-0.142000121,3.716285220,3.373929510,0.276846356,-0.002832613,-0.038374314,-0.478668324
1750861452.938347340,-1.726749632,-2.191324664,-0.820113058,1.594628231,-0.045819979,-1.615519071,0.000494888,0.114520029,-0.116920331,-0.004563342,-0.143330815,-0.143361787,3.716209918,3.374740395,0.276859104,-0.002832588,-0.038349118,-0.478405193
1750861452.940430880,-1.726748698,-2.191094465,-0.820348019,1.594619061,-0.046108001,-1.615807156,0.000439125,0.115679533,-0.118040252,-0.004606959,-0.144691242,-0.144722551,3.716134822,3.375558876,0.276871962,-0.002832560,-0.038323663,-0.478139405
1750861452.942250252,-1.726747877,-2.190861945,-0.820585219,1.594609804,-0.046398743,-1.616097961,0.000381631,0.116840405,-0.119159742,-0.004650554,-0.146050756,-0.146082403,3.716059961,3.376384944,0.276884931,-0.002832531,-0.038297947,-0.477870961
1750861452.944330692,-1.726747172,-2.190627102,-0.820824658,1.594600459,-0.046692204,-1.616391485,0.000322389,0.118002657,-0.120278797,-0.004694128,-0.147409347,-0.147441334,3.715985362,3.377218588,0.276898010,-0.002832499,-0.038271970,-0.477599857
1750861452.947147369,-1.726746588,-2.190389934,-0.821066334,1.594591027,-0.046988380,-1.616687726,0.000261385,0.119166301,-0.121397414,-0.004737681,-0.148767008,-0.148799334,3.715911054,3.378059800,0.276911199,-0.002832465,-0.038245733,-0.477326093
1750861452.948520184,-1.726746128,-2.190150436,-0.821310247,1.594581508,-0.047287271,-1.616986681,0.000198602,0.120331349,-0.122515590,-0.004781211,-0.150123727,-0.150156395,3.715837068,3.378908570,0.276924496,-0.002832428,-0.038219234,-0.477049667
1750861452.950506210,-1.726745795,-2.189908607,-0.821556396,1.594571902,-0.047588874,-1.617288351,0.000134027,0.121497815,-0.123633320,-0.004824719,-0.151479497,-0.151512507,3.715763431,3.379764889,0.276937902,-0.002832389,-0.038192473,-0.476770577
1750861452.952434063,-1.726745593,-2.189664444,-0.821804780,1.594562209,-0.047893188,-1.617592731,0.000067642,0.122665710,-0.124750601,-0.004868205,-0.152834308,-0.152867660,3.715690173,3.380628745,0.276951417,-0.002832347,-0.038165451,-0.476488822
1750861452.954359293,-1.726745526,-2.189417943,-0.822055398,1.594552429,-0.048200211,-1.617899821,-0.000000567,0.123835047,-0.125867430,-0.004911669,-0.154188150,-0.154221846,3.715617326,3.381500131,0.276965038,-0.002832302,-0.038138166,-0.476204399
1750861452.956408501,-1.726745597,-2.189169103,-0.822308249,1.594542563,-0.048509940,-1.618209618,-0.000070616,0.125005839,-0.126983804,-0.004955109,-0.155541014,-0.155575056,3.715544918,3.382379035,0.276978767,-0.002832255,-0.038110618,-0.475917308
1750861452.958355427,-1.726745810,-2.188917919,-0.822563333,1.594532609,-0.048822374,-1.618522120,-0.000142519,0.126178097,-0.128099717,-0.004998526,-0.156892890,-0.156927279,3.715472980,3.383265449,0.276992602,-0.002832206,-0.038082807,-0.475627546
1750861452.960353851,-1.726746168,-2.188664389,-0.822820648,1.594522569,-0.049137511,-1.618837326,-0.000216292,0.127351835,-0.129215168,-0.005041920,-0.158243770,-0.158278506,3.715401543,3.384159361,0.277006544,-0.002832153,-0.038054733,-0.475335112
1750861452.962345123,-1.726746676,-2.188408511,-0.823080193,1.594512441,-0.049455349,-1.619155233,-0.000291950,0.128527064,-0.130330153,-0.005085290,-0.159593645,-0.159628729,3.715330638,3.385060761,0.277020591,-0.002832098,-0.038026396,-0.475040005
1750861452.964426041,-1.726747337,-2.188150280,-0.823341968,1.594502227,-0.049775885,-1.619475840,-0.000369509,0.129703796,-0.131444668,-0.005128635,-0.160942504,-0.160977937,3.715260295,3.385969641,0.277034742,-0.002832040,-0.037997794,-0.474742223
1750861452.966343880,-1.726748155,-2.187889695,-0.823605972,1.594491927,-0.050099118,-1.619799145,-0.000448983,0.130882044,-0.132558710,-0.005171957,-0.162290338,-0.162326122,3.715190547,3.386885988,0.277048999,-0.002831979,-0.037968928,-0.474441764
1750861452.968336105,-1.726749134,-2.187626751,-0.823872203,1.594481540,-0.050425046,-1.620125144,-0.000530388,0.132061821,-0.133672275,-0.005215254,-0.163637138,-0.163673274,3.715121426,3.387809793,0.277063359,-0.002831915,-0.037939797,-0.474138627
1750861452.970222473,-1.726750278,-2.187361446,-0.824140660,1.594471066,-0.050753666,-1.620453837,-0.000613738,0.133243138,-0.134785360,-0.005258526,-0.164982895,-0.165019383,3.715052962,3.388741045,0.277077823,-0.002831848,-0.037910401,-0.473832810
1750861452.972204208,-1.726751591,-2.187093777,-0.824411344,1.594460506,-0.051084977,-1.620785221,-0.000699049,0.134426008,-0.135897961,-0.005301773,-0.166327598,-0.166364440,3.714985190,3.389679734,0.277092390,-0.002831778,-0.037880739,-0.473524311
1750861452.974252939,-1.726753076,-2.186823741,-0.824684252,1.594449859,-0.051418976,-1.621119294,-0.000786335,0.135610442,-0.137010076,-0.005344994,-0.167671240,-0.167708437,3.714918140,3.390625849,0.277107059,-0.002831704,-0.037850812,-0.473213130
1750861452.976553202,-1.726754737,-2.186551335,-0.824959384,1.594439126,-0.051755661,-1.621456054,-0.000875612,0.136796454,-0.138121702,-0.005388190,-0.169013809,-0.169051362,3.714851846,3.391579380,0.277121830,-0.002831628,-0.037820619,-0.472899264
1750861452.978357315,-1.726756579,-2.186276554,-0.825236738,1.594428306,-0.052095030,-1.621795499,-0.000966894,0.137984055,-0.139232833,-0.005431360,-0.170355297,-0.170393207,3.714786341,3.392540316,0.277136702,-0.002831548,-0.037790159,-0.472582712
1750861452.980391502,-1.726758606,-2.185999397,-0.825516315,1.594417400,-0.052437081,-1.622137626,-0.001060196,0.139173257,-0.140343468,-0.005474503,-0.171695695,-0.171733963,3.714721658,3.393508645,0.277151674,-0.002831465,-0.037759432,-0.472263473
1750861452.989022017,-1.726760822,-2.185719860,-0.825798112,1.594406408,-0.052781812,-1.622482434,-0.001155533,0.140364072,-0.141453604,-0.005517620,-0.173034992,-0.173073620,3.714657831,3.394484357,0.277166747,-0.002831378,-0.037728439,-0.471941544
1750861452.989073992,-1.726760822,-2.185719860,-0.825798112,1.594406408,-0.052781812,-1.622482434,-0.001155533,0.140364072,-0.141453604,-0.005517620,-0.173034992,-0.173073620,3.714657831,3.394484357,0.277166747,-0.002831378,-0.037728439,-0.471941544
1750861452.989091158,-1.726765835,-2.185153633,-0.826368365,1.594384165,-0.053479304,-1.623180082,-0.001352372,0.142750593,-0.143672361,-0.005603773,-0.175710248,-0.175749597,3.714532880,3.396457887,0.277197190,-0.002831195,-0.037665648,-0.471289614
1750861452.989107132,-1.726765835,-2.185153633,-0.826368365,1.594384165,-0.053479304,-1.623180082,-0.001352372,0.142750593,-0.143672361,-0.005603773,-0.175710248,-0.175749597,3.714532880,3.396457887,0.277197190,-0.002831195,-0.037665648,-0.471289614
1750861452.990391493,-1.726765835,-2.185153633,-0.826368365,1.594384165,-0.053479304,-1.623180082,-0.001352372,0.142750593,-0.143672361,-0.005603773,-0.175710248,-0.175749597,3.714532880,3.396457887,0.277197190,-0.002831195,-0.037665648,-0.471289614
1750861452.993021727,-1.726765835,-2.185153633,-0.826368365,1.594384165,-0.053479304,-1.623180082,-0.001352372,0.142750593,-0.143672361,-0.005603773,-0.175710248,-0.175749597,3.714532880,3.396457887,0.277197190,-0.002831195,-0.037665648,-0.471289614
1750861452.994376183,-1.726768641,-2.184866936,-0.826656818,1.594372915,-0.053832061,-1.623532917,-0.001453902,0.143946322,-0.144780978,-0.005646809,-0.177046187,-0.177085899,3.714471824,3.397455682,0.277212560,-0.002831098,-0.037633851,-0.470959610
1750861452.996433973,-1.726771652,-2.184577847,-0.826947488,1.594361578,-0.054187488,-1.623888425,-0.001557527,0.145143712,-0.145889081,-0.005689816,-0.178380989,-0.178421064,3.714411761,3.398460815,0.277228027,-0.002830997,-0.037601785,-0.470626911
1750861452.998316765,-1.726774872,-2.184286360,-0.827240374,1.594350155,-0.054545584,-1.624246601,-0.001663260,0.146342777,-0.146996669,-0.005732796,-0.179714642,-0.179755083,3.714352726,3.399473276,0.277243591,-0.002830893,-0.037569450,-0.470291515
1750861453.000325918,-1.726778306,-2.183992474,-0.827535474,1.594338647,-0.054906346,-1.624607444,-0.001771116,0.147543527,-0.148103737,-0.005775748,-0.181047138,-0.181087945,3.714294753,3.400493053,0.277259251,-0.002830785,-0.037536846,-0.469953422
1750861453.003197193,-1.726781958,-2.183696185,-0.827832789,1.594327052,-0.055269772,-1.624970952,-0.001881109,0.148745975,-0.149210284,-0.005818670,-0.182378467,-0.182419641,3.714237879,3.401520135,0.277275007,-0.002830673,-0.037503973,-0.469612630
1750861453.004323244,-1.726785832,-2.183397489,-0.828132315,1.594315372,-0.055635859,-1.625337122,-0.001993255,0.149950133,-0.150316305,-0.005861564,-0.183708620,-0.183750162,3.714182138,3.402554509,0.277290858,-0.002830557,-0.037470829,-0.469269137
1750861453.006372213,-1.726789932,-2.183096384,-0.828434053,1.594303606,-0.056004606,-1.625705952,-0.002107567,0.151156012,-0.151421798,-0.005904429,-0.185037586,-0.185079498,3.714127566,3.403596165,0.277306804,-0.002830438,-0.037437416,-0.468922943
1750861453.008620501,-1.726794264,-2.182792864,-0.828738002,1.594291754,-0.056376009,-1.626077439,-0.002224060,0.152363626,-0.152526760,-0.005947264,-0.186365357,-0.186407639,3.714074201,3.404645090,0.277322844,-0.002830314,-0.037403732,-0.468574045
1750861453.010449171,-1.726798830,-2.182486928,-0.829044160,1.594279817,-0.056750066,-1.626451582,-0.002342748,0.153572985,-0.153631187,-0.005990069,-0.187691922,-0.187734576,3.714022077,3.405701274,0.277338977,-0.002830186,-0.037369777,-0.468222443
1750861453.012390852,-1.726803636,-2.182178571,-0.829352526,1.594267794,-0.057126776,-1.626828377,-0.002463646,0.154784101,-0.154735077,-0.006032844,-0.189017272,-0.189060300,3.713971233,3.406764704,0.277355202,-0.002830055,-0.037335550,-0.467868135
1750861453.014428854,-1.726808686,-2.181867790,-0.829663100,1.594255686,-0.057506134,-1.627207822,-0.002586768,0.155996986,-0.155838427,-0.006075588,-0.190341398,-0.190384800,3.713921704,3.407835368,0.277371520,-0.002829919,-0.037301052,-0.467511120
1750861453.016498089,-1.726813985,-2.181554582,-0.829975880,1.594243492,-0.057888140,-1.627589915,-0.002712128,0.157211653,-0.156941233,-0.006118302,-0.191664290,-0.191708066,3.713873528,3.408913255,0.277387928,-0.002829778,-0.037266282,-0.467151397
1750861453.018399000,-1.726819536,-2.181238942,-0.830290865,1.594231213,-0.058272791,-1.627974653,-0.002839740,0.158428113,-0.158043493,-0.006160985,-0.192985937,-0.193030090,3.713826742,3.409998352,0.277404427,-0.002829634,-0.037231240,-0.466788965
1750861453.020360231,-1.726825345,-2.180920868,-0.830608053,1.594218848,-0.058660083,-1.628362035,-0.002969618,0.159646377,-0.159145204,-0.006203636,-0.194306331,-0.194350862,3.713781384,3.411090648,0.277421016,-0.002829485,-0.037195926,-0.466423822
1750861453.022364616,-1.726831416,-2.180600356,-0.830927445,1.594206398,-0.059050015,-1.628752056,-0.003101777,0.160866458,-0.160246363,-0.006246256,-0.195625462,-0.195670371,3.713737492,3.412190130,0.277437693,-0.002829332,-0.037160338,-0.466055967
1750861453.024337292,-1.726837754,-2.180277401,-0.831249038,1.594193863,-0.059442584,-1.629144715,-0.003236230,0.162088367,-0.161346967,-0.006288843,-0.196943319,-0.196988609,3.713695103,3.413296786,0.277454459,-0.002829174,-0.037124477,-0.465685399
1750861453.026333332,-1.726844363,-2.179952001,-0.831572833,1.594181243,-0.059837788,-1.629540010,-0.003372992,0.163312117,-0.162447014,-0.006331398,-0.198259894,-0.198305565,3.713654258,3.414410604,0.277471313,-0.002829011,-0.037088343,-0.465312117
1750861453.028405428,-1.726851247,-2.179624152,-0.831898826,1.594168537,-0.060235623,-1.629937937,-0.003512077,0.164537718,-0.163546500,-0.006373921,-0.199575177,-0.199621230,3.713614993,3.415531571,0.277488254,-0.002828844,-0.037051934,-0.464936119
1750861453.030364275,-1.726858413,-2.179293849,-0.832227018,1.594155747,-0.060636087,-1.630338494,-0.003653497,0.165765182,-0.164645423,-0.006416410,-0.200889157,-0.200935594,3.713577348,3.416659675,0.277505281,-0.002828673,-0.037015252,-0.464557405
1750861453.032410383,-1.726865863,-2.178961090,-0.832557407,1.594142872,-0.061039179,-1.630741678,-0.003797269,0.166994522,-0.165743780,-0.006458866,-0.202201825,-0.202248647,3.713541363,3.417794903,0.277522393,-0.002828496,-0.036978295,-0.464175974
1750861453.034483671,-1.726873603,-2.178625870,-0.832889993,1.594129912,-0.061444894,-1.631147487,-0.003943404,0.168225748,-0.166841568,-0.006501289,-0.203513172,-0.203560380,3.713507076,3.418937244,0.277539590,-0.002828315,-0.036941063,-0.463791825
1750861453.039232016,-1.726881638,-2.178288185,-0.833224773,1.594116867,-0.061853230,-1.631555919,-0.004091917,0.169458873,-0.167938785,-0.006543677,-0.204823187,-0.204870782,3.713474527,3.420086683,0.277556871,-0.002828129,-0.036903555,-0.463404956
1750861453.039652109,-1.726881638,-2.178288185,-0.833224773,1.594116867,-0.061853230,-1.631555919,-0.004091917,0.169458873,-0.167938785,-0.006543677,-0.204823187,-0.204870782,3.713474527,3.420086683,0.277556871,-0.002828129,-0.036903555,-0.463404956
1750861453.040308952,-1.726889972,-2.177948033,-0.833561748,1.594103737,-0.062264186,-1.631966970,-0.004242822,0.170693908,-0.169035428,-0.006586031,-0.206131861,-0.206179845,3.713443756,3.421243210,0.277574235,-0.002827938,-0.036865773,-0.463015366
1750861453.045479059,-1.726898611,-2.177605408,-0.833900915,1.594090523,-0.062677757,-1.632380637,-0.004396132,0.171930864,-0.170131494,-0.006628351,-0.207439184,-0.207487557,3.713414803,3.422406810,0.277591682,-0.002827742,-0.036827714,-0.462623055
1750861453.046353579,-1.726916820,-2.176912728,-0.834585822,1.594063840,-0.063512737,-1.633215812,-0.004710023,0.174410588,-0.172321886,-0.006712884,-0.210049738,-0.210098894,3.713362514,3.424755181,0.277626819,-0.002827335,-0.036750768,-0.461830266
1750861453.048259020,-1.726926400,-2.176562664,-0.834931560,1.594050372,-0.063934140,-1.633637314,-0.004870631,0.175653378,-0.173416207,-0.006755097,-0.211352949,-0.211402498,3.713339259,3.425939925,0.277644507,-0.002827123,-0.036711880,-0.461429786
1750861453.050300121,-1.726936304,-2.176210113,-0.835279487,1.594036820,-0.064358148,-1.634061421,-0.005033698,0.176898136,-0.174509941,-0.006797275,-0.212654770,-0.212704714,3.713317985,3.427131692,0.277662276,-0.002826906,-0.036672715,-0.461026581
1750861453.052232742,-1.726946537,-2.175855071,-0.835629600,1.594023183,-0.064784758,-1.634488131,-0.005199238,0.178144874,-0.175603085,-0.006839416,-0.213955191,-0.214005530,3.713298734,3.428330468,0.277680122,-0.002826684,-0.036633273,-0.460620651
1750861453.054178715,-1.726957103,-2.175497532,-0.835981899,1.594009462,-0.065213967,-1.634917442,-0.005367265,0.179393602,-0.176695638,-0.006881520,-0.215254201,-0.215304938,3.713281546,3.429536240,0.277698046,-0.002826457,-0.036593553,-0.460211994
1750861453.056875467,-1.726968007,-2.175137495,-0.836336382,1.593995657,-0.065645774,-1.635349350,-0.005537791,0.180644332,-0.177787596,-0.006923587,-0.216551792,-0.216602927,3.713266465,3.430748995,0.277716047,-0.002826224,-0.036553555,-0.459800610
1750861453.058458805,-1.726979256,-2.174774954,-0.836693049,1.593981768,-0.066080174,-1.635783853,-0.005710831,0.181897075,-0.178878957,-0.006965617,-0.217847953,-0.217899487,3.713253531,3.431968719,0.277734124,-0.002825985,-0.036513279,-0.459386498
1750861453.060300112,-1.726990852,-2.174409905,-0.837051897,1.593967794,-0.066517164,-1.636220947,-0.005886397,0.183151844,-0.179969719,-0.007007610,-0.219142675,-0.219194609,3.713242788,3.433195400,0.277752276,-0.002825741,-0.036472724,-0.458969658
1750861453.062441826,-1.727002803,-2.174042345,-0.837412927,1.593953737,-0.066956743,-1.636660630,-0.006064502,0.184408649,-0.181059880,-0.007049564,-0.220435947,-0.220488283,3.713234277,3.434429023,0.277770502,-0.002825491,-0.036431890,-0.458550089
1750861453.064328194,-1.727015112,-2.173672269,-0.837776136,1.593939596,-0.067398907,-1.637102899,-0.006245160,0.185667501,-0.182149437,-0.007091479,-0.221727759,-0.221780498,3.713228042,3.435669576,0.277788801,-0.002825236,-0.036390777,-0.458127790
1750861453.066307783,-1.727027785,-2.173299674,-0.838141524,1.593925371,-0.067843653,-1.637547751,-0.006428383,0.186928412,-0.183238388,-0.007133356,-0.223018102,-0.223071246,3.713224125,3.436917044,0.277807173,-0.002824974,-0.036349385,-0.457702761
1750861453.068279028,-1.727040827,-2.172924554,-0.838509090,1.593911063,-0.068290979,-1.637995183,-0.006614186,0.188191394,-0.184326731,-0.007175194,-0.224306966,-0.224360515,3.713222570,3.438171415,0.277825616,-0.002824707,-0.036307713,-0.457275002
1750861453.070375443,-1.727054244,-2.172546907,-0.838878831,1.593896671,-0.068740880,-1.638445192,-0.006802580,0.189456457,-0.185414463,-0.007216992,-0.225594341,-0.225648296,3.713223420,3.439432674,0.277844130,-0.002824434,-0.036265761,-0.456844511
1750861453.072263002,-1.727068039,-2.172166727,-0.839250747,1.593882195,-0.069193355,-1.638897776,-0.006993579,0.190723613,-0.186501582,-0.007258750,-0.226880216,-0.226934579,3.713226719,3.440700808,0.277862714,-0.002824155,-0.036223529,-0.456411289
1750861453.074252605,-1.727082220,-2.171784011,-0.839624837,1.593867636,-0.069648400,-1.639352930,-0.007187195,0.191992872,-0.187588087,-0.007300468,-0.228164582,-0.228219355,3.713232510,3.441975804,0.277881367,-0.002823870,-0.036181016,-0.455975334
1750861453.076247454,-1.727096790,-2.171398754,-0.840001099,1.593852993,-0.070106012,-1.639810652,-0.007383442,0.193264248,-0.188673974,-0.007342145,-0.229447430,-0.229502613,3.713240839,3.443257647,0.277900087,-0.002823578,-0.036138222,-0.455536648
1750861453.078340769,-1.727111755,-2.171010952,-0.840379532,1.593838267,-0.070566189,-1.640270939,-0.007582332,0.194537749,-0.189759243,-0.007383782,-0.230728748,-0.230784342,3.713251748,3.444546323,0.277918875,-0.002823281,-0.036095147,-0.455095229
1750861453.080355167,-1.727127121,-2.170620602,-0.840760136,1.593823458,-0.071028926,-1.640733788,-0.007783878,0.195813388,-0.190843890,-0.007425377,-0.232008527,-0.232064534,3.713265284,3.445841819,0.277937729,-0.002822977,-0.036051791,-0.454651077
1750861453.082246065,-1.727142893,-2.170227697,-0.841142907,1.593808566,-0.071494222,-1.641199196,-0.007988093,0.197091176,-0.191927914,-0.007466930,-0.233286757,-0.233343178,3.713281490,3.447144120,0.277956648,-0.002822666,-0.036008153,-0.454204192
1750861453.090451956,-1.727159075,-2.169832236,-0.841527847,1.593793590,-0.071962072,-1.641667160,-0.008194989,0.198371124,-0.193011313,-0.007508441,-0.234563427,-0.234620264,3.713300412,3.448453213,0.277975631,-0.002822350,-0.035964234,-0.453754573
1750861453.090497017,-1.727159075,-2.169832236,-0.841527847,1.593793590,-0.071962072,-1.641667160,-0.008194989,0.198371124,-0.193011313,-0.007508441,-0.234563427,-0.234620264,3.713300412,3.448453213,0.277975631,-0.002822350,-0.035964234,-0.453754573
1750861453.090917826,-1.727210144,-2.168630460,-0.842695657,1.593748167,-0.073380922,-1.643086354,-0.008831889,0.202224038,-0.196257740,-0.007632719,-0.238383986,-0.238442076,3.713373926,3.452421100,0.278032957,-0.002821360,-0.035830781,-0.452389317
1750861453.092644215,-1.727228025,-2.168224723,-0.843089253,1.593732860,-0.073858960,-1.643564509,-0.009049635,0.203512737,-0.197338619,-0.007674058,-0.239654320,-0.239712830,3.713404166,3.453757218,0.278052187,-0.002821017,-0.035785732,-0.451928765
1750861453.094392300,-1.727228025,-2.168224723,-0.843089253,1.593732860,-0.073858960,-1.643564509,-0.009049635,0.203512737,-0.197338619,-0.007674058,-0.239654320,-0.239712830,3.713404166,3.453757218,0.278052187,-0.002821017,-0.035785732,-0.451928765
1750861453.096286297,-1.727246344,-2.167816407,-0.843485011,1.593717470,-0.074339538,-1.644045204,-0.009270124,0.204803650,-0.198418863,-0.007715353,-0.240923045,-0.240981977,3.713437350,3.455100056,0.278071477,-0.002820668,-0.035740399,-0.451465479
1750861453.098265648,-1.727265107,-2.167405507,-0.843882928,1.593701998,-0.074822651,-1.644528436,-0.009493370,0.206096790,-0.199498471,-0.007756604,-0.242190151,-0.242249505,3.713473525,3.456449601,0.278090826,-0.002820311,-0.035694783,-0.450999460
1750861453.100226402,-1.727284319,-2.166992019,-0.844283004,1.593686444,-0.075308297,-1.645014201,-0.009719383,0.207392167,-0.200577441,-0.007797810,-0.243455627,-0.243515406,3.713512737,3.457805837,0.278110231,-0.002819947,-0.035648884,-0.450530707
1750861453.102820873,-1.727303986,-2.166575937,-0.844685238,1.593670807,-0.075796473,-1.645502497,-0.009948177,0.208689793,-0.201655772,-0.007838971,-0.244719464,-0.244779668,3.713555034,3.459168750,0.278129693,-0.002819577,-0.035602701,-0.450059221
1750861453.104215622,-1.727324114,-2.166157258,-0.845089627,1.593655088,-0.076287174,-1.645993319,-0.010179763,0.209989677,-0.202733460,-0.007880087,-0.245981652,-0.246042282,3.713600461,3.460538326,0.278149210,-0.002819199,-0.035556233,-0.449585002
1750861453.106191397,-1.727344707,-2.165735977,-0.845496171,1.593639287,-0.076780398,-1.646486665,-0.010414153,0.211291832,-0.203810506,-0.007921156,-0.247242180,-0.247303237,3.713649067,3.461914550,0.278168782,-0.002818815,-0.035509482,-0.449108051
1750861453.108162403,-1.727365772,-2.165312089,-0.845904869,1.593623404,-0.077276142,-1.646982531,-0.010651360,0.212596267,-0.204886907,-0.007962180,-0.248501038,-0.248562524,3.713700898,3.463297408,0.278188406,-0.002818423,-0.035462446,-0.448628367
1750861453.110149145,-1.727387315,-2.164885590,-0.846315718,1.593607438,-0.077774401,-1.647480914,-0.010891396,0.213902994,-0.205962661,-0.008003156,-0.249758217,-0.249820133,3.713756003,3.464686885,0.278208083,-0.002818024,-0.035415125,-0.448145952
1750861453.112195253,-1.727409340,-2.164456476,-0.846728719,1.593591391,-0.078275174,-1.647981810,-0.011134272,0.215212024,-0.207037768,-0.008044086,-0.251013705,-0.251076053,3.713814429,3.466082965,0.278227811,-0.002817617,-0.035367520,-0.447660805
1750861453.114172220,-1.727431854,-2.164024741,-0.847143869,1.593575262,-0.078778455,-1.648485217,-0.011380000,0.216523367,-0.208112225,-0.008084968,-0.252267494,-0.252330274,3.713876225,3.467485636,0.278247589,-0.002817203,-0.035319629,-0.447172927
1750861453.116145372,-1.727454862,-2.163590381,-0.847561167,1.593559051,-0.079284242,-1.648991130,-0.011628592,0.217837035,-0.209186032,-0.008125802,-0.253519572,-0.253582786,3.713941438,3.468894880,0.278267416,-0.002816782,-0.035271454,-0.446682319
1750861453.118321419,-1.727478370,-2.163153391,-0.847980613,1.593542759,-0.079792532,-1.649499547,-0.011880060,0.219153038,-0.210259186,-0.008166588,-0.254769930,-0.254833578,3.714010117,3.470310684,0.278287291,-0.002816353,-0.035222993,-0.446188981
1750861453.120274782,-1.727502384,-2.162713767,-0.848402204,1.593526385,-0.080303321,-1.650010463,-0.012134415,0.220471386,-0.211331687,-0.008207325,-0.256018558,-0.256082642,3.714082311,3.471733033,0.278307212,-0.002815917,-0.035174246,-0.445692913
1750861453.122234583,-1.727526910,-2.162271504,-0.848825939,1.593509929,-0.080816605,-1.650523876,-0.012391670,0.221792092,-0.212403533,-0.008248013,-0.257265445,-0.257329967,3.714158069,3.473161912,0.278327179,-0.002815473,-0.035125214,-0.445194117
1750861453.124269962,-1.727551953,-2.161826597,-0.849251817,1.593493393,-0.081332382,-1.651039782,-0.012651835,0.223115164,-0.213474723,-0.008288652,-0.258510581,-0.258575541,3.714237440,3.474597305,0.278347191,-0.002815021,-0.035075895,-0.444692594
1750861453.126279831,-1.727577519,-2.161379042,-0.849679837,1.593476775,-0.081850646,-1.651558177,-0.012914922,0.224440615,-0.214545255,-0.008329241,-0.259753956,-0.259819357,3.714320473,3.476039198,0.278367246,-0.002814561,-0.035026291,-0.444188343
1750861453.128347635,-1.727603614,-2.160928833,-0.850109998,1.593460076,-0.082371396,-1.652079058,-0.013180943,0.225768454,-0.215615129,-0.008369779,-0.260995561,-0.261061402,3.714407217,3.477487576,0.278387343,-0.002814094,-0.034976400,-0.443681366
1750861453.131640911,-1.727630245,-2.160475966,-0.850542297,1.593443296,-0.082894627,-1.652602422,-0.013449908,0.227098693,-0.216684343,-0.008410267,-0.262235384,-0.262301667,3.714497723,3.478942423,0.278407482,-0.002813618,-0.034926223,-0.443171665
1750861453.132899284,-1.727630245,-2.160475966,-0.850542297,1.593443296,-0.082894627,-1.652602422,-0.013449908,0.227098693,-0.216684343,-0.008410267,-0.262235384,-0.262301667,3.714497723,3.478942423,0.278407482,-0.002813618,-0.034926223,-0.443171665
1750861453.135227680,-1.727685134,-2.159562239,-0.851413309,1.593409493,-0.083948520,-1.653656581,-0.013996720,0.229766411,-0.218820787,-0.008491088,-0.264709646,-0.264776817,3.714690218,3.481871464,0.278447877,-0.002812643,-0.034825009,-0.442144090
1750861453.136701107,-1.727713405,-2.159101369,-0.851852017,1.593392471,-0.084479174,-1.654187370,-0.014274588,0.231103912,-0.219888015,-0.008531421,-0.265944065,-0.266011681,3.714792308,3.483345627,0.278468132,-0.002812144,-0.034773971,-0.441626219
1750861453.138897419,-1.727742234,-2.158637822,-0.852292860,1.593375367,-0.085012295,-1.654720626,-0.014555446,0.232443854,-0.220954579,-0.008571702,-0.267176661,-0.267244725,3.714898360,3.484826199,0.278488424,-0.002811636,-0.034722647,-0.441105627
1750861453.140476227,-1.727771629,-2.158171592,-0.852735835,1.593358184,-0.085547879,-1.655256347,-0.014839305,0.233786249,-0.222020478,-0.008611930,-0.268407426,-0.268475937,3.715008424,3.486313164,0.278508750,-0.002811120,-0.034671036,-0.440582315
1750861453.142267704,-1.727801594,-2.157702675,-0.853180942,1.593340920,-0.086085923,-1.655794529,-0.015126177,0.235131107,-0.223085711,-0.008652104,-0.269636348,-0.269705309,3.715122552,3.487806507,0.278529111,-0.002810595,-0.034619137,-0.440056285
1750861453.144345522,-1.727832135,-2.157231066,-0.853628178,1.593323575,-0.086626424,-1.656335167,-0.015416071,0.236478438,-0.224150277,-0.008692225,-0.270863418,-0.270932829,3.715240794,3.489306211,0.278549504,-0.002810062,-0.034566951,-0.439527538
1750861453.147812366,-1.727863260,-2.156756760,-0.854077542,1.593306151,-0.087169376,-1.656878259,-0.015708999,0.237828253,-0.225214175,-0.008732292,-0.272088625,-0.272158487,3.715363203,3.490812263,0.278569929,-0.002809521,-0.034514477,-0.438996076
1750861453.148280621,-1.727894973,-2.156279752,-0.854529034,1.593288646,-0.087714777,-1.657423800,-0.016004972,0.239180563,-0.226277405,-0.008772305,-0.273311959,-0.273382274,3.715489828,3.492324645,0.278590385,-0.002808971,-0.034461716,-0.438461899
1750861453.150426865,-1.727894973,-2.156279752,-0.854529034,1.593288646,-0.087714777,-1.657423800,-0.016004972,0.239180563,-0.226277405,-0.008772305,-0.273311959,-0.273382274,3.715489828,3.492324645,0.278590385,-0.002808971,-0.034461716,-0.438461899
1750861453.152475595,-1.727927282,-2.155800036,-0.854982651,1.593271062,-0.088262622,-1.657971787,-0.016304000,0.240535378,-0.227339966,-0.008812262,-0.274533409,-0.274604179,3.715620723,3.493843342,0.278610870,-0.002808412,-0.034408667,-0.437925010
1750861453.154479504,-1.727960191,-2.155317608,-0.855438393,1.593253397,-0.088812909,-1.658522216,-0.016606095,0.241892708,-0.228401857,-0.008852164,-0.275752967,-0.275824191,3.715755937,3.495368340,0.278631382,-0.002807845,-0.034355330,-0.437385409
1750861453.156776428,-1.727993708,-2.154832464,-0.855896258,1.593235653,-0.089365633,-1.659075082,-0.016911267,0.243252563,-0.229463078,-0.008892010,-0.276970621,-0.277042301,3.715895525,3.496899622,0.278651922,-0.002807269,-0.034301706,-0.436843100
1750861453.158360720,-1.728027838,-2.154344596,-0.856356245,1.593217829,-0.089920790,-1.659630383,-0.017219526,0.244614955,-0.230523627,-0.008931801,-0.278186361,-0.278258499,3.716039536,3.498437172,0.278672487,-0.002806684,-0.034247794,-0.436298082
1750861453.160291910,-1.728062588,-2.153854002,-0.856818352,1.593199926,-0.090478377,-1.660188115,-0.017530883,0.245979894,-0.231583504,-0.008971534,-0.279400177,-0.279472773,3.716188025,3.499980975,0.278693075,-0.002806090,-0.034193593,-0.435750359
1750861453.162367582,-1.728097964,-2.153360675,-0.857282579,1.593181943,-0.091038390,-1.660748273,-0.017845349,0.247347389,-0.232642710,-0.009011210,-0.280612059,-0.280685115,3.716341043,3.501531015,0.278713687,-0.002805487,-0.034139105,-0.435199932
1750861453.164291620,-1.728133972,-2.152864611,-0.857748923,1.593163881,-0.091600824,-1.661310854,-0.018162934,0.248717452,-0.233701242,-0.009050829,-0.281821996,-0.281895513,3.716498643,3.503087276,0.278734321,-0.002804876,-0.034084328,-0.434646803
1750861453.166375875,-1.728170618,-2.152365804,-0.858217383,1.593145740,-0.092165676,-1.661875854,-0.018483648,0.250090093,-0.234759102,-0.009090390,-0.283029979,-0.283103957,3.716660878,3.504649742,0.278754974,-0.002804255,-0.034029263,-0.434090974
1750861453.168271303,-1.728207909,-2.151864249,-0.858687959,1.593127520,-0.092732943,-1.662443269,-0.018807502,0.251465321,-0.235816288,-0.009129892,-0.284235996,-0.284310438,3.716827801,3.506218399,0.278775647,-0.002803625,-0.033973910,-0.433532447
1750861453.170275927,-1.728245850,-2.151359941,-0.859160648,1.593109220,-0.093302619,-1.663013094,-0.019134506,0.252843147,-0.236872800,-0.009169336,-0.285440039,-0.285514945,3.716999465,3.507793228,0.278796337,-0.002802985,-0.033918268,-0.432971224
1750861453.172351837,-1.728284449,-2.150852874,-0.859635450,1.593090842,-0.093874702,-1.663585327,-0.019464670,0.254223582,-0.237928638,-0.009208720,-0.286642096,-0.286717467,3.717175923,3.509374216,0.278817043,-0.002802337,-0.033862338,-0.432407307
1750861453.174280405,-1.728323711,-2.150343045,-0.860112362,1.593072385,-0.094449186,-1.664159963,-0.019798004,0.255606636,-0.238983801,-0.009248044,-0.287842157,-0.287917995,3.717357229,3.510961345,0.278837765,-0.002801679,-0.033806120,-0.431840699
1750861453.180094004,-1.728363643,-2.149830446,-0.860591384,1.593053850,-0.095026069,-1.664736998,-0.020134518,0.256992319,-0.240038290,-0.009287308,-0.289040213,-0.289116518,3.717543436,3.512554599,0.278858500,-0.002801011,-0.033749614,-0.431271402
1750861453.180372000,-1.728404251,-2.149315074,-0.861072515,1.593035236,-0.095605346,-1.665316428,-0.020474222,0.258380641,-0.241092104,-0.009326512,-0.290236252,-0.290313026,3.717734599,3.514153964,0.278879247,-0.002800334,-0.033692819,-0.430699418
1750861453.182538033,-1.728445542,-2.148796922,-0.861555752,1.593016544,-0.096187013,-1.665898249,-0.020817126,0.259771612,-0.242145244,-0.009365654,-0.291430265,-0.291507509,3.717930771,3.515759422,0.278900006,-0.002799648,-0.033635736,-0.430124750
1750861453.184499264,-1.728487522,-2.148275985,-0.862041095,1.592997774,-0.096771065,-1.666482456,-0.021163241,0.261165243,-0.243197708,-0.009404735,-0.292622242,-0.292699956,3.718132006,3.517370957,0.278920774,-0.002798952,-0.033578364,-0.429547400
1750861453.186429262,-1.728530197,-2.147752259,-0.862528543,1.592978925,-0.097357500,-1.667069047,-0.021512575,0.262561544,-0.244249498,-0.009443754,-0.293812171,-0.293890357,3.718338359,3.518988554,0.278941550,-0.002798246,-0.033520704,-0.428967372
1750861453.188313961,-1.728573574,-2.147225737,-0.863018093,1.592959999,-0.097946313,-1.667658016,-0.021865138,0.263960524,-0.245300612,-0.009482710,-0.295000044,-0.295078703,3.718549883,3.520612196,0.278962332,-0.002797530,-0.033462756,-0.428384667
1750861453.190306902,-1.728617660,-2.146696415,-0.863509745,1.592940994,-0.098537499,-1.668249361,-0.022220941,0.265362195,-0.246351052,-0.009521603,-0.296185849,-0.296264982,3.718766635,3.522241867,0.278983120,-0.002796805,-0.033404519,-0.427799289
1750861453.192487001,-1.728662460,-2.146164287,-0.864003497,1.592921912,-0.099131055,-1.668843075,-0.022579992,0.266766565,-0.247400818,-0.009560433,-0.297369577,-0.297449185,3.718988668,3.523877551,0.279003912,-0.002796069,-0.033345994,-0.427211240
1750861453.194400072,-1.728707982,-2.145629347,-0.864499348,1.592902753,-0.099726976,-1.669439156,-0.022942302,0.268173646,-0.248449909,-0.009599199,-0.298551217,-0.298631301,3.719216037,3.525519232,0.279024707,-0.002795324,-0.033287181,-0.426620523
1750861453.196458578,-1.728754231,-2.145091590,-0.864997296,1.592883516,-0.100325258,-1.670037599,-0.023307879,0.269583447,-0.249498326,-0.009637901,-0.299730759,-0.299811320,3.719448797,3.527166893,0.279045503,-0.002794569,-0.033228079,-0.426027142
1750861453.198254108,-1.728801215,-2.144551011,-0.865497340,1.592864201,-0.100925897,-1.670638400,-0.023676733,0.270995979,-0.250546069,-0.009676538,-0.300908192,-0.300989231,3.719687004,3.528820518,0.279066298,-0.002793803,-0.033168689,-0.425431099
1750861453.200280905,-1.728848941,-2.144007605,-0.865999480,1.592844809,-0.101528890,-1.671241554,-0.024048874,0.272411251,-0.251593138,-0.009715110,-0.302083508,-0.302165026,3.719930713,3.530480090,0.279087091,-0.002793028,-0.033109012,-0.424832398
1750861453.202325344,-1.728897413,-2.143461365,-0.866503712,1.592825341,-0.102134230,-1.671847058,-0.024424311,0.273829273,-0.252639535,-0.009753616,-0.303256694,-0.303338693,3.720179979,3.532145595,0.279107882,-0.002792242,-0.033049046,-0.424231041
1750861453.204343319,-1.728946640,-2.142912286,-0.867010037,1.592805795,-0.102741915,-1.672454908,-0.024803053,0.275250056,-0.253685259,-0.009792056,-0.304427742,-0.304510221,3.720434857,3.533817014,0.279128667,-0.002791446,-0.032988792,-0.423627033
1750861453.206255913,-1.728996628,-2.142360362,-0.867518453,1.592786173,-0.103351940,-1.673065098,-0.025185108,0.276673609,-0.254730310,-0.009830429,-0.305596640,-0.305679602,3.720695405,3.535494331,0.279149447,-0.002790639,-0.032928250,-0.423020376
1750861453.208256245,-1.729047383,-2.141805589,-0.868028958,1.592766473,-0.103964300,-1.673677625,-0.025570487,0.278099943,-0.255774691,-0.009868735,-0.306763379,-0.306846825,3.720961676,3.537177531,0.279170218,-0.002789822,-0.032867421,-0.422411074
1750861453.210267067,-1.729098912,-2.141247961,-0.868541551,1.592746698,-0.104578992,-1.674292484,-0.025959198,0.279529067,-0.256818400,-0.009906973,-0.307927949,-0.308011878,3.721233729,3.538866597,0.279190981,-0.002788995,-0.032806304,-0.421799131
1750861453.212321281,-1.729151222,-2.140687471,-0.869056231,1.592726846,-0.105196010,-1.674909671,-0.026351251,0.280960992,-0.257861439,-0.009945143,-0.309090339,-0.309174754,3.721511617,3.540561512,0.279211733,-0.002788157,-0.032744899,-0.421184550
1750861453.214238882,-1.729204319,-2.140124115,-0.869572997,1.592706917,-0.105815352,-1.675529181,-0.026746653,0.282395727,-0.258903809,-0.009983245,-0.310250539,-0.310335440,3.721795399,3.542262260,0.279232472,-0.002787309,-0.032683207,-0.420567334
1750861453.216255903,-1.729258210,-2.139557886,-0.870091846,1.592686913,-0.106437011,-1.676151011,-0.027145414,0.283833282,-0.259945509,-0.010021278,-0.311408538,-0.311493926,3.722085130,3.543968824,0.279253198,-0.002786449,-0.032621228,-0.419947489
1750861453.218203545,-1.729312903,-2.138988780,-0.870612778,1.592666832,-0.107060984,-1.676775156,-0.027547543,0.285273667,-0.260986542,-0.010059241,-0.312564328,-0.312650204,3.722380866,3.545681188,0.279273909,-0.002785579,-0.032558961,-0.419325016
1750861453.220239401,-1.729368403,-2.138416790,-0.871135792,1.592646676,-0.107687267,-1.677401610,-0.027953048,0.286716892,-0.262026908,-0.010097134,-0.313717896,-0.313804262,3.722682665,3.547399336,0.279294603,-0.002784699,-0.032496407,-0.418699922
1750861453.222218990,-1.729424717,-2.137841911,-0.871660885,1.592626444,-0.108315854,-1.678030371,-0.028361938,0.288162968,-0.263066608,-0.010134957,-0.314869234,-0.314956090,3.722990582,3.549123250,0.279315278,-0.002783807,-0.032433567,-0.418072209
1750861453.228246212,-1.729481853,-2.137264136,-0.872188058,1.592606136,-0.108946742,-1.678661433,-0.028774221,0.289611903,-0.264105642,-0.010172708,-0.316018332,-0.316105678,3.723304676,3.550852915,0.279335934,-0.002782905,-0.032370440,-0.417441881
1750861453.228479385,-1.729539816,-2.136683461,-0.872717308,1.592585753,-0.109579926,-1.679294792,-0.029189907,0.291063707,-0.265144013,-0.010210389,-0.317165178,-0.317253016,3.723625003,3.552588313,0.279356568,-0.002781991,-0.032307026,-0.416808944
1750861453.230363369,-1.729598615,-2.136099879,-0.873248633,1.592565294,-0.110215401,-1.679930444,-0.029609003,0.292518391,-0.266181721,-0.010247997,-0.318309762,-0.318398094,3.723951619,3.554329428,0.279377179,-0.002781067,-0.032243326,-0.416173401
1750861453.232367754,-1.729658255,-2.135513385,-0.873782034,1.592544761,-0.110853164,-1.680568383,-0.030031517,0.293975965,-0.267218766,-0.010285533,-0.319452076,-0.319540901,3.724284583,3.556076244,0.279397766,-0.002780131,-0.032179339,-0.415535256
1750861453.234588385,-1.729718743,-2.134923974,-0.874317508,1.592524152,-0.111493208,-1.681208606,-0.030457459,0.295436437,-0.268255152,-0.010322996,-0.320592108,-0.320681427,3.724623951,3.557828744,0.279418326,-0.002779185,-0.032115067,-0.414894514
1750861453.236251354,-1.729780087,-2.134331638,-0.874855054,1.592503469,-0.112135531,-1.681851107,-0.030886836,0.296899819,-0.269290877,-0.010360385,-0.321729848,-0.321819663,3.724969782,3.559586910,0.279438859,-0.002778227,-0.032050509,-0.414251180
1750861453.238246918,-1.729842293,-2.133736372,-0.875394671,1.592482711,-0.112780126,-1.682495883,-0.031319657,0.298366119,-0.270325945,-0.010397701,-0.322865286,-0.322955598,3.725322131,3.561350727,0.279459362,-0.002777258,-0.031985665,-0.413605258
1750861453.240180969,-1.729905368,-2.133138171,-0.875936358,1.592461878,-0.113426990,-1.683142928,-0.031755929,0.299835347,-0.271360357,-0.010434942,-0.323998412,-0.324089221,3.725681058,3.563120179,0.279479834,-0.002776277,-0.031920536,-0.412956753
1750861453.243274450,-1.729969319,-2.132537029,-0.876480112,1.592440971,-0.114076118,-1.683792238,-0.032195660,0.301307514,-0.272394113,-0.010472109,-0.325129216,-0.325220523,3.726046620,3.564895247,0.279500273,-0.002775285,-0.031855122,-0.412305670
1750861453.244283915,-1.730034153,-2.131932939,-0.877025934,1.592419990,-0.114727506,-1.684443809,-0.032638860,0.302782629,-0.273427216,-0.010509200,-0.326257688,-0.326349494,3.726418874,3.566675916,0.279520678,-0.002774282,-0.031789423,-0.411652013
1750861453.246279955,-1.730099877,-2.131325897,-0.877573821,1.592398934,-0.115381147,-1.685097635,-0.033085534,0.304260702,-0.274459666,-0.010546215,-0.327383818,-0.327476124,3.726797878,3.568462168,0.279541047,-0.002773267,-0.031723439,-0.410995789
1750861453.248280287,-1.730166497,-2.130715895,-0.878123772,1.592377805,-0.116037039,-1.685753712,-0.033535692,0.305741742,-0.275491467,-0.010583154,-0.328507595,-0.328600402,3.727183692,3.570253988,0.279561378,-0.002772241,-0.031657171,-0.410337000
1750861453.250219584,-1.730234022,-2.130102928,-0.878675786,1.592356602,-0.116695176,-1.686412035,-0.033989341,0.307225759,-0.276522618,-0.010620016,-0.329629010,-0.329722318,3.727576372,3.572051358,0.279581671,-0.002771203,-0.031590619,-0.409675654
1750861453.252238274,-1.730302457,-2.129486990,-0.879229862,1.592335325,-0.117355554,-1.687072599,-0.034446489,0.308712764,-0.277553123,-0.010656800,-0.330748052,-0.330841863,3.727975976,3.573854261,0.279601922,-0.002770153,-0.031523783,-0.409011755
1750861453.254549265,-1.730371810,-2.128868075,-0.879785998,1.592313975,-0.118018167,-1.687735401,-0.034907143,0.310202765,-0.278582982,-0.010693507,-0.331864712,-0.331959026,3.728382564,3.575662682,0.279622130,-0.002769092,-0.031456663,-0.408345308
1750861453.256314039,-1.730442088,-2.128246176,-0.880344193,1.592292551,-0.118683011,-1.688400434,-0.035371312,0.311695772,-0.279612198,-0.010730135,-0.332978979,-0.333073796,3.728796194,3.577476603,0.279642294,-0.002768018,-0.031389261,-0.407676319
1750861453.258405924,-1.730513298,-2.127621289,-0.880904446,1.592271054,-0.119350081,-1.689067694,-0.035839001,0.313191795,-0.280640772,-0.010766684,-0.334090843,-0.334186165,3.729216923,3.579296007,0.279662412,-0.002766933,-0.031321575,-0.407004794
1750861453.260380268,-1.730585446,-2.126993407,-0.881466756,1.592249484,-0.120019373,-1.689737177,-0.036310220,0.314690844,-0.281668707,-0.010803154,-0.335200294,-0.335296122,3.729644810,3.581120878,0.279682483,-0.002765836,-0.031253607,-0.406330738
1750861453.262290955,-1.730658541,-2.126362524,-0.882031121,1.592227842,-0.120690881,-1.690408877,-0.036784975,0.316192928,-0.282696005,-0.010839545,-0.336307323,-0.336403657,3.730079915,3.582951199,0.279702504,-0.002764727,-0.031185356,-0.405654156
1750861453.264342308,-1.730732588,-2.125728634,-0.882597540,1.592206126,-0.121364600,-1.691082790,-0.037263273,0.317698057,-0.283722667,-0.010875854,-0.337411919,-0.337508760,3.730522296,3.584786953,0.279722473,-0.002763607,-0.031116824,-0.404975055
1750861453.266287565,-1.730807596,-2.125091730,-0.883166011,1.592184338,-0.122040527,-1.691758910,-0.037745122,0.319206241,-0.284748697,-0.010912083,-0.338514072,-0.338611421,3.730972010,3.586628123,0.279742390,-0.002762474,-0.031048010,-0.404293441
1750861453.268310547,-1.730883571,-2.124451807,-0.883736534,1.592162478,-0.122718655,-1.692437234,-0.038230530,0.320717489,-0.285774095,-0.010948231,-0.339613772,-0.339711629,3.731429118,3.588474693,0.279762252,-0.002761329,-0.030978915,-0.403609319
1750861453.270486355,-1.730960521,-2.123808858,-0.884309107,1.592140545,-0.123398980,-1.693117755,-0.038719502,0.322231811,-0.286798865,-0.010984296,-0.340711010,-0.340809376,3.731893679,3.590326646,0.279782057,-0.002760171,-0.030909538,-0.402922695
1750861453.274507761,-1.730960521,-2.123808858,-0.884309107,1.592140545,-0.123398980,-1.693117755,-0.038719502,0.322231811,-0.286798865,-0.010984296,-0.340711010,-0.340809376,3.731893679,3.590326646,0.279782057,-0.002760171,-0.030909538,-0.402922695
1750861453.274713516,-1.731117371,-2.122513859,-0.885460399,1.592096464,-0.124766202,-1.694485372,-0.039708170,0.325269716,-0.288846528,-0.011056180,-0.342898057,-0.342997443,3.732845391,3.594046634,0.279821492,-0.002757820,-0.030769945,-0.401541969
1750861453.277764559,-1.731117371,-2.122513859,-0.885460399,1.592096464,-0.124766202,-1.694485372,-0.039708170,0.325269716,-0.288846528,-0.011056180,-0.342898057,-0.342997443,3.732845391,3.594046634,0.279821492,-0.002757820,-0.030769945,-0.401541969
1750861453.280214548,-1.731197287,-2.121861796,-0.886039115,1.592074316,-0.125453088,-1.695172458,-0.040207880,0.326793317,-0.289869427,-0.011091996,-0.343987846,-0.344087744,3.733332662,3.595914635,0.279841118,-0.002756626,-0.030699728,-0.400847878
1750861453.281414747,-1.731278205,-2.121206683,-0.886619876,1.592052096,-0.126142151,-1.695861722,-0.040711182,0.328320031,-0.290891707,-0.011127729,-0.345075134,-0.345175543,3.733827620,3.597787952,0.279860680,-0.002755420,-0.030629232,-0.400151311
1750861453.283711433,-1.731443080,-2.119887282,-0.887787529,1.592007443,-0.127526789,-1.697246763,-0.041728593,0.331382834,-0.292934420,-0.011198941,-0.347242161,-0.347343596,3.734840839,3.601550467,0.279899606,-0.002752970,-0.030487404,-0.398750775
1750861453.284591436,-1.731443080,-2.119887282,-0.887787529,1.592007443,-0.127526789,-1.697246763,-0.041728593,0.331382834,-0.292934420,-0.011198941,-0.347242161,-0.347343596,3.734840839,3.601550467,0.279899606,-0.002752970,-0.030487404,-0.398750775
1750861453.286385059,-1.731527051,-2.119222981,-0.888374418,1.591985010,-0.128222354,-1.697942531,-0.042242714,0.332918943,-0.293954859,-0.011234419,-0.348321881,-0.348423830,3.735359218,3.603439631,0.279918967,-0.002751726,-0.030416073,-0.398046819
1750861453.288334846,-1.731612053,-2.118555604,-0.888963348,1.591962505,-0.128920075,-1.698640457,-0.042760456,0.334458202,-0.294974690,-0.011269810,-0.349399060,-0.349501523,3.735885522,3.605334044,0.279938256,-0.002750470,-0.030344464,-0.397340414
1750861453.290138483,-1.731698095,-2.117885146,-0.889554317,1.591939930,-0.129619948,-1.699340536,-0.043281823,0.336000622,-0.295993916,-0.011305116,-0.350473686,-0.350576665,3.736419810,3.607233689,0.279957473,-0.002749201,-0.030272578,-0.396631566
1750861453.292271852,-1.731785183,-2.117211599,-0.890147323,1.591917285,-0.130321968,-1.700042762,-0.043806823,0.337546211,-0.297012540,-0.011340334,-0.351545751,-0.351649245,3.736962143,3.609138549,0.279976616,-0.002747920,-0.030200416,-0.395920282
1750861453.295207739,-1.731873325,-2.116534959,-0.890742367,1.591894569,-0.131026130,-1.700747131,-0.044335461,0.339094980,-0.298030565,-0.011375465,-0.352615244,-0.352719255,3.737512579,3.611048608,0.279995683,-0.002746625,-0.030127977,-0.395206570
1750861453.296470165,-1.731962527,-2.115855217,-0.891339445,1.591871783,-0.131732427,-1.701453637,-0.044867745,0.340646938,-0.299047993,-0.011410507,-0.353682156,-0.353786684,3.738071178,3.612963849,0.280014671,-0.002745318,-0.030055262,-0.394490437
1750861453.298357964,-1.732052798,-2.115172369,-0.891938558,1.591848927,-0.132440857,-1.702162276,-0.045403681,0.342202095,-0.300064829,-0.011445461,-0.354746478,-0.354851522,3.738637999,3.614884255,0.280033579,-0.002743999,-0.029982273,-0.393771890
1750861453.300504923,-1.732144144,-2.114486407,-0.892539704,1.591826001,-0.133151412,-1.702873042,-0.045943274,0.343760460,-0.301081074,-0.011480326,-0.355808198,-0.355913761,3.739213102,3.616809810,0.280052405,-0.002742666,-0.029909008,-0.393050936
1750861453.302319288,-1.732236574,-2.113797325,-0.893142882,1.591803006,-0.133864088,-1.703585929,-0.046486531,0.345322042,-0.302096733,-0.011515101,-0.356867308,-0.356973389,3.739796547,3.618740496,0.280071148,-0.002741320,-0.029835469,-0.392327584
1750861453.304381847,-1.732330093,-2.113105117,-0.893748091,1.591779941,-0.134578879,-1.704300933,-0.047033458,0.346886852,-0.303111809,-0.011549786,-0.357923797,-0.358030397,3.740388393,3.620676297,0.280089805,-0.002739962,-0.029761657,-0.391601840
1750861453.306311607,-1.732424710,-2.112409775,-0.894355329,1.591756807,-0.135295781,-1.705018049,-0.047584061,0.348454899,-0.304126305,-0.011584380,-0.358977657,-0.359084777,3.740988700,3.622617197,0.280108374,-0.002738591,-0.029687572,-0.390873712
1750861453.308243752,-1.732520432,-2.111711295,-0.894964595,1.591733604,-0.136014788,-1.705737271,-0.048138346,0.350026192,-0.305140225,-0.011618883,-0.360028877,-0.360136517,3.741597527,3.624563179,0.280126854,-0.002737206,-0.029613214,-0.390143209
1750861453.310249329,-1.732617266,-2.111009668,-0.895575889,1.591710331,-0.136735895,-1.706458593,-0.048696318,0.351600740,-0.306153571,-0.011653294,-0.361077448,-0.361185608,3.742214934,3.626514226,0.280145242,-0.002735809,-0.029538584,-0.389410338
1750861453.312283039,-1.732715219,-2.110304890,-0.896189209,1.591686990,-0.137459096,-1.707182011,-0.049257984,0.353178555,-0.307166349,-0.011687613,-0.362123360,-0.362232041,3.742840981,3.628470321,0.280163537,-0.002734398,-0.029463682,-0.388675106
1750861453.314298153,-1.732814300,-2.109596952,-0.896804554,1.591663581,-0.138184386,-1.707907520,-0.049823349,0.354759644,-0.308178561,-0.011721840,-0.363166604,-0.363275806,3.743475727,3.630431448,0.280181737,-0.002732974,-0.029388510,-0.387937523
1750861453.316238165,-1.732914515,-2.108885849,-0.897421923,1.591640103,-0.138911761,-1.708635113,-0.050392419,0.356344019,-0.309190211,-0.011755972,-0.364207169,-0.364316893,3.744119233,3.632397590,0.280199840,-0.002731537,-0.029313068,-0.387197596
1750861453.318264008,-1.733015872,-2.108171574,-0.898041315,1.591616557,-0.139641213,-1.709364785,-0.050965199,0.357931687,-0.310201303,-0.011790011,-0.365245047,-0.365355293,3.744771557,3.634368732,0.280217843,-0.002730087,-0.029237356,-0.386455334
1750861453.320387125,-1.733118379,-2.107454120,-0.898662728,1.591592943,-0.140372739,-1.710096532,-0.051541696,0.359522659,-0.311211841,-0.011823956,-0.366280228,-0.366390996,3.745432760,3.636344855,0.280235746,-0.002728624,-0.029161374,-0.385710745
1750861453.322241545,-1.733222042,-2.106733481,-0.899286162,1.591569261,-0.141106332,-1.710830348,-0.052121914,0.361116944,-0.312221828,-0.011857806,-0.367312702,-0.367423993,3.746102901,3.638325943,0.280253545,-0.002727147,-0.029085125,-0.384963837
1750861453.330802441,-1.733326869,-2.106009650,-0.899911615,1.591545512,-0.141841988,-1.711566226,-0.052705859,0.362714552,-0.313231269,-0.011891560,-0.368342459,-0.368454274,3.746782040,3.640311981,0.280271240,-0.002725657,-0.029008608,-0.384214619
1750861453.330862522,-1.733326869,-2.106009650,-0.899911615,1.591545512,-0.141841988,-1.711566226,-0.052705859,0.362714552,-0.313231269,-0.011891560,-0.368342459,-0.368454274,3.746782040,3.640311981,0.280271240,-0.002725657,-0.029008608,-0.384214619
1750861453.330879211,-1.733326869,-2.106009650,-0.899911615,1.591545512,-0.141841988,-1.711566226,-0.052705859,0.362714552,-0.313231269,-0.011891560,-0.368342459,-0.368454274,3.746782040,3.640311981,0.280271240,-0.002725657,-0.029008608,-0.384214619
1750861453.333346605,-1.733757968,-2.103082274,-0.902433600,1.591449842,-0.144805124,-1.714530265,-0.055079015,0.369138405,-0.317263655,-0.012025612,-0.372434138,-0.372548049,3.749589768,3.648305292,0.280340928,-0.002719562,-0.028699874,-0.381194825
1750861453.334354401,-1.733757968,-2.103082274,-0.902433600,1.591449842,-0.144805124,-1.714530265,-0.055079015,0.369138405,-0.317263655,-0.012025612,-0.372434138,-0.372548049,3.749589768,3.648305292,0.280340928,-0.002719562,-0.028699874,-0.381194825
1750861453.336397409,-1.733868728,-2.102342383,-0.903069135,1.591425758,-0.145551008,-1.715276378,-0.055681674,0.370752771,-0.318270428,-0.012058882,-0.373450173,-0.373564609,3.750314791,3.650315828,0.280358067,-0.002718005,-0.028622028,-0.380434191
1750861453.338272333,-1.733980697,-2.101599261,-0.903706682,1.591401607,-0.146298923,-1.716024521,-0.056288091,0.372370518,-0.319276680,-0.012092052,-0.374463435,-0.374578396,3.751049171,3.652331214,0.280375090,-0.002716434,-0.028543918,-0.379671300
1750861453.340251923,-1.734093883,-2.100852899,-0.904346241,1.591377390,-0.147048860,-1.716774690,-0.056898272,0.373991654,-0.320282416,-0.012125124,-0.375473915,-0.375589401,3.751792966,3.654351433,0.280391993,-0.002714850,-0.028465545,-0.378906162
1750861453.343093872,-1.734323935,-2.099350432,-0.905631391,1.591328757,-0.148554785,-1.718281078,-0.058129941,0.377244135,-0.322292357,-0.012190967,-0.377486491,-0.377603029,3.753309040,3.658406309,0.280425435,-0.002711640,-0.028308013,-0.377369183
1750861453.344482422,-1.734323935,-2.099350432,-0.905631391,1.591328757,-0.148554785,-1.718281078,-0.058129941,0.377244135,-0.322292357,-0.012190967,-0.377486491,-0.377603029,3.753309040,3.658406309,0.280425435,-0.002711640,-0.028308013,-0.377369183
1750861453.346371174,-1.734440815,-2.098594313,-0.906276980,1.591304343,-0.149310760,-1.719037287,-0.058751441,0.378875498,-0.323296572,-0.012223738,-0.378488568,-0.378605633,3.754081439,3.660440932,0.280441969,-0.002710014,-0.028228856,-0.376597362
1750861453.348285437,-1.734558943,-2.097834928,-0.906924577,1.591279862,-0.150068737,-1.719795499,-0.059376722,0.380510290,-0.324300290,-0.012256408,-0.379487827,-0.379605418,3.754863491,3.662480323,0.280458376,-0.002708375,-0.028149438,-0.375823331
1750861453.350261450,-1.734678325,-2.097072269,-0.907574181,1.591255317,-0.150828710,-1.720555707,-0.060005791,0.382148521,-0.325303515,-0.012288975,-0.380484257,-0.380602375,3.755655257,3.664524467,0.280474654,-0.002706722,-0.028069761,-0.375047101
1750861453.352299452,-1.734798969,-2.096306331,-0.908225791,1.591230707,-0.151590672,-1.721317907,-0.060638652,0.383790198,-0.326306253,-0.012321441,-0.381477850,-0.381596494,3.756456795,3.666573347,0.280490801,-0.002705056,-0.027989826,-0.374268683
1750861453.354261160,-1.734920882,-2.095537106,-0.908879406,1.591206031,-0.152354619,-1.722082091,-0.061275309,0.385435333,-0.327308507,-0.012353803,-0.382468595,-0.382587767,3.757268165,3.668626947,0.280506814,-0.002703375,-0.027909633,-0.373488085
1750861453.356199980,-1.735044072,-2.094764588,-0.909535025,1.591181291,-0.153120545,-1.722848256,-0.061915767,0.387083935,-0.328310285,-0.012386063,-0.383456485,-0.383576184,3.758089426,3.670685250,0.280522691,-0.002701681,-0.027829183,-0.372705319
1750861453.358234882,-1.735168548,-2.093988768,-0.910192647,1.591156487,-0.153888443,-1.723616394,-0.062560030,0.388736014,-0.329311590,-0.012418218,-0.384441511,-0.384561737,3.758920637,3.672748242,0.280538431,-0.002699973,-0.027748477,-0.371920393
1750861453.360270739,-1.735294315,-2.093209641,-0.910852271,1.591131619,-0.154658309,-1.724386501,-0.063208103,0.390391578,-0.330312428,-0.012450269,-0.385423662,-0.385544415,3.759761858,3.674815904,0.280554032,-0.002698250,-0.027667516,-0.371133319
1750861453.362217903,-1.735421382,-2.092427200,-0.911513896,1.591106686,-0.155430136,-1.725158570,-0.063859990,0.392050639,-0.331312804,-0.012482215,-0.386402930,-0.386524211,3.760613149,3.676888222,0.280569490,-0.002696514,-0.027586301,-0.370344108
1750861453.364285469,-1.735549758,-2.091641436,-0.912177522,1.591081690,-0.156203919,-1.725932596,-0.064515695,0.393713206,-0.332312723,-0.012514055,-0.387379306,-0.387501114,3.761474567,3.678965179,0.280584805,-0.002694764,-0.027504832,-0.369552768
1750861453.366176844,-1.735679448,-2.090852344,-0.912843147,1.591056630,-0.156979651,-1.726708572,-0.065175222,0.395379288,-0.333312192,-0.012545790,-0.388352781,-0.388475117,3.762346172,3.681046760,0.280599973,-0.002693000,-0.027423110,-0.368759312
1750861453.370399952,-1.735810461,-2.090059917,-0.913510770,1.591031507,-0.157757328,-1.727486494,-0.065838577,0.397048895,-0.334311215,-0.012577417,-0.389323346,-0.389446210,3.763228023,3.683132948,0.280614994,-0.002691222,-0.027341136,-0.367963749
1750861453.372217178,-1.735810461,-2.090059917,-0.913510770,1.591031507,-0.157757328,-1.727486494,-0.065838577,0.397048895,-0.334311215,-0.012577417,-0.389323346,-0.389446210,3.763228023,3.683132948,0.280614994,-0.002691222,-0.027341136,-0.367963749
1750861453.373203516,-1.735942805,-2.089264146,-0.914180391,1.591006320,-0.158536943,-1.728266355,-0.066505761,0.398722037,-0.335309799,-0.012608938,-0.390290992,-0.390414384,3.764120179,3.685223728,0.280629864,-0.002689430,-0.027258912,-0.367166092
1750861453.374914408,-1.735942805,-2.089264146,-0.914180391,1.591006320,-0.158536943,-1.728266355,-0.066505761,0.398722037,-0.335309799,-0.012608938,-0.390290992,-0.390414384,3.764120179,3.685223728,0.280629864,-0.002689430,-0.027258912,-0.367166092
1750861453.376796007,-1.736211514,-2.087662549,-0.915525623,1.590955759,-0.160101964,-1.729831872,-0.067851640,0.402078964,-0.337305669,-0.012671656,-0.392217493,-0.392341940,3.765935641,3.689418998,0.280659145,-0.002685804,-0.027093713,-0.365564533
1750861453.378419638,-1.736347899,-2.086856686,-0.916201252,1.590930385,-0.160887379,-1.730617536,-0.068543326,0.403839407,-0.338375358,-0.012702663,-0.393248928,-0.393373804,3.767215210,3.706121623,0.279112046,-0.002876761,-0.029055852,-0.390581754
1750861453.380318403,-1.736485714,-2.086047052,-0.916879253,1.590904949,-0.161675087,-1.731405494,-0.069271884,0.405795398,-0.339625405,-0.012733117,-0.394458408,-0.394583469,3.768824983,3.744776147,0.275228106,-0.003357035,-0.034071454,-0.454169726
1750861453.382319689,-1.736624990,-2.085233502,-0.917559753,1.590879452,-0.162465210,-1.732195868,-0.070005196,0.407755744,-0.340874903,-0.012763505,-0.395664323,-0.395789571,3.769454177,3.746985586,0.275246746,-0.003356267,-0.033971019,-0.453192828
1750861453.384188175,-1.736765738,-2.084416026,-0.918242752,1.590853895,-0.163257742,-1.732988650,-0.070743273,0.409720459,-0.342123856,-0.012793829,-0.396866660,-0.396992097,3.770094097,3.749201126,0.275265206,-0.003355491,-0.033870216,-0.452212782
1750861453.387995720,-1.736907780,-2.083595119,-0.918927927,1.590828286,-0.164052345,-1.733783505,-0.071105699,0.410667536,-0.342717257,-0.012805969,-0.397395457,-0.397520974,3.866538543,3.562729159,0.288399202,-0.001001446,-0.014896389,-0.225082092
1750861453.388314724,-1.736907780,-2.083595119,-0.918927927,1.590828286,-0.164052345,-1.733783505,-0.071105699,0.410667536,-0.342717257,-0.012805969,-0.397395457,-0.397520974,3.866538543,3.562729159,0.288399202,-0.001001446,-0.014896389,-0.225082092
1750861453.390311956,-1.737049961,-2.082773894,-0.919613276,1.590802680,-0.164846970,-1.734578381,-0.071075466,0.410557498,-0.342632299,-0.012799347,-0.397230052,-0.397355535,3.967691832,3.369147294,0.301980920,0.001431741,0.004659518,0.009146312
1750861453.392502069,-1.737192081,-2.081952889,-0.920298456,1.590777088,-0.165641266,-1.735372927,-0.071045221,0.410447329,-0.342547259,-0.012792743,-0.397065093,-0.397190540,3.970045865,3.370821901,0.301979758,0.001429359,0.004646957,0.009030327
1750861453.394348621,-1.737334142,-2.081132105,-0.920983465,1.590751509,-0.166435231,-1.736167143,-0.071014963,0.410337030,-0.342462137,-0.012786158,-0.396900578,-0.397025991,3.972397958,3.372494659,0.301978602,0.001426978,0.004634427,0.008914671
1750861453.396383524,-1.737476141,-2.080311541,-0.921668304,1.590725944,-0.167228868,-1.736961031,-0.070984693,0.410226600,-0.342376931,-0.012779590,-0.396736507,-0.396861884,3.974748110,3.374165567,0.301977451,0.001424599,0.004621929,0.008799344
1750861453.398246765,-1.737618080,-2.079491198,-0.922352973,1.590700391,-0.168022177,-1.737754591,-0.070954411,0.410116039,-0.342291643,-0.012773041,-0.396572879,-0.396698220,3.977096320,3.375834625,0.301976305,0.001422220,0.004609463,0.008684344
1750861453.400244474,-1.737759959,-2.078671077,-0.923037471,1.590674852,-0.168815160,-1.738547824,-0.070924115,0.410005347,-0.342206272,-0.012766509,-0.396409692,-0.396534997,3.979442588,3.377501833,0.301975165,0.001419842,0.004597027,0.008569671
1750861453.402372599,-1.737901777,-2.077851177,-0.923721798,1.590649325,-0.169607817,-1.739340732,-0.070893807,0.409894524,-0.342120817,-0.012759996,-0.396246946,-0.396372215,3.981786913,3.379167190,0.301974031,0.001417464,0.004584623,0.008455323
1750861453.404366255,-1.738043534,-2.077031499,-0.924405954,1.590623812,-0.170400148,-1.740133314,-0.070863486,0.409783569,-0.342035279,-0.012753501,-0.396084638,-0.396209871,3.984129296,3.380830695,0.301972902,0.001415088,0.004572250,0.008341300
1750861453.406305313,-1.738185231,-2.076212043,-0.925089939,1.590598311,-0.171192155,-1.740925571,-0.070833151,0.409672482,-0.341949657,-0.012747025,-0.395922769,-0.396047964,3.986469736,3.382492350,0.301971778,0.001412713,0.004559908,0.008227601
1750861453.408305168,-1.738326867,-2.075392809,-0.925773752,1.590572823,-0.171983839,-1.741717506,-0.070802804,0.409561263,-0.341863951,-0.012740566,-0.395761337,-0.395886495,3.988808233,3.384152152,0.301970659,0.001410338,0.004547596,0.008114225
1750861453.410411119,-1.738468442,-2.074573798,-0.926457395,1.590547349,-0.172775201,-1.742509118,-0.070772443,0.409449913,-0.341778161,-0.012734126,-0.395600341,-0.395725461,3.991144786,3.385810102,0.301969547,0.001407965,0.004535315,0.008001170
1750861453.412248135,-1.738609956,-2.073755010,-0.927140865,1.590521887,-0.173566241,-1.743300408,-0.070742068,0.409338429,-0.341692287,-0.012727704,-0.395439780,-0.395564862,3.993479394,3.387466199,0.301968439,0.001405592,0.004523065,0.007888437
1750861453.415218592,-1.738751410,-2.072936444,-0.927824164,1.590496438,-0.174356960,-1.744091377,-0.070711680,0.409226814,-0.341606329,-0.012721301,-0.395279652,-0.395404696,3.995812059,3.389120444,0.301967337,0.001403221,0.004510845,0.007776024
1750861453.419930220,-1.738892803,-2.072118102,-0.928507290,1.590471002,-0.175147360,-1.744882027,-0.070681278,0.409115065,-0.341520286,-0.012714915,-0.395119957,-0.395244963,3.998142778,3.390772835,0.301966240,0.001400850,0.004498656,0.007663930
1750861453.420550346,-1.739034135,-2.071299984,-0.929190245,1.590445578,-0.175937441,-1.745672357,-0.070650863,0.409003184,-0.341434158,-0.012708549,-0.394960694,-0.395085661,4.000471552,3.392423373,0.301965149,0.001398480,0.004486497,0.007552154
1750861453.422882318,-1.739175407,-2.070482090,-0.929873027,1.590420168,-0.176727203,-1.746462370,-0.070620433,0.408891169,-0.341347946,-0.012702200,-0.394801861,-0.394926789,4.002798380,3.394072057,0.301964063,0.001396111,0.004474369,0.007440696
1750861453.424424171,-1.739316617,-2.069664420,-0.930555636,1.590394769,-0.177516648,-1.747252065,-0.070589989,0.408779022,-0.341261648,-0.012695870,-0.394643458,-0.394768347,4.005123263,3.395718887,0.301962983,0.001393743,0.004462270,0.007329555
1750861453.426227093,-1.739457767,-2.068846974,-0.931238073,1.590369384,-0.178305777,-1.748041443,-0.070559531,0.408666740,-0.341175265,-0.012689558,-0.394485483,-0.394610332,4.007446199,3.397363863,0.301961908,0.001391376,0.004450202,0.007218729
1750861453.428215265,-1.739598855,-2.068029753,-0.931920337,1.590344011,-0.179094590,-1.748830506,-0.070529059,0.408554325,-0.341088797,-0.012683265,-0.394327936,-0.394452745,4.009767188,3.399006983,0.301960838,0.001389009,0.004438163,0.007108218
1750861453.430316448,-1.739739883,-2.067212757,-0.932602429,1.590318651,-0.179883089,-1.749619255,-0.070498573,0.408441776,-0.341002243,-0.012676990,-0.394170815,-0.394295584,4.012086230,3.400648249,0.301959774,0.001386644,0.004426154,0.006998020
1750861453.433376551,-1.739880849,-2.066395986,-0.933284346,1.590293303,-0.180671274,-1.750407689,-0.070468071,0.408329092,-0.340915604,-0.012670734,-0.394014119,-0.394138847,4.014403325,3.402287659,0.301958715,0.001384279,0.004414175,0.006888136
1750861453.434183121,-1.740021755,-2.065579440,-0.933966091,1.590267968,-0.181459146,-1.751195810,-0.070437556,0.408216274,-0.340828878,-0.012664496,-0.393857847,-0.393982535,4.016718472,3.403925213,0.301957661,0.001381916,0.004402226,0.006778564
1750861453.436278343,-1.740162600,-2.064763121,-0.934647662,1.590242645,-0.182246706,-1.751983620,-0.070407025,0.408103322,-0.340742066,-0.012658277,-0.393701998,-0.393826646,4.019031671,3.405560911,0.301956613,0.001379553,0.004390306,0.006669304
1750861453.438192129,-1.740303383,-2.063947027,-0.935329059,1.590217335,-0.183033954,-1.752771117,-0.070376479,0.407990235,-0.340655168,-0.012652076,-0.393546572,-0.393671178,4.021342921,3.407194753,0.301955571,0.001377191,0.004378416,0.006560353
1750861453.440346479,-1.740444106,-2.063131160,-0.936010282,1.590192037,-0.183820892,-1.753558305,-0.070345919,0.407877012,-0.340568184,-0.012645894,-0.393391566,-0.393516131,4.023652223,3.408826739,0.301954533,0.001374830,0.004366555,0.006451713
1750861453.442348003,-1.740584767,-2.062315519,-0.936691332,1.590166751,-0.184607521,-1.754345182,-0.070315343,0.407763655,-0.340481113,-0.012639731,-0.393236981,-0.393361504,4.025959575,3.410456867,0.301953501,0.001372470,0.004354724,0.006343381
1750861453.444623470,-1.740725367,-2.061500105,-0.937372207,1.590141478,-0.185393840,-1.755131751,-0.070284752,0.407650162,-0.340393955,-0.012633586,-0.393082814,-0.393207296,4.028264978,3.412085138,0.301952474,0.001370111,0.004342921,0.006235357
1750861453.446349382,-1.740865906,-2.060684919,-0.938052908,1.590116217,-0.186179852,-1.755918012,-0.070254146,0.407536533,-0.340306710,-0.012627459,-0.392929066,-0.393053505,4.030568430,3.413711552,0.301951453,0.001367752,0.004331148,0.006127640
1750861453.448197365,-1.741006383,-2.059869959,-0.938733434,1.590090968,-0.186965557,-1.756703965,-0.070223524,0.407422769,-0.340219378,-0.012621352,-0.392775734,-0.392900131,4.032869933,3.415336108,0.301950437,0.001365395,0.004319404,0.006020229
1750861453.450150490,-1.741146800,-2.059055228,-0.939413785,1.590065732,-0.187750955,-1.757489612,-0.070192887,0.407308868,-0.340131959,-0.012615263,-0.392622818,-0.392747172,4.035169485,3.416958805,0.301949427,0.001363038,0.004307689,0.005913123
1750861453.452265978,-1.741287155,-2.058240724,-0.940093961,1.590040507,-0.188536049,-1.758274954,-0.070162234,0.407194832,-0.340044452,-0.012609192,-0.392470317,-0.392594629,4.037467085,3.418579645,0.301948421,0.001360682,0.004296002,0.005806322
1750861453.454234600,-1.741427449,-2.057426448,-0.940773963,1.590015295,-0.189320837,-1.759059991,-0.070131565,0.407080658,-0.339956857,-0.012603141,-0.392318230,-0.392442498,4.039762735,3.420198626,0.301947421,0.001358327,0.004284344,0.005699824
1750861453.456135511,-1.741567681,-2.056612401,-0.941453789,1.589990094,-0.190105322,-1.759844724,-0.070100880,0.406966349,-0.339869174,-0.012597108,-0.392166556,-0.392290781,4.042056433,3.421815747,0.301946427,0.001355973,0.004272715,0.005593630
1750861453.461317301,-1.741707852,-2.055798583,-0.942133439,1.589964906,-0.190889504,-1.760629155,-0.070070179,0.406851902,-0.339781404,-0.012591094,-0.392015293,-0.392139475,4.044348179,3.423431010,0.301945437,0.001353620,0.004261115,0.005487737
1750861453.462721825,-1.741847962,-2.054984994,-0.942812914,1.589939730,-0.191673383,-1.761413283,-0.070039462,0.406737318,-0.339693545,-0.012585098,-0.391864441,-0.391988579,4.046637972,3.425044413,0.301944454,0.001351268,0.004249543,0.005382145
1750861453.464429379,-1.741988010,-2.054171634,-0.943492214,1.589914566,-0.192456962,-1.762197109,-0.070008728,0.406622597,-0.339605598,-0.012579122,-0.391713999,-0.391838093,4.048925813,3.426655957,0.301943475,0.001348916,0.004237999,0.005276854
1750861453.466791868,-1.742127997,-2.053358503,-0.944171337,1.589889414,-0.193240239,-1.762980635,-0.069977978,0.406507738,-0.339517562,-0.012573164,-0.391563966,-0.391688016,4.051211701,3.428265641,0.301942502,0.001346566,0.004226484,0.005171862
1750861453.468704700,-1.742267922,-2.052545603,-0.944850284,1.589864273,-0.194023218,-1.763763861,-0.069947212,0.406392742,-0.339429437,-0.012567225,-0.391414341,-0.391538346,4.053495635,3.429873464,0.301941534,0.001344216,0.004214997,0.005067169
1750861453.470344305,-1.742407786,-2.051732933,-0.945529054,1.589839145,-0.194805897,-1.764546789,-0.069916429,0.406277608,-0.339341224,-0.012561305,-0.391265122,-0.391389083,4.055777615,3.431479427,0.301940571,0.001341867,0.004203538,0.004962774
1750861453.472311735,-1.742547588,-2.050920493,-0.946207649,1.589814028,-0.195588278,-1.765329418,-0.069885629,0.406162335,-0.339252921,-0.012555403,-0.391116309,-0.391240226,4.058057642,3.433083529,0.301939614,0.001339519,0.004192107,0.004858675
1750861453.474216461,-1.742687328,-2.050108283,-0.946886066,1.589788923,-0.196370363,-1.766111750,-0.069854812,0.406046925,-0.339164530,-0.012549521,-0.390967901,-0.391091773,4.060335714,3.434685770,0.301938662,0.001337172,0.004180704,0.004754873
1750861453.477990150,-1.742827007,-2.049296305,-0.947564307,1.589763830,-0.197152150,-1.766893785,-0.069823978,0.405931375,-0.339076048,-0.012543657,-0.390819897,-0.390943723,4.062611831,3.436286150,0.301937715,0.001334826,0.004169328,0.004651367
1750861453.478272915,-1.742966624,-2.048484558,-0.948242370,1.589738748,-0.197933642,-1.767675525,-0.069793127,0.405815687,-0.338987477,-0.012537813,-0.390672295,-0.390796076,4.064885993,3.437884669,0.301936774,0.001332480,0.004157981,0.004548154
