mathias31415/motion_primitives_from_planned_trajectory/data/trajectory_20250625_123217_planned.csv
time_from_start,shoulder_pan_joint_pos,shoulder_lift_joint_pos,elbow_joint_pos,wrist_1_joint_pos,wrist_2_joint_pos,wrist_3_joint_pos,shoulder_pan_joint_vel,shoulder_lift_joint_vel,elbow_joint_vel,wrist_1_joint_vel,wrist_2_joint_vel,wrist_3_joint_vel,shoulder_pan_joint_acc,shoulder_lift_joint_acc,elbow_joint_acc,wrist_1_joint_acc,wrist_2_joint_acc,wrist_3_joint_acc,fk_x,fk_y,fk_z,fk_qx,fk_qy,fk_qz,fk_qw
0.000000,-1.600700,-1.727100,-2.203000,-0.808000,1.595100,-0.031000,-0.000500,-0.000118,0.000266,-0.000153,-0.000016,-0.000500,-0.500000,-0.117747,0.266023,-0.153303,-0.016306,-0.499706,-0.189632,-0.609684,0.260971,-0.000392,0.999843,0.012478,0.012536
0.100000,-1.603200,-1.727689,-2.201670,-0.808767,1.595018,-0.033499,-0.050000,-0.011775,0.026602,-0.015330,-0.001631,-0.049971,-0.500000,-0.117747,0.266023,-0.153303,-0.016306,-0.499706,-0.191186,-0.609861,0.261211,-0.000392,0.999844,0.012461,0.012527
0.200000,-1.610700,-1.729455,-2.197680,-0.811066,1.594774,-0.040994,-0.100000,-0.023549,0.053205,-0.030661,-0.003261,-0.099941,-0.500000,-0.117747,0.266023,-0.153303,-0.016306,-0.499706,-0.195861,-0.610367,0.261929,-0.000390,0.999845,0.012409,0.012500
0.300000,-1.623200,-1.732399,-2.191029,-0.814899,1.594366,-0.053487,-0.150000,-0.035324,0.079807,-0.045991,-0.004892,-0.149912,-0.500000,-0.117747,0.266023,-0.153303,-0.016306,-0.499706,-0.203693,-0.611125,0.263126,-0.000389,0.999846,0.012326,0.012453
0.400000,-1.640700,-1.736520,-2.181718,-0.820264,1.593796,-0.070976,-0.200000,-0.047099,0.106409,-0.061321,-0.006522,-0.199882,-0.500000,-0.117747,0.266023,-0.153303,-0.016306,-0.499706,-0.214741,-0.612006,0.264803,-0.000386,0.999849,0.012214,0.012389
0.500000,-1.661555,-1.741431,-2.170622,-0.826658,1.593115,-0.091819,-0.209440,-0.049322,0.111431,-0.064215,-0.006830,-0.209316,-0.000000,-0.000000,0.000000,-0.000000,-0.000000,-0.000000,-0.228026,-0.612777,0.266802,-0.000383,0.999851,0.012088,0.012312
0.600000,-1.682499,-1.746363,-2.159479,-0.833080,1.592432,-0.112751,-0.209440,-0.049322,0.111431,-0.064215,-0.006830,-0.209316,-0.000000,-0.000000,0.000000,-0.000000,-0.000000,-0.000000,-0.241492,-0.613240,0.268810,-0.000380,0.999853,0.011971,0.012234
0.700000,-1.703443,-1.751295,-2.148336,-0.839502,1.591749,-0.133682,-0.209440,-0.049322,0.111431,-0.064215,-0.006830,-0.209316,-0.000000,-0.000000,0.000000,-0.000000,-0.000000,-0.000000,-0.255074,-0.613388,0.270819,-0.000378,0.999856,0.011862,0.012158
0.800000,-1.724387,-1.756228,-2.137193,-0.845923,1.591066,-0.154614,-0.209440,-0.049322,0.111431,-0.064215,-0.006830,-0.209316,-0.000000,-0.000000,0.000000,-0.000000,-0.000000,-0.000000,-0.268766,-0.613215,0.272828,-0.000375,0.999858,0.011761,0.012082
0.900000,-1.745331,-1.761160,-2.126050,-0.852345,1.590383,-0.175545,-0.209440,-0.049322,0.111431,-0.064215,-0.006830,-0.209316,-0.000000,-0.000000,0.000000,-0.000000,-0.000000,-0.000000,-0.282558,-0.612716,0.274838,-0.000372,0.999860,0.011669,0.012008
1.000000,-1.766275,-1.766092,-2.114907,-0.858766,1.589700,-0.196477,-0.209440,-0.049322,0.111431,-0.064215,-0.006830,-0.209316,-0.000000,-0.000000,0.000000,-0.000000,-0.000000,-0.000000,-0.296443,-0.611888,0.276848,-0.000370,0.999862,0.011585,0.011935
1.100000,-1.787219,-1.771024,-2.103764,-0.865188,1.589017,-0.217409,-0.209440,-0.049322,0.111431,-0.064215,-0.006830,-0.209316,-0.000000,-0.000000,0.000000,-0.000000,-0.000000,-0.000000,-0.310413,-0.610726,0.278859,-0.000368,0.999863,0.011508,0.011864
1.200000,-1.808162,-1.775956,-2.092621,-0.871609,1.588334,-0.238340,-0.209440,-0.049322,0.111431,-0.064215,-0.006830,-0.209316,-0.000000,-0.000000,0.000000,-0.000000,-0.000000,-0.000000,-0.324459,-0.609226,0.280869,-0.000365,0.999865,0.011440,0.011796
1.300000,-1.829106,-1.780888,-2.081477,-0.878031,1.587651,-0.259272,-0.209440,-0.049322,0.111431,-0.064215,-0.006830,-0.209316,-0.000000,-0.000000,0.000000,-0.000000,-0.000000,-0.000000,-0.338573,-0.607385,0.282880,-0.000363,0.999866,0.011380,0.011729
1.400000,-1.850050,-1.785821,-2.070334,-0.884452,1.586968,-0.280204,-0.209440,-0.049322,0.111431,-0.064215,-0.006830,-0.209316,-0.000000,-0.000000,0.000000,-0.000000,-0.000000,-0.000000,-0.352746,-0.605198,0.284891,-0.000361,0.999868,0.011328,0.011666
1.500000,-1.870994,-1.790753,-2.059191,-0.890874,1.586285,-0.301135,-0.209440,-0.049322,0.111431,-0.064215,-0.006830,-0.209316,-0.000000,-0.000000,0.000000,-0.000000,-0.000000,-0.000000,-0.366970,-0.602664,0.286902,-0.000358,0.999869,0.011283,0.011606
1.600000,-1.891938,-1.795685,-2.048048,-0.897295,1.585602,-0.322067,-0.209440,-0.049322,0.111431,-0.064215,-0.006830,-0.209316,-0.000000,-0.000000,0.000000,-0.000000,-0.000000,-0.000000,-0.381235,-0.599777,0.288913,-0.000356,0.999870,0.011245,0.011549
1.700000,-1.912882,-1.800617,-2.036905,-0.903717,1.584919,-0.342998,-0.209440,-0.049322,0.111431,-0.064215,-0.006830,-0.209316,-0.000000,-0.000000,0.000000,-0.000000,-0.000000,-0.000000,-0.395532,-0.596537,0.290923,-0.000354,0.999871,0.011215,0.011495
1.800000,-1.933826,-1.805549,-2.025762,-0.910138,1.584236,-0.363930,-0.209440,-0.049322,0.111431,-0.064215,-0.006830,-0.209316,0.000000,0.000000,-0.000000,0.000000,0.000000,0.000000,-0.409853,-0.592939,0.292933,-0.000352,0.999872,0.011191,0.011446
1.900000,-1.954770,-1.810482,-2.014619,-0.916560,1.583553,-0.384862,-0.209440,-0.049322,0.111431,-0.064215,-0.006830,-0.209316,0.000000,0.000000,-0.000000,0.000000,0.000000,0.000000,-0.424189,-0.588983,0.294943,-0.000351,0.999873,0.011175,0.011400
2.000000,-1.975714,-1.815414,-2.003475,-0.922981,1.582870,-0.405793,-0.209440,-0.049322,0.111431,-0.064215,-0.006830,-0.209316,0.000000,0.000000,-0.000000,0.000000,0.000000,0.000000,-0.438529,-0.584665,0.296952,-0.000349,0.999873,0.011165,0.011360
2.100000,-1.996658,-1.820346,-1.992332,-0.929403,1.582187,-0.426725,-0.209440,-0.049322,0.111431,-0.064215,-0.006830,-0.209316,-0.000000,-0.000000,0.000000,-0.000000,-0.000000,-0.000000,-0.452865,-0.579983,0.298961,-0.000347,0.999874,0.011162,0.011324
2.200000,-2.017602,-1.825278,-1.981189,-0.935825,1.581504,-0.447656,-0.209440,-0.049322,0.111431,-0.064215,-0.006830,-0.209316,-0.000000,-0.000000,0.000000,-0.000000,-0.000000,-0.000000,-0.467188,-0.574937,0.300969,-0.000345,0.999874,0.011165,0.011292
2.300000,-2.038546,-1.830210,-1.970046,-0.942246,1.580821,-0.468588,-0.209440,-0.049322,0.111431,-0.064215,-0.006830,-0.209316,-0.000000,-0.000000,0.000000,-0.000000,-0.000000,-0.000000,-0.481487,-0.569524,0.302976,-0.000344,0.999874,0.011174,0.011266
2.400000,-2.059490,-1.835143,-1.958903,-0.948668,1.580138,-0.489520,-0.209440,-0.049322,0.111431,-0.064215,-0.006830,-0.209316,-0.000000,-0.000000,0.000000,-0.000000,-0.000000,-0.000000,-0.495753,-0.563744,0.304983,-0.000342,0.999874,0.011189,0.011246
2.500000,-2.080434,-1.840075,-1.947760,-0.955089,1.579455,-0.510451,-0.209440,-0.049322,0.111431,-0.064215,-0.006830,-0.209316,-0.000000,-0.000000,0.000000,-0.000000,-0.000000,-0.000000,-0.509977,-0.557595,0.306988,-0.000341,0.999874,0.011210,0.011231
2.600000,-2.101378,-1.845007,-1.936617,-0.961511,1.578772,-0.531383,-0.209440,-0.049322,0.111431,-0.064215,-0.006830,-0.209316,-0.000000,-0.000000,0.000000,-0.000000,-0.000000,-0.000000,-0.524149,-0.551078,0.308992,-0.000339,0.999874,0.011236,0.011222
2.700000,-2.122322,-1.849939,-1.925473,-0.967932,1.578089,-0.552315,-0.209440,-0.049322,0.111431,-0.064215,-0.006830,-0.209316,-0.000000,-0.000000,0.000000,-0.000000,-0.000000,-0.000000,-0.538259,-0.544191,0.310996,-0.000338,0.999874,0.011268,0.011220
2.800000,-2.143266,-1.854871,-1.914330,-0.974354,1.577406,-0.573246,-0.209440,-0.049322,0.111431,-0.064215,-0.006830,-0.209316,-0.000000,-0.000000,0.000000,-0.000000,-0.000000,-0.000000,-0.552297,-0.536934,0.312998,-0.000337,0.999873,0.011304,0.011223
2.900000,-2.164210,-1.859803,-1.903187,-0.980775,1.576723,-0.594178,-0.209440,-0.049322,0.111431,-0.064215,-0.006830,-0.209316,-0.000000,-0.000000,0.000000,-0.000000,-0.000000,-0.000000,-0.566254,-0.529309,0.314999,-0.000336,0.999872,0.011345,0.011233
3.000000,-2.185154,-1.864736,-1.892044,-0.987197,1.576040,-0.615109,-0.209440,-0.049322,0.111431,-0.064215,-0.006830,-0.209316,-0.000000,-0.000000,0.000000,-0.000000,-0.000000,-0.000000,-0.580120,-0.521314,0.316998,-0.000335,0.999872,0.011390,0.011250
3.100000,-2.206098,-1.869668,-1.880901,-0.993618,1.575357,-0.636041,-0.209440,-0.049322,0.111431,-0.064215,-0.006830,-0.209316,-0.000000,-0.000000,0.000000,-0.000000,-0.000000,-0.000000,-0.593885,-0.512951,0.318996,-0.000334,0.999871,0.011439,0.011274
3.200000,-2.227041,-1.874600,-1.869758,-1.000040,1.574674,-0.656973,-0.209440,-0.049322,0.111431,-0.064215,-0.006830,-0.209316,-0.000000,-0.000000,0.000000,-0.000000,-0.000000,-0.000000,-0.607539,-0.504220,0.320992,-0.000333,0.999870,0.011493,0.011305
3.300000,-2.247985,-1.879532,-1.858615,-1.006461,1.573991,-0.677904,-0.209440,-0.049322,0.111431,-0.064215,-0.006830,-0.209316,-0.000000,-0.000000,0.000000,-0.000000,-0.000000,-0.000000,-0.621072,-0.495123,0.322987,-0.000332,0.999869,0.011550,0.011343
3.400000,-2.268929,-1.884464,-1.847472,-1.012883,1.573308,-0.698836,-0.209440,-0.049322,0.111431,-0.064215,-0.006830,-0.209316,-0.000000,-0.000000,0.000000,-0.000000,-0.000000,-0.000000,-0.634475,-0.485662,0.324980,-0.000331,0.999868,0.011610,0.011388
3.500000,-2.289873,-1.889397,-1.836328,-1.019305,1.572625,-0.719767,-0.209440,-0.049322,0.111431,-0.064215,-0.006830,-0.209316,-0.000000,-0.000000,0.000000,-0.000000,-0.000000,-0.000000,-0.647737,-0.475837,0.326971,-0.000330,0.999866,0.011673,0.011441
3.600000,-2.310817,-1.894329,-1.825185,-1.025726,1.571942,-0.740699,-0.209440,-0.049322,0.111431,-0.064215,-0.006830,-0.209316,-0.000000,-0.000000,0.000000,-0.000000,-0.000000,-0.000000,-0.660849,-0.465652,0.328960,-0.000330,0.999865,0.011739,0.011502
3.700000,-2.331761,-1.899261,-1.814042,-1.032148,1.571259,-0.761631,-0.209440,-0.049322,0.111431,-0.064215,-0.006830,-0.209316,-0.000000,-0.000000,0.000000,-0.000000,-0.000000,-0.000000,-0.673802,-0.455107,0.330947,-0.000329,0.999863,0.011807,0.011571
3.800000,-2.352705,-1.904193,-1.802899,-1.038569,1.570576,-0.782562,-0.209440,-0.049322,0.111431,-0.064215,-0.006830,-0.209316,-0.000000,-0.000000,0.000000,-0.000000,-0.000000,-0.000000,-0.686584,-0.444207,0.332932,-0.000329,0.999862,0.011878,0.011647
3.900000,-2.373649,-1.909125,-1.791756,-1.044991,1.569893,-0.803494,-0.209440,-0.049322,0.111431,-0.064215,-0.006830,-0.209316,-0.000000,-0.000000,0.000000,-0.000000,-0.000000,-0.000000,-0.699187,-0.432953,0.334915,-0.000328,0.999860,0.011950,0.011732
4.000000,-2.394593,-1.914058,-1.780613,-1.051412,1.569210,-0.824426,-0.209440,-0.049322,0.111431,-0.064215,-0.006830,-0.209316,-0.000000,-0.000000,0.000000,-0.000000,-0.000000,-0.000000,-0.711602,-0.421348,0.336895,-0.000328,0.999858,0.012024,0.011825
4.100000,-2.415537,-1.918990,-1.769470,-1.057834,1.568526,-0.845357,-0.209440,-0.049322,0.111431,-0.064215,-0.006830,-0.209316,0.000000,0.000000,-0.000000,0.000000,0.000000,0.000000,-0.723817,-0.409396,0.338873,-0.000327,0.999856,0.012099,0.011926
4.200000,-2.436481,-1.923922,-1.758326,-1.064255,1.567843,-0.866289,-0.209440,-0.049322,0.111431,-0.064215,-0.006830,-0.209316,0.000000,0.000000,-0.000000,0.000000,0.000000,0.000000,-0.735824,-0.397100,0.340849,-0.000327,0.999853,0.012175,0.012036
4.300000,-2.457425,-1.928854,-1.747183,-1.070677,1.567160,-0.887220,-0.209440,-0.049322,0.111431,-0.064215,-0.006830,-0.209316,0.000000,0.000000,-0.000000,0.000000,0.000000,0.000000,-0.747614,-0.384465,0.342822,-0.000327,0.999851,0.012252,0.012154
4.400000,-2.478239,-1.933756,-1.736109,-1.077058,1.566482,-0.908022,-0.198000,-0.046628,0.105345,-0.060708,-0.006457,-0.197883,0.500000,0.117747,-0.266023,0.153303,0.016306,0.499706,-0.759105,-0.371575,0.344780,-0.000327,0.999849,0.012328,0.012280
4.500000,-2.495542,-1.937831,-1.726903,-1.082364,1.565917,-0.925315,-0.148000,-0.034853,0.078743,-0.045378,-0.004827,-0.147913,0.500000,0.117747,-0.266023,0.153303,0.016306,0.499706,-0.768481,-0.360610,0.346406,-0.000327,0.999846,0.012391,0.012391
4.600000,-2.507846,-1.940728,-1.720357,-1.086136,1.565516,-0.937612,-0.098000,-0.023078,0.052140,-0.030047,-0.003196,-0.097942,0.500000,0.117747,-0.266023,0.153303,0.016306,0.499706,-0.775046,-0.352677,0.347561,-0.000327,0.999845,0.012436,0.012474
4.700000,-2.515149,-1.942448,-1.716471,-1.088375,1.565278,-0.944911,-0.048000,-0.011304,0.025538,-0.014717,-0.001565,-0.047972,0.500000,0.117747,-0.266023,0.153303,0.016306,0.499706,-0.778903,-0.347915,0.348246,-0.000327,0.999844,0.012463,0.012524
4.796070,-2.517457,-1.942991,-1.715244,-1.089083,1.565203,-0.947217,0.000000,0.000000,-0.000000,0.000000,0.000000,0.000000,0.500000,0.117747,-0.266023,0.153303,0.016306,0.499706,-0.780115,-0.346402,0.348462,-0.000327,0.999844,0.012471,0.012540
