mathias31415/motion_primitives_from_planned_trajectory/data/trajectory_20250701_085217_planned.csv
time_from_start,shoulder_pan_joint_pos,shoulder_lift_joint_pos,elbow_joint_pos,wrist_1_joint_pos,wrist_2_joint_pos,wrist_3_joint_pos,shoulder_pan_joint_vel,shoulder_lift_joint_vel,elbow_joint_vel,wrist_1_joint_vel,wrist_2_joint_vel,wrist_3_joint_vel,shoulder_pan_joint_acc,shoulder_lift_joint_acc,elbow_joint_acc,wrist_1_joint_acc,wrist_2_joint_acc,wrist_3_joint_acc,pose_x,pose_y,pose_z,pose_qx,pose_qy,pose_qz,pose_qw
0.000000,-2.007661,-1.821519,-1.195870,-1.728311,1.583009,-0.437827,-0.000320,0.000098,0.000290,-0.000082,-0.000037,0.000500,-0.320347,0.097563,0.289821,-0.081505,-0.037283,0.500000,-0.509820,-0.683555,0.724581,-0.000379,0.999843,0.012501,0.012585
0.100000,-2.009263,-1.821031,-1.194421,-1.728719,1.582823,-0.435327,-0.032035,0.009756,0.028982,-0.008151,-0.003728,0.050000,-0.320347,0.097563,0.289821,-0.081505,-0.037283,0.500000,-0.510831,-0.682508,0.725931,0.001665,0.999854,0.011853,0.012171
0.200000,-2.014068,-1.819568,-1.190074,-1.729941,1.582263,-0.427827,-0.064069,0.019513,0.057964,-0.016301,-0.007457,0.100000,-0.320347,0.097563,0.289821,-0.081505,-0.037283,0.500000,-0.513843,-0.679344,0.729979,0.007799,0.999861,0.009908,0.010934
0.300000,-2.022077,-1.817129,-1.182828,-1.731979,1.581331,-0.415327,-0.096104,0.029269,0.086946,-0.024452,-0.011185,0.150000,-0.320347,0.097563,0.289821,-0.081505,-0.037283,0.500000,-0.518802,-0.673997,0.736722,0.018026,0.999776,0.006658,0.008884
0.400000,-2.033289,-1.813714,-1.172684,-1.734831,1.580026,-0.397827,-0.128139,0.039025,0.115929,-0.032602,-0.014913,0.200000,-0.320347,0.097563,0.289821,-0.081505,-0.037283,0.500000,-0.525610,-0.666361,0.746157,0.032347,0.999456,0.002093,0.006038
0.500000,-2.047704,-1.809324,-1.159642,-1.738499,1.578349,-0.375327,-0.160174,0.048781,0.144911,-0.040753,-0.018642,0.250000,-0.320347,0.097563,0.289821,-0.081505,-0.037283,0.500000,-0.534127,-0.656288,0.758273,0.050759,0.998701,-0.003803,0.002421
0.600000,-2.065323,-1.803958,-1.143702,-1.742982,1.576298,-0.347827,-0.192208,0.058538,0.173893,-0.048903,-0.022370,0.300000,-0.320347,0.097563,0.289821,-0.081505,-0.037283,0.500000,-0.544165,-0.643597,0.773055,0.073250,0.997251,-0.011048,-0.001935
0.700000,-2.085323,-1.797867,-1.125608,-1.748070,1.573970,-0.316612,-0.201280,0.061300,0.182100,-0.051211,-0.023426,0.314159,0.000000,-0.000000,-0.000000,0.000000,0.000000,-0.000000,-0.555043,-0.628702,0.789792,0.098743,0.994902,-0.019323,-0.006792
0.800000,-2.105451,-1.791737,-1.107398,-1.753192,1.571628,-0.285196,-0.201280,0.061300,0.182100,-0.051211,-0.023426,0.314159,0.000000,-0.000000,-0.000000,0.000000,0.000000,-0.000000,-0.565415,-0.613206,0.806584,0.124338,0.991785,-0.027705,-0.011586
0.900000,-2.125579,-1.785607,-1.089188,-1.758313,1.569285,-0.253780,-0.201280,0.061300,0.182100,-0.051211,-0.023426,0.314159,0.000000,-0.000000,-0.000000,0.000000,0.000000,-0.000000,-0.575190,-0.597226,0.823312,0.149846,0.987915,-0.036138,-0.016283
1.000000,-2.145707,-1.779477,-1.070978,-1.763434,1.566943,-0.222364,-0.201280,0.061300,0.182100,-0.051211,-0.023426,0.314159,-0.000000,0.000000,0.000000,-0.000000,-0.000000,0.000000,-0.584345,-0.580784,0.839968,0.175242,0.983292,-0.044623,-0.020883
1.100000,-2.165835,-1.773347,-1.052768,-1.768555,1.564600,-0.190948,-0.201280,0.061300,0.182100,-0.051211,-0.023426,0.314159,0.000000,-0.000000,-0.000000,0.000000,0.000000,-0.000000,-0.592861,-0.563905,0.856544,0.200504,0.977920,-0.053156,-0.025384
1.200000,-2.185963,-1.767217,-1.034558,-1.773676,1.562257,-0.159532,-0.201280,0.061300,0.182100,-0.051211,-0.023426,0.314159,0.000000,-0.000000,-0.000000,0.000000,0.000000,-0.000000,-0.600718,-0.546614,0.873031,0.225605,0.971804,-0.061737,-0.029787
1.300000,-2.206091,-1.761087,-1.016348,-1.778797,1.559915,-0.128116,-0.201280,0.061300,0.182100,-0.051211,-0.023426,0.314159,0.000000,-0.000000,-0.000000,0.000000,0.000000,-0.000000,-0.607900,-0.528936,0.889419,0.250523,0.964948,-0.070364,-0.034088
1.400000,-2.226219,-1.754957,-0.998138,-1.783918,1.557572,-0.096700,-0.201280,0.061300,0.182100,-0.051211,-0.023426,0.314159,0.000000,-0.000000,-0.000000,0.000000,0.000000,-0.000000,-0.614388,-0.510898,0.905701,0.275233,0.957358,-0.079035,-0.038289
1.500000,-2.246347,-1.748827,-0.979928,-1.789040,1.555230,-0.065284,-0.201280,0.061300,0.182100,-0.051211,-0.023426,0.314159,-0.000000,0.000000,0.000000,-0.000000,-0.000000,0.000000,-0.620167,-0.492528,0.921867,0.299711,0.949040,-0.087748,-0.042387
1.600000,-2.266475,-1.742697,-0.961718,-1.794161,1.552887,-0.033868,-0.201280,0.061300,0.182100,-0.051211,-0.023426,0.314159,-0.000000,0.000000,0.000000,-0.000000,-0.000000,0.000000,-0.625223,-0.473854,0.937908,0.323935,0.940001,-0.096503,-0.046381
1.700000,-2.286603,-1.736566,-0.943508,-1.799282,1.550545,-0.002452,-0.201280,0.061300,0.182100,-0.051211,-0.023426,0.314159,-0.000000,0.000000,0.000000,-0.000000,-0.000000,0.000000,-0.629542,-0.454903,0.953817,0.347880,0.930250,-0.105296,-0.050272
1.800000,-2.306731,-1.730436,-0.925298,-1.804403,1.548202,0.028964,-0.201280,0.061300,0.182100,-0.051211,-0.023426,0.314159,-0.000000,0.000000,0.000000,-0.000000,-0.000000,0.000000,-0.633111,-0.435707,0.969584,0.371524,0.919795,-0.114127,-0.054057
1.900000,-2.326859,-1.724306,-0.907088,-1.809524,1.545859,0.060380,-0.201280,0.061300,0.182100,-0.051211,-0.023426,0.314159,-0.000000,0.000000,0.000000,-0.000000,-0.000000,0.000000,-0.635920,-0.416293,0.985202,0.394844,0.908646,-0.122994,-0.057736
2.000000,-2.346987,-1.718176,-0.888878,-1.814645,1.543517,0.091795,-0.201280,0.061300,0.182100,-0.051211,-0.023426,0.314159,0.000000,-0.000000,-0.000000,0.000000,0.000000,-0.000000,-0.637959,-0.396694,1.000662,0.417817,0.896813,-0.131895,-0.061309
2.100000,-2.367115,-1.712046,-0.870668,-1.819766,1.541174,0.123211,-0.201280,0.061300,0.182100,-0.051211,-0.023426,0.314159,-0.000000,0.000000,0.000000,-0.000000,-0.000000,0.000000,-0.639219,-0.376939,1.015956,0.440421,0.884308,-0.140828,-0.064773
2.200000,-2.387243,-1.705916,-0.852458,-1.824888,1.538832,0.154627,-0.201280,0.061300,0.182100,-0.051211,-0.023426,0.314159,-0.000000,0.000000,0.000000,-0.000000,-0.000000,0.000000,-0.639692,-0.357060,1.031075,0.462635,0.871143,-0.149792,-0.068130
2.300000,-2.407371,-1.699786,-0.834248,-1.830009,1.536489,0.186043,-0.201280,0.061300,0.182100,-0.051211,-0.023426,0.314159,-0.000000,0.000000,0.000000,-0.000000,-0.000000,0.000000,-0.639373,-0.337088,1.046012,0.484437,0.857329,-0.158785,-0.071377
2.400000,-2.427499,-1.693656,-0.816038,-1.835130,1.534146,0.217459,-0.201280,0.061300,0.182100,-0.051211,-0.023426,0.314159,-0.000000,0.000000,0.000000,-0.000000,-0.000000,0.000000,-0.638257,-0.317056,1.060759,0.505807,0.842881,-0.167804,-0.074515
2.500000,-2.446757,-1.687791,-0.798615,-1.840030,1.531905,0.247517,-0.177591,0.054086,0.160669,-0.045184,-0.020669,0.277185,0.320347,-0.097563,-0.289821,0.081505,0.037283,-0.500000,-0.636440,-0.297862,1.074683,0.525829,0.828477,-0.176458,-0.077413
2.600000,-2.462923,-1.682868,-0.783990,-1.844143,1.530024,0.272749,-0.145556,0.044330,0.131686,-0.037034,-0.016940,0.227185,0.320347,-0.097563,-0.289821,0.081505,0.037283,-0.500000,-0.634348,-0.281750,1.086226,0.542302,0.815957,-0.183739,-0.079767
2.700000,-2.475879,-1.678917,-0.772261,-1.847436,1.528514,0.293012,-0.111987,0.035375,0.103084,-0.027718,-0.013424,0.184718,0.499858,-0.009123,-0.252760,0.214523,0.014144,0.339541,-0.632292,-0.268845,1.095387,0.555294,0.805632,-0.189594,-0.081601
2.800000,-2.484591,-1.675456,-0.763254,-1.849159,1.527252,0.312929,-0.061996,0.033538,0.076518,-0.006828,-0.011725,0.211443,0.499938,-0.026944,-0.277637,0.203681,0.019629,0.200174,-0.629897,-0.259506,1.102769,0.566318,0.796536,-0.194888,-0.082658
2.900000,-2.488303,-1.672263,-0.757021,-1.848845,1.526185,0.334857,-0.012000,0.030033,0.047623,0.013046,-0.009513,0.225121,0.499989,-0.042818,-0.299787,0.194015,0.024514,0.076011,-0.627037,-0.254086,1.108603,0.576045,0.788233,-0.200043,-0.082722
3.000000,-2.487016,-1.669499,-0.753786,-1.846592,1.525364,0.357544,0.037999,0.024969,0.016554,0.031970,-0.006821,0.226601,0.499965,-0.058356,-0.321432,0.184521,0.029294,-0.045578,-0.624002,-0.252694,1.112668,0.584052,0.781189,-0.204784,-0.081794
3.100000,-2.480729,-1.667319,-0.753767,-1.842493,1.524836,0.379765,0.087992,0.018310,-0.016736,0.049919,-0.003638,0.215598,0.499903,-0.074978,-0.344570,0.174349,0.034407,-0.175684,-0.621001,-0.255446,1.114742,0.589938,0.775873,-0.208827,-0.079904
3.200000,-2.469605,-1.665904,-0.757137,-1.836731,1.524653,0.399982,0.130528,0.009395,-0.049588,0.063206,0.000070,0.180811,0.302736,-0.095672,-0.278728,0.074905,0.036302,-0.499682,-0.618191,-0.262367,1.114590,0.593252,0.772805,-0.211831,-0.077156
3.300000,-2.455239,-1.665416,-0.763356,-1.830108,1.524828,0.415610,0.155696,0.000364,-0.074262,0.068776,0.003419,0.130838,0.210374,-0.085975,-0.220858,0.040156,0.031224,-0.499740,-0.615814,-0.272439,1.112287,0.593672,0.772358,-0.213408,-0.073987
3.400000,-2.438696,-1.665796,-0.771829,-1.823056,1.525320,0.426240,0.175687,-0.008122,-0.095690,0.072399,0.006484,0.080877,0.227457,-0.087716,-0.231489,0.046615,0.032147,-0.499321,-0.613803,-0.284850,1.108134,0.591451,0.774320,-0.213591,-0.070659
3.500000,-2.419390,-1.666989,-0.782763,-1.815284,1.526125,0.432778,0.209440,-0.013871,-0.119911,0.083752,0.009018,0.063647,-0.000000,0.000000,0.000000,-0.000000,-0.000000,-0.000000,-0.611845,-0.299991,1.102060,0.586681,0.778559,-0.212490,-0.067083
3.600000,-2.398446,-1.668376,-0.794754,-1.806908,1.527027,0.439142,0.209440,-0.013871,-0.119911,0.083752,0.009018,0.063647,-0.000000,0.000000,0.000000,-0.000000,-0.000000,-0.000000,-0.609347,-0.316482,1.095261,0.581198,0.783358,-0.211078,-0.063285
3.700000,-2.377503,-1.669763,-0.806745,-1.798533,1.527929,0.445507,0.209440,-0.013871,-0.119911,0.083752,0.009018,0.063647,-0.000000,0.000000,0.000000,-0.000000,-0.000000,-0.000000,-0.606365,-0.332941,1.088398,0.575675,0.788112,-0.209600,-0.059538
3.800000,-2.356559,-1.671150,-0.818736,-1.790158,1.528831,0.451872,0.209440,-0.013871,-0.119911,0.083752,0.009018,0.063647,-0.000000,0.000000,0.000000,-0.000000,-0.000000,-0.000000,-0.602899,-0.349352,1.081472,0.570112,0.792821,-0.208059,-0.055843
3.900000,-2.335615,-1.672537,-0.830727,-1.781783,1.529732,0.458236,0.209440,-0.013871,-0.119911,0.083752,0.009018,0.063647,-0.000000,0.000000,0.000000,-0.000000,-0.000000,-0.000000,-0.598950,-0.365700,1.074485,0.564509,0.797484,-0.206455,-0.052200
4.000000,-2.314671,-1.673924,-0.842718,-1.773408,1.530634,0.464601,0.209440,-0.013871,-0.119911,0.083752,0.009018,0.063647,0.000000,-0.000000,-0.000000,0.000000,0.000000,0.000000,-0.594522,-0.381971,1.067437,0.558866,0.802102,-0.204789,-0.048610
4.100000,-2.293727,-1.675311,-0.854709,-1.765032,1.531536,0.470966,0.209440,-0.013871,-0.119911,0.083752,0.009018,0.063647,0.000000,-0.000000,-0.000000,0.000000,0.000000,0.000000,-0.589616,-0.398151,1.060329,0.553184,0.806673,-0.203063,-0.045075
4.200000,-2.272783,-1.676698,-0.866701,-1.756657,1.532438,0.477330,0.209440,-0.013871,-0.119911,0.083752,0.009018,0.063647,0.000000,-0.000000,-0.000000,0.000000,0.000000,0.000000,-0.584234,-0.414223,1.053163,0.547464,0.811197,-0.201277,-0.041596
4.300000,-2.251839,-1.678085,-0.878692,-1.748282,1.533340,0.483695,0.209440,-0.013871,-0.119911,0.083752,0.009018,0.063647,0.000000,-0.000000,-0.000000,0.000000,0.000000,0.000000,-0.578381,-0.430174,1.045939,0.541705,0.815674,-0.199434,-0.038173
4.400000,-2.230895,-1.679472,-0.890683,-1.739907,1.534241,0.490060,0.209440,-0.013871,-0.119911,0.083752,0.009018,0.063647,0.000000,-0.000000,-0.000000,0.000000,0.000000,0.000000,-0.572060,-0.445990,1.038660,0.535909,0.820104,-0.197534,-0.034808
4.500000,-2.209951,-1.680859,-0.902674,-1.731532,1.535143,0.496424,0.209440,-0.013871,-0.119911,0.083752,0.009018,0.063647,0.000000,-0.000000,-0.000000,0.000000,0.000000,0.000000,-0.565275,-0.461655,1.031325,0.530075,0.824486,-0.195578,-0.031501
4.600000,-2.189007,-1.682246,-0.914665,-1.723157,1.536045,0.502789,0.209440,-0.013871,-0.119911,0.083752,0.009018,0.063647,0.000000,-0.000000,-0.000000,0.000000,0.000000,0.000000,-0.558031,-0.477156,1.023937,0.524204,0.828820,-0.193568,-0.028253
4.700000,-2.168063,-1.683634,-0.926656,-1.714781,1.536947,0.509154,0.209440,-0.013871,-0.119911,0.083752,0.009018,0.063647,0.000000,-0.000000,-0.000000,0.000000,0.000000,0.000000,-0.550333,-0.492479,1.016497,0.518297,0.833106,-0.191505,-0.025066
4.800000,-2.147119,-1.685021,-0.938647,-1.706406,1.537849,0.515518,0.209440,-0.013871,-0.119911,0.083752,0.009018,0.063647,0.000000,-0.000000,-0.000000,0.000000,0.000000,0.000000,-0.542187,-0.507610,1.009005,0.512353,0.837343,-0.189390,-0.021940
4.900000,-2.126175,-1.686408,-0.950639,-1.698031,1.538750,0.521883,0.209440,-0.013871,-0.119911,0.083752,0.009018,0.063647,0.000000,-0.000000,-0.000000,0.000000,0.000000,0.000000,-0.533598,-0.522535,1.001462,0.506374,0.841532,-0.187225,-0.018876
5.000000,-2.105231,-1.687795,-0.962630,-1.689656,1.539652,0.528247,0.209440,-0.013871,-0.119911,0.083752,0.009018,0.063647,0.000000,-0.000000,-0.000000,0.000000,0.000000,0.000000,-0.524574,-0.537240,0.993871,0.500360,0.845671,-0.185010,-0.015875
5.100000,-2.084287,-1.689182,-0.974621,-1.681281,1.540554,0.534612,0.209440,-0.013871,-0.119911,0.083752,0.009018,0.063647,0.000000,-0.000000,-0.000000,0.000000,0.000000,0.000000,-0.515120,-0.551714,0.986233,0.494312,0.849760,-0.182748,-0.012937
5.200000,-2.063343,-1.690569,-0.986612,-1.672906,1.541456,0.540977,0.209440,-0.013871,-0.119911,0.083752,0.009018,0.063647,0.000000,-0.000000,-0.000000,0.000000,0.000000,0.000000,-0.505244,-0.565941,0.978547,0.488229,0.853799,-0.180439,-0.010064
5.300000,-2.042399,-1.691956,-0.998603,-1.664530,1.542357,0.547341,0.209440,-0.013871,-0.119911,0.083752,0.009018,0.063647,0.000000,-0.000000,-0.000000,0.000000,0.000000,0.000000,-0.494955,-0.579911,0.970817,0.482112,0.857789,-0.178085,-0.007256
5.400000,-2.021455,-1.693343,-1.010594,-1.656155,1.543259,0.553706,0.209440,-0.013871,-0.119911,0.083752,0.009018,0.063647,0.000000,-0.000000,-0.000000,0.000000,0.000000,0.000000,-0.484259,-0.593609,0.963042,0.475961,0.861727,-0.175688,-0.004513
5.500000,-2.000511,-1.694730,-1.022585,-1.647780,1.544161,0.560071,0.209440,-0.013871,-0.119911,0.083752,0.009018,0.063647,0.000000,-0.000000,-0.000000,0.000000,0.000000,0.000000,-0.473166,-0.607025,0.955225,0.469778,0.865616,-0.173248,-0.001837
5.600000,-1.979567,-1.696117,-1.034576,-1.639405,1.545063,0.566435,0.209440,-0.013871,-0.119911,0.083752,0.009018,0.063647,0.000000,-0.000000,-0.000000,0.000000,0.000000,0.000000,-0.461684,-0.620145,0.947366,0.463563,0.869453,-0.170766,0.000772
5.700000,-1.958624,-1.697504,-1.046568,-1.631030,1.545965,0.572800,0.209440,-0.013871,-0.119911,0.083752,0.009018,0.063647,0.000000,-0.000000,-0.000000,0.000000,0.000000,0.000000,-0.449822,-0.632959,0.939467,0.457315,0.873238,-0.168246,0.003313
5.800000,-1.937680,-1.698891,-1.058559,-1.622655,1.546866,0.579165,0.209440,-0.013871,-0.119911,0.083752,0.009018,0.063647,0.000000,-0.000000,-0.000000,0.000000,0.000000,0.000000,-0.437590,-0.645455,0.931529,0.451036,0.876973,-0.165686,0.005786
5.900000,-1.916736,-1.700278,-1.070550,-1.614279,1.547768,0.585529,0.209440,-0.013871,-0.119911,0.083752,0.009018,0.063647,0.000000,-0.000000,-0.000000,0.000000,0.000000,0.000000,-0.424999,-0.657622,0.923553,0.444726,0.880655,-0.163091,0.008189
6.000000,-1.895792,-1.701666,-1.082541,-1.605904,1.548670,0.591894,0.209440,-0.013871,-0.119911,0.083752,0.009018,0.063647,0.000000,-0.000000,-0.000000,0.000000,0.000000,0.000000,-0.412057,-0.669449,0.915542,0.438386,0.884285,-0.160459,0.010524
6.100000,-1.874848,-1.703053,-1.094532,-1.597529,1.549572,0.598259,0.209440,-0.013871,-0.119911,0.083752,0.009018,0.063647,0.000000,-0.000000,-0.000000,0.000000,0.000000,0.000000,-0.398776,-0.680926,0.907495,0.432015,0.887863,-0.157794,0.012788
6.200000,-1.853904,-1.704440,-1.106523,-1.589154,1.550474,0.604623,0.209440,-0.013871,-0.119911,0.083752,0.009018,0.063647,0.000000,-0.000000,-0.000000,0.000000,0.000000,0.000000,-0.385167,-0.692043,0.899414,0.425615,0.891388,-0.155096,0.014981
6.300000,-1.832960,-1.705827,-1.118514,-1.580779,1.551375,0.610988,0.209440,-0.013871,-0.119911,0.083752,0.009018,0.063647,0.000000,-0.000000,-0.000000,0.000000,0.000000,0.000000,-0.371241,-0.702789,0.891301,0.419185,0.894861,-0.152367,0.017104
6.400000,-1.812016,-1.707214,-1.130505,-1.572404,1.552277,0.617353,0.209440,-0.013871,-0.119911,0.083752,0.009018,0.063647,0.000000,-0.000000,-0.000000,0.000000,0.000000,0.000000,-0.357009,-0.713157,0.883156,0.412727,0.898280,-0.149609,0.019155
6.500000,-1.791072,-1.708601,-1.142497,-1.564028,1.553179,0.623717,0.209440,-0.013871,-0.119911,0.083752,0.009018,0.063647,0.000000,-0.000000,-0.000000,0.000000,0.000000,0.000000,-0.342483,-0.723136,0.874982,0.406241,0.901646,-0.146822,0.021134
6.600000,-1.770128,-1.709988,-1.154488,-1.555653,1.554081,0.630082,0.209440,-0.013871,-0.119911,0.083752,0.009018,0.063647,0.000000,-0.000000,-0.000000,0.000000,0.000000,0.000000,-0.327675,-0.732719,0.866780,0.399727,0.904958,-0.144008,0.023040
6.700000,-1.749184,-1.711375,-1.166479,-1.547278,1.554982,0.636447,0.209440,-0.013871,-0.119911,0.083752,0.009018,0.063647,0.000000,-0.000000,-0.000000,0.000000,0.000000,0.000000,-0.312598,-0.741897,0.858550,0.393186,0.908216,-0.141170,0.024874
6.800000,-1.728240,-1.712762,-1.178470,-1.538903,1.555884,0.642811,0.209440,-0.013871,-0.119911,0.083752,0.009018,0.063647,0.000000,-0.000000,-0.000000,0.000000,0.000000,0.000000,-0.297264,-0.750663,0.850295,0.386618,0.911421,-0.138307,0.026635
6.900000,-1.707296,-1.714149,-1.190461,-1.530528,1.556786,0.649176,0.209440,-0.013871,-0.119911,0.083752,0.009018,0.063647,0.000000,-0.000000,-0.000000,0.000000,0.000000,0.000000,-0.281686,-0.759008,0.842015,0.380024,0.914571,-0.135422,0.028323
7.000000,-1.686352,-1.715536,-1.202452,-1.522153,1.557688,0.655541,0.209440,-0.013871,-0.119911,0.083752,0.009018,0.063647,0.000000,-0.000000,-0.000000,0.000000,0.000000,0.000000,-0.265877,-0.766926,0.833711,0.373404,0.917667,-0.132517,0.029936
7.100000,-1.665408,-1.716923,-1.214443,-1.513777,1.558590,0.661905,0.209440,-0.013871,-0.119911,0.083752,0.009018,0.063647,0.000000,-0.000000,-0.000000,0.000000,0.000000,0.000000,-0.249849,-0.774412,0.825387,0.366760,0.920708,-0.129592,0.031476
7.200000,-1.644464,-1.718310,-1.226434,-1.505402,1.559491,0.668270,0.209440,-0.013871,-0.119911,0.083752,0.009018,0.063647,0.000000,-0.000000,-0.000000,0.000000,0.000000,0.000000,-0.233617,-0.781457,0.817041,0.360090,0.923694,-0.126649,0.032942
7.300000,-1.623520,-1.719698,-1.238426,-1.497027,1.560393,0.674635,0.209440,-0.013871,-0.119911,0.083752,0.009018,0.063647,0.000000,-0.000000,-0.000000,0.000000,0.000000,0.000000,-0.217195,-0.788058,0.808677,0.353396,0.926625,-0.123690,0.034333
7.400000,-1.602576,-1.721085,-1.250417,-1.488652,1.561295,0.680999,0.209440,-0.013871,-0.119911,0.083752,0.009018,0.063647,0.000000,-0.000000,-0.000000,0.000000,0.000000,0.000000,-0.200594,-0.794208,0.800295,0.346678,0.929500,-0.120717,0.035650
7.500000,-1.581632,-1.722472,-1.262408,-1.480277,1.562197,0.687364,0.209440,-0.013871,-0.119911,0.083752,0.009018,0.063647,0.000000,-0.000000,-0.000000,0.000000,0.000000,0.000000,-0.183831,-0.799904,0.791897,0.339937,0.932320,-0.117729,0.036892
7.600000,-1.560688,-1.723859,-1.274399,-1.471902,1.563099,0.693729,0.209440,-0.013871,-0.119911,0.083752,0.009018,0.063647,0.000000,-0.000000,-0.000000,0.000000,0.000000,0.000000,-0.166918,-0.805140,0.783484,0.333173,0.935085,-0.114730,0.038059
7.700000,-1.539744,-1.725246,-1.286390,-1.463526,1.564000,0.700093,0.209440,-0.013871,-0.119911,0.083752,0.009018,0.063647,0.000000,-0.000000,-0.000000,0.000000,0.000000,0.000000,-0.149869,-0.809912,0.775057,0.326388,0.937794,-0.111721,0.039152
7.800000,-1.518801,-1.726633,-1.298381,-1.455151,1.564902,0.706458,0.209440,-0.013871,-0.119911,0.083752,0.009018,0.063647,0.000000,-0.000000,-0.000000,0.000000,0.000000,0.000000,-0.132699,-0.814218,0.766618,0.319580,0.940446,-0.108703,0.040169
7.900000,-1.497857,-1.728020,-1.310372,-1.446776,1.565804,0.712823,0.209440,-0.013871,-0.119911,0.083752,0.009018,0.063647,0.000000,-0.000000,-0.000000,0.000000,0.000000,0.000000,-0.115423,-0.818055,0.758168,0.312751,0.943042,-0.105678,0.041111
8.000000,-1.476913,-1.729407,-1.322363,-1.438401,1.566706,0.719187,0.209440,-0.013871,-0.119911,0.083752,0.009018,0.063647,0.000000,-0.000000,-0.000000,0.000000,0.000000,0.000000,-0.098054,-0.821419,0.749709,0.305901,0.945582,-0.102647,0.041978
8.100000,-1.455969,-1.730794,-1.334355,-1.430026,1.567607,0.725552,0.209440,-0.013871,-0.119911,0.083752,0.009018,0.063647,-0.000000,0.000000,0.000000,-0.000000,-0.000000,-0.000000,-0.080607,-0.824309,0.741242,0.299032,0.948066,-0.099611,0.042770
8.200000,-1.435025,-1.732181,-1.346346,-1.421651,1.568509,0.731917,0.209440,-0.013871,-0.119911,0.083752,0.009018,0.063647,-0.000000,0.000000,0.000000,-0.000000,-0.000000,-0.000000,-0.063096,-0.826724,0.732768,0.292142,0.950492,-0.096573,0.043487
8.300000,-1.414081,-1.733568,-1.358337,-1.413275,1.569411,0.738281,0.209440,-0.013871,-0.119911,0.083752,0.009018,0.063647,-0.000000,0.000000,0.000000,-0.000000,-0.000000,-0.000000,-0.045536,-0.828661,0.724288,0.285234,0.952862,-0.093534,0.044129
8.400000,-1.393137,-1.734955,-1.370328,-1.404900,1.570313,0.744646,0.209440,-0.013871,-0.119911,0.083752,0.009018,0.063647,-0.000000,0.000000,0.000000,-0.000000,-0.000000,-0.000000,-0.027942,-0.830122,0.715805,0.278306,0.955175,-0.090494,0.044697
8.500000,-1.372193,-1.736343,-1.382319,-1.396525,1.571215,0.751011,0.209440,-0.013871,-0.119911,0.083752,0.009018,0.063647,-0.000000,0.000000,0.000000,-0.000000,-0.000000,-0.000000,-0.010327,-0.831104,0.707319,0.271361,0.957430,-0.087457,0.045189
8.600000,-1.351249,-1.737730,-1.394310,-1.388150,1.572116,0.757375,0.209440,-0.013871,-0.119911,0.083752,0.009018,0.063647,-0.000000,0.000000,0.000000,-0.000000,-0.000000,-0.000000,0.007293,-0.831609,0.698832,0.264398,0.959628,-0.084422,0.045607
8.700000,-1.330305,-1.739117,-1.406301,-1.379775,1.573018,0.763740,0.209440,-0.013871,-0.119911,0.083752,0.009018,0.063647,-0.000000,0.000000,0.000000,-0.000000,-0.000000,-0.000000,0.024905,-0.831638,0.690346,0.257417,0.961769,-0.081393,0.045951
8.800000,-1.309361,-1.740504,-1.418293,-1.371400,1.573920,0.770105,0.209440,-0.013871,-0.119911,0.083752,0.009018,0.063647,-0.000000,0.000000,0.000000,-0.000000,-0.000000,-0.000000,0.042494,-0.831191,0.681861,0.250420,0.963852,-0.078369,0.046220
8.900000,-1.288417,-1.741891,-1.430284,-1.363024,1.574822,0.776469,0.209440,-0.013871,-0.119911,0.083752,0.009018,0.063647,-0.000000,0.000000,0.000000,-0.000000,-0.000000,-0.000000,0.060045,-0.830270,0.673379,0.243407,0.965878,-0.075354,0.046415
9.000000,-1.267473,-1.743278,-1.442275,-1.354649,1.575724,0.782834,0.209440,-0.013871,-0.119911,0.083752,0.009018,0.063647,-0.000000,0.000000,0.000000,-0.000000,-0.000000,-0.000000,0.077545,-0.828878,0.664901,0.236379,0.967846,-0.072347,0.046537
9.100000,-1.246529,-1.744665,-1.454266,-1.346274,1.576625,0.789199,0.209440,-0.013871,-0.119911,0.083752,0.009018,0.063647,-0.000000,0.000000,0.000000,-0.000000,-0.000000,-0.000000,0.094978,-0.827016,0.656429,0.229335,0.969755,-0.069351,0.046585
9.200000,-1.225585,-1.746052,-1.466257,-1.337899,1.577527,0.795563,0.209440,-0.013871,-0.119911,0.083752,0.009018,0.063647,-0.000000,0.000000,0.000000,-0.000000,-0.000000,-0.000000,0.112332,-0.824689,0.647965,0.222277,0.971607,-0.066367,0.046561
9.300000,-1.204641,-1.747439,-1.478248,-1.329524,1.578429,0.801928,0.209440,-0.013871,-0.119911,0.083752,0.009018,0.063647,-0.000000,0.000000,0.000000,-0.000000,-0.000000,-0.000000,0.129593,-0.821898,0.639509,0.215205,0.973401,-0.063396,0.046463
9.400000,-1.183697,-1.748826,-1.490239,-1.321149,1.579331,0.808292,0.209440,-0.013871,-0.119911,0.083752,0.009018,0.063647,-0.000000,0.000000,0.000000,-0.000000,-0.000000,-0.000000,0.146746,-0.818649,0.631062,0.208120,0.975136,-0.060441,0.046293
9.500000,-1.162753,-1.750213,-1.502230,-1.312773,1.580232,0.814657,0.209440,-0.013871,-0.119911,0.083752,0.009018,0.063647,-0.000000,0.000000,0.000000,-0.000000,-0.000000,-0.000000,0.163777,-0.814945,0.622628,0.201021,0.976813,-0.057502,0.046051
9.600000,-1.141809,-1.751600,-1.514222,-1.304398,1.581134,0.821022,0.209440,-0.013871,-0.119911,0.083752,0.009018,0.063647,-0.000000,0.000000,0.000000,-0.000000,-0.000000,-0.000000,0.180675,-0.810791,0.614206,0.193910,0.978431,-0.054581,0.045737
9.700000,-1.120865,-1.752987,-1.526213,-1.296023,1.582036,0.827386,0.209440,-0.013871,-0.119911,0.083752,0.009018,0.063647,-0.000000,0.000000,0.000000,-0.000000,-0.000000,-0.000000,0.197424,-0.806193,0.605797,0.186787,0.979991,-0.051679,0.045352
9.800000,-1.099922,-1.754375,-1.538204,-1.287648,1.582938,0.833751,0.209440,-0.013871,-0.119911,0.083752,0.009018,0.063647,-0.000000,0.000000,0.000000,-0.000000,-0.000000,-0.000000,0.214013,-0.801156,0.597405,0.179653,0.981493,-0.048797,0.044897
9.900000,-1.078978,-1.755762,-1.550195,-1.279273,1.583840,0.840116,0.209440,-0.013871,-0.119911,0.083752,0.009018,0.063647,-0.000000,0.000000,0.000000,-0.000000,-0.000000,-0.000000,0.230428,-0.795685,0.589029,0.172508,0.982935,-0.045938,0.044371
10.000000,-1.058034,-1.757149,-1.562186,-1.270898,1.584741,0.846480,0.209440,-0.013871,-0.119911,0.083752,0.009018,0.063647,-0.000000,0.000000,0.000000,-0.000000,-0.000000,-0.000000,0.246656,-0.789788,0.580672,0.165352,0.984319,-0.043103,0.043776
10.100000,-1.037090,-1.758536,-1.574177,-1.262522,1.585643,0.852845,0.209440,-0.013871,-0.119911,0.083752,0.009018,0.063647,-0.000000,0.000000,0.000000,-0.000000,-0.000000,-0.000000,0.262686,-0.783470,0.572333,0.158187,0.985644,-0.040292,0.043112
10.200000,-1.016146,-1.759923,-1.586168,-1.254147,1.586545,0.859210,0.209440,-0.013871,-0.119911,0.083752,0.009018,0.063647,-0.000000,0.000000,0.000000,-0.000000,-0.000000,-0.000000,0.278505,-0.776740,0.564016,0.151012,0.986911,-0.037507,0.042379
10.300000,-0.995202,-1.761310,-1.598159,-1.245772,1.587447,0.865574,0.209440,-0.013871,-0.119911,0.083752,0.009018,0.063647,-0.000000,0.000000,0.000000,-0.000000,-0.000000,-0.000000,0.294101,-0.769604,0.555721,0.143829,0.988118,-0.034751,0.041578
10.400000,-0.974258,-1.762697,-1.610151,-1.237397,1.588349,0.871939,0.209440,-0.013871,-0.119911,0.083752,0.009018,0.063647,-0.000000,0.000000,0.000000,-0.000000,-0.000000,-0.000000,0.309462,-0.762071,0.547450,0.136637,0.989266,-0.032023,0.040710
10.500000,-0.953314,-1.764084,-1.622142,-1.229022,1.589250,0.878304,0.209440,-0.013871,-0.119911,0.083752,0.009018,0.063647,-0.000000,0.000000,0.000000,-0.000000,-0.000000,-0.000000,0.324577,-0.754148,0.539204,0.129438,0.990355,-0.029325,0.039775
10.600000,-0.932370,-1.765471,-1.634133,-1.220647,1.590152,0.884668,0.209440,-0.013871,-0.119911,0.083752,0.009018,0.063647,-0.000000,0.000000,0.000000,-0.000000,-0.000000,-0.000000,0.339436,-0.745844,0.530984,0.122232,0.991386,-0.026659,0.038774
10.700000,-0.911426,-1.766858,-1.646124,-1.212271,1.591054,0.891033,0.209440,-0.013871,-0.119911,0.083752,0.009018,0.063647,-0.000000,0.000000,0.000000,-0.000000,-0.000000,-0.000000,0.354027,-0.737169,0.522792,0.115019,0.992357,-0.024026,0.037708
10.800000,-0.890482,-1.768245,-1.658115,-1.203896,1.591956,0.897398,0.209440,-0.013871,-0.119911,0.083752,0.009018,0.063647,-0.000000,0.000000,0.000000,-0.000000,-0.000000,-0.000000,0.368339,-0.728131,0.514629,0.107800,0.993268,-0.021428,0.036577
10.900000,-0.869538,-1.769632,-1.670106,-1.195521,1.592857,0.903762,0.209440,-0.013871,-0.119911,0.083752,0.009018,0.063647,-0.000000,0.000000,0.000000,-0.000000,-0.000000,-0.000000,0.382363,-0.718740,0.506496,0.100575,0.994121,-0.018864,0.035383
11.000000,-0.848594,-1.771019,-1.682097,-1.187146,1.593759,0.910127,0.209440,-0.013871,-0.119911,0.083752,0.009018,0.063647,-0.000000,0.000000,0.000000,-0.000000,-0.000000,-0.000000,0.396089,-0.709005,0.498394,0.093345,0.994915,-0.016338,0.034125
11.100000,-0.827650,-1.772407,-1.694088,-1.178771,1.594661,0.916492,0.209440,-0.013871,-0.119911,0.083752,0.009018,0.063647,-0.000000,0.000000,0.000000,-0.000000,-0.000000,-0.000000,0.409507,-0.698938,0.490326,0.086110,0.995649,-0.013850,0.032805
11.200000,-0.806706,-1.773794,-1.706080,-1.170396,1.595563,0.922856,0.209440,-0.013871,-0.119911,0.083752,0.009018,0.063647,-0.000000,0.000000,0.000000,-0.000000,-0.000000,-0.000000,0.422609,-0.688547,0.482292,0.078872,0.996324,-0.011401,0.031424
11.300000,-0.785762,-1.775181,-1.718071,-1.162020,1.596465,0.929221,0.209440,-0.013871,-0.119911,0.083752,0.009018,0.063647,-0.000000,0.000000,0.000000,-0.000000,-0.000000,-0.000000,0.435385,-0.677845,0.474294,0.071630,0.996940,-0.008993,0.029982
11.400000,-0.764818,-1.776568,-1.730062,-1.153645,1.597366,0.935586,0.209440,-0.013871,-0.119911,0.083752,0.009018,0.063647,-0.000000,0.000000,0.000000,-0.000000,-0.000000,-0.000000,0.447827,-0.666841,0.466333,0.064385,0.997497,-0.006626,0.028481
11.500000,-0.743874,-1.777955,-1.742053,-1.145270,1.598268,0.941950,0.209440,-0.013871,-0.119911,0.083752,0.009018,0.063647,-0.000000,0.000000,0.000000,-0.000000,-0.000000,-0.000000,0.459927,-0.655548,0.458409,0.057138,0.997994,-0.004303,0.026920
11.600000,-0.722930,-1.779342,-1.754044,-1.136895,1.599170,0.948315,0.209440,-0.013871,-0.119911,0.083752,0.009018,0.063647,-0.000000,0.000000,0.000000,-0.000000,-0.000000,-0.000000,0.471677,-0.643975,0.450526,0.049889,0.998432,-0.002023,0.025302
11.700000,-0.701986,-1.780729,-1.766035,-1.128520,1.600072,0.954680,0.209440,-0.013871,-0.119911,0.083752,0.009018,0.063647,-0.000000,0.000000,0.000000,-0.000000,-0.000000,-0.000000,0.483071,-0.632136,0.442683,0.042638,0.998811,0.000211,0.023626
11.800000,-0.681042,-1.782116,-1.778026,-1.120145,1.600974,0.961044,0.209440,-0.013871,-0.119911,0.083752,0.009018,0.063647,-0.000000,0.000000,0.000000,-0.000000,-0.000000,-0.000000,0.494100,-0.620041,0.434882,0.035387,0.999131,0.002398,0.021895
11.900000,-0.660099,-1.783503,-1.790017,-1.111769,1.601875,0.967409,0.209440,-0.013871,-0.119911,0.083752,0.009018,0.063647,-0.000000,0.000000,0.000000,-0.000000,-0.000000,-0.000000,0.504760,-0.607704,0.427124,0.028135,0.999392,0.004538,0.020108
12.000000,-0.639155,-1.784890,-1.802009,-1.103394,1.602777,0.973774,0.209440,-0.013871,-0.119911,0.083752,0.009018,0.063647,-0.000000,0.000000,0.000000,-0.000000,-0.000000,-0.000000,0.515043,-0.595135,0.419411,0.020884,0.999593,0.006630,0.018268
12.100000,-0.618276,-1.786273,-1.813962,-1.095045,1.603676,0.980118,0.201000,-0.013312,-0.115079,0.080377,0.008654,0.061082,-0.500000,0.033114,0.286267,-0.199942,-0.021529,-0.151945,0.524914,-0.582387,0.411768,0.013656,0.999735,0.008665,0.016380
12.200000,-0.600642,-1.787441,-1.824058,-1.087994,1.604435,0.985477,0.151000,-0.010000,-0.086453,0.060383,0.006502,0.045887,-0.500000,0.033114,0.286267,-0.199942,-0.021529,-0.151945,0.532952,-0.571461,0.405349,0.007552,0.999809,0.010344,0.014745
12.300000,-0.588008,-1.788278,-1.831292,-1.082941,1.604979,0.989317,0.101000,-0.006689,-0.057826,0.040388,0.004349,0.030693,-0.500000,0.033114,0.286267,-0.199942,-0.021529,-0.151945,0.538540,-0.563546,0.400771,0.003179,0.999837,0.011525,0.013551
12.400000,-0.580373,-1.788783,-1.835663,-1.079889,1.605308,0.991637,0.051000,-0.003378,-0.029199,0.020394,0.002196,0.015498,-0.500000,0.033114,0.286267,-0.199942,-0.021529,-0.151945,0.541847,-0.558731,0.398013,0.000537,0.999843,0.012229,0.012821
12.500000,-0.577739,-1.788958,-1.837171,-1.078835,1.605421,0.992437,0.001000,-0.000066,-0.000573,0.000400,0.000043,0.000304,-0.500000,0.033114,0.286267,-0.199942,-0.021529,-0.151945,0.542976,-0.557063,0.397063,-0.000374,0.999843,0.012471,0.012568
12.502687,-0.577737,-1.788958,-1.837172,-1.078834,1.605422,0.992438,-0.000000,0.000000,0.000000,-0.000000,-0.000000,-0.000000,-0.500000,0.033114,0.286267,-0.199942,-0.021529,-0.151945,0.542977,-0.557062,0.397063,-0.000375,0.999843,0.012471,0.012568
