mathias31415/motion_primitives_from_planned_trajectory/data/trajectory_20250626_121340_executed.csv
timestamp,shoulder_lift_joint_pos,elbow_joint_pos,wrist_1_joint_pos,wrist_2_joint_pos,wrist_3_joint_pos,shoulder_pan_joint_pos,shoulder_lift_joint_vel,elbow_joint_vel,wrist_1_joint_vel,wrist_2_joint_vel,wrist_3_joint_vel,shoulder_pan_joint_vel,shoulder_lift_joint_eff,elbow_joint_eff,wrist_1_joint_eff,wrist_2_joint_eff,wrist_3_joint_eff,shoulder_pan_joint_eff
1750932842.977991581,-1.644703000,-1.896188000,-1.187753000,1.576227000,-0.315355000,-1.885113000,0.000000000,0.000000000,0.000000000,0.000000000,0.000000000,0.000000000,3.770654945,3.979479630,0.301393326,0.000448269,0.000000000,-0.000000000
1750932842.979592800,-1.644703000,-1.896188000,-1.187753000,1.576227000,-0.315355000,-1.885113000,0.000000000,0.000000000,0.000000000,0.000000000,0.000000000,0.000000000,3.770654945,3.979479630,0.301393326,0.000448269,0.000000000,-0.000000000
1750932842.981584311,-1.644703000,-1.896188000,-1.187753000,1.576227000,-0.315355000,-1.885113000,0.000000000,0.000000000,0.000000000,0.000000000,0.000000000,0.000000000,3.770654945,3.979479630,0.301393326,0.000448269,0.000000000,-0.000000000
1750932842.983549118,-1.644703000,-1.896188000,-1.187753000,1.576227000,-0.315355000,-1.885113000,0.000000000,0.000000000,0.000000000,0.000000000,0.000000000,0.000000000,3.770654945,3.979479630,0.301393326,0.000448269,0.000000000,-0.000000000
1750932842.985615730,-1.644703000,-1.896188000,-1.187753000,1.576227000,-0.315355000,-1.885113000,0.000000000,0.000000000,0.000000000,0.000000000,0.000000000,0.000000000,3.770654945,3.979479630,0.301393326,0.000448269,0.000000000,-0.000000000
1750932842.987985373,-1.644703000,-1.896188000,-1.187753000,1.576227000,-0.315355000,-1.885113000,0.000000000,0.000000000,0.000000000,0.000000000,0.000000000,0.000000000,3.770654945,3.979479630,0.301393326,0.000448269,0.000000000,-0.000000000
1750932842.991323948,-1.644703000,-1.896188000,-1.187753000,1.576227000,-0.315355000,-1.885113000,0.000000000,0.000000000,0.000000000,0.000000000,0.000000000,0.000000000,3.770654945,3.979479630,0.301393326,0.000448269,0.000000000,-0.000000000
1750932842.991812944,-1.644703000,-1.896188000,-1.187753000,1.576227000,-0.315355000,-1.885113000,0.000000000,0.000000000,0.000000000,0.000000000,0.000000000,0.000000000,3.770654945,3.979479630,0.301393326,0.000448269,0.000000000,-0.000000000
1750932842.993642807,-1.644703000,-1.896188000,-1.187753000,1.576227000,-0.315355000,-1.885113000,0.000000000,0.000000000,0.000000000,0.000000000,0.000000000,0.000000000,3.770654945,3.979479630,0.301393326,0.000448269,0.000000000,-0.000000000
1750932842.995593309,-1.644703000,-1.896188000,-1.187753000,1.576227000,-0.315355000,-1.885113000,0.000000000,0.000000000,0.000000000,0.000000000,0.000000000,0.000000000,3.770654945,3.979479630,0.301393326,0.000448269,0.000000000,-0.000000000
1750932842.997696161,-1.644703000,-1.896188000,-1.187753000,1.576227000,-0.315355000,-1.885113000,0.000000000,0.000000000,0.000000000,0.000000000,0.000000000,0.000000000,3.770654945,3.979479630,0.301393326,0.000448269,0.000000000,-0.000000000
1750932842.999551296,-1.644703000,-1.896188000,-1.187753000,1.576227000,-0.315355000,-1.885113000,0.000000000,0.000000000,0.000000000,0.000000000,0.000000000,0.000000000,3.770654945,3.979479630,0.301393326,0.000448269,0.000000000,-0.000000000
1750932843.001537323,-1.644703000,-1.896188000,-1.187753000,1.576227000,-0.315355000,-1.885113000,0.000000000,0.000000000,0.000000000,0.000000000,0.000000000,0.000000000,3.770654945,3.979479630,0.301393326,0.000448269,0.000000000,-0.000000000
1750932843.003566742,-1.644703000,-1.896188000,-1.187753000,1.576227000,-0.315355000,-1.885113000,0.000000000,0.000000000,0.000000000,0.000000000,0.000000000,0.000000000,3.770654945,3.979479630,0.301393326,0.000448269,0.000000000,-0.000000000
1750932843.009817839,-1.644703000,-1.896188000,-1.187753000,1.576227000,-0.315355000,-1.885113000,0.000000000,0.000000000,0.000000000,0.000000000,0.000000000,0.000000000,3.770654945,3.979479630,0.301393326,0.000448269,0.000000000,-0.000000000
1750932843.009880543,-1.644703000,-1.896188000,-1.187753000,1.576227000,-0.315355000,-1.885113000,0.000000000,0.000000000,0.000000000,0.000000000,0.000000000,0.000000000,3.770654945,3.979479630,0.301393326,0.000448269,0.000000000,-0.000000000
1750932843.012758017,-1.644703000,-1.896188000,-1.187753000,1.576227000,-0.315355000,-1.885113000,0.000000000,0.000000000,0.000000000,0.000000000,0.000000000,0.000000000,3.770654945,3.979479630,0.301393326,0.000448269,0.000000000,-0.000000000
1750932843.012810469,-1.644703000,-1.896188000,-1.187753000,1.576227000,-0.315355000,-1.885113000,0.000000000,0.000000000,0.000000000,0.000000000,0.000000000,0.000000000,3.770654945,3.979479630,0.301393326,0.000448269,0.000000000,-0.000000000
1750932843.014772177,-1.644703000,-1.896188000,-1.187753000,1.576227000,-0.315355000,-1.885113000,0.000000000,0.000000000,0.000000000,0.000000000,0.000000000,0.000000000,3.770654945,3.979479630,0.301393326,0.000448269,0.000000000,-0.000000000
1750932843.015656710,-1.644703000,-1.896188000,-1.187753000,1.576227000,-0.315355000,-1.885113000,0.000000000,0.000000000,0.000000000,0.000000000,0.000000000,0.000000000,3.770654945,3.979479630,0.301393326,0.000448269,0.000000000,-0.000000000
1750932843.017712355,-1.644703000,-1.896188000,-1.187753000,1.576227000,-0.315355000,-1.885113000,0.000000000,0.000000000,0.000000000,0.000000000,0.000000000,0.000000000,3.770654945,3.979479630,0.301393326,0.000448269,0.000000000,-0.000000000
1750932843.019757986,-1.644703000,-1.896188000,-1.187753000,1.576227000,-0.315355000,-1.885113000,0.000000000,0.000000000,0.000000000,0.000000000,0.000000000,0.000000000,3.770654945,3.979479630,0.301393326,0.000448269,0.000000000,-0.000000000
1750932843.021784782,-1.644703000,-1.896188000,-1.187753000,1.576227000,-0.315355000,-1.885113000,0.000000000,0.000000000,0.000000000,0.000000000,0.000000000,0.000000000,3.770654945,3.979479630,0.301393326,0.000448269,0.000000000,-0.000000000
1750932843.023847580,-1.644703000,-1.896188000,-1.187753000,1.576227000,-0.315355000,-1.885113000,0.000000000,0.000000000,0.000000000,0.000000000,0.000000000,0.000000000,3.770654945,3.979479630,0.301393326,0.000448269,0.000000000,-0.000000000
1750932843.027933121,-1.644703000,-1.896188000,-1.187753000,1.576227000,-0.315355000,-1.885113000,0.000000000,0.000000000,0.000000000,0.000000000,0.000000000,0.000000000,3.770654945,3.979479630,0.301393326,0.000448269,0.000000000,-0.000000000
1750932843.027994394,-1.644703000,-1.896188000,-1.187753000,1.576227000,-0.315355000,-1.885113000,0.000000000,0.000000000,0.000000000,0.000000000,0.000000000,0.000000000,3.770654945,3.979479630,0.301393326,0.000448269,0.000000000,-0.000000000
1750932843.029937983,-1.644703000,-1.896188000,-1.187753000,1.576227000,-0.315355000,-1.885113000,0.000000000,0.000000000,0.000000000,0.000000000,0.000000000,0.000000000,3.770654945,3.979479630,0.301393326,0.000448269,0.000000000,-0.000000000
1750932843.031801701,-1.644703000,-1.896188000,-1.187753000,1.576227000,-0.315355000,-1.885113000,0.000000000,0.000000000,0.000000000,0.000000000,0.000000000,0.000000000,3.770654945,3.979479630,0.301393326,0.000448269,0.000000000,-0.000000000
1750932843.033663511,-1.644703000,-1.896188000,-1.187753000,1.576227000,-0.315355000,-1.885113000,0.000000000,0.000000000,0.000000000,0.000000000,0.000000000,0.000000000,3.770654945,3.979479630,0.301393326,0.000448269,0.000000000,-0.000000000
1750932843.036095142,-1.644703000,-1.896188000,-1.187753000,1.576227000,-0.315355000,-1.885113000,0.000000000,0.000000000,0.000000000,0.000000000,0.000000000,0.000000000,3.770654945,3.979479630,0.301393326,0.000448269,0.000000000,-0.000000000
1750932843.037750959,-1.644703000,-1.896188000,-1.187753000,1.576227000,-0.315355000,-1.885113000,0.000000000,0.000000000,0.000000000,0.000000000,0.000000000,0.000000000,3.770654945,3.979479630,0.301393326,0.000448269,0.000000000,-0.000000000
1750932843.039616823,-1.644703000,-1.896188000,-1.187753000,1.576227000,-0.315355000,-1.885113000,0.000000000,0.000000000,0.000000000,0.000000000,0.000000000,0.000000000,3.770654945,3.979479630,0.301393326,0.000448269,0.000000000,-0.000000000
1750932843.041548967,-1.644703000,-1.896188000,-1.187753000,1.576227000,-0.315355000,-1.885113000,0.000000000,0.000000000,0.000000000,0.000000000,0.000000000,0.000000000,3.770654945,3.979479630,0.301393326,0.000448269,0.000000000,-0.000000000
1750932843.043731451,-1.644703000,-1.896188000,-1.187753000,1.576227000,-0.315355000,-1.885113000,0.000000000,0.000000000,0.000000000,0.000000000,0.000000000,0.000000000,3.770654945,3.979479630,0.301393326,0.000448269,0.000000000,-0.000000000
1750932843.045720577,-1.644703000,-1.896188000,-1.187753000,1.576227000,-0.315355000,-1.885113000,0.000000000,0.000000000,0.000000000,0.000000000,0.000000000,0.000000000,3.770654945,3.979479630,0.301393326,0.000448269,0.000000000,-0.000000000
1750932843.047751665,-1.644703000,-1.896188000,-1.187753000,1.576227000,-0.315355000,-1.885113000,0.000000000,0.000000000,0.000000000,0.000000000,0.000000000,0.000000000,3.770654945,3.979479630,0.301393326,0.000448269,0.000000000,-0.000000000
1750932843.049566746,-1.644703000,-1.896188000,-1.187753000,1.576227000,-0.315355000,-1.885113000,0.000000000,0.000000000,0.000000000,0.000000000,0.000000000,0.000000000,3.770654945,3.979479630,0.301393326,0.000448269,0.000000000,-0.000000000
1750932843.051930904,-1.644703000,-1.896188000,-1.187753000,1.576227000,-0.315355000,-1.885113000,0.000000000,0.000000000,0.000000000,0.000000000,0.000000000,0.000000000,3.770654945,3.979479630,0.301393326,0.000448269,0.000000000,-0.000000000
1750932843.053900957,-1.644703000,-1.896188000,-1.187753000,1.576227000,-0.315355000,-1.885113000,0.000000000,0.000000000,0.000000000,0.000000000,0.000000000,0.000000000,3.770654945,3.979479630,0.301393326,0.000448269,0.000000000,-0.000000000
1750932843.056704760,-1.644703000,-1.896188000,-1.187753000,1.576227000,-0.315355000,-1.885113000,0.000000000,0.000000000,0.000000000,0.000000000,0.000000000,0.000000000,3.770654945,3.979479630,0.301393326,0.000448269,0.000000000,-0.000000000
1750932843.057952166,-1.644703000,-1.896188000,-1.187753000,1.576227000,-0.315355000,-1.885113000,0.000000000,0.000000000,0.000000000,0.000000000,0.000000000,0.000000000,3.770654945,3.979479630,0.301393326,0.000448269,0.000000000,-0.000000000
1750932843.060071707,-1.644703000,-1.896188000,-1.187753000,1.576227000,-0.315355000,-1.885113000,0.000000000,0.000000000,0.000000000,0.000000000,0.000000000,0.000000000,3.770654945,3.979479630,0.301393326,0.000448269,0.000000000,-0.000000000
1750932843.063256741,-1.644703000,-1.896188000,-1.187753000,1.576227000,-0.315355000,-1.885113000,0.000000000,0.000000000,0.000000000,0.000000000,0.000000000,0.000000000,3.770654945,3.979479630,0.301393326,0.000448269,0.000000000,-0.000000000
1750932843.064248323,-1.644703000,-1.896188000,-1.187753000,1.576227000,-0.315355000,-1.885113000,0.000000000,0.000000000,0.000000000,0.000000000,0.000000000,0.000000000,3.770654945,3.979479630,0.301393326,0.000448269,0.000000000,-0.000000000
1750932843.079370499,-1.644703000,-1.896188000,-1.187753000,1.576227000,-0.315355000,-1.885113000,0.000000000,0.000000000,0.000000000,0.000000000,0.000000000,0.000000000,3.770654945,3.979479630,0.301393326,0.000448269,0.000000000,-0.000000000
1750932843.079436541,-1.644703000,-1.896188000,-1.187753000,1.576227000,-0.315355000,-1.885113000,0.000000000,0.000000000,0.000000000,0.000000000,0.000000000,0.000000000,3.770654945,3.979479630,0.301393326,0.000448269,0.000000000,-0.000000000
1750932843.085109234,-1.644703000,-1.896188000,-1.187753000,1.576227000,-0.315355000,-1.885113000,0.000000000,0.000000000,0.000000000,0.000000000,0.000000000,0.000000000,3.770654945,3.979479630,0.301393326,0.000448269,0.000000000,-0.000000000
1750932843.088909149,-1.644703000,-1.896188000,-1.187753000,1.576227000,-0.315355000,-1.885113000,0.000000000,0.000000000,0.000000000,0.000000000,0.000000000,0.000000000,3.770654945,3.979479630,0.301393326,0.000448269,0.000000000,-0.000000000
1750932843.088959455,-1.644703000,-1.896188000,-1.187753000,1.576227000,-0.315355000,-1.885113000,0.000000000,0.000000000,0.000000000,0.000000000,0.000000000,0.000000000,3.770654945,3.979479630,0.301393326,0.000448269,0.000000000,-0.000000000
1750932843.092016697,-1.644703000,-1.896188000,-1.187753000,1.576227000,-0.315355000,-1.885113000,0.000000000,0.000000000,0.000000000,0.000000000,0.000000000,0.000000000,3.770654945,3.979479630,0.301393326,0.000448269,0.000000000,-0.000000000
1750932843.092319012,-1.644703000,-1.896188000,-1.187753000,1.576227000,-0.315355000,-1.885113000,0.000000000,0.000000000,0.000000000,0.000000000,0.000000000,0.000000000,3.770654945,3.979479630,0.301393326,0.000448269,0.000000000,-0.000000000
1750932843.093870401,-1.644703000,-1.896188000,-1.187753000,1.576227000,-0.315355000,-1.885113000,0.000000000,0.000000000,0.000000000,0.000000000,0.000000000,0.000000000,3.770654945,3.979479630,0.301393326,0.000448269,0.000000000,-0.000000000
1750932843.096003294,-1.644703000,-1.896188000,-1.187753000,1.576227000,-0.315355000,-1.885113000,0.000000000,0.000000000,0.000000000,0.000000000,0.000000000,0.000000000,3.770654945,3.979479630,0.301393326,0.000448269,0.000000000,-0.000000000
1750932843.099600554,-1.644703000,-1.896188000,-1.187753000,1.576227000,-0.315355000,-1.885113000,0.000000000,0.000000000,0.000000000,0.000000000,0.000000000,0.000000000,3.770654945,3.979479630,0.301393326,0.000448269,0.000000000,-0.000000000
1750932843.099794626,-1.644703000,-1.896188000,-1.187753000,1.576227000,-0.315355000,-1.885113000,0.000000000,0.000000000,0.000000000,0.000000000,0.000000000,0.000000000,3.770654945,3.979479630,0.301393326,0.000448269,0.000000000,-0.000000000
1750932843.101787567,-1.644703000,-1.896188000,-1.187753000,1.576227000,-0.315355000,-1.885113000,0.000000000,0.000000000,0.000000000,0.000000000,0.000000000,0.000000000,3.770654945,3.979479630,0.301393326,0.000448269,0.000000000,-0.000000000
1750932843.103753567,-1.644703000,-1.896188000,-1.187753000,1.576227000,-0.315355000,-1.885113000,0.000000000,0.000000000,0.000000000,0.000000000,0.000000000,0.000000000,3.770654945,3.979479630,0.301393326,0.000448269,0.000000000,-0.000000000
1750932843.106257915,-1.644703000,-1.896188000,-1.187753000,1.576227000,-0.315355000,-1.885113000,0.000000000,0.000000000,0.000000000,0.000000000,0.000000000,0.000000000,3.770654945,3.979479630,0.301393326,0.000448269,0.000000000,-0.000000000
1750932843.107916117,-1.644703000,-1.896188000,-1.187753000,1.576227000,-0.315355000,-1.885113000,0.000000000,0.000000000,0.000000000,0.000000000,0.000000000,0.000000000,3.770654945,3.979479630,0.301393326,0.000448269,0.000000000,-0.000000000
1750932843.109697342,-1.644703000,-1.896188000,-1.187753000,1.576227000,-0.315355000,-1.885113000,0.000000000,0.000000000,0.000000000,0.000000000,0.000000000,0.000000000,3.770654945,3.979479630,0.301393326,0.000448269,0.000000000,-0.000000000
1750932843.111711979,-1.644703000,-1.896188000,-1.187753000,1.576227000,-0.315355000,-1.885113000,0.000000000,0.000000000,0.000000000,0.000000000,0.000000000,0.000000000,3.770654945,3.979479630,0.301393326,0.000448269,0.000000000,-0.000000000
1750932843.113686562,-1.644703000,-1.896188000,-1.187753000,1.576227000,-0.315355000,-1.885113000,0.000000000,0.000000000,0.000000000,0.000000000,0.000000000,0.000000000,3.770654945,3.979479630,0.301393326,0.000448269,0.000000000,-0.000000000
1750932843.115788460,-1.644703000,-1.896188000,-1.187753000,1.576227000,-0.315355000,-1.885113000,0.000000000,0.000000000,0.000000000,0.000000000,0.000000000,0.000000000,3.770654945,3.979479630,0.301393326,0.000448269,0.000000000,-0.000000000
1750932843.118215084,-1.644703000,-1.896188000,-1.187753000,1.576227000,-0.315355000,-1.885113000,0.000000000,0.000000000,0.000000000,0.000000000,0.000000000,0.000000000,3.770654945,3.979479630,0.301393326,0.000448269,0.000000000,-0.000000000
1750932843.119755983,-1.644703000,-1.896188000,-1.187753000,1.576227000,-0.315355000,-1.885113000,0.000000000,0.000000000,0.000000000,0.000000000,0.000000000,0.000000000,3.770654945,3.979479630,0.301393326,0.000448269,0.000000000,-0.000000000
1750932843.121630669,-1.644703000,-1.896188000,-1.187753000,1.576227000,-0.315355000,-1.885113000,0.000000000,0.000000000,0.000000000,0.000000000,0.000000000,0.000000000,3.770654945,3.979479630,0.301393326,0.000448269,0.000000000,-0.000000000
1750932843.124000072,-1.644702394,-1.896187575,-1.187752396,1.576227251,-0.315355126,-1.885112152,0.000606353,0.000425146,0.000603904,0.000250804,-0.000126414,0.000847796,4.073812387,4.154028286,0.330651766,0.010067746,-0.003576496,0.309036905
1750932843.128582239,-1.644702394,-1.896187575,-1.187752396,1.576227251,-0.315355126,-1.885112152,0.000606353,0.000425146,0.000603904,0.000250804,-0.000126414,0.000847796,4.073812387,4.154028286,0.330651766,0.010067746,-0.003576496,0.309036905
1750932843.129531145,-1.644700575,-1.896186299,-1.187750584,1.576228003,-0.315355506,-1.885109609,0.001212691,0.000850305,0.001207813,0.000501601,-0.000252825,0.001695591,4.073799028,4.154034505,0.330652288,0.010067609,-0.003576441,0.309036655
1750932843.129699469,-1.644700575,-1.896186299,-1.187750584,1.576228003,-0.315355506,-1.885109609,0.001212691,0.000850305,0.001207813,0.000501601,-0.000252825,0.001695591,4.073799028,4.154034505,0.330652288,0.010067609,-0.003576441,0.309036655
1750932843.131798744,-1.644693299,-1.896181197,-1.187743337,1.576231013,-0.315357023,-1.885099435,0.002425262,0.001700708,0.002415657,0.001003145,-0.000505635,0.003391176,4.073739227,4.154060860,0.330654493,0.010066857,-0.003576169,0.309036067
1750932843.135719776,-1.644687842,-1.896177371,-1.187737902,1.576233270,-0.315358160,-1.885091805,0.003031464,0.002125978,0.003019600,0.001253878,-0.000632030,0.004238965,4.073692788,4.154080995,0.330656176,0.010066241,-0.003575951,0.309035729
1750932843.135991096,-1.644681173,-1.896172693,-1.187731259,1.576236028,-0.315359551,-1.885082479,0.003637591,0.002551309,0.003623562,0.001504575,-0.000758414,0.005086751,4.073635323,4.154105769,0.330658245,0.010065466,-0.003575678,0.309035363
1750932843.137903214,-1.644681173,-1.896172693,-1.187731259,1.576236028,-0.315359551,-1.885082479,0.003637591,0.002551309,0.003623562,0.001504575,-0.000758414,0.005086751,4.073635323,4.154105769,0.330658245,0.010065466,-0.003575678,0.309035363
1750932843.139691591,-1.644673292,-1.896167165,-1.187723408,1.576239288,-0.315361194,-1.885071458,0.004243627,0.002976714,0.004227548,0.001755230,-0.000884787,0.005934533,4.073566834,4.154135180,0.330660701,0.010064532,-0.003575352,0.309034967
1750932843.141805887,-1.644664198,-1.896160787,-1.187714349,1.576243049,-0.315363090,-1.885058741,0.004849558,0.003402205,0.004831561,0.002005835,-0.001011147,0.006782310,4.073487320,4.154169229,0.330663544,0.010063438,-0.003574970,0.309034541
1750932843.149829388,-1.644653893,-1.896153557,-1.187704082,1.576247311,-0.315365238,-1.885044329,0.005455367,0.003827796,0.005435605,0.002256384,-0.001137491,0.007630082,4.073396784,4.154207915,0.330666774,0.010062184,-0.003574535,0.309034087
1750932843.149897099,-1.644642377,-1.896145475,-1.187692606,1.576252075,-0.315367640,-1.885028221,0.006061041,0.004253497,0.006039684,0.002506869,-0.001263817,0.008477848,4.073295227,4.154251236,0.330670390,0.010060771,-0.003574046,0.309033603
1750932843.149916649,-1.644642377,-1.896145475,-1.187692606,1.576252075,-0.315367640,-1.885028221,0.006061041,0.004253497,0.006039684,0.002506869,-0.001263817,0.008477848,4.073295227,4.154251236,0.330670390,0.010060771,-0.003574046,0.309033603
1750932843.150564671,-1.644615711,-1.896126758,-1.187666031,1.576263104,-0.315373200,-1.884990919,0.007271920,0.005105281,0.007247962,0.003007618,-0.001516411,0.010173359,4.073059052,4.154351784,0.330678781,0.010057466,-0.003572904,0.309032547
1750932843.151719570,-1.644600562,-1.896116121,-1.187650931,1.576269369,-0.315376359,-1.884969724,0.007877096,0.005531389,0.007852169,0.003257869,-0.001642674,0.011021103,4.072924438,4.154409009,0.330683557,0.010055574,-0.003572253,0.309031975
1750932843.153754473,-1.644584203,-1.896104632,-1.187634622,1.576276135,-0.315379771,-1.884946834,0.008482075,0.005957657,0.008456426,0.003508027,-0.001768912,0.011868839,4.072778808,4.154470867,0.330688718,0.010053522,-0.003571547,0.309031374
1750932843.156468630,-1.644566634,-1.896092291,-1.187617105,1.576283401,-0.315383435,-1.884922249,0.009086842,0.006384098,0.009060738,0.003758087,-0.001895123,0.012716565,4.072622165,4.154537356,0.330694266,0.010051311,-0.003570788,0.309030743
1750932843.157929182,-1.644547855,-1.896079096,-1.187598379,1.576291167,-0.315387351,-1.884895968,0.009691383,0.006810724,0.009665108,0.004008039,-0.002021305,0.013564281,4.072454510,4.154608476,0.330700200,0.010048940,-0.003569976,0.309030082
1750932843.159862995,-1.644527868,-1.896065048,-1.187578445,1.576299433,-0.315391520,-1.884867992,0.010295682,0.007237547,0.010269540,0.004257879,-0.002147457,0.014411987,4.072275845,4.154684225,0.330706519,0.010046409,-0.003569110,0.309029392
1750932843.161763906,-1.644527868,-1.896065048,-1.187578445,1.576299433,-0.315391520,-1.884867992,0.010295682,0.007237547,0.010269540,0.004257879,-0.002147457,0.014411987,4.072275845,4.154684225,0.330706519,0.010046409,-0.003569110,0.309029392
1750932843.163738966,-1.644506673,-1.896050145,-1.187557301,1.576308199,-0.315395941,-1.884838320,0.010899725,0.007664579,0.010874038,0.004507598,-0.002273576,0.015259681,4.072086172,4.154764601,0.330713224,0.010043719,-0.003568190,0.309028671
1750932843.165643454,-1.644460659,-1.896017778,-1.187511387,1.576327227,-0.315405540,-1.884773891,0.012106979,0.008519322,0.012083247,0.005006645,-0.002525708,0.016955033,4.071673815,4.154939233,0.330727792,0.010037858,-0.003566193,0.309027141
1750932843.167760372,-1.644435842,-1.896000312,-1.187486616,1.576337490,-0.315410717,-1.884739133,0.012710161,0.008947057,0.012687966,0.005255959,-0.002651717,0.017802690,4.071451135,4.155033485,0.330735654,0.010034689,-0.003565114,0.309026330
1750932843.169838428,-1.644435842,-1.896000312,-1.187486616,1.576337490,-0.315410717,-1.884739133,0.012710161,0.008947057,0.012687966,0.005255959,-0.002651717,0.017802690,4.071451135,4.155033485,0.330735654,0.010034689,-0.003565114,0.309026330
1750932843.171885490,-1.644382590,-1.895962811,-1.187433444,1.576359510,-0.315421828,-1.884664531,0.013915558,0.009803316,0.013897653,0.005754134,-0.002903614,0.019497960,4.070972788,4.155235853,0.330752532,0.010027869,-0.003562800,0.309024618
1750932843.173652411,-1.644354157,-1.895942776,-1.187405044,1.576371268,-0.315427761,-1.884624688,0.014517743,0.010231864,0.014502628,0.006002981,-0.003029498,0.020345573,4.070717126,4.155343966,0.330761549,0.010024219,-0.003561565,0.309023717
1750932843.175714731,-1.644324519,-1.895921884,-1.187375434,1.576383522,-0.315433946,-1.884583149,0.015119565,0.010660709,0.015107697,0.006251657,-0.003155336,0.021193169,4.070450476,4.155456695,0.330770950,0.010020410,-0.003560278,0.309022784
1750932843.177736521,-1.644293679,-1.895900133,-1.187344613,1.576396274,-0.315440382,-1.884539915,0.015721010,0.011089861,0.015712863,0.006500155,-0.003281126,0.022040749,4.070172841,4.155574039,0.330780736,0.010016440,-0.003558938,0.309021821
1750932843.179826498,-1.644261635,-1.895877524,-1.187312582,1.576409523,-0.315447070,-1.884494986,0.016322061,0.011519333,0.016318130,0.006748470,-0.003406867,0.022888311,4.069884225,4.155695996,0.330790906,0.010012310,-0.003557548,0.309020827
1750932843.181746483,-1.644228391,-1.895854055,-1.187279341,1.576423268,-0.315454010,-1.884448362,0.016922705,0.011949138,0.016923501,0.006996592,-0.003532557,0.023735856,4.069584632,4.155822563,0.330801460,0.010008020,-0.003556106,0.309019802
1750932843.183782816,-1.644193945,-1.895829727,-1.187244888,1.576437509,-0.315461201,-1.884400043,0.017522927,0.012379288,0.017528982,0.007244516,-0.003658194,0.024583381,4.069274065,4.155953739,0.330812398,0.010003569,-0.003554612,0.309018745
1750932843.185739040,-1.644158299,-1.895804538,-1.187209225,1.576452246,-0.315468643,-1.884350029,0.018122710,0.012809795,0.018134575,0.007492235,-0.003783776,0.025430888,4.068952529,4.156089521,0.330823720,0.009998959,-0.003553069,0.309017657
1750932843.187783241,-1.644121454,-1.895778488,-1.187172350,1.576467478,-0.315476336,-1.884298319,0.018722039,0.013240671,0.018740286,0.007739740,-0.003909301,0.026278374,4.068620026,4.156229906,0.330835424,0.009994188,-0.003551474,0.309016538
1750932843.190047979,-1.644121454,-1.895778488,-1.187172350,1.576467478,-0.315476336,-1.884298319,0.018722039,0.013240671,0.018740286,0.007739740,-0.003909301,0.026278374,4.068620026,4.156229906,0.330835424,0.009994188,-0.003551474,0.309016538
1750932843.191935062,-1.644083411,-1.895751575,-1.187134264,1.576483205,-0.315484280,-1.884244915,0.019320901,0.013671929,0.019346116,0.007987026,-0.004034769,0.027125839,4.068276562,4.156374893,0.330847512,0.009989257,-0.003549829,0.309015386
1750932843.197391987,-1.644044171,-1.895723800,-1.187094965,1.576499426,-0.315492475,-1.884189816,0.019919279,0.014103582,0.019952071,0.008234084,-0.004160175,0.027973283,4.067922140,4.156524480,0.330859983,0.009984165,-0.003548134,0.309014203
1750932843.197798491,-1.644003735,-1.895695161,-1.187054455,1.576516141,-0.315500920,-1.884133022,0.020517159,0.014535640,0.020558155,0.008480908,-0.004285520,0.028820704,4.067556766,4.156678662,0.330872837,0.009978913,-0.003546390,0.309012987
1750932843.199731112,-1.643962103,-1.895665657,-1.187012733,1.576533349,-0.315509617,-1.884074533,0.021114524,0.014968117,0.021164371,0.008727491,-0.004410802,0.029668103,4.067180443,4.156837438,0.330886072,0.009973500,-0.003544596,0.309011739
1750932843.206887960,-1.643919277,-1.895635288,-1.186969798,1.576551051,-0.315518564,-1.884014350,0.021711362,0.015401025,0.021770723,0.008973826,-0.004536017,0.030515478,4.066793176,4.157000805,0.330899690,0.009967927,-0.003542753,0.309010459
1750932843.209049702,-1.643919277,-1.895635288,-1.186969798,1.576551051,-0.315518564,-1.884014350,0.021711362,0.015401025,0.021770723,0.008973826,-0.004536017,0.030515478,4.066793176,4.157000805,0.330899690,0.009967927,-0.003542753,0.309010459
1750932843.209786654,-1.643783645,-1.895538979,-1.186833714,1.576607107,-0.315546906,-1.883823631,0.023498549,0.016702456,0.023590637,0.009711269,-0.004911255,0.033057454,4.065565764,4.157518425,0.330942833,0.009950243,-0.003536933,0.309006419
1750932843.211718798,-1.643736053,-1.895505140,-1.186785926,1.576626775,-0.315556853,-1.883756668,0.024093120,0.017137210,0.024197574,0.009956539,-0.005036192,0.033904727,4.065134772,4.157700127,0.330957976,0.009944027,-0.003534896,0.309005005
1750932843.213698864,-1.643687272,-1.895470430,-1.186736924,1.576646933,-0.315567050,-1.883688012,0.024687086,0.017572456,0.024804667,0.010201525,-0.005161055,0.034751973,4.064692863,4.157886406,0.330973500,0.009937649,-0.003532813,0.309003558
1750932843.215666771,-1.643637305,-1.895434850,-1.186686707,1.576667581,-0.315577497,-1.883617661,0.025280433,0.018008206,0.025411919,0.010446221,-0.005285842,0.035599191,4.064240041,4.158077257,0.330989404,0.009931111,-0.003530682,0.309002077
1750932843.217677355,-1.643586151,-1.895398397,-1.186635276,1.576688718,-0.315588194,-1.883545615,0.025873145,0.018444473,0.026019336,0.010690618,-0.005410553,0.036446381,4.063776312,4.158272679,0.331005688,0.009924412,-0.003528505,0.309000561
1750932843.219781160,-1.643533813,-1.895361071,-1.186582630,1.576710343,-0.315599140,-1.883471875,0.026465207,0.018881269,0.026626920,0.010934710,-0.005535184,0.037293541,4.063301682,4.158472667,0.331022351,0.009917551,-0.003526282,0.308999011
1750932843.222437859,-1.643533813,-1.895361071,-1.186582630,1.576710343,-0.315599140,-1.883471875,0.026465207,0.018881269,0.026626920,0.010934710,-0.005535184,0.037293541,4.063301682,4.158472667,0.331022351,0.009917551,-0.003526282,0.308999011
1750932843.224127293,-1.643480291,-1.895322872,-1.186528768,1.576732456,-0.315610334,-1.883396441,0.027056605,0.019318605,0.027234676,0.011178489,-0.005659734,0.038140671,4.062816157,4.158677217,0.331039394,0.009910529,-0.003524012,0.308997426
1750932843.225922346,-1.643425587,-1.895283797,-1.186473691,1.576755057,-0.315621778,-1.883319312,0.027647322,0.019756495,0.027842608,0.011421949,-0.005784203,0.038987771,4.062319743,4.158886327,0.331056815,0.009903346,-0.003521697,0.308995806
1750932843.230778694,-1.643369702,-1.895243845,-1.186417398,1.576778144,-0.315633471,-1.883240490,0.028237345,0.020194950,0.028450719,0.011665083,-0.005908587,0.039834839,4.061812447,4.159099993,0.331074615,0.009896002,-0.003519337,0.308994150
1750932843.230825424,-1.643254396,-1.895161309,-1.186301161,1.576825775,-0.315657603,-1.883077762,0.029415243,0.021073606,0.029667497,0.012150342,-0.006157099,0.041528876,4.060765231,4.159540978,0.331111349,0.009880828,-0.003514484,0.308990731
1750932843.235046148,-1.643254396,-1.895161309,-1.186301161,1.576825775,-0.315657603,-1.883077762,0.029415243,0.021073606,0.029667497,0.012150342,-0.006157099,0.041528876,4.060765231,4.159540978,0.331111349,0.009880828,-0.003514484,0.308990731
1750932843.235120058,-1.643254396,-1.895161309,-1.186301161,1.576825775,-0.315657603,-1.883077762,0.029415243,0.021073606,0.029667497,0.012150342,-0.006157099,0.041528876,4.060765231,4.159540978,0.331111349,0.009880828,-0.003514484,0.308990731
1750932843.235752821,-1.643134384,-1.895075253,-1.186180057,1.576875345,-0.315682728,-1.882908259,0.030590179,0.021954671,0.030885041,0.012634209,-0.006405257,0.043222779,4.059674564,4.160000140,0.331149593,0.009865008,-0.003509455,0.308987166
1750932843.237770081,-1.643072617,-1.895030903,-1.186117678,1.576900855,-0.315695662,-1.882820966,0.031176499,0.022396137,0.031494111,0.012875603,-0.006529199,0.044069678,4.059112952,4.160236529,0.331169279,0.009856856,-0.003506876,0.308985328
1750932843.239770651,-1.643009678,-1.894985668,-1.186054080,1.576926847,-0.315708844,-1.882731980,0.031762032,0.022838241,0.032103384,0.013116628,-0.006653048,0.044916541,4.058540498,4.160477449,0.331189342,0.009848541,-0.003504254,0.308983453
1750932843.241698503,-1.642945570,-1.894939549,-1.185989264,1.576953321,-0.315722274,-1.882641300,0.032346764,0.023280997,0.032712864,0.013357276,-0.006776803,0.045763367,4.057957209,4.160722899,0.331209781,0.009840065,-0.003501591,0.308981540
1750932843.243774652,-1.642880292,-1.894892544,-1.185923228,1.576980276,-0.315735951,-1.882548927,0.032930680,0.023724415,0.033322556,0.013597541,-0.006900461,0.046610155,4.057363093,4.160972872,0.331230594,0.009831426,-0.003498886,0.308979589
1750932843.245949507,-1.642813847,-1.894844651,-1.185855973,1.577007711,-0.315749876,-1.882454860,0.033513765,0.024168509,0.033932463,0.013837416,-0.007024023,0.047456906,4.056758156,4.161227366,0.331251783,0.009822625,-0.003496140,0.308977600
1750932843.247658491,-1.642746237,-1.894795869,-1.185787498,1.577035625,-0.315764047,-1.882359099,0.034096003,0.024613290,0.034542590,0.014076892,-0.007147485,0.048303616,4.056142407,4.161486375,0.331273346,0.009813662,-0.003493354,0.308975571
1750932843.249669075,-1.642677464,-1.894746197,-1.185717803,1.577064018,-0.315778466,-1.882261645,0.034677379,0.025058770,0.035152941,0.014315964,-0.007270847,0.049150288,4.055515853,4.161749895,0.331295283,0.009804537,-0.003490528,0.308973503
1750932843.251851559,-1.642607529,-1.894695634,-1.185646887,1.577092889,-0.315793131,-1.882162498,0.035257879,0.025504962,0.035763519,0.014554624,-0.007394107,0.049996918,4.054878502,4.162017922,0.331317593,0.009795249,-0.003487662,0.308971396
1750932843.253915071,-1.642536433,-1.894644177,-1.185574749,1.577122236,-0.315808042,-1.882061658,0.035837486,0.025951878,0.036374328,0.014792864,-0.007517264,0.050843507,4.054230362,4.162290450,0.331340276,0.009785799,-0.003484758,0.308969249
1750932843.255899668,-1.642464179,-1.894591826,-1.185501389,1.577152060,-0.315823200,-1.881959124,0.036416186,0.026399530,0.036985373,0.015030679,-0.007640317,0.051690054,4.053571442,4.162567476,0.331363332,0.009776186,-0.003481815,0.308967061
1750932843.265594006,-1.642390769,-1.894538578,-1.185426807,1.577182359,-0.315838603,-1.881854897,0.036993964,0.026847930,0.037596658,0.015268060,-0.007763264,0.052536557,4.052901750,4.162848994,0.331386759,0.009766410,-0.003478834,0.308964832
1750932843.265648365,-1.642390769,-1.894538578,-1.185426807,1.577182359,-0.315838603,-1.881854897,0.036993964,0.026847930,0.037596658,0.015268060,-0.007763264,0.052536557,4.052901750,4.162848994,0.331386759,0.009766410,-0.003478834,0.308964832
1750932843.271745443,-1.642390769,-1.894538578,-1.185426807,1.577182359,-0.315838603,-1.881854897,0.036993964,0.026847930,0.037596658,0.015268060,-0.007763264,0.052536557,4.052901750,4.162848994,0.331386759,0.009766410,-0.003478834,0.308964832
1750932843.271796942,-1.642316204,-1.894484434,-1.185351002,1.577213132,-0.315854253,-1.881748978,0.037570805,0.027297091,0.038208186,0.015505001,-0.007886103,0.053383017,4.052221295,4.163135000,0.331410558,0.009756471,-0.003475816,0.308962562
1750932843.271901369,-1.642163618,-1.894373445,-1.185195722,1.577276098,-0.315886288,-1.881532060,0.038721613,0.028197741,0.039431990,0.015977532,-0.008131456,0.055075802,4.050828128,4.163720455,0.331459268,0.009736105,-0.003469670,0.308957897
1750932843.271917820,-1.642163618,-1.894373445,-1.185195722,1.577276098,-0.315886288,-1.881532060,0.038721613,0.028197741,0.039431990,0.015977532,-0.008131456,0.055075802,4.050828128,4.163720455,0.331459268,0.009736105,-0.003469670,0.308957897
1750932843.273580551,-1.641926127,-1.894200191,-1.184953619,1.577374081,-0.315936179,-1.881193989,0.040440415,0.029554720,0.041269623,0.016682847,-0.008498650,0.057614630,4.048657871,4.164632168,0.331535106,0.009704332,-0.003460186,0.308950577
1750932843.273974180,-1.641926127,-1.894200191,-1.184953619,1.577374081,-0.315936179,-1.881193989,0.040440415,0.029554720,0.041269623,0.016682847,-0.008498650,0.057614630,4.048657871,4.164632168,0.331535106,0.009704332,-0.003460186,0.308950577
1750932843.275794744,-1.641844675,-1.894140628,-1.184870466,1.577407681,-0.315953298,-1.881077913,0.041011313,0.030008696,0.041882697,0.016916995,-0.008620820,0.058460810,4.047913022,4.164944994,0.331561122,0.009693414,-0.003456957,0.308948050
1750932843.278045416,-1.641678351,-1.894018773,-1.184700482,1.577476283,-0.315988270,-1.880840686,0.042149962,0.030919195,0.043109666,0.017383813,-0.008864812,0.060153020,4.046391232,4.165583993,0.331614257,0.009671088,-0.003450399,0.308942861
1750932843.281481981,-1.641593484,-1.893956479,-1.184613649,1.577511283,-0.316006121,-1.880719533,0.042717683,0.031375742,0.043723569,0.017616469,-0.008986631,0.060999048,4.045614312,4.165910156,0.331641374,0.009659679,-0.003447072,0.308940198
1750932843.281768084,-1.641593484,-1.893956479,-1.184613649,1.577511283,-0.316006121,-1.880719533,0.042717683,0.031375742,0.043723569,0.017616469,-0.008986631,0.060999048,4.045614312,4.165910156,0.331641374,0.009659679,-0.003447072,0.308940198
1750932843.283664465,-1.641420347,-1.893829145,-1.184436298,1.577582678,-0.316042554,-1.880472153,0.043849843,0.032291491,0.044952230,0.018080238,-0.009229911,0.062690948,4.044028470,4.166575781,0.331696706,0.009636370,-0.003440326,0.308934734
1750932843.285745621,-1.641332083,-1.893764103,-1.184345778,1.577619069,-0.316061136,-1.880345926,0.044414251,0.032750718,0.045566997,0.018311337,-0.009351370,0.063536818,4.043219569,4.166915232,0.331724919,0.009624469,-0.003436907,0.308931932
1750932843.288039684,-1.641242691,-1.893698142,-1.184254029,1.577655923,-0.316079960,-1.880218006,0.044977525,0.033210862,0.046182061,0.018541903,-0.009472706,0.064382633,4.042400029,4.167259099,0.331753496,0.009612404,-0.003433459,0.308929081
1750932843.289705753,-1.641152173,-1.893631259,-1.184161050,1.577693236,-0.316099026,-1.880088395,0.045539649,0.033671935,0.046797425,0.018771928,-0.009593919,0.065228392,4.041569860,4.167607379,0.331782436,0.009600175,-0.003429983,0.308926183
1750932843.291960239,-1.641060533,-1.893563453,-1.184066839,1.577731010,-0.316118335,-1.879957093,0.046100608,0.034133949,0.047413093,0.019001406,-0.009715007,0.066074095,4.040729073,4.167960063,0.331811739,0.009587781,-0.003426479,0.308923235
1750932843.294018507,-1.640967772,-1.893494723,-1.183971397,1.577769242,-0.316137886,-1.879824099,0.046660388,0.034596917,0.048029070,0.019230329,-0.009835970,0.066919740,4.039877678,4.168317148,0.331841404,0.009575223,-0.003422948,0.308920238
1750932843.296029091,-1.640873892,-1.893425065,-1.183874723,1.577807931,-0.316157679,-1.879689414,0.047218971,0.035060850,0.048645360,0.019458691,-0.009956807,0.067765328,4.039015688,4.168678625,0.331871430,0.009562500,-0.003419391,0.308917191
1750932843.300353289,-1.640873892,-1.893425065,-1.183874723,1.577807931,-0.316157679,-1.879689414,0.047218971,0.035060850,0.048645360,0.019458691,-0.009956807,0.067765328,4.039015688,4.168678625,0.331871430,0.009562500,-0.003419391,0.308917191
1750932843.301942825,-1.640682788,-1.893282961,-1.183677675,1.577886676,-0.316197989,-1.879414970,0.048332492,0.035991659,0.049878894,0.019913701,-0.010198098,0.069456325,4.037259962,4.169414734,0.331932564,0.009536560,-0.003412200,0.308910944
1750932843.303968430,-1.640585568,-1.893210511,-1.183577300,1.577926731,-0.316218506,-1.879275212,0.048887399,0.036458560,0.050496147,0.020140335,-0.010318550,0.070301732,4.036366250,4.169789353,0.331963670,0.009523342,-0.003408568,0.308907744
1750932843.305993319,-1.640487239,-1.893137126,-1.183475690,1.577967237,-0.316239263,-1.879133763,0.049441050,0.036926474,0.051113728,0.020366378,-0.010438873,0.071147078,4.035461988,4.170168340,0.331995134,0.009509959,-0.003404912,0.308904490
1750932843.309522390,-1.640387804,-1.893062805,-1.183372845,1.578008196,-0.316260261,-1.878990624,0.049993429,0.037395413,0.051731644,0.020591824,-0.010559065,0.071992361,4.034547186,4.170551688,0.332026956,0.009496411,-0.003401234,0.308901183
1750932843.309666395,-1.640287266,-1.892987544,-1.183268763,1.578049604,-0.316281499,-1.878845794,0.050544522,0.037865390,0.052349896,0.020816666,-0.010679126,0.072837580,4.033621858,4.170939391,0.332059136,0.009482698,-0.003397534,0.308897823
1750932843.312570095,-1.640287266,-1.892987544,-1.183268763,1.578049604,-0.316281499,-1.878845794,0.050544522,0.037865390,0.052349896,0.020816666,-0.010679126,0.072837580,4.033621858,4.170939391,0.332059136,0.009482698,-0.003397534,0.308897823
1750932843.315905333,-1.640185627,-1.892911343,-1.183163445,1.578091462,-0.316302978,-1.878699274,0.051094314,0.038336415,0.052968491,0.021040896,-0.010799055,0.073682735,4.032686015,4.171331441,0.332091672,0.009468819,-0.003393812,0.308894407
1750932843.315977335,-1.640082890,-1.892834198,-1.183056889,1.578133767,-0.316324696,-1.878551063,0.051642789,0.038808502,0.053587431,0.021264507,-0.010918851,0.074527824,4.031739670,4.171727833,0.332124563,0.009454775,-0.003390071,0.308890937
1750932843.317923784,-1.639979057,-1.892756108,-1.182949095,1.578176520,-0.316346653,-1.878401162,0.052189932,0.039281661,0.054206721,0.021487492,-0.011038513,0.075372846,4.030782834,4.172128559,0.332157809,0.009440565,-0.003386310,0.308887411
1750932843.319915771,-1.639874131,-1.892677070,-1.182840062,1.578219717,-0.316368850,-1.878249572,0.052735727,0.039755906,0.054826364,0.021709844,-0.011158042,0.076217802,4.029815521,4.172533612,0.332191409,0.009426189,-0.003382530,0.308883828
1750932843.329845428,-1.639768115,-1.892597083,-1.182729789,1.578263358,-0.316391285,-1.878096291,0.053280161,0.040231247,0.055446367,0.021931556,-0.011277435,0.077062689,4.028837743,4.172942985,0.332225362,0.009411647,-0.003378732,0.308880187
1750932843.329917669,-1.639661011,-1.892516145,-1.182618276,1.578307443,-0.316413959,-1.877941321,0.053823216,0.040707697,0.056066731,0.022152620,-0.011396693,0.077907506,4.027849513,4.173356671,0.332259668,0.009396939,-0.003374917,0.308876489
1750932843.329936981,-1.639661011,-1.892516145,-1.182618276,1.578307443,-0.316413959,-1.877941321,0.053823216,0.040707697,0.056066731,0.022152620,-0.011396693,0.077907506,4.027849513,4.173356671,0.332259668,0.009396939,-0.003374917,0.308876489
1750932843.329974890,-1.639552823,-1.892434252,-1.182505522,1.578351969,-0.316436872,-1.877784661,0.054364879,0.041185267,0.056687462,0.022373030,-0.011515815,0.078752253,4.026850844,4.173774664,0.332294325,0.009382065,-0.003371086,0.308872731
1750932843.329993963,-1.639443553,-1.892351403,-1.182391526,1.578396934,-0.316460022,-1.877626312,0.054905134,0.041663970,0.057308564,0.022592778,-0.011634801,0.079596929,4.025841749,4.174196955,0.332329333,0.009367024,-0.003367240,0.308868914
1750932843.331986904,-1.639333203,-1.892267595,-1.182276288,1.578442339,-0.316483411,-1.877466274,0.055443966,0.042143817,0.057930041,0.022811858,-0.011753649,0.080441533,4.024822242,4.174623537,0.332364691,0.009351818,-0.003363379,0.308865037
1750932843.335750580,-1.639221778,-1.892182827,-1.182159806,1.578488181,-0.316507037,-1.877304546,0.055981360,0.042624820,0.058551897,0.023030261,-0.011872360,0.081286064,4.023792335,4.175054404,0.332400398,0.009336444,-0.003359504,0.308861099
1750932843.336244106,-1.639109279,-1.892097095,-1.182042080,1.578534460,-0.316530900,-1.877141129,0.056517300,0.043106992,0.059174136,0.023247982,-0.011990933,0.082130520,4.022752044,4.175489547,0.332436454,0.009320904,-0.003355616,0.308857098
1750932843.337621927,-1.638995709,-1.892010398,-1.181923109,1.578581173,-0.316555001,-1.876976024,0.057051771,0.043590343,0.059796762,0.023465012,-0.012109367,0.082974901,4.021701381,4.175928959,0.332472857,0.009305198,-0.003351717,0.308853035
1750932843.340792179,-1.638881073,-1.891922733,-1.181802892,1.578628319,-0.316579338,-1.876809230,0.057584759,0.044074886,0.060419780,0.023681345,-0.012227663,0.083819205,4.020640360,4.176372632,0.332509606,0.009289324,-0.003347807,0.308848908
1750932843.341735601,-1.638765371,-1.891834098,-1.181681430,1.578675898,-0.316603911,-1.876640747,0.058116247,0.044560633,0.061043194,0.023896973,-0.012345819,0.084663433,4.019568997,4.176820559,0.332546701,0.009273283,-0.003343886,0.308844717
1750932843.343798637,-1.638648609,-1.891744490,-1.181558719,1.578723907,-0.316628721,-1.876470576,0.058646221,0.045047595,0.061667009,0.024111890,-0.012463836,0.085507582,4.018487304,4.177272732,0.332584140,0.009257076,-0.003339956,0.308840461
1750932843.345731735,-1.638530788,-1.891653907,-1.181434761,1.578772345,-0.316653766,-1.876298717,0.059174665,0.045535784,0.062291227,0.024326088,-0.012581714,0.086351652,4.017395296,4.177729143,0.332621924,0.009240701,-0.003336018,0.308836138
1750932843.347659111,-1.638411911,-1.891562346,-1.181309554,1.578821211,-0.316679048,-1.876125170,0.059701564,0.046025212,0.062915854,0.024539560,-0.012699451,0.087195641,4.016292988,4.178189784,0.332660050,0.009224158,-0.003332073,0.308831748
1750932843.349635124,-1.638291982,-1.891469805,-1.181183098,1.578870503,-0.316704564,-1.875949934,0.060226904,0.046515890,0.063540893,0.024752299,-0.012817048,0.088039549,4.015180396,4.178654647,0.332698519,0.009207449,-0.003328121,0.308827291
1750932843.352550030,-1.638171004,-1.891376281,-1.181055390,1.578920219,-0.316730316,-1.875773011,0.060750668,0.047007832,0.064166350,0.024964297,-0.012934504,0.088883374,4.014057532,4.179123724,0.332737328,0.009190571,-0.003324163,0.308822765
1750932843.353872299,-1.638048981,-1.891281773,-1.180926432,1.578970359,-0.316756302,-1.875594401,0.061272842,0.047501047,0.064792228,0.025175549,-0.013051820,0.089727116,4.012924414,4.179597007,0.332776477,0.009173526,-0.003320201,0.308818169
1750932843.355772018,-1.637925914,-1.891186276,-1.180796221,1.579020921,-0.316782523,-1.875414103,0.061793411,0.047995549,0.065418531,0.025386046,-0.013168995,0.090570773,4.011781055,4.180074487,0.332815966,0.009156313,-0.003316236,0.308813502
1750932843.357995749,-1.637925914,-1.891186276,-1.180796221,1.579020921,-0.316782523,-1.875414103,0.061793411,0.047995549,0.065418531,0.025386046,-0.013168995,0.090570773,4.011781055,4.180074487,0.332815966,0.009156313,-0.003316236,0.308813502
1750932843.359601498,-1.637676666,-1.890992310,-1.180532040,1.579123304,-0.316835667,-1.875048446,0.062829670,0.048988458,0.066672430,0.025804748,-0.013402922,0.092257829,4.009463681,4.181042008,0.332895956,0.009121384,-0.003308298,0.308803954
1750932843.361618757,-1.637550491,-1.890893835,-1.180398067,1.579175121,-0.316862589,-1.874863087,0.063345330,0.049486888,0.067300035,0.026012939,-0.013519674,0.093101225,4.008289695,4.181532031,0.332936456,0.009103667,-0.003304328,0.308799070
1750932843.363651037,-1.637423286,-1.890794362,-1.180262839,1.579227355,-0.316889745,-1.874676041,0.063859323,0.049986651,0.067928082,0.026220347,-0.013636286,0.093944533,4.007105533,4.182026218,0.332977290,0.009085782,-0.003300358,0.308794111
1750932843.365786552,-1.637295054,-1.890693887,-1.180126355,1.579280002,-0.316917135,-1.874487309,0.064371636,0.050487759,0.068556575,0.026426964,-0.013752756,0.094787750,4.005911209,4.182524561,0.333018459,0.009067728,-0.003296390,0.308789077
1750932843.368122101,-1.637295054,-1.890693887,-1.180126355,1.579280002,-0.316917135,-1.874487309,0.064371636,0.050487759,0.068556575,0.026426964,-0.013752756,0.094787750,4.005911209,4.182524561,0.333018459,0.009067728,-0.003296390,0.308789077
1750932843.369766712,-1.637165800,-1.890592410,-1.179988613,1.579333062,-0.316944756,-1.874296890,0.064882251,0.050990223,0.069185520,0.026632785,-0.013869086,0.095630876,4.004706740,4.183027050,0.333059961,0.009049506,-0.003292423,0.308783967
1750932843.373773336,-1.637035526,-1.890489926,-1.179849612,1.579386533,-0.316972611,-1.874104785,0.065391154,0.051494055,0.069814920,0.026837801,-0.013985275,0.096473910,4.003492143,4.183533678,0.333101795,0.009031115,-0.003288461,0.308778779
1750932843.374047518,-1.636904237,-1.890386432,-1.179709353,1.579440413,-0.317000697,-1.873910994,0.065898329,0.051999267,0.070444779,0.027042006,-0.014101323,0.097316850,4.002267433,4.184044434,0.333143959,0.009012556,-0.003284503,0.308773512
1750932843.375762224,-1.636771934,-1.890281928,-1.179567833,1.579494700,-0.317029016,-1.873715518,0.066403763,0.052505871,0.071075102,0.027245392,-0.014217231,0.098159696,4.001032629,4.184559311,0.333186454,0.008993828,-0.003280550,0.308768166
1750932843.377856731,-1.636638623,-1.890176408,-1.179425052,1.579549394,-0.317057566,-1.873518356,0.066907438,0.053013877,0.071705893,0.027447952,-0.014333000,0.099002445,3.999787746,4.185078299,0.333229277,0.008974931,-0.003276604,0.308762739
1750932843.379840374,-1.636504306,-1.890069871,-1.179281009,1.579604492,-0.317086348,-1.873319508,0.067409340,0.053523298,0.072337156,0.027649679,-0.014448628,0.099845098,3.998532801,4.185601389,0.333272427,0.008955865,-0.003272666,0.308757230
1750932843.381685495,-1.636368987,-1.889962314,-1.179135703,1.579659992,-0.317115361,-1.873118975,0.067909454,0.054034145,0.072968895,0.027850566,-0.014564117,0.100687652,3.997267813,4.186128572,0.333315904,0.008936630,-0.003268737,0.308751639
1750932843.384279966,-1.636232669,-1.889853734,-1.178989133,1.579715893,-0.317144604,-1.872916758,0.068407765,0.054546431,0.073601116,0.028050607,-0.014679467,0.101530107,3.995992798,4.186659839,0.333359707,0.008917225,-0.003264817,0.308745963
1750932843.391879797,-1.636095357,-1.889744127,-1.178841298,1.579772194,-0.317174078,-1.872712855,0.068904257,0.055060165,0.074233821,0.028249793,-0.014794678,0.102372462,3.994707774,4.187195181,0.333403833,0.008897652,-0.003260908,0.308740202
1750932843.391958952,-1.635957053,-1.889633492,-1.178692198,1.579828892,-0.317203783,-1.872507268,0.069398915,0.055575361,0.074867016,0.028448117,-0.014909750,0.103214714,3.993412758,4.187734588,0.333448283,0.008877909,-0.003257012,0.308734355
1750932843.391976595,-1.635677488,-1.889409123,-1.178390194,1.579943474,-0.317263881,-1.872091040,0.070382669,0.056610183,0.076134892,0.028842154,-0.015139482,0.104898909,3.990792825,4.188825561,0.333538147,0.008837914,-0.003249259,0.308722397
1750932843.393967152,-1.635536233,-1.889295383,-1.178237290,1.580001354,-0.317294275,-1.871880401,0.070871735,0.057129832,0.076769581,0.029037852,-0.015254143,0.105740849,3.989467944,4.189377107,0.333583558,0.008817662,-0.003245406,0.308716284
1750932843.396059036,-1.635394002,-1.889180603,-1.178083116,1.580059624,-0.317324898,-1.871668077,0.071358905,0.057650988,0.077404776,0.029232660,-0.015368668,0.106582682,3.988133144,4.189932681,0.333629288,0.008797240,-0.003241568,0.308710080
1750932843.397942305,-1.635394002,-1.889180603,-1.178083116,1.580059624,-0.317324898,-1.871668077,0.071358905,0.057650988,0.077404776,0.029232660,-0.015368668,0.106582682,3.988133144,4.189932681,0.333629288,0.008797240,-0.003241568,0.308710080
1750932843.401706696,-1.635250799,-1.889064778,-1.177927671,1.580118284,-0.317355750,-1.871454070,0.071844166,0.058173663,0.078040483,0.029426572,-0.015483057,0.107424408,3.986788444,4.190492272,0.333675335,0.008776648,-0.003237749,0.308703784
1750932843.402133942,-1.635106627,-1.888947907,-1.177770954,1.580177330,-0.317386830,-1.871238380,0.072327501,0.058697868,0.078676704,0.029619579,-0.015597310,0.108266024,3.985433863,4.191055871,0.333721698,0.008755887,-0.003233949,0.308697393
1750932843.403873205,-1.634961490,-1.888829986,-1.177612963,1.580236762,-0.317418139,-1.871021006,0.072808896,0.059223616,0.079313445,0.029811675,-0.015711430,0.109107529,3.984069420,4.191623468,0.333768375,0.008734955,-0.003230168,0.308690909
1750932843.405899525,-1.634815392,-1.888711011,-1.177453699,1.580296576,-0.317449676,-1.870801949,0.073288335,0.059750917,0.079950711,0.030002853,-0.015825417,0.109948923,3.982695134,4.192195052,0.333815365,0.008713853,-0.003226409,0.308684327
1750932843.411871195,-1.634668338,-1.888590981,-1.177293160,1.580356772,-0.317481440,-1.870581210,0.073765804,0.060279782,0.080588504,0.030193106,-0.015939270,0.110790204,3.981311023,4.192770615,0.333862668,0.008692581,-0.003222672,0.308677649
1750932843.413171291,-1.634221473,-1.888224521,-1.176803882,1.580539631,-0.317578099,-1.869908899,0.075186232,0.061875885,0.082505096,0.030758242,-0.016280044,0.113313355,3.977099946,4.194521071,0.334006434,0.008627742,-0.003211609,0.308657015
1750932843.413975954,-1.634221473,-1.888224521,-1.176803882,1.580539631,-0.317578099,-1.869908899,0.075186232,0.061875885,0.082505096,0.030758242,-0.016280044,0.113313355,3.977099946,4.194521071,0.334006434,0.008627742,-0.003211609,0.308657015
1750932843.415740728,-1.634070631,-1.888100234,-1.176638232,1.580601334,-0.317610772,-1.869681432,0.075655665,0.062411125,0.083145045,0.030944723,-0.016393376,0.114154170,3.975676737,4.195112445,0.334054971,0.008605788,-0.003207974,0.308649934
1750932843.417746544,-1.633918851,-1.887974875,-1.176471301,1.580663409,-0.317643672,-1.869452283,0.076123051,0.062947988,0.083785544,0.031130243,-0.016506580,0.114994866,3.974243803,4.195707745,0.334103814,0.008583664,-0.003204367,0.308642748
1750932843.419758320,-1.633766140,-1.887848441,-1.176303089,1.580725854,-0.317676799,-1.869221452,0.076588375,0.063486485,0.084426598,0.031314795,-0.016619657,0.115835441,3.972801165,4.196306962,0.334152960,0.008561368,-0.003200791,0.308635456
1750932843.421764851,-1.633612499,-1.887720928,-1.176133595,1.580788667,-0.317710151,-1.868988941,0.077051621,0.064026626,0.085068209,0.031498373,-0.016732608,0.116675894,3.971348843,4.196910086,0.334202410,0.008538902,-0.003197245,0.308628057
1750932843.423746109,-1.633457935,-1.887592334,-1.175962816,1.580851847,-0.317743729,-1.868754749,0.077512775,0.064568425,0.085710384,0.031680969,-0.016845434,0.117516222,3.969886859,4.197517105,0.334252160,0.008516265,-0.003193732,0.308620550
1750932843.425762653,-1.633302450,-1.887462654,-1.175790753,1.580915391,-0.317777533,-1.868518876,0.077971821,0.065111891,0.086353126,0.031862575,-0.016958137,0.118356426,3.968415232,4.198128008,0.334302210,0.008493457,-0.003190252,0.308612933
1750932843.427641630,-1.633146049,-1.887331885,-1.175617403,1.580979297,-0.317811561,-1.868281323,0.078428744,0.065657036,0.086996439,0.032043186,-0.017070718,0.119196503,3.966933984,4.198742786,0.334352559,0.008470478,-0.003186807,0.308605204
1750932843.429893732,-1.633146049,-1.887331885,-1.175617403,1.580979297,-0.317811561,-1.868281323,0.078428744,0.065657036,0.086996439,0.032043186,-0.017070718,0.119196503,3.966933984,4.198742786,0.334352559,0.008470478,-0.003186807,0.308605204
1750932843.433302164,-1.632988736,-1.887200024,-1.175442767,1.581043563,-0.317845815,-1.868042090,0.078883529,0.066203872,0.087640328,0.032222794,-0.017183177,0.120036452,3.965443136,4.199361428,0.334403204,0.008447328,-0.003183398,0.308597362
1750932843.433887243,-1.632830516,-1.887067068,-1.175266842,1.581108187,-0.317880294,-1.867801177,0.079336160,0.066752410,0.088284797,0.032401391,-0.017295517,0.120876272,3.963942710,4.199983922,0.334454145,0.008424007,-0.003180027,0.308589406
1750932843.435780287,-1.632671393,-1.886933014,-1.175089627,1.581173168,-0.317914997,-1.867558585,0.079786623,0.067302661,0.088929851,0.032578972,-0.017407739,0.121715961,3.962432728,4.200610258,0.334505380,0.008400515,-0.003176695,0.308581334
1750932843.437701225,-1.632511371,-1.886797857,-1.174911122,1.581238502,-0.317949925,-1.867314314,0.080234901,0.067854637,0.089575494,0.032755528,-0.017519844,0.122555517,3.960913210,4.201240425,0.334556908,0.008376852,-0.003173402,0.308573144
1750932843.439729691,-1.632350455,-1.886661594,-1.174731325,1.581304189,-0.317985077,-1.867068363,0.080680981,0.068408349,0.090221730,0.032931053,-0.017631833,0.123394941,3.959384180,4.201874411,0.334608727,0.008353017,-0.003170151,0.308564834
1750932843.441701889,-1.632188649,-1.886524222,-1.174550234,1.581370226,-0.318020452,-1.866820734,0.081124847,0.068963808,0.090868564,0.033105540,-0.017743709,0.124234229,3.957845659,4.202512206,0.334660835,0.008329011,-0.003166943,0.308556404
1750932843.443752289,-1.632025957,-1.886385737,-1.174367850,1.581436610,-0.318056051,-1.866571426,0.081566483,0.069521026,0.091515999,0.033278982,-0.017855472,0.125073380,3.956297669,4.203153798,0.334713231,0.008304833,-0.003163779,0.308547852
1750932843.447870731,-1.631862384,-1.886246137,-1.174184170,1.581503341,-0.318091874,-1.866320441,0.082005874,0.070080014,0.092164041,0.033451371,-0.017967124,0.125912393,3.954740234,4.203799177,0.334765913,0.008280485,-0.003160661,0.308539175
1750932843.450464010,-1.631862384,-1.886246137,-1.174184170,1.581503341,-0.318091874,-1.866320441,0.082005874,0.070080014,0.092164041,0.033451371,-0.017967124,0.125912393,3.954740234,4.203799177,0.334765913,0.008280485,-0.003160661,0.308539175
1750932843.451879501,-1.631366425,-1.885820602,-1.173625345,1.581705586,-0.318200680,-1.865557417,0.083310428,0.071767709,0.094111847,0.033962155,-0.018301434,0.128428590,3.950011481,4.205757916,0.334925664,0.008206409,-0.003151591,0.308512384
1750932843.453633308,-1.631199373,-1.885676500,-1.173436471,1.581773679,-0.318237394,-1.865299721,0.083740689,0.072333889,0.094762358,0.034130265,-0.018412661,0.129267036,3.948416491,4.206418325,0.334979476,0.008181375,-0.003148668,0.308503194
1750932843.455724239,-1.631031464,-1.885531265,-1.173246295,1.581842107,-0.318274331,-1.865040349,0.084168629,0.072901895,0.095413496,0.034297288,-0.018523786,0.130105336,3.946812171,4.207082464,0.335033567,0.008156168,-0.003145798,0.308493871
1750932843.457718611,-1.630862700,-1.885384892,-1.173054817,1.581910867,-0.318311489,-1.864779300,0.084594233,0.073471738,0.096065267,0.034463216,-0.018634811,0.130943489,3.945198545,4.207750319,0.335087935,0.008130790,-0.003142981,0.308484414
1750932843.459600210,-1.630693088,-1.885237377,-1.172862034,1.581979959,-0.318348870,-1.864516575,0.085017486,0.074043430,0.096717674,0.034628043,-0.018745738,0.131781493,3.943575636,4.208421880,0.335142577,0.008105241,-0.003140219,0.308474820
1750932843.461772919,-1.630522632,-1.885088717,-1.172667945,1.582049379,-0.318386472,-1.864252174,0.085438373,0.074616981,0.097370723,0.034791762,-0.018856568,0.132619347,3.941943468,4.209097135,0.335197494,0.008079519,-0.003137515,0.308465089
1750932843.463705063,-1.630351336,-1.884938908,-1.172472550,1.582119125,-0.318424296,-1.863986098,0.085856879,0.075192404,0.098024417,0.034954366,-0.018967305,0.133457049,3.940302065,4.209776071,0.335252682,0.008053627,-0.003134868,0.308455218
1750932843.465889692,-1.630179206,-1.884787946,-1.172275847,1.582189196,-0.318462341,-1.863718346,0.086272988,0.075769708,0.098678760,0.035115848,-0.019077950,0.134294598,3.938651452,4.210458678,0.335308140,0.008027562,-0.003132281,0.308445205
1750932843.468091726,-1.630179206,-1.884787946,-1.172275847,1.582189196,-0.318462341,-1.863718346,0.086272988,0.075769708,0.098678760,0.035115848,-0.019077950,0.134294598,3.938651452,4.210458678,0.335308140,0.008027562,-0.003132281,0.308445205
1750932843.469874620,-1.629832461,-1.884482549,-1.171878512,1.582330300,-0.318539095,-1.863177818,0.087097955,0.076930008,0.099989414,0.035435417,-0.019298974,0.135969227,3.935322696,4.211834852,0.335419860,0.007974918,-0.003127291,0.308424746
1750932843.471669436,-1.629657856,-1.884328106,-1.171677877,1.582401329,-0.318577804,-1.862905043,0.087506784,0.077513025,0.100645733,0.035593491,-0.019409357,0.136806305,3.933644601,4.212528396,0.335476118,0.007948339,-0.003124891,0.308414296
1750932843.473838091,-1.629482436,-1.884172495,-1.171475929,1.582472673,-0.318616733,-1.862630593,0.087913155,0.078097969,0.101302719,0.035750415,-0.019519656,0.137643223,3.931957396,4.213225562,0.335532639,0.007921588,-0.003122557,0.308403697
1750932843.475692034,-1.629306205,-1.884015713,-1.171272666,1.582544330,-0.318655882,-1.862354470,0.088317053,0.078684850,0.101960376,0.035906182,-0.019629876,0.138479979,3.930261106,4.213926337,0.335589421,0.007894665,-0.003120290,0.308392947
1750932843.477744818,-1.629129169,-1.883857755,-1.171068087,1.582616297,-0.318695252,-1.862076673,0.088718464,0.079273680,0.102618709,0.036060785,-0.019740017,0.139316571,3.928555757,4.214630709,0.335646463,0.007867571,-0.003118091,0.308382043
1750932843.479620695,-1.628951333,-1.883698617,-1.170862190,1.582688572,-0.318734842,-1.861797204,0.089117373,0.079864470,0.103277722,0.036214218,-0.019850083,0.140152999,3.926841374,4.215338665,0.335703762,0.007840305,-0.003115962,0.308370984
1750932843.481618643,-1.628772701,-1.883538296,-1.170654975,1.582761153,-0.318774653,-1.861516061,0.089513763,0.080457231,0.103937420,0.036366473,-0.019960076,0.140989259,3.925117983,4.216050194,0.335761318,0.007812867,-0.003113905,0.308359767
1750932843.483846664,-1.628593279,-1.883376787,-1.170446440,1.582834037,-0.318814683,-1.861233247,0.089907620,0.081051974,0.104597806,0.036517544,-0.020069998,0.141825351,3.923385610,4.216765282,0.335819127,0.007785258,-0.003111921,0.308348391
1750932843.485699892,-1.628413072,-1.883214086,-1.170236584,1.582907222,-0.318854932,-1.860948760,0.090298930,0.081648710,0.105258885,0.036667424,-0.020179853,0.142661273,3.921644283,4.217483918,0.335877188,0.007757478,-0.003110011,0.308336854
1750932843.487824678,-1.628232085,-1.883050191,-1.170025404,1.582980706,-0.318895402,-1.860662602,0.090687675,0.082247450,0.105920661,0.036816106,-0.020289642,0.143497022,3.919894026,4.218206087,0.335935500,0.007729526,-0.003108178,0.308325152
1750932843.489781141,-1.628232085,-1.883050191,-1.170025404,1.582980706,-0.318895402,-1.860662602,0.090687675,0.082247450,0.105920661,0.036816106,-0.020289642,0.143497022,3.919894026,4.218206087,0.335935500,0.007729526,-0.003108178,0.308325152
1750932843.491827488,-1.628050323,-1.882885095,-1.169812900,1.583054486,-0.318936091,-1.860374772,0.091073843,0.082848204,0.106583139,0.036963582,-0.020399370,0.144332598,3.918134868,4.218931779,0.335994059,0.007701402,-0.003106422,0.308313285
1750932843.493649244,-1.627867792,-1.882718796,-1.169599071,1.583128560,-0.318976999,-1.860085272,0.091457417,0.083450985,0.107246323,0.037109847,-0.020509037,0.145167998,3.916366834,4.219660979,0.336052865,0.007673108,-0.003104745,0.308301250
1750932843.501904488,-1.627684496,-1.882551290,-1.169383915,1.583202924,-0.319018127,-1.859794100,0.091838382,0.084055803,0.107910218,0.037254893,-0.020618648,0.146003221,3.914589953,4.220393676,0.336111916,0.007644641,-0.003103149,0.308289044
1750932843.501999617,-1.627684496,-1.882551290,-1.169383915,1.583202924,-0.319018127,-1.859794100,0.091838382,0.084055803,0.107910218,0.037254893,-0.020618648,0.146003221,3.914589953,4.220393676,0.336111916,0.007644641,-0.003103149,0.308289044
1750932843.502127886,-1.627684496,-1.882551290,-1.169383915,1.583202924,-0.319018127,-1.859794100,0.091838382,0.084055803,0.107910218,0.037254893,-0.020618648,0.146003221,3.914589953,4.220393676,0.336111916,0.007644641,-0.003103149,0.308289044
1750932843.509895563,-1.627130072,-1.882041484,-1.168730469,1.583427743,-0.319142825,-1.858910566,0.092965473,0.085882588,0.109906204,0.037682652,-0.020947171,0.148507807,3.909206497,4.222612613,0.336290513,0.007558216,-0.003098863,0.308251385
1750932843.511818171,-1.626756730,-1.881695500,-1.168288176,1.583579033,-0.319227051,-1.858313197,0.093703547,0.087110831,0.111240492,0.037961606,-0.021165958,0.150176611,3.905573795,4.224109147,0.336410763,0.007499743,-0.003096439,0.308225386
1750932843.513938665,-1.626568958,-1.881520661,-1.168065027,1.583655094,-0.319269492,-1.858012010,0.094068542,0.087728101,0.111908738,0.038099198,-0.021275293,0.151010731,3.903744408,4.224862547,0.336471238,0.007470251,-0.003095362,0.308212112
1750932843.515655279,-1.626380458,-1.881344586,-1.167840541,1.583731429,-0.319312152,-1.857709154,0.094430823,0.088347484,0.112577723,0.038235523,-0.021384592,0.151844661,3.901906369,4.225619351,0.336531943,0.007440587,-0.003094378,0.308198653
1750932843.517659664,-1.626191236,-1.881167270,-1.167614716,1.583808035,-0.319355031,-1.857404631,0.094790374,0.088968992,0.113247453,0.038370575,-0.021493861,0.152678399,3.900059707,4.226379547,0.336592876,0.007410753,-0.003093486,0.308185004
1750932843.519634008,-1.626001298,-1.880988709,-1.167387550,1.583884910,-0.319398128,-1.857098441,0.095147180,0.089592636,0.113917932,0.038504348,-0.021603100,0.153511943,3.898204450,4.227143121,0.336654035,0.007380748,-0.003092691,0.308171165
1750932843.521776915,-1.625810650,-1.880808898,-1.167159044,1.583962052,-0.319441443,-1.856790584,0.095501227,0.090218425,0.114589164,0.038636834,-0.021712315,0.154345291,3.896340628,4.227910059,0.336715417,0.007350573,-0.003091992,0.308157132
1750932843.523781776,-1.625619295,-1.880627834,-1.166929193,1.584039457,-0.319484977,-1.856481060,0.095852499,0.090846372,0.115261153,0.038768027,-0.021821509,0.155178441,3.894468271,4.228680348,0.336777022,0.007320227,-0.003091393,0.308142903
1750932843.525651693,-1.625427241,-1.880445511,-1.166697998,1.584117123,-0.319528729,-1.856169870,0.096200981,0.091476487,0.115933903,0.038897920,-0.021930685,0.156011391,3.892587407,4.229453974,0.336838846,0.007289711,-0.003090894,0.308128476
1750932843.527676821,-1.625234493,-1.880261926,-1.166465457,1.584195048,-0.319572700,-1.855857015,0.096546658,0.092108780,0.116607418,0.039026507,-0.022039847,0.156844139,3.890698066,4.230230923,0.336900887,0.007259025,-0.003090497,0.308113848
1750932843.530156851,-1.625041057,-1.880077075,-1.166231568,1.584273228,-0.319616888,-1.855542494,0.096889515,0.092743263,0.117281704,0.039153781,-0.022148999,0.157676683,3.888800279,4.231011183,0.336963143,0.007228169,-0.003090203,0.308099016
1750932843.532048941,-1.624846937,-1.879890952,-1.165996330,1.584351662,-0.319661296,-1.855226308,0.097229537,0.093379947,0.117956763,0.039279735,-0.022258144,0.158509021,3.886894075,4.231794739,0.337025613,0.007197143,-0.003090016,0.308083979
1750932843.533843756,-1.624652140,-1.879703553,-1.165759741,1.584430346,-0.319705921,-1.854908458,0.097566709,0.094018842,0.118632601,0.039404362,-0.022367286,0.159341152,3.884979486,4.232581577,0.337088293,0.007165947,-0.003089936,0.308068733
1750932843.536808968,-1.624456672,-1.879514875,-1.165521799,1.584509278,-0.319750765,-1.854588944,0.097901016,0.094659958,0.119309221,0.039527657,-0.022476429,0.160173072,3.883056541,4.233371683,0.337151181,0.007134581,-0.003089965,0.308053276
1750932843.537763834,-1.624260538,-1.879324912,-1.165282503,1.584588456,-0.319795827,-1.854267766,0.098232442,0.095303308,0.119986627,0.039649611,-0.022585577,0.161004781,3.881125272,4.234165045,0.337214275,0.007103046,-0.003090104,0.308037605
1750932843.540752888,-1.624063744,-1.879133660,-1.165041852,1.584667876,-0.319841107,-1.853944925,0.098560974,0.095948901,0.120664825,0.039770220,-0.022694734,0.161836276,3.879185709,4.234961647,0.337277573,0.007071342,-0.003090357,0.308021717
1750932843.542516708,-1.623866296,-1.878941115,-1.164799843,1.584747536,-0.319886606,-1.853620421,0.098886595,0.096596748,0.121343817,0.039889475,-0.022803904,0.162667554,3.877237885,4.235761475,0.337341073,0.007039469,-0.003090723,0.308005610
1750932843.543750286,-1.623668200,-1.878747272,-1.164556476,1.584827433,-0.319932323,-1.853294254,0.099209291,0.097246860,0.122023608,0.040007371,-0.022913091,0.163498614,3.875281829,4.236564516,0.337404772,0.007007426,-0.003091205,0.307989281
1750932843.545674562,-1.623469461,-1.878552126,-1.164311748,1.584907564,-0.319978258,-1.852966426,0.099529047,0.097899248,0.122704202,0.040123901,-0.023022299,0.164329454,3.873317574,4.237370755,0.337468667,0.006975215,-0.003091806,0.307972728
1750932843.547689915,-1.623270086,-1.878355673,-1.164065659,1.584987928,-0.320024412,-1.852636937,0.099845847,0.098553923,0.123385603,0.040239059,-0.023131533,0.165160072,3.871345152,4.238180178,0.337532757,0.006942836,-0.003092526,0.307955946
1750932843.556177616,-1.623070080,-1.878157909,-1.163818205,1.585068520,-0.320070784,-1.852305786,0.100159678,0.099210895,0.124067816,0.040352837,-0.023240797,0.165990465,3.869364595,4.238992771,0.337597038,0.006910288,-0.003093367,0.307938935
1750932843.556338072,-1.623070080,-1.878157909,-1.163818205,1.585068520,-0.320070784,-1.852305786,0.100159678,0.099210895,0.124067816,0.040352837,-0.023240797,0.165990465,3.869364595,4.238992771,0.337597038,0.006910288,-0.003093367,0.307938935
1750932843.557927132,-1.622466338,-1.877556699,-1.163067648,1.585311642,-0.320211213,-1.851302373,0.101083198,0.101195700,0.126119363,0.040685833,-0.023568812,0.168480275,3.863374436,4.241449426,0.337791010,0.006811635,-0.003096638,0.307886490
1750932843.560247183,-1.622263869,-1.877353642,-1.162814724,1.585393122,-0.320258460,-1.850964583,0.101384998,0.101861968,0.126804862,0.040794030,-0.023678240,0.169309748,3.861361663,4.242274554,0.337856035,0.006778415,-0.003097983,0.307868528
1750932843.561769485,-1.622060800,-1.877149250,-1.162560428,1.585474817,-0.320305926,-1.850625134,0.101683754,0.102530586,0.127491193,0.040900816,-0.023787720,0.170138986,3.859340919,4.243102780,0.337921239,0.006745029,-0.003099459,0.307850322
1750932843.563870907,-1.621857136,-1.876943518,-1.162304758,1.585556724,-0.320353611,-1.850284027,0.101979449,0.103201565,0.128178359,0.041006184,-0.023897258,0.170967985,3.857312236,4.243934089,0.337986620,0.006711475,-0.003101067,0.307831867
1750932843.565861702,-1.621652884,-1.876736442,-1.162047714,1.585638841,-0.320401515,-1.849941262,0.102272069,0.103874916,0.128866366,0.041110128,-0.024006857,0.171796745,3.855275649,4.244768467,0.338052176,0.006677754,-0.003102809,0.307813162
1750932843.569432735,-1.621448050,-1.876528017,-1.161789292,1.585721164,-0.320449638,-1.849596840,0.102561600,0.104550650,0.129555216,0.041212641,-0.024116523,0.172625263,3.853231191,4.245605898,0.338117903,0.006643866,-0.003104687,0.307794203
1750932843.569579124,-1.621242639,-1.876318238,-1.161529492,1.585803691,-0.320497981,-1.849250761,0.102848025,0.105228776,0.130244914,0.041313717,-0.024226260,0.173453536,3.851178896,4.246446368,0.338183800,0.006609813,-0.003106703,0.307774987
1750932843.572704554,-1.621036660,-1.876107100,-1.161268312,1.585886418,-0.320546543,-1.848903026,0.103131332,0.105909306,0.130935463,0.041413350,-0.024336074,0.174281562,3.849118799,4.247289862,0.338249864,0.006575593,-0.003108858,0.307755511
1750932843.574666023,-1.621036660,-1.876107100,-1.161268312,1.585886418,-0.320546543,-1.848903026,0.103131332,0.105909306,0.130935463,0.041413350,-0.024336074,0.174281562,3.849118799,4.247289862,0.338249864,0.006575593,-0.003108858,0.307755511
1750932843.575995445,-1.620830116,-1.875894599,-1.161005750,1.585969343,-0.320595325,-1.848553635,0.103411504,0.106592251,0.131626869,0.041511533,-0.024445969,0.175109339,3.847050933,4.248136365,0.338316091,0.006541207,-0.003111156,0.307735771
1750932843.577780724,-1.620623016,-1.875680730,-1.160741804,1.586052463,-0.320644327,-1.848202589,0.103688526,0.107277620,0.132319134,0.041608260,-0.024555951,0.175936864,3.844975334,4.248985863,0.338382480,0.006506656,-0.003113597,0.307715765
1750932843.579759836,-1.620415364,-1.875465487,-1.160476473,1.586135775,-0.320693549,-1.847849888,0.103962385,0.107965425,0.133012262,0.041703525,-0.024666025,0.176764135,3.842892037,4.249838340,0.338449027,0.006471940,-0.003116183,0.307695490
1750932843.581876040,-1.620207168,-1.875248866,-1.160209754,1.586219276,-0.320742992,-1.847495533,0.104233064,0.108655676,0.133706259,0.041797321,-0.024776196,0.177591151,3.840801075,4.250693781,0.338515731,0.006437059,-0.003118917,0.307674941
1750932843.583883047,-1.619998434,-1.875030863,-1.159941647,1.586302963,-0.320792654,-1.847139524,0.104500549,0.109348383,0.134401126,0.041889643,-0.024886470,0.178417907,3.838702486,4.251552171,0.338582587,0.006402014,-0.003121800,0.307654117
1750932843.585883379,-1.619789168,-1.874811471,-1.159672149,1.586386834,-0.320842537,-1.846781861,0.104764826,0.110043557,0.135096869,0.041980483,-0.024996851,0.179244403,3.836596304,4.252413496,0.338649594,0.006366804,-0.003124834,0.307633013
1750932843.587769508,-1.619579377,-1.874590687,-1.159401259,1.586470884,-0.320892642,-1.846422546,0.105025879,0.110741209,0.135793492,0.042069837,-0.025107345,0.180070635,3.834482565,4.253277740,0.338716749,0.006331430,-0.003128021,0.307611626
1750932843.589741468,-1.619369067,-1.874368505,-1.159128975,1.586555112,-0.320942967,-1.846061579,0.105283694,0.111441349,0.136490997,0.042157697,-0.025217958,0.180896601,3.832361305,4.254144887,0.338784049,0.006295892,-0.003131364,0.307589954
1750932843.591860294,-1.619158244,-1.874144920,-1.158855294,1.586639514,-0.320993514,-1.845698960,0.105538256,0.112143988,0.137189389,0.042244058,-0.025328695,0.181722299,3.830232561,4.255014922,0.338851491,0.006260192,-0.003134863,0.307567992
1750932843.593781710,-1.618946916,-1.873919927,-1.158580217,1.586724087,-0.321044282,-1.845334690,0.105789549,0.112849135,0.137888672,0.042328912,-0.025439562,0.182547726,3.828096368,4.255887831,0.338919072,0.006224328,-0.003138521,0.307545737
1750932843.596028566,-1.618735088,-1.873693521,-1.158303739,1.586808829,-0.321095272,-1.844968769,0.106037560,0.113556802,0.138588850,0.042412256,-0.025550564,0.183372880,3.825952763,4.256763598,0.338986789,0.006188302,-0.003142341,0.307523185
1750932843.597924948,-1.618522768,-1.873465698,-1.158025861,1.586893735,-0.321146484,-1.844601199,0.106282273,0.114267000,0.139289925,0.042494081,-0.025661708,0.184197758,3.823801784,4.257642206,0.339054640,0.006152114,-0.003146323,0.307500334
1750932843.600048065,-1.618309942,-1.873236364,-1.157746703,1.586978871,-0.321197861,-1.844231926,0.106555251,0.115125182,0.139785587,0.042684202,-0.025676882,0.185109642,3.843878142,4.293954283,0.334849226,0.009509356,-0.000442667,0.341108559
1750932843.604839325,-1.618096542,-1.873005157,-1.157466776,1.587064499,-0.321249164,-1.843860738,0.106844511,0.116082990,0.140140913,0.042943398,-0.025626046,0.186078245,3.855870449,4.318281733,0.331942903,0.011657405,0.001416995,0.363089941
1750932843.605580807,-1.617882567,-1.872772028,-1.157186144,1.587150642,-0.321300362,-1.843487613,0.107129206,0.117046168,0.140488765,0.043199815,-0.025571014,0.187046678,3.853281522,4.319596452,0.331776533,0.011585860,0.001535293,0.363163826
1750932843.614735126,-1.617237291,-1.872061011,-1.156340179,1.587412112,-0.321453238,-1.842356619,0.107955733,0.119968067,0.141487524,0.043952287,-0.025380809,0.189950928,3.845467047,4.323565703,0.331278297,0.011369696,0.001888902,0.363383705
1750932843.614791870,-1.617237291,-1.872061011,-1.156340179,1.587412112,-0.321453238,-1.842356619,0.107955733,0.119968067,0.141487524,0.043952287,-0.025380809,0.189950928,3.845467047,4.323565703,0.331278297,0.011369696,0.001888902,0.363383705
1750932843.617574453,-1.616587181,-1.871332317,-1.155488415,1.587678021,-0.321604864,-1.841208205,0.108740541,0.122938818,0.142419176,0.044679375,-0.025153108,0.192853538,3.837582461,4.327572302,0.330781273,0.011151241,0.002240523,0.363600816
1750932843.617624521,-1.616587181,-1.871332317,-1.155488415,1.587678021,-0.321604864,-1.841208205,0.108740541,0.122938818,0.142419176,0.044679375,-0.025153108,0.192853538,3.837582461,4.327572302,0.330781273,0.011151241,0.002240523,0.363600816
1750932843.618312597,-1.616587181,-1.871332317,-1.155488415,1.587678021,-0.321604864,-1.841208205,0.108740541,0.122938818,0.142419176,0.044679375,-0.025153108,0.192853538,3.837582461,4.327572302,0.330781273,0.011151241,0.002240523,0.363600816
1750932843.622937679,-1.616151212,-1.870836557,-1.154917549,1.587857684,-0.321705142,-1.840432923,0.109240331,0.124946654,0.143003054,0.045149859,-0.024980584,0.194787658,3.832288033,4.330263929,0.330450538,0.011004335,0.002473796,0.363743950
1750932843.623001575,-1.616151212,-1.870836557,-1.154917549,1.587857684,-0.321705142,-1.840432923,0.109240331,0.124946654,0.143003054,0.045149859,-0.024980584,0.194787658,3.832288033,4.330263929,0.330450538,0.011004335,0.002473796,0.363743950
1750932843.626976490,-1.615932487,-1.870585654,-1.154631253,1.587948217,-0.321755015,-1.840042381,0.109483149,0.125958816,0.143283838,0.045380798,-0.024888129,0.195754422,3.829629615,4.331615867,0.330285341,0.010930503,0.002590081,0.363815018
1750932843.627026796,-1.615932487,-1.870585654,-1.154631253,1.587948217,-0.321755015,-1.840042381,0.109483149,0.125958816,0.143283838,0.045380798,-0.024888129,0.195754422,3.829629615,4.331615867,0.330285341,0.010930503,0.002590081,0.363815018
1750932843.631361723,-1.615493604,-1.870077750,-1.154057010,1.588130653,-0.321854189,-1.839255497,0.109954541,0.127999699,0.143823116,0.045834020,-0.024690877,0.197687342,3.824290716,4.334331921,0.329955268,0.010782081,0.002821938,0.363956131
1750932843.631405354,-1.615273465,-1.869820726,-1.153769091,1.588222545,-0.321903472,-1.838859157,0.110183080,0.129028451,0.144081619,0.046056282,-0.024586096,0.198653491,3.821610375,4.335696007,0.329790382,0.010707492,0.002937503,0.364026163
1750932843.632121801,-1.615273465,-1.869820726,-1.153769091,1.588222545,-0.321903472,-1.838859157,0.110183080,0.129028451,0.144081619,0.046056282,-0.024586096,0.198653491,3.821610375,4.335696007,0.329790382,0.010707492,0.002937503,0.364026163
1750932843.634134769,-1.615052873,-1.869561640,-1.153480662,1.588314879,-0.321952543,-1.838460884,0.110406824,0.130062761,0.144332702,0.046275632,-0.024477224,0.199619429,3.818922866,4.337064113,0.329625590,0.010632652,0.003052823,0.364095839
1750932843.636498451,-1.614831838,-1.869300480,-1.153191735,1.588407650,-0.322001394,-1.838060680,0.110625756,0.131102644,0.144576369,0.046492059,-0.024364270,0.200585151,3.816228258,4.338436223,0.329460888,0.010557562,0.003167894,0.364165152
1750932843.637829065,-1.614610371,-1.869037235,-1.152902327,1.588500850,-0.322050015,-1.837658544,0.110839858,0.132148115,0.144812625,0.046705553,-0.024247242,0.201550655,3.813526622,4.339812323,0.329296272,0.010482222,0.003282714,0.364234096
1750932843.640823603,-1.614388479,-1.868771894,-1.152612451,1.588594475,-0.322098399,-1.837254478,0.111049112,0.133199188,0.145041473,0.046916105,-0.024126149,0.202515937,3.810818028,4.341192396,0.329131737,0.010406632,0.003397280,0.364302665
1750932843.641911745,-1.614166174,-1.868504446,-1.152322123,1.588688518,-0.322146538,-1.836848482,0.111253502,0.134255878,0.145262916,0.047123704,-0.024001001,0.203480994,3.808102548,4.342576429,0.328967278,0.010330793,0.003511590,0.364370853
1750932843.643846989,-1.613943465,-1.868234879,-1.152031357,1.588782974,-0.322194424,-1.836440556,0.111453009,0.135318199,0.145476958,0.047328341,-0.023871807,0.204445822,3.805380251,4.343964405,0.328802891,0.010254706,0.003625640,0.364438654
1750932843.645999432,-1.613943465,-1.868234879,-1.152031357,1.588782974,-0.322194424,-1.836440556,0.111453009,0.135318199,0.145476958,0.047328341,-0.023871807,0.204445822,3.805380251,4.343964405,0.328802891,0.010254706,0.003625640,0.364438654
1750932843.647785664,-1.613720362,-1.867963183,-1.151740168,1.588877836,-0.322242048,-1.836030700,0.111647617,0.136386166,0.145683604,0.047530005,-0.023738576,0.205410417,3.802651208,4.345356309,0.328638571,0.010178371,0.003739429,0.364506061
1750932843.649790049,-1.613496874,-1.867689346,-1.151448570,1.588973100,-0.322289404,-1.835618915,0.111837308,0.137459793,0.145882855,0.047728687,-0.023601318,0.206374775,3.799915491,4.346752125,0.328474314,0.010101789,0.003852952,0.364573068
1750932843.651763916,-1.613273011,-1.867413357,-1.151156578,1.589068758,-0.322336482,-1.835205202,0.112022064,0.138539094,0.146074716,0.047924377,-0.023460041,0.207338894,3.797173171,4.348151838,0.328310115,0.010024961,0.003966208,0.364639668
1750932843.653843403,-1.613048784,-1.867135204,-1.150864208,1.589164804,-0.322383275,-1.834789561,0.112201869,0.139624084,0.146259190,0.048117066,-0.023314756,0.208302770,3.794424319,4.349555432,0.328145971,0.009947888,0.004079194,0.364705854
1750932843.655826092,-1.612824202,-1.866854877,-1.150571472,1.589261234,-0.322429775,-1.834371993,0.112376706,0.140714777,0.146436281,0.048306743,-0.023165472,0.209266399,3.791669008,4.350962890,0.327981875,0.009870570,0.004191907,0.364771620
1750932843.658398390,-1.612599275,-1.866572363,-1.150278387,1.589358040,-0.322475974,-1.833952498,0.112546556,0.141811188,0.146605991,0.048493400,-0.023012199,0.210229776,3.788907308,4.352374197,0.327817824,0.009793008,0.004304345,0.364836959
1750932843.659663916,-1.612374013,-1.866287651,-1.149984967,1.589455217,-0.322521863,-1.833531076,0.112711404,0.142913331,0.146768324,0.048677026,-0.022854947,0.211192900,3.786139292,4.353789337,0.327653813,0.009715202,0.004416504,0.364901864
1750932843.661843777,-1.612148426,-1.866000731,-1.149691226,1.589552759,-0.322567436,-1.833107729,0.112871231,0.144021220,0.146923283,0.048857612,-0.022693726,0.212155765,3.783365032,4.355208294,0.327489837,0.009637155,0.004528383,0.364966328
1750932843.664149284,-1.611922524,-1.865711589,-1.149397180,1.589650659,-0.322612685,-1.832682456,0.113026021,0.145134870,0.147070871,0.049035148,-0.022528546,0.213118368,3.780584600,4.356631050,0.327325892,0.009558866,0.004639977,0.365030344
1750932843.665814638,-1.611696317,-1.865420216,-1.149102842,1.589748912,-0.322657600,-1.832255258,0.113175757,0.146254296,0.147211091,0.049209626,-0.022359417,0.214080705,3.777798070,4.358057590,0.327161974,0.009480337,0.004751286,0.365093905
1750932843.667809725,-1.611469816,-1.865126599,-1.148808227,1.589847511,-0.322702176,-1.831826135,0.113320422,0.147379511,0.147343946,0.049381035,-0.022186349,0.215042772,3.775005513,4.359487898,0.326998078,0.009401568,0.004862305,0.365157003
1750932843.669920921,-1.611243030,-1.864830726,-1.148513350,1.589946450,-0.322746403,-1.831395090,0.113459998,0.148510530,0.147469440,0.049549367,-0.022009353,0.216004565,3.772207003,4.360921956,0.326834198,0.009322561,0.004973033,0.365219631
1750932843.671836615,-1.611015970,-1.864532587,-1.148218226,1.590045724,-0.322790273,-1.830962120,0.113594469,0.149647368,0.147587574,0.049714611,-0.021828440,0.216966081,3.769402612,4.362359747,0.326670331,0.009243316,0.005083466,0.365281782
1750932843.673865557,-1.610788646,-1.864232169,-1.147922870,1.590145326,-0.322833781,-1.830527229,0.113723817,0.150790038,0.147698351,0.049876760,-0.021643619,0.217927315,3.766592415,4.363801256,0.326506472,0.009163834,0.005193602,0.365343448
1750932843.677947283,-1.610788646,-1.864232169,-1.147922870,1.590145326,-0.322833781,-1.830527229,0.113723817,0.150790038,0.147698351,0.049876760,-0.021643619,0.217927315,3.766592415,4.363801256,0.326506472,0.009163834,0.005193602,0.365343448
1750932843.678013802,-1.610333247,-1.863624452,-1.147331516,1.590345488,-0.322919672,-1.829651679,0.113967081,0.153092934,0.147897848,0.050191733,-0.021262297,0.219848924,3.760954894,4.366695358,0.326178760,0.009004165,0.005412973,0.365465294
1750932843.679778099,-1.610105192,-1.863317129,-1.147035549,1.590446036,-0.322962041,-1.829211023,0.114080963,0.154253189,0.147986573,0.050344539,-0.021065818,0.220809289,3.758127717,4.368147916,0.326014897,0.008923980,0.005522202,0.365525459
1750932843.681865692,-1.609876914,-1.863007480,-1.146739407,1.590546887,-0.323004016,-1.828768446,0.114189655,0.155419333,0.148067952,0.050494212,-0.020865476,0.221769357,3.755295029,4.369604123,0.325851024,0.008843563,0.005631124,0.365585108
1750932843.686181784,-1.609876914,-1.863007480,-1.146739407,1.590546887,-0.323004016,-1.828768446,0.114189655,0.155419333,0.148067952,0.050494212,-0.020865476,0.221769357,3.755295029,4.369604123,0.325851024,0.008843563,0.005631124,0.365585108
1750932843.687975883,-1.609876914,-1.863007480,-1.146739407,1.590546887,-0.323004016,-1.828768446,0.114189655,0.155419333,0.148067952,0.050494212,-0.020865476,0.221769357,3.755295029,4.369604123,0.325851024,0.008843563,0.005631124,0.365585108
1750932843.690812588,-1.608961784,-1.861745398,-1.145553389,1.590953198,-0.323167812,-1.826978948,0.114572195,0.160143101,0.148320058,0.051061406,-0.020025684,0.225606569,3.743910642,4.375465095,0.325195333,0.008519596,0.006063682,0.365818383
1750932843.691889524,-1.608732548,-1.861423946,-1.145256594,1.591055471,-0.323207698,-1.826526779,0.114654690,0.161338912,0.148364744,0.051195286,-0.019806187,0.226565086,3.741051510,4.376939286,0.325031338,0.008438035,0.006171027,0.365875330
1750932843.693991661,-1.608503153,-1.861100097,-1.144959713,1.591158009,-0.323247144,-1.826072693,0.114731896,0.162540699,0.148402098,0.051325981,-0.019582894,0.227523280,3.738187314,4.378417021,0.324867304,0.008356250,0.006278048,0.365931712
1750932843.695811749,-1.608273608,-1.860773841,-1.144662760,1.591260806,-0.323286141,-1.825616692,0.114803797,0.163748476,0.148432122,0.051453483,-0.019355815,0.228481147,3.735318130,4.379898282,0.324703228,0.008274241,0.006384743,0.365987521
1750932843.697891474,-1.608273608,-1.860773841,-1.144662760,1.591260806,-0.323286141,-1.825616692,0.114803797,0.163748476,0.148432122,0.051453483,-0.019355815,0.228481147,3.735318130,4.379898282,0.324703228,0.008274241,0.006384743,0.365987521
1750932843.699868202,-1.608043924,-1.860445164,-1.144365749,1.591363855,-0.323324683,-1.825158775,0.114870375,0.164962259,0.148454819,0.051577782,-0.019124963,0.229438683,3.732444032,4.381383051,0.324539103,0.008192010,0.006491110,0.366042747
1750932843.701847076,-1.607814112,-1.860114055,-1.144068694,1.591467150,-0.323362762,-1.824698943,0.114931615,0.166182061,0.148470190,0.051698872,-0.018890349,0.230395882,3.729565097,4.382871310,0.324374927,0.008109559,0.006597146,0.366097383
1750932843.703870296,-1.607584183,-1.859780502,-1.143771612,1.591570686,-0.323400371,-1.824237198,0.114987500,0.167407896,0.148478237,0.051816743,-0.018651986,0.231352741,3.726681399,4.384363042,0.324210693,0.008026888,0.006702849,0.366151419
1750932843.705750704,-1.607354147,-1.859444492,-1.143474515,1.591674454,-0.323437502,-1.823773539,0.115038013,0.168639779,0.148478962,0.051931388,-0.018409884,0.232309255,3.723793016,4.385858227,0.324046398,0.007943999,0.006808215,0.366204846
1750932843.707932472,-1.607124015,-1.859106014,-1.143177420,1.591778450,-0.323474147,-1.823307968,0.115083140,0.169877725,0.148472367,0.052042798,-0.018164057,0.233265420,3.720900023,4.387356848,0.323882037,0.007860893,0.006913243,0.366257656
1750932843.709926367,-1.606893797,-1.858765055,-1.142880339,1.591882666,-0.323510299,-1.822840485,0.115122862,0.171121747,0.148458454,0.052150964,-0.017914515,0.234221230,3.718002497,4.388858887,0.323717604,0.007777573,0.007017930,0.366309839
1750932843.711786270,-1.606663506,-1.858421604,-1.142583288,1.591987095,-0.323545951,-1.822371091,0.115157164,0.172371860,0.148437223,0.052255880,-0.017661272,0.235176683,3.715100514,4.390364324,0.323553096,0.007694039,0.007122273,0.366361387
1750932843.713646650,-1.606433151,-1.858075647,-1.142286282,1.592091733,-0.323581096,-1.821899786,0.115186031,0.173628079,0.148408678,0.052357537,-0.017404340,0.236131772,3.712194151,4.391873142,0.323388508,0.007610293,0.007226269,0.366412290
1750932843.715591669,-1.606202743,-1.857727174,-1.141989335,1.592196571,-0.323615726,-1.821426572,0.115209444,0.174890417,0.148372818,0.052455928,-0.017143730,0.237086494,3.709283485,4.393385322,0.323223834,0.007526337,0.007329918,0.366462539
1750932843.717576027,-1.605972293,-1.857376171,-1.141692461,1.592301603,-0.323649833,-1.820951448,0.115227390,0.176158889,0.148329647,0.052551043,-0.016879456,0.238040843,3.706368592,4.394900845,0.323059070,0.007442172,0.007433215,0.366512125
1750932843.719612122,-1.605741813,-1.857022627,-1.141395675,1.592406823,-0.323683412,-1.820474417,0.115239850,0.177433509,0.148279164,0.052642877,-0.016611531,0.238994815,3.703449551,4.396419692,0.322894212,0.007357800,0.007536158,0.366561039
1750932843.721706867,-1.605511313,-1.856666529,-1.141098992,1.592512225,-0.323716453,-1.819995478,0.115246811,0.178714293,0.148221372,0.052731420,-0.016339965,0.239948405,3.700526438,4.397941845,0.322729255,0.007273223,0.007638746,0.366609270
1750932843.723763943,-1.605280804,-1.856307864,-1.140802426,1.592617801,-0.323748951,-1.819514633,0.115248254,0.180001253,0.148156271,0.052816667,-0.016064774,0.240901609,3.697599331,4.399467284,0.322564194,0.007188442,0.007740975,0.366656810
1750932843.725753069,-1.605050297,-1.855946621,-1.140505992,1.592723546,-0.323780897,-1.819031881,0.115244165,0.181294405,0.148083863,0.052898608,-0.015785968,0.241854421,3.694668307,4.400995991,0.322399024,0.007103460,0.007842843,0.366703648
1750932843.727811813,-1.604819804,-1.855582787,-1.140209704,1.592829452,-0.323812285,-1.818547225,0.115234528,0.182593763,0.148004149,0.052977237,-0.015503562,0.242806837,3.691733446,4.402527946,0.322233741,0.007018277,0.007944348,0.366749775
1750932843.729719400,-1.604589335,-1.855216350,-1.139913577,1.592935512,-0.323843107,-1.818060664,0.115219326,0.183899341,0.147917130,0.053052547,-0.015217568,0.243758851,3.688794824,4.404063131,0.322068339,0.006932895,0.008045487,0.366795181
1750932843.731776714,-1.604358902,-1.854847297,-1.139617625,1.593041721,-0.323873357,-1.817572200,0.115198544,0.185211153,0.147822807,0.053124530,-0.014927998,0.244710460,3.685852520,4.405601526,0.321902815,0.006847317,0.008146257,0.366839856
1750932843.733640909,-1.604128515,-1.854475615,-1.139321864,1.593148072,-0.323903027,-1.817081834,0.115172166,0.186529215,0.147721180,0.053193179,-0.014634868,0.245661657,3.682906612,4.407143111,0.321737163,0.006761544,0.008246657,0.366883791
1750932843.736604214,-1.603898186,-1.854101293,-1.139026307,1.593254557,-0.323932110,-1.816589565,0.115140176,0.187853540,0.147612251,0.053258487,-0.014338189,0.246612438,3.679957180,4.408687868,0.321571379,0.006675579,0.008346684,0.366926975
1750932843.737633944,-1.603667927,-1.853724317,-1.138730969,1.593361171,-0.323960599,-1.816095395,0.115102559,0.189184142,0.147496020,0.053320448,-0.014037974,0.247562798,3.677004301,4.410235777,0.321405458,0.006589422,0.008446336,0.366969398
1750932843.739695549,-1.603437748,-1.853344676,-1.138435865,1.593467907,-0.323988487,-1.815599326,0.115059299,0.190521037,0.147372488,0.053379054,-0.013734238,0.248512732,3.674048055,4.411786819,0.321239395,0.006503076,0.008545610,0.367011050
1750932843.747801065,-1.603207661,-1.852962356,-1.138141009,1.593574757,-0.324015768,-1.815101357,0.115010380,0.191864239,0.147241655,0.053434298,-0.013426994,0.249462234,3.671088520,4.413340972,0.321073185,0.006416543,0.008644505,0.367051921
1750932843.747863531,-1.603207661,-1.852962356,-1.138141009,1.593574757,-0.324015768,-1.815101357,0.115010380,0.191864239,0.147241655,0.053434298,-0.013426994,0.249462234,3.671088520,4.413340972,0.321073185,0.006416543,0.008644505,0.367051921
1750932843.748263359,-1.602977677,-1.852577345,-1.137846416,1.593681715,-0.324042433,-1.814601489,0.114955786,0.193213761,0.147103523,0.053486175,-0.013116255,0.250411300,3.668125777,4.414898219,0.320906824,0.006329825,0.008743016,0.367092000
1750932843.750675440,-1.602518064,-1.851799199,-1.137258076,1.593895929,-0.324093890,-1.813596063,0.114829513,0.195931828,0.146805359,0.053579797,-0.012484348,0.252308101,3.662190980,4.418021913,0.320573629,0.006155841,0.008938884,0.367169741
1750932843.751664400,-1.602288458,-1.851406038,-1.136964359,1.594003171,-0.324118669,-1.813090506,0.114757803,0.197300400,0.146645328,0.053621530,-0.012163208,0.253255825,3.659219087,4.419588320,0.320406786,0.006068580,0.009036235,0.367207382
1750932843.753791332,-1.602059000,-1.851010136,-1.136670963,1.594110495,-0.324142805,-1.812583054,0.114680356,0.198675352,0.146477999,0.053659870,-0.011838628,0.254203092,3.656244303,4.421157740,0.320239772,0.005981141,0.009133194,0.367244190
1750932843.755671740,-1.601829703,-1.850611480,-1.136377903,1.594217893,-0.324166291,-1.812073708,0.114597158,0.200056696,0.146303371,0.053694809,-0.011510622,0.255149897,3.653266709,4.422730154,0.320072582,0.005893528,0.009229760,0.367280153
1750932843.758411169,-1.601600578,-1.850210055,-1.136085192,1.594325358,-0.324189122,-1.811562469,0.114508192,0.201444449,0.146121444,0.053726343,-0.011179205,0.256096232,3.650286384,4.424305541,0.319905213,0.005805742,0.009325930,0.367315261
1750932843.759707928,-1.601371635,-1.849805851,-1.135792847,1.594432884,-0.324211289,-1.811049338,0.114413444,0.202838624,0.145932219,0.053754464,-0.010844391,0.257042094,3.647303410,4.425883881,0.319737659,0.005717785,0.009421702,0.367349503
1750932843.761645794,-1.601142888,-1.849398853,-1.135500881,1.594540464,-0.324232786,-1.810534316,0.114312898,0.204239236,0.145735695,0.053779168,-0.010506194,0.257987477,3.644317867,4.427465154,0.319569915,0.005629660,0.009517073,0.367382868
1750932843.763628244,-1.600914347,-1.848989050,-1.135209309,1.594648091,-0.324253606,-1.810017404,0.114206539,0.205646299,0.145531872,0.053800447,-0.010164627,0.258932375,3.641329835,4.429049339,0.319401977,0.005541369,0.009612041,0.367415345
1750932843.765653849,-1.600686024,-1.848576427,-1.134918145,1.594755758,-0.324273743,-1.809498602,0.114094351,0.207059828,0.145320750,0.053818298,-0.009819706,0.259876782,3.638339395,4.430636416,0.319233840,0.005452914,0.009706605,0.367446923
1750932843.767754316,-1.600457931,-1.848160973,-1.134627405,1.594863458,-0.324293190,-1.808977913,0.113976320,0.208479838,0.145102329,0.053832713,-0.009471445,0.260820694,3.635346628,4.432226364,0.319065499,0.005364298,0.009800762,0.367477592
1750932843.770429611,-1.600230080,-1.847742674,-1.134337102,1.594971186,-0.324311940,-1.808455337,0.113852431,0.209906343,0.144876607,0.053843688,-0.009119859,0.261764104,3.632351616,4.433819164,0.318896949,0.005275522,0.009894510,0.367507339
1750932843.771633148,-1.600001994,-1.847323159,-1.134046118,1.595079035,-0.324330770,-1.807931663,0.114271416,0.209495804,0.145917027,0.053967262,-0.009643039,0.261821552,3.795780170,4.068906779,0.342009133,0.005874225,-0.014747877,-0.005343842
1750932843.774124384,-1.599772943,-1.846904892,-1.133752758,1.595187159,-0.324350848,-1.807408079,0.114756429,0.208861156,0.147105972,0.054104135,-0.010269405,0.261770765,3.814785534,4.025024948,0.344685076,0.005940024,-0.017654589,-0.050953596
1750932843.775666475,-1.599542923,-1.846487894,-1.133457022,1.595295557,-0.324372177,-1.806884597,0.115240448,0.208228200,0.148287263,0.054240222,-0.010891218,0.261720371,3.813451316,4.026049720,0.344504686,0.005925459,-0.017526287,-0.050840235
1750932843.778028488,-1.599311936,-1.846072162,-1.133158924,1.595404227,-0.324394748,-1.806361216,0.115723474,0.207596939,0.149460896,0.054375526,-0.011508483,0.261670367,3.812109403,4.027072827,0.344323982,0.005910978,-0.017398072,-0.050726846
1750932843.780027628,-1.599079983,-1.845657692,-1.132858481,1.595513169,-0.324418553,-1.805837934,0.116205509,0.206967377,0.150626864,0.054510050,-0.012121202,0.261620755,3.810759828,4.028094270,0.344142963,0.005896579,-0.017269944,-0.050613427
1750932843.782358646,-1.598847067,-1.845244482,-1.132555706,1.595622380,-0.324443581,-1.805314751,0.116686554,0.206339515,0.151785164,0.054643796,-0.012729377,0.261571533,3.809402621,4.029114048,0.343961627,0.005882259,-0.017141903,-0.050499971
1750932843.784271479,-1.598613189,-1.844832527,-1.132250616,1.595731858,-0.324469825,-1.804791667,0.117166610,0.205713358,0.152935789,0.054776766,-0.013333013,0.261522701,3.808037815,4.030132161,0.343779972,0.005868015,-0.017013948,-0.050386476
1750932843.785803795,-1.598378352,-1.844421825,-1.131943227,1.595841603,-0.324497274,-1.804268680,0.117645679,0.205088907,0.154078735,0.054908961,-0.013932113,0.261474259,3.806665441,4.031148607,0.343597996,0.005853845,-0.016886078,-0.050272936
1750932843.787804604,-1.598142557,-1.844012372,-1.131633552,1.595951613,-0.324525921,-1.803745789,0.118123763,0.204466166,0.155213996,0.055040384,-0.014526678,0.261426206,3.805285529,4.032163387,0.343415697,0.005839746,-0.016758295,-0.050159348
1750932843.789822817,-1.597905807,-1.843604164,-1.131321609,1.596061886,-0.324555755,-1.803222995,0.118600862,0.203845138,0.156341567,0.055171036,-0.015116713,0.261378543,3.803898112,4.033176499,0.343233074,0.005825716,-0.016630596,-0.050045707
1750932843.791761875,-1.597668103,-1.843197198,-1.131007411,1.596172420,-0.324586767,-1.802700296,0.119076979,0.203225824,0.157461444,0.055300919,-0.015702220,0.261331268,3.802503221,4.034187943,0.343050125,0.005811751,-0.016502983,-0.049932009
1750932843.793717146,-1.597429447,-1.842791470,-1.130690975,1.596283215,-0.324618949,-1.802177691,0.119552114,0.202608229,0.158573620,0.055430035,-0.016283202,0.261284382,3.801100886,4.035197719,0.342866849,0.005797849,-0.016375455,-0.049818251
1750932843.795738459,-1.597189842,-1.842386978,-1.130372316,1.596394268,-0.324652292,-1.801655179,0.120026271,0.201992354,0.159678091,0.055558385,-0.016859663,0.261237884,3.799691138,4.036205824,0.342683242,0.005784007,-0.016248011,-0.049704427
1750932843.797790527,-1.597189842,-1.842386978,-1.130372316,1.596394268,-0.324652292,-1.801655179,0.120026271,0.201992354,0.159678091,0.055558385,-0.016859663,0.261237884,3.799691138,4.036205824,0.342683242,0.005784007,-0.016248011,-0.049704427
1750932843.799904108,-1.596949289,-1.841983718,-1.130051450,1.596505579,-0.324686786,-1.801132761,0.120499449,0.201378203,0.160774852,0.055685971,-0.017431605,0.261191774,3.798274009,4.037212260,0.342499305,0.005770223,-0.016120652,-0.049590535
1750932843.801972389,-1.596707790,-1.841581686,-1.129728391,1.596617145,-0.324722423,-1.800610434,0.120971651,0.200765777,0.161863897,0.055812794,-0.017999032,0.261146051,3.796849528,4.038217024,0.342315035,0.005756495,-0.015993376,-0.049476570
1750932843.804787636,-1.596465348,-1.841180878,-1.129403156,1.596728965,-0.324759193,-1.800088199,0.121442879,0.200155080,0.162945223,0.055938855,-0.018561945,0.261100717,3.795417727,4.039220116,0.342130431,0.005742820,-0.015866184,-0.049362529
1750932843.805981398,-1.596221963,-1.840781292,-1.129075759,1.596841037,-0.324797088,-1.799566054,0.121913134,0.199546114,0.164018823,0.056064155,-0.019120349,0.261055769,3.793978636,4.040221536,0.341945491,0.005729194,-0.015739076,-0.049248406
1750932843.808314323,-1.595977639,-1.840382924,-1.128746217,1.596953361,-0.324836098,-1.799043999,0.122382419,0.198938882,0.165084693,0.056188696,-0.019674246,0.261011209,3.792532285,4.041221282,0.341760213,0.005715616,-0.015612051,-0.049134200
1750932843.809745073,-1.595732377,-1.839985770,-1.128414544,1.597065934,-0.324876214,-1.798522033,0.122850734,0.198333386,0.166142828,0.056312479,-0.020223640,0.260967035,3.791078704,4.042219354,0.341574597,0.005702084,-0.015485110,-0.049019905
1750932843.816815615,-1.595486178,-1.839589827,-1.128080757,1.597178755,-0.324917427,-1.798000155,0.123318083,0.197729628,0.167193223,0.056435504,-0.020768532,0.260923248,3.789617924,4.043215750,0.341388640,0.005688594,-0.015358251,-0.048905518
1750932843.816872358,-1.595239046,-1.839195092,-1.127744870,1.597291823,-0.324959729,-1.797478364,0.123784466,0.197127611,0.168235873,0.056557772,-0.021308926,0.260879848,3.788149974,4.044210471,0.341202340,0.005675145,-0.015231474,-0.048791035
1750932843.817968845,-1.595239046,-1.839195092,-1.127744870,1.597291823,-0.324959729,-1.797478364,0.123784466,0.197127611,0.168235873,0.056557772,-0.021308926,0.260879848,3.788149974,4.044210471,0.341202340,0.005675145,-0.015231474,-0.048791035
1750932843.819700956,-1.594492064,-1.838018095,-1.126724770,1.597632489,-0.325093074,-1.795913508,0.125177844,0.195332031,0.171317305,0.056920045,-0.022903151,0.260751966,3.783703404,4.047184567,0.340641376,0.005635014,-0.014851638,-0.048446977
1750932843.821617603,-1.594241214,-1.837628154,-1.126380642,1.597746527,-0.325139638,-1.795392060,0.125640387,0.194737002,0.172328928,0.057039294,-0.023425583,0.260710111,3.782207073,4.048172575,0.340453694,0.005621702,-0.014725190,-0.048332075
1750932843.823739767,-1.593989440,-1.837239403,-1.126034493,1.597860804,-0.325187247,-1.794870694,0.126101974,0.194143725,0.173332781,0.057157789,-0.023943531,0.260668642,3.780703720,4.049158901,0.340265663,0.005608418,-0.014598823,-0.048217060
1750932843.825674057,-1.593736744,-1.836851838,-1.125686337,1.597975318,-0.325235889,-1.794349412,0.126562609,0.193552204,0.174328861,0.057275531,-0.024456999,0.260627559,3.779193375,4.050143546,0.340077281,0.005595159,-0.014472537,-0.048101928
1750932843.827812672,-1.593483127,-1.836465456,-1.125336191,1.598090069,-0.325285557,-1.793828211,0.127022293,0.192962439,0.175317162,0.057392521,-0.024965989,0.260586862,3.777676067,4.051126508,0.339888547,0.005581925,-0.014346332,-0.047986675
1750932843.831093788,-1.593228591,-1.836080254,-1.124984071,1.598205053,-0.325336241,-1.793307091,0.127481028,0.192374434,0.176297681,0.057508757,-0.025470504,0.260546551,3.776151824,4.052107786,0.339699461,0.005568712,-0.014220209,-0.047871298
1750932843.831980228,-1.592973138,-1.835696227,-1.124629991,1.598320271,-0.325387932,-1.792786052,0.127938816,0.191788190,0.177270412,0.057624241,-0.025970547,0.260506626,3.774620676,4.053087380,0.339510020,0.005555517,-0.014094165,-0.047755794
1750932843.834016800,-1.592716771,-1.835313372,-1.124273969,1.598435720,-0.325440622,-1.792265093,0.128395661,0.191203709,0.178235350,0.057738973,-0.026466121,0.260467087,3.773082652,4.054065288,0.339320223,0.005542340,-0.013968203,-0.047640159
1750932843.835897923,-1.592459490,-1.834931686,-1.123916018,1.598551398,-0.325494301,-1.791744213,0.128851564,0.190620994,0.179192493,0.057852952,-0.026957229,0.260427934,3.771537779,4.055041509,0.339130069,0.005529176,-0.013842320,-0.047524391
1750932843.838096857,-1.592459490,-1.834931686,-1.123916018,1.598551398,-0.325494301,-1.791744213,0.128851564,0.190620994,0.179192493,0.057852952,-0.026957229,0.260427934,3.771537779,4.055041509,0.339130069,0.005529176,-0.013842320,-0.047524391
1750932843.839833021,-1.592201298,-1.834551166,-1.123556155,1.598667305,-0.325548961,-1.791223410,0.129306527,0.190040046,0.180141833,0.057966179,-0.027443874,0.260389167,3.769986087,4.056016042,0.338939557,0.005516025,-0.013716518,-0.047408485
1750932843.841591358,-1.591942197,-1.834171807,-1.123194396,1.598783439,-0.325604592,-1.790702685,0.129760554,0.189460868,0.181083368,0.058078653,-0.027926058,0.260350786,3.768427603,4.056988886,0.338748686,0.005502885,-0.013590795,-0.047292439
1750932843.843641043,-1.591682188,-1.833793606,-1.122830755,1.598899799,-0.325661186,-1.790182037,0.130213645,0.188883461,0.182017093,0.058190374,-0.028403784,0.260312791,3.766862357,4.057960040,0.338557454,0.005489751,-0.013465152,-0.047176249
