mathias31415/motion_primitives_from_planned_trajectory/data/trajectory_20250701_103633_executed.csv
timestamp,shoulder_lift_joint_pos,elbow_joint_pos,wrist_1_joint_pos,wrist_2_joint_pos,wrist_3_joint_pos,shoulder_pan_joint_pos,shoulder_lift_joint_vel,elbow_joint_vel,wrist_1_joint_vel,wrist_2_joint_vel,wrist_3_joint_vel,shoulder_pan_joint_vel,shoulder_lift_joint_eff,elbow_joint_eff,wrist_1_joint_eff,wrist_2_joint_eff,wrist_3_joint_eff,shoulder_pan_joint_eff
1751359760.846066952,-1.727100000,-2.203000000,-0.808000000,1.595100000,-0.031000000,-1.600700000,0.000000000,0.000000000,0.000000000,0.000000000,0.000000000,0.000000000,3.621137314,3.121199267,0.300553395,0.002005534,0.000000000,0.000000000
1751359760.847824574,-1.727100000,-2.203000000,-0.808000000,1.595100000,-0.031000000,-1.600700000,0.000000000,0.000000000,0.000000000,0.000000000,0.000000000,0.000000000,3.621137314,3.121199267,0.300553395,0.002005534,0.000000000,0.000000000
1751359760.852097988,-1.727100000,-2.203000000,-0.808000000,1.595100000,-0.031000000,-1.600700000,0.000000000,0.000000000,0.000000000,0.000000000,0.000000000,0.000000000,3.621137314,3.121199267,0.300553395,0.002005534,0.000000000,0.000000000
1751359760.852152109,-1.727100000,-2.203000000,-0.808000000,1.595100000,-0.031000000,-1.600700000,0.000000000,0.000000000,0.000000000,0.000000000,0.000000000,0.000000000,3.621137314,3.121199267,0.300553395,0.002005534,0.000000000,0.000000000
1751359760.853961706,-1.727100122,-2.202999020,-0.808000864,1.595099967,-0.031001000,-1.600701000,-0.000122472,0.000980052,-0.000863675,-0.000032902,-0.000999537,-0.001000000,3.638665105,3.309328433,0.282464527,-0.001464161,-0.028157280,-0.341696573
1751359760.860396147,-1.727100490,-2.202996080,-0.808003455,1.595099868,-0.031003998,-1.600704000,-0.000244944,0.001960105,-0.001727350,-0.000065804,-0.001999074,-0.002000000,3.638674359,3.309335212,0.282464536,-0.001464191,-0.028157280,-0.341697910
1751359760.860457182,-1.727101102,-2.202991180,-0.808007773,1.595099704,-0.031008996,-1.600709000,-0.000367416,0.002940157,-0.002591025,-0.000098705,-0.002998611,-0.003000000,3.638689783,3.309346511,0.282464550,-0.001464241,-0.028157280,-0.341700137
1751359760.860480309,-1.727101102,-2.202991180,-0.808007773,1.595099704,-0.031008996,-1.600709000,-0.000367416,0.002940157,-0.002591025,-0.000098705,-0.002998611,-0.003000000,3.638689783,3.309346511,0.282464550,-0.001464241,-0.028157280,-0.341700137
1751359760.862525940,-1.727101960,-2.202984319,-0.808013819,1.595099474,-0.031015993,-1.600716000,-0.000489888,0.003920209,-0.003454700,-0.000131607,-0.003998148,-0.004000000,3.638711376,3.309362330,0.282464571,-0.001464312,-0.028157280,-0.341703255
1751359760.864106655,-1.727103062,-2.202975499,-0.808021592,1.595099177,-0.031024988,-1.600725000,-0.000612360,0.004900262,-0.004318375,-0.000164509,-0.004997685,-0.005000000,3.638739138,3.309382668,0.282464598,-0.001464403,-0.028157280,-0.341707264
1751359760.866959095,-1.727104409,-2.202964718,-0.808031092,1.595098816,-0.031035983,-1.600736000,-0.000734832,0.005880314,-0.005182050,-0.000197411,-0.005997222,-0.006000000,3.638773069,3.309407526,0.282464630,-0.001464514,-0.028157280,-0.341712163
1751359760.868761063,-1.727106001,-2.202951977,-0.808042320,1.595098388,-0.031048977,-1.600749000,-0.000857304,0.006860366,-0.006045725,-0.000230312,-0.006996759,-0.007000000,3.638813169,3.309436903,0.282464669,-0.001464645,-0.028157280,-0.341717954
1751359760.869956493,-1.727107838,-2.202937277,-0.808055275,1.595097894,-0.031063970,-1.600764000,-0.000979776,0.007840419,-0.006909400,-0.000263214,-0.007996296,-0.008000000,3.638859439,3.309470798,0.282464713,-0.001464796,-0.028157280,-0.341724635
1751359760.872063160,-1.727109920,-2.202920616,-0.808069958,1.595097335,-0.031080962,-1.600781000,-0.001102248,0.008820471,-0.007773075,-0.000296116,-0.008995833,-0.009000000,3.638911877,3.309509213,0.282464763,-0.001464967,-0.028157280,-0.341732208
1751359760.874237537,-1.727112247,-2.202901995,-0.808086368,1.595096710,-0.031099954,-1.600800000,-0.001224720,0.009800523,-0.008636750,-0.000329018,-0.009995370,-0.010000000,3.638970485,3.309552146,0.282464820,-0.001465159,-0.028157280,-0.341740671
1751359760.876104593,-1.727114819,-2.202881414,-0.808104505,1.595096019,-0.031120944,-1.600821000,-0.001347192,0.010780576,-0.009500425,-0.000361919,-0.010994907,-0.011000000,3.639035261,3.309599598,0.282464882,-0.001465371,-0.028157280,-0.341750025
1751359760.878190041,-1.727117636,-2.202858872,-0.808124369,1.595095262,-0.031143933,-1.600844000,-0.001469664,0.011760628,-0.010364100,-0.000394821,-0.011994444,-0.012000000,3.639106205,3.309651568,0.282464950,-0.001465602,-0.028157280,-0.341760270
1751359760.880326748,-1.727120698,-2.202834371,-0.808145961,1.595094440,-0.031168922,-1.600869000,-0.001592136,0.012740680,-0.011227775,-0.000427723,-0.012993981,-0.013000000,3.639183318,3.309708056,0.282465024,-0.001465855,-0.028157280,-0.341771406
1751359760.883113384,-1.727120698,-2.202834371,-0.808145961,1.595094440,-0.031168922,-1.600869000,-0.001592136,0.012740680,-0.011227775,-0.000427723,-0.012993981,-0.013000000,3.639183318,3.309708056,0.282465024,-0.001465855,-0.028157280,-0.341771406
1751359760.884742260,-1.727120698,-2.202834371,-0.808145961,1.595094440,-0.031168922,-1.600869000,-0.001592136,0.012740680,-0.011227775,-0.000427723,-0.012993981,-0.013000000,3.639183318,3.309708056,0.282465024,-0.001465855,-0.028157280,-0.341771406
1751359760.885964394,-1.727127556,-2.202779488,-0.808194327,1.595092597,-0.031224896,-1.600925000,-0.001837080,0.014700785,-0.012955125,-0.000493526,-0.014993055,-0.015000000,3.639356048,3.309834584,0.282465189,-0.001466419,-0.028157280,-0.341796351
1751359760.887931585,-1.727131353,-2.202749107,-0.808221101,1.595091577,-0.031255881,-1.600956000,-0.001959552,0.015680837,-0.013818800,-0.000526428,-0.015992592,-0.016000000,3.639451666,3.309904624,0.282465281,-0.001466732,-0.028157280,-0.341810160
1751359760.890115023,-1.727135394,-2.202716765,-0.808249602,1.595090491,-0.031288866,-1.600989000,-0.002082024,0.016660890,-0.014682475,-0.000559330,-0.016992129,-0.017000000,3.639553450,3.309979180,0.282465378,-0.001467064,-0.028157280,-0.341824860
1751359760.891784906,-1.727139681,-2.202682463,-0.808279831,1.595089340,-0.031323850,-1.601024000,-0.002204496,0.017640942,-0.015546151,-0.000592232,-0.017991666,-0.018000000,3.639661402,3.310058252,0.282465481,-0.001467417,-0.028157280,-0.341840451
1751359760.893853903,-1.727144212,-2.202646201,-0.808311787,1.595088122,-0.031360833,-1.601061000,-0.002326968,0.018620994,-0.016409826,-0.000625134,-0.018991203,-0.019000000,3.639775521,3.310141840,0.282465590,-0.001467790,-0.028157280,-0.341856934
1751359760.896016836,-1.727148989,-2.202607979,-0.808345470,1.595086839,-0.031399815,-1.601100000,-0.002449440,0.019601047,-0.017273501,-0.000658035,-0.019990740,-0.020000000,3.639895807,3.310229943,0.282465705,-0.001468183,-0.028157280,-0.341874307
1751359760.897803068,-1.727154010,-2.202567797,-0.808380881,1.595085490,-0.031440796,-1.601141000,-0.002571912,0.020581099,-0.018137176,-0.000690937,-0.020990277,-0.021000000,3.640022260,3.310322561,0.282465826,-0.001468596,-0.028157280,-0.341892571
1751359760.900213242,-1.727159276,-2.202525655,-0.808418019,1.595084076,-0.031483776,-1.601184000,-0.002694384,0.021561151,-0.019000851,-0.000723839,-0.021989814,-0.022000000,3.640154879,3.310419693,0.282465953,-0.001469029,-0.028157280,-0.341911727
1751359760.902009010,-1.727164788,-2.202481552,-0.808456884,1.595082595,-0.031528755,-1.601229000,-0.002816856,0.022541204,-0.019864526,-0.000756741,-0.022989350,-0.023000000,3.640293664,3.310521339,0.282466085,-0.001469483,-0.028157280,-0.341931773
1751359760.903815031,-1.727170544,-2.202435490,-0.808497477,1.595081049,-0.031575733,-1.601276000,-0.002939328,0.023521256,-0.020728201,-0.000789642,-0.023988887,-0.024000000,3.640438615,3.310627498,0.282466224,-0.001469957,-0.028157280,-0.341952711
1751359760.905928373,-1.727176545,-2.202387467,-0.808539797,1.595079436,-0.031624711,-1.601325000,-0.003061800,0.024501308,-0.021591876,-0.000822544,-0.024988424,-0.025000000,3.640589731,3.310738169,0.282466368,-0.001470450,-0.028157280,-0.341974540
1751359760.908033371,-1.727182791,-2.202337485,-0.808583844,1.595077758,-0.031675687,-1.601376000,-0.003184272,0.025481361,-0.022455551,-0.000855446,-0.025987961,-0.026000000,3.640747012,3.310853353,0.282466518,-0.001470964,-0.028157280,-0.341997260
1751359760.910113335,-1.727189282,-2.202285542,-0.808629619,1.595076015,-0.031728662,-1.601429000,-0.003306744,0.026461413,-0.023319226,-0.000888348,-0.026987498,-0.027000000,3.640910458,3.310973047,0.282466673,-0.001471498,-0.028157280,-0.342020872
1751359760.911960363,-1.727196018,-2.202231639,-0.808677121,1.595074205,-0.031783637,-1.601484000,-0.003429216,0.027441465,-0.024182901,-0.000921249,-0.027987035,-0.028000000,3.641080068,3.311097253,0.282466835,-0.001472052,-0.028157280,-0.342045375
1751359760.913961172,-1.727202999,-2.202175776,-0.808726351,1.595072330,-0.031840611,-1.601541000,-0.003551688,0.028421518,-0.025046576,-0.000954151,-0.028986572,-0.029000000,3.641255842,3.311225968,0.282467002,-0.001472626,-0.028157280,-0.342070769
1751359760.916171551,-1.727210225,-2.202117953,-0.808777308,1.595070388,-0.031899583,-1.601600000,-0.003674160,0.029401570,-0.025910251,-0.000987053,-0.029986109,-0.030000000,3.641437780,3.311359192,0.282467175,-0.001473221,-0.028157280,-0.342097055
1751359760.918069601,-1.727217696,-2.202058170,-0.808829992,1.595068381,-0.031960555,-1.601661000,-0.003796632,0.030381622,-0.026773926,-0.001019955,-0.030985646,-0.031000000,3.641625881,3.311496925,0.282467354,-0.001473835,-0.028157280,-0.342124232
1751359760.920136929,-1.727225411,-2.201996426,-0.808884403,1.595066309,-0.032023526,-1.601724000,-0.003919104,0.031361675,-0.027637601,-0.001052856,-0.031985183,-0.032000000,3.641820144,3.311639166,0.282467538,-0.001474470,-0.028157280,-0.342152301
1751359760.930545568,-1.727258724,-2.201729852,-0.809119323,1.595057359,-0.032295400,-1.601996000,-0.004408992,0.035281884,-0.031092301,-0.001184463,-0.035983331,-0.036000000,3.642658816,3.312253191,0.282468333,-0.001477209,-0.028157280,-0.342273491
1751359760.930601120,-1.727258724,-2.201729852,-0.809119323,1.595057359,-0.032295400,-1.601996000,-0.004408992,0.035281884,-0.031092301,-0.001184463,-0.035983331,-0.036000000,3.642658816,3.312253191,0.282468333,-0.001477209,-0.028157280,-0.342273491
1751359760.930620909,-1.727258724,-2.201729852,-0.809119323,1.595057359,-0.032295400,-1.601996000,-0.004408992,0.035281884,-0.031092301,-0.001184463,-0.035983331,-0.036000000,3.642658816,3.312253191,0.282468333,-0.001477209,-0.028157280,-0.342273491
1751359760.931911469,-1.727258724,-2.201729852,-0.809119323,1.595057359,-0.032295400,-1.601996000,-0.004408992,0.035281884,-0.031092301,-0.001184463,-0.035983331,-0.036000000,3.642658816,3.312253191,0.282468333,-0.001477209,-0.028157280,-0.342273491
1751359760.933061123,-1.727267664,-2.201658308,-0.809182371,1.595054957,-0.032368366,-1.602069000,-0.004531464,0.036261936,-0.031955976,-0.001217365,-0.036982868,-0.037000000,3.642883886,3.312417959,0.282468546,-0.001477944,-0.028157280,-0.342306017
1751359760.936213970,-1.727276850,-2.201584804,-0.809247147,1.595052490,-0.032443331,-1.602144000,-0.004653936,0.037241989,-0.032819651,-0.001250267,-0.037982405,-0.038000000,3.643115116,3.312587229,0.282468764,-0.001478699,-0.028157280,-0.342339436
1751359760.937226534,-1.727286280,-2.201509340,-0.809313650,1.595049956,-0.032520296,-1.602221000,-0.004776408,0.038222041,-0.033683326,-0.001283169,-0.038981942,-0.039000000,3.643352505,3.312761001,0.282468988,-0.001479474,-0.028157280,-0.342373746
1751359760.939477205,-1.727295955,-2.201431916,-0.809381880,1.595047357,-0.032599259,-1.602300000,-0.004898881,0.039202093,-0.034547001,-0.001316071,-0.039981479,-0.040000000,3.643596053,3.312939274,0.282469218,-0.001480269,-0.028157280,-0.342408948
1751359760.940104961,-1.727305875,-2.201352532,-0.809451838,1.595044692,-0.032680222,-1.602381000,-0.005021353,0.040182146,-0.035410676,-0.001348972,-0.040981016,-0.041000000,3.643845760,3.313122047,0.282469454,-0.001481084,-0.028157280,-0.342445042
1751359760.942196131,-1.727316041,-2.201271188,-0.809523523,1.595041961,-0.032763183,-1.602464000,-0.005143825,0.041162198,-0.036274351,-0.001381874,-0.041980553,-0.042000000,3.644101624,3.313309319,0.282469695,-0.001481920,-0.028157280,-0.342482027
1751359760.944367886,-1.727326451,-2.201187883,-0.809596935,1.595039165,-0.032848144,-1.602549000,-0.005266297,0.042142250,-0.037138026,-0.001414776,-0.042980090,-0.043000000,3.644363645,3.313501088,0.282469941,-0.001482775,-0.028157280,-0.342519905
1751359760.947798967,-1.727337106,-2.201102619,-0.809672075,1.595036302,-0.032935104,-1.602636000,-0.005388769,0.043122303,-0.038001701,-0.001447678,-0.043979627,-0.044000000,3.644631823,3.313697354,0.282470193,-0.001483650,-0.028157280,-0.342558675
1751359760.947989941,-1.727348006,-2.201015394,-0.809748942,1.595033374,-0.033024062,-1.602725000,-0.005511241,0.044102355,-0.038865376,-0.001480579,-0.044979164,-0.045000000,3.644906156,3.313898116,0.282470451,-0.001484546,-0.028157280,-0.342598337
1751359760.950678349,-1.727359151,-2.200926209,-0.809827536,1.595030380,-0.033115020,-1.602816000,-0.005633713,0.045082407,-0.039729051,-0.001513481,-0.045978701,-0.046000000,3.645186645,3.314103373,0.282470714,-0.001485461,-0.028157280,-0.342638891
1751359760.952098370,-1.727370541,-2.200835064,-0.809907858,1.595027320,-0.033207977,-1.602909000,-0.005756185,0.046062460,-0.040592726,-0.001546383,-0.046978238,-0.047000000,3.645473288,3.314313123,0.282470983,-0.001486397,-0.028157280,-0.342680337
1751359760.954241037,-1.727382176,-2.200741959,-0.809989907,1.595024194,-0.033302933,-1.603004000,-0.005878657,0.047042512,-0.041456401,-0.001579285,-0.047977775,-0.048000000,3.645766086,3.314527365,0.282471257,-0.001487352,-0.028157280,-0.342722676
1751359760.956149817,-1.727394055,-2.200646894,-0.810073684,1.595021003,-0.033399888,-1.603101000,-0.006001129,0.048022564,-0.042320076,-0.001612186,-0.048977312,-0.049000000,3.646065037,3.314746099,0.282471536,-0.001488328,-0.028157280,-0.342765907
1751359760.958024740,-1.727406180,-2.200549869,-0.810159188,1.595017746,-0.033498842,-1.603200000,-0.006123601,0.049002617,-0.043183751,-0.001645088,-0.049976849,-0.050000000,3.646370140,3.314969322,0.282471821,-0.001489323,-0.028157280,-0.342810030
1751359760.960000038,-1.727418550,-2.200450884,-0.810246419,1.595014423,-0.033599796,-1.603301000,-0.006246073,0.049982669,-0.044047426,-0.001677990,-0.050976386,-0.051000000,3.646681395,3.315197034,0.282472112,-0.001490339,-0.028157280,-0.342855045
1751359760.962232590,-1.727431164,-2.200349938,-0.810335377,1.595011034,-0.033702748,-1.603404000,-0.006368545,0.050962721,-0.044911101,-0.001710892,-0.051975923,-0.052000000,3.646998802,3.315429234,0.282472407,-0.001491374,-0.028157280,-0.342900954
1751359760.964027405,-1.727444024,-2.200247033,-0.810426063,1.595007579,-0.033807699,-1.603509000,-0.006491017,0.051942774,-0.045774777,-0.001743793,-0.052975460,-0.053000000,3.647322359,3.315665920,0.282472709,-0.001492430,-0.028157280,-0.342947754
1751359760.966032982,-1.727457128,-2.200142167,-0.810518476,1.595004058,-0.033914650,-1.603616000,-0.006613489,0.052922826,-0.046638452,-0.001776695,-0.053974997,-0.054000000,3.647652066,3.315907090,0.282473015,-0.001493505,-0.028157280,-0.342995448
1751359760.968113422,-1.727470478,-2.200035342,-0.810612617,1.595000472,-0.034023599,-1.603725000,-0.006735961,0.053902878,-0.047502127,-0.001809597,-0.054974534,-0.055000000,3.647987922,3.316152745,0.282473327,-0.001494601,-0.028157280,-0.343044034
1751359760.970096350,-1.727470478,-2.200035342,-0.810612617,1.595000472,-0.034023599,-1.603725000,-0.006735961,0.053902878,-0.047502127,-0.001809597,-0.054974534,-0.055000000,3.647987922,3.316152745,0.282473327,-0.001494601,-0.028157280,-0.343044034
1751359760.971962452,-1.727484072,-2.199926556,-0.810708485,1.594996820,-0.034134548,-1.603836000,-0.006858433,0.054882931,-0.048365802,-0.001842499,-0.055974071,-0.056000000,3.648329926,3.316402881,0.282473644,-0.001495716,-0.028157280,-0.343093512
1751359760.973932028,-1.727497912,-2.199815810,-0.810806080,1.594993102,-0.034247496,-1.603949000,-0.006980905,0.055862983,-0.049229477,-0.001875401,-0.056973608,-0.057000000,3.648678078,3.316657498,0.282473967,-0.001496852,-0.028157280,-0.343143884
1751359760.975950003,-1.727511996,-2.199703104,-0.810905403,1.594989318,-0.034362442,-1.604064000,-0.007103377,0.056843035,-0.050093152,-0.001908302,-0.057973145,-0.058000000,3.649032376,3.316916595,0.282474294,-0.001498007,-0.028157280,-0.343195149
1751359760.977921963,-1.727526325,-2.199588438,-0.811006453,1.594985469,-0.034479388,-1.604181000,-0.007225849,0.057823088,-0.050956827,-0.001941204,-0.058972682,-0.059000000,3.649392821,3.317180170,0.282474627,-0.001499182,-0.028157280,-0.343247306
1751359760.979909897,-1.727540899,-2.199471812,-0.811109230,1.594981554,-0.034598333,-1.604300000,-0.007348321,0.058803140,-0.051820502,-0.001974106,-0.059972219,-0.060000000,3.649759410,3.317448221,0.282474966,-0.001500378,-0.028157280,-0.343300357
1751359760.981937408,-1.727555718,-2.199353225,-0.811213735,1.594977573,-0.034719277,-1.604421000,-0.007470793,0.059783192,-0.052684177,-0.002007008,-0.060971756,-0.061000000,3.650132144,3.317720748,0.282475309,-0.001501593,-0.028157280,-0.343354300
1751359760.988394499,-1.727570782,-2.199232679,-0.811319967,1.594973526,-0.034842220,-1.604544000,-0.007593265,0.060763245,-0.053547852,-0.002039909,-0.061971293,-0.062000000,3.650511021,3.317997748,0.282475658,-0.001502828,-0.028157280,-0.343409137
1751359760.988806725,-1.727586091,-2.199110172,-0.811427926,1.594969413,-0.034967162,-1.604669000,-0.007715737,0.061743297,-0.054411527,-0.002072811,-0.062970830,-0.063000000,3.650896041,3.318279220,0.282476011,-0.001504083,-0.028157280,-0.343464867
1751359760.990016937,-1.727601645,-2.198985706,-0.811537613,1.594965234,-0.035094103,-1.604796000,-0.007838209,0.062723349,-0.055275202,-0.002105713,-0.063970367,-0.064000000,3.651287202,3.318565162,0.282476370,-0.001505358,-0.028157280,-0.343521490
1751359760.993261337,-1.727601645,-2.198985706,-0.811537613,1.594965234,-0.035094103,-1.604796000,-0.007838209,0.062723349,-0.055275202,-0.002105713,-0.063970367,-0.064000000,3.651287202,3.318565162,0.282476370,-0.001505358,-0.028157280,-0.343521490
1751359760.994002342,-1.727617444,-2.198859279,-0.811649027,1.594960990,-0.035223044,-1.604925000,-0.007960681,0.063703402,-0.056138877,-0.002138615,-0.064969904,-0.065000000,3.651684504,3.318855574,0.282476734,-0.001506652,-0.028157280,-0.343579007
1751359760.995927095,-1.727633488,-2.198730892,-0.811762168,1.594956680,-0.035353983,-1.605056000,-0.008083153,0.064683454,-0.057002552,-0.002171516,-0.065969441,-0.066000000,3.652087946,3.319150452,0.282477103,-0.001507967,-0.028157280,-0.343637417
1751359760.997797489,-1.727649777,-2.198600545,-0.811877037,1.594952304,-0.035486921,-1.605189000,-0.008205625,0.065663506,-0.057866227,-0.002204418,-0.066968978,-0.067000000,3.652497527,3.319449797,0.282477477,-0.001509302,-0.028157280,-0.343696721
1751359760.999867916,-1.727666311,-2.198468238,-0.811993633,1.594947862,-0.035621859,-1.605324000,-0.008328097,0.066643559,-0.058729902,-0.002237320,-0.067968514,-0.068000000,3.652913246,3.319753606,0.282477856,-0.001510656,-0.028157280,-0.343756918
1751359761.003147840,-1.727666311,-2.198468238,-0.811993633,1.594947862,-0.035621859,-1.605324000,-0.008328097,0.066643559,-0.058729902,-0.002237320,-0.067968514,-0.068000000,3.652913246,3.319753606,0.282477856,-0.001510656,-0.028157280,-0.343756918
1751359761.003880501,-1.727683089,-2.198333971,-0.812111957,1.594943355,-0.035758796,-1.605461000,-0.008450569,0.067623611,-0.059593577,-0.002270222,-0.068968051,-0.069000000,3.653335103,3.320061876,0.282478240,-0.001512030,-0.028157280,-0.343818009
1751359761.005955219,-1.727700113,-2.198197744,-0.812232008,1.594938781,-0.035897731,-1.605600000,-0.008573041,0.068603663,-0.060457252,-0.002303123,-0.069967588,-0.070000000,3.653763095,3.320374608,0.282478629,-0.001513425,-0.028157280,-0.343879994
1751359761.007942438,-1.727717381,-2.198059556,-0.812353786,1.594934142,-0.036038666,-1.605741000,-0.008695513,0.069583716,-0.061320927,-0.002336025,-0.070967125,-0.071000000,3.654197222,3.320691799,0.282479023,-0.001514839,-0.028157280,-0.343942872
1751359761.010027170,-1.727734895,-2.197919409,-0.812477291,1.594929437,-0.036181600,-1.605884000,-0.008817985,0.070563768,-0.062184602,-0.002368927,-0.071966662,-0.072000000,3.654637484,3.321013447,0.282479422,-0.001516272,-0.028157280,-0.344006645
1751359761.012033939,-1.727752653,-2.197777301,-0.812602524,1.594924667,-0.036326533,-1.606029000,-0.008940457,0.071543820,-0.063048277,-0.002401829,-0.072966199,-0.073000000,3.655083878,3.321339550,0.282479826,-0.001517726,-0.028157280,-0.344071311
1751359761.013925791,-1.727770657,-2.197633233,-0.812729484,1.594919830,-0.036473464,-1.606176000,-0.009062929,0.072523873,-0.063911952,-0.002434731,-0.073965736,-0.074000000,3.655536405,3.321670107,0.282480234,-0.001519199,-0.028157280,-0.344136872
1751359761.016006231,-1.727788905,-2.197487206,-0.812858172,1.594914928,-0.036622395,-1.606325000,-0.009185401,0.073503925,-0.064775627,-0.002467632,-0.074965273,-0.075000000,3.655995063,3.322005115,0.282480648,-0.001520693,-0.028157280,-0.344203327
1751359761.017945766,-1.727807398,-2.197339218,-0.812988587,1.594909959,-0.036773326,-1.606476000,-0.009307873,0.074483978,-0.065639302,-0.002500534,-0.075964810,-0.076000000,3.656459851,3.322344574,0.282481066,-0.001522206,-0.028157280,-0.344270676
1751359761.019885540,-1.727826137,-2.197189270,-0.813120729,1.594904925,-0.036926255,-1.606629000,-0.009430345,0.075464030,-0.066502977,-0.002533436,-0.076964347,-0.077000000,3.656930768,3.322688481,0.282481489,-0.001523739,-0.028157280,-0.344338919
1751359761.021810770,-1.727845120,-2.197037362,-0.813254599,1.594899826,-0.037081183,-1.606784000,-0.009552817,0.076444082,-0.067366652,-0.002566338,-0.077963884,-0.078000000,3.657407813,3.323036834,0.282481917,-0.001525291,-0.028157280,-0.344408057
1751359761.023798943,-1.727864348,-2.196883493,-0.813390196,1.594894660,-0.037238110,-1.606941000,-0.009675289,0.077424135,-0.068230327,-0.002599239,-0.078963421,-0.079000000,3.657890984,3.323389631,0.282482349,-0.001526864,-0.028157280,-0.344478089
1751359761.025817871,-1.727883821,-2.196727665,-0.813527520,1.594889429,-0.037397037,-1.607100000,-0.009797761,0.078404187,-0.069094002,-0.002632141,-0.079962958,-0.080000000,3.658380281,3.323746871,0.282482786,-0.001528456,-0.028157280,-0.344549016
1751359761.028166771,-1.727903539,-2.196569877,-0.813666572,1.594884132,-0.037557962,-1.607261000,-0.009920233,0.079384239,-0.069957677,-0.002665043,-0.080962495,-0.081000000,3.658875703,3.324108551,0.282483228,-0.001530068,-0.028157280,-0.344620837
1751359761.030043364,-1.727903539,-2.196569877,-0.813666572,1.594884132,-0.037557962,-1.607261000,-0.009920233,0.079384239,-0.069957677,-0.002665043,-0.080962495,-0.081000000,3.658875703,3.324108551,0.282483228,-0.001530068,-0.028157280,-0.344620837
1751359761.035961151,-1.727923502,-2.196410128,-0.813807351,1.594878769,-0.037720887,-1.607424000,-0.010042705,0.080364292,-0.070821352,-0.002697945,-0.081962032,-0.082000000,3.659377249,3.324474669,0.282483674,-0.001531699,-0.028157280,-0.344693553
1751359761.036037445,-1.727923502,-2.196410128,-0.813807351,1.594878769,-0.037720887,-1.607424000,-0.010042705,0.080364292,-0.070821352,-0.002697945,-0.081962032,-0.082000000,3.659377249,3.324474669,0.282483674,-0.001531699,-0.028157280,-0.344693553
1751359761.039061546,-1.727964163,-2.196084751,-0.814094091,1.594867845,-0.038052733,-1.607756000,-0.010287649,0.082324396,-0.072548702,-0.002763748,-0.083961106,-0.084000000,3.660398705,3.325220212,0.282484580,-0.001535022,-0.028157280,-0.344841670
1751359761.039119244,-1.727984860,-2.195919122,-0.814240052,1.594862285,-0.038221655,-1.607925000,-0.010410121,0.083304449,-0.073412377,-0.002796650,-0.084960643,-0.085000000,3.660918614,3.325599633,0.282485040,-0.001536712,-0.028157280,-0.344917071
1751359761.040585041,-1.728005803,-2.195751533,-0.814387741,1.594856659,-0.038392575,-1.608096000,-0.010532593,0.084284501,-0.074276052,-0.002829552,-0.085960180,-0.086000000,3.661444642,3.325983485,0.282485505,-0.001538423,-0.028157280,-0.344993367
1751359761.041924715,-1.728026991,-2.195581984,-0.814537156,1.594850967,-0.038565495,-1.608269000,-0.010655065,0.085264553,-0.075139727,-0.002862453,-0.086959717,-0.087000000,3.661976787,3.326371764,0.282485973,-0.001540153,-0.028157280,-0.345070558
1751359761.043989658,-1.728048423,-2.195410475,-0.814688299,1.594845209,-0.038740414,-1.608444000,-0.010777537,0.086244606,-0.076003403,-0.002895355,-0.087959254,-0.088000000,3.662515049,3.326764469,0.282486447,-0.001541903,-0.028157280,-0.345148644
1751359761.045903683,-1.728070101,-2.195237005,-0.814841170,1.594839385,-0.038917332,-1.608621000,-0.010900009,0.087224658,-0.076867078,-0.002928257,-0.088958791,-0.089000000,3.663059425,3.327161597,0.282486924,-0.001543672,-0.028157280,-0.345227626
1751359761.047794580,-1.728092023,-2.195061576,-0.814995768,1.594833496,-0.039096250,-1.608800000,-0.011022481,0.088204710,-0.077730753,-0.002961159,-0.089958328,-0.090000000,3.663609916,3.327563148,0.282487406,-0.001545461,-0.028157280,-0.345307503
1751359761.049846172,-1.728114191,-2.194884187,-0.815152093,1.594827540,-0.039277166,-1.608981000,-0.011144953,0.089184763,-0.078594428,-0.002994061,-0.090957865,-0.091000000,3.664166519,3.327969117,0.282487892,-0.001547270,-0.028157280,-0.345388276
1751359761.052706480,-1.728114191,-2.194884187,-0.815152093,1.594827540,-0.039277166,-1.608981000,-0.011144953,0.089184763,-0.078594428,-0.002994061,-0.090957865,-0.091000000,3.664166519,3.327969117,0.282487892,-0.001547270,-0.028157280,-0.345388276
1751359761.053941965,-1.728136603,-2.194704837,-0.815310145,1.594821519,-0.039460081,-1.609164000,-0.011267425,0.090164815,-0.079458103,-0.003026962,-0.091957402,-0.092000000,3.664729233,3.328379503,0.282488382,-0.001549098,-0.028157280,-0.345469944
1751359761.055808067,-1.728159260,-2.194523527,-0.815469925,1.594815433,-0.039644995,-1.609349000,-0.011389897,0.091144867,-0.080321778,-0.003059864,-0.092956939,-0.093000000,3.665298058,3.328794304,0.282488877,-0.001550946,-0.028157280,-0.345552508
1751359761.057899475,-1.728182163,-2.194340258,-0.815631433,1.594809280,-0.039831909,-1.609536000,-0.011512369,0.092124920,-0.081185453,-0.003092766,-0.093956476,-0.094000000,3.665872991,3.329213518,0.282489376,-0.001552813,-0.028157280,-0.345635968
1751359761.059826136,-1.728205310,-2.194155028,-0.815794667,1.594803062,-0.040020821,-1.609725000,-0.011634841,0.093104972,-0.082049128,-0.003125668,-0.094956013,-0.095000000,3.666454032,3.329637141,0.282489879,-0.001554701,-0.028157280,-0.345720323
1751359761.061988831,-1.728228702,-2.193967838,-0.815959629,1.594796777,-0.040211733,-1.609916000,-0.011757313,0.094085024,-0.082912803,-0.003158569,-0.095955550,-0.096000000,3.667041178,3.330065173,0.282490386,-0.001556607,-0.028157280,-0.345805575
1751359761.063844204,-1.728252339,-2.193778688,-0.816126318,1.594790427,-0.040404643,-1.610109000,-0.011879785,0.095065077,-0.083776478,-0.003191471,-0.096955087,-0.097000000,3.667634430,3.330497610,0.282490897,-0.001558533,-0.028157280,-0.345891722
1751359761.065836430,-1.728276221,-2.193587577,-0.816294735,1.594784011,-0.040599553,-1.610304000,-0.012002257,0.096045129,-0.084640153,-0.003224373,-0.097954624,-0.098000000,3.668233785,3.330934449,0.282491412,-0.001560479,-0.028157280,-0.345978766
1751359761.067839861,-1.728300348,-2.193394507,-0.816464879,1.594777530,-0.040796462,-1.610501000,-0.012124729,0.097025181,-0.085503828,-0.003257275,-0.098954161,-0.099000000,3.668839241,3.331375689,0.282491931,-0.001562444,-0.028157280,-0.346066706
1751359761.069964647,-1.728324720,-2.193199477,-0.816636750,1.594770982,-0.040995370,-1.610700000,-0.012247201,0.098005234,-0.086367503,-0.003290176,-0.099953698,-0.100000000,3.669450799,3.331821328,0.282492454,-0.001564429,-0.028157280,-0.346155542
1751359761.071928024,-1.728349337,-2.193002486,-0.816810349,1.594764369,-0.041196277,-1.610901000,-0.012369673,0.098985286,-0.087231178,-0.003323078,-0.100953235,-0.101000000,3.670068455,3.332271362,0.282492981,-0.001566434,-0.028157280,-0.346245275
1751359761.073815107,-1.728374199,-2.192803536,-0.816985675,1.594757690,-0.041399183,-1.611104000,-0.012492145,0.099965338,-0.088094853,-0.003355980,-0.101952772,-0.102000000,3.670692210,3.332725789,0.282493512,-0.001568457,-0.028157280,-0.346335904
1751359761.075819492,-1.728399306,-2.192602625,-0.817162728,1.594750945,-0.041604088,-1.611309000,-0.012614617,0.100945391,-0.088958528,-0.003388882,-0.102952309,-0.103000000,3.671322060,3.333184607,0.282494046,-0.001570501,-0.028157280,-0.346427430
1751359761.078084707,-1.728424657,-2.192399754,-0.817341509,1.594744135,-0.041810992,-1.611516000,-0.012737089,0.101925443,-0.089822203,-0.003421783,-0.103951846,-0.104000000,3.671958006,3.333647812,0.282494585,-0.001572563,-0.028157280,-0.346519852
1751359761.083352566,-1.728450254,-2.192194923,-0.817522017,1.594737258,-0.042019895,-1.611725000,-0.012859561,0.102905495,-0.090685878,-0.003454685,-0.104951383,-0.105000000,3.672600045,3.334115404,0.282495127,-0.001574645,-0.028157280,-0.346613171
1751359761.084666014,-1.728450254,-2.192194923,-0.817522017,1.594737258,-0.042019895,-1.611725000,-0.012859561,0.102905495,-0.090685878,-0.003454685,-0.104951383,-0.105000000,3.672600045,3.334115404,0.282495127,-0.001574645,-0.028157280,-0.346613171
1751359761.085980177,-1.728476096,-2.191988132,-0.817704253,1.594730316,-0.042230797,-1.611936000,-0.012982033,0.103885548,-0.091549553,-0.003487587,-0.105950920,-0.106000000,3.673248175,3.334587378,0.282495673,-0.001576747,-0.028157280,-0.346707387
1751359761.088420630,-1.728502182,-2.191779381,-0.817888215,1.594723308,-0.042443699,-1.612149000,-0.013104505,0.104865600,-0.092413228,-0.003520489,-0.106950457,-0.107000000,3.673902396,3.335063732,0.282496222,-0.001578868,-0.028157280,-0.346802500
1751359761.089910507,-1.728528514,-2.191568670,-0.818073906,1.594716234,-0.042658599,-1.612364000,-0.013226977,0.105845652,-0.093276903,-0.003553390,-0.107949994,-0.108000000,3.674562706,3.335544464,0.282496776,-0.001581009,-0.028157280,-0.346898510
1751359761.091838121,-1.728555090,-2.191355998,-0.818261323,1.594709094,-0.042875499,-1.612581000,-0.013349449,0.106825705,-0.094140578,-0.003586292,-0.108949531,-0.109000000,3.675229104,3.336029571,0.282497332,-0.001583168,-0.028157280,-0.346995417
1751359761.093838453,-1.728581911,-2.191141367,-0.818450468,1.594701889,-0.043094397,-1.612800000,-0.013471921,0.107805757,-0.095004253,-0.003619194,-0.109949068,-0.110000000,3.675901587,3.336519050,0.282497892,-0.001585348,-0.028157280,-0.347093222
1751359761.095930815,-1.728608978,-2.190924775,-0.818641340,1.594694617,-0.043315295,-1.613021000,-0.013594393,0.108785809,-0.095867928,-0.003652096,-0.110948605,-0.111000000,3.676580154,3.337012899,0.282498456,-0.001587546,-0.028157280,-0.347191923
1751359761.098063946,-1.728636289,-2.190706224,-0.818833940,1.594687280,-0.043538192,-1.613244000,-0.013716865,0.109765862,-0.096731603,-0.003684998,-0.111948142,-0.112000000,3.677264805,3.337511115,0.282499023,-0.001589764,-0.028157280,-0.347291522
1751359761.099926710,-1.728663845,-2.190485712,-0.819028266,1.594679877,-0.043763088,-1.613469000,-0.013839337,0.110745914,-0.097595278,-0.003717899,-0.112947678,-0.113000000,3.677955536,3.338013694,0.282499594,-0.001592001,-0.028157280,-0.347392019
1751359761.101804495,-1.728691646,-2.190263240,-0.819224321,1.594672409,-0.043989983,-1.613696000,-0.013961809,0.111725966,-0.098458953,-0.003750801,-0.113947215,-0.114000000,3.678652347,3.338520635,0.282500168,-0.001594258,-0.028157280,-0.347493413
1751359761.103802204,-1.728719692,-2.190038808,-0.819422102,1.594664874,-0.044218877,-1.613925000,-0.014084281,0.112706019,-0.099322628,-0.003783703,-0.114946752,-0.115000000,3.679355235,3.339031934,0.282500745,-0.001596534,-0.028157280,-0.347595704
1751359761.105824709,-1.728747983,-2.189812416,-0.819621611,1.594657274,-0.044449770,-1.614156000,-0.014206753,0.113686071,-0.100186303,-0.003816605,-0.115946289,-0.116000000,3.680064200,3.339547588,0.282501325,-0.001598829,-0.028157280,-0.347698894
1751359761.107794762,-1.728776519,-2.189584064,-0.819822847,1.594649608,-0.044682662,-1.614389000,-0.014329225,0.114666123,-0.101049978,-0.003849506,-0.116945826,-0.117000000,3.680779240,3.340067595,0.282501909,-0.001601143,-0.028157280,-0.347802981
1751359761.109869242,-1.728805300,-2.189353751,-0.820025811,1.594641876,-0.044917553,-1.614624000,-0.014451697,0.115646176,-0.101913653,-0.003882408,-0.117945363,-0.118000000,3.681500353,3.340591952,0.282502496,-0.001603477,-0.028157280,-0.347907966
1751359761.112021208,-1.728834326,-2.189121479,-0.820230502,1.594634078,-0.045154443,-1.614861000,-0.014574169,0.116626228,-0.102777328,-0.003915310,-0.118944900,-0.119000000,3.682227536,3.341120656,0.282503085,-0.001605830,-0.028157280,-0.348013849
1751359761.113857031,-1.728863597,-2.188887246,-0.820436920,1.594626215,-0.045393332,-1.615100000,-0.014696642,0.117606280,-0.103641003,-0.003948212,-0.119944437,-0.120000000,3.682960790,3.341653703,0.282503678,-0.001608202,-0.028157280,-0.348120631
1751359761.115939856,-1.728893113,-2.188651054,-0.820645066,1.594618285,-0.045634221,-1.615341000,-0.014819114,0.118586333,-0.104504678,-0.003981113,-0.120943974,-0.121000000,3.683700111,3.342191092,0.282504274,-0.001610593,-0.028157280,-0.348228310
1751359761.117937088,-1.728922873,-2.188412901,-0.820854939,1.594610290,-0.045877108,-1.615584000,-0.014941586,0.119566385,-0.105368353,-0.004014015,-0.121943511,-0.122000000,3.684445498,3.342732818,0.282504873,-0.001613004,-0.028157280,-0.348336888
1751359761.120074511,-1.728952879,-2.188172788,-0.821066540,1.594602229,-0.046121995,-1.615829000,-0.015064058,0.120546437,-0.106232029,-0.004046917,-0.122943048,-0.123000000,3.685196950,3.343278879,0.282505475,-0.001615434,-0.028157280,-0.348446364
1751359761.121941805,-1.728983130,-2.187930715,-0.821279867,1.594594102,-0.046368881,-1.616076000,-0.015186530,0.121526490,-0.107095704,-0.004079819,-0.123942585,-0.124000000,3.685954465,3.343829272,0.282506080,-0.001617882,-0.028157280,-0.348556738
1751359761.127386808,-1.729013625,-2.187686682,-0.821494922,1.594585910,-0.046617765,-1.616325000,-0.015309002,0.122506542,-0.107959379,-0.004112720,-0.124942122,-0.125000000,3.686718040,3.344383994,0.282506687,-0.001620350,-0.028157280,-0.348668011
1751359761.127445459,-1.729013625,-2.187686682,-0.821494922,1.594585910,-0.046617765,-1.616325000,-0.015309002,0.122506542,-0.107959379,-0.004112720,-0.124942122,-0.125000000,3.686718040,3.344383994,0.282506687,-0.001620350,-0.028157280,-0.348668011
1751359761.128318787,-1.729044366,-2.187440689,-0.821711705,1.594577652,-0.046868649,-1.616576000,-0.015431474,0.123486594,-0.108823054,-0.004145622,-0.125941659,-0.126000000,3.687487675,3.344943041,0.282507298,-0.001622838,-0.028157280,-0.348780182
1751359761.130059242,-1.729075351,-2.187192736,-0.821930215,1.594569327,-0.047121532,-1.616829000,-0.015553946,0.124466647,-0.109686729,-0.004178524,-0.126941196,-0.127000000,3.688263367,3.345506411,0.282507911,-0.001625344,-0.028157280,-0.348893253
1751359761.132805109,-1.729106581,-2.186942823,-0.822150452,1.594560938,-0.047376414,-1.617084000,-0.015676418,0.125446699,-0.110550404,-0.004211426,-0.127940733,-0.128000000,3.689045114,3.346074100,0.282508526,-0.001627869,-0.028157280,-0.349007221
1751359761.133990288,-1.729138057,-2.186690949,-0.822372416,1.594552482,-0.047633295,-1.617341000,-0.015798890,0.126426751,-0.111414079,-0.004244328,-0.128940270,-0.129000000,3.689832915,3.346646105,0.282509145,-0.001630414,-0.028157280,-0.349122089
1751359761.135998964,-1.729169777,-2.186437116,-0.822596108,1.594543960,-0.047892175,-1.617600000,-0.015921362,0.127406804,-0.112277754,-0.004277229,-0.129939807,-0.130000000,3.690626768,3.347222423,0.282509766,-0.001632977,-0.028157280,-0.349237856
1751359761.137857199,-1.729201742,-2.186181322,-0.822821527,1.594535373,-0.048153054,-1.617861000,-0.016043834,0.128386856,-0.113141429,-0.004310131,-0.130939344,-0.131000000,3.691426671,3.347803051,0.282510389,-0.001635559,-0.028157280,-0.349354521
1751359761.139838219,-1.729233952,-2.185923568,-0.823048674,1.594526720,-0.048415932,-1.618124000,-0.016166306,0.129366908,-0.114005104,-0.004343033,-0.131938881,-0.132000000,3.692232622,3.348387985,0.282511015,-0.001638161,-0.028157280,-0.349472086
1751359761.141822100,-1.729266407,-2.185663854,-0.823277548,1.594518001,-0.048680810,-1.618389000,-0.016288778,0.130346961,-0.114868779,-0.004375935,-0.132938418,-0.133000000,3.693044620,3.348977223,0.282511643,-0.001640781,-0.028157280,-0.349590550
1751359761.145039797,-1.729299107,-2.185402180,-0.823508149,1.594509216,-0.048947686,-1.618656000,-0.016411250,0.131327013,-0.115732454,-0.004408836,-0.133937955,-0.134000000,3.693862662,3.349570760,0.282512273,-0.001643421,-0.028157280,-0.349709913
1751359761.146164179,-1.729332052,-2.185138546,-0.823740477,1.594500365,-0.049216561,-1.618925000,-0.016533722,0.132307065,-0.116596129,-0.004441738,-0.134937492,-0.135000000,3.694686746,3.350168594,0.282512906,-0.001646079,-0.028157280,-0.349830175
1751359761.148010492,-1.729365242,-2.184872952,-0.823974533,1.594491449,-0.049487436,-1.619196000,-0.016656194,0.133287118,-0.117459804,-0.004474640,-0.135937029,-0.136000000,3.695516870,3.350770721,0.282513541,-0.001648757,-0.028157280,-0.349951337
1751359761.149953604,-1.729398677,-2.184605398,-0.824210317,1.594482467,-0.049760310,-1.619469000,-0.016778666,0.134267170,-0.118323479,-0.004507542,-0.136936566,-0.137000000,3.696353033,3.351377138,0.282514179,-0.001651453,-0.028157280,-0.350073398
1751359761.151964903,-1.729432357,-2.184335883,-0.824447827,1.594473419,-0.050035182,-1.619744000,-0.016901138,0.135247222,-0.119187154,-0.004540443,-0.137936103,-0.138000000,3.697195233,3.351987842,0.282514818,-0.001654168,-0.028157280,-0.350196358
1751359761.153914452,-1.729466282,-2.184064409,-0.824687065,1.594464305,-0.050312054,-1.620021000,-0.017023610,0.136227275,-0.120050829,-0.004573345,-0.138935640,-0.139000000,3.698043468,3.352602828,0.282515460,-0.001656903,-0.028157280,-0.350320219
1751359761.155915976,-1.729500451,-2.183790974,-0.824928031,1.594455125,-0.050590925,-1.620300000,-0.017146082,0.137207327,-0.120914504,-0.004606247,-0.139935177,-0.140000000,3.698897735,3.353222094,0.282516103,-0.001659656,-0.028157280,-0.350444978
1751359761.157939196,-1.729534866,-2.183515580,-0.825170723,1.594445880,-0.050871795,-1.620581000,-0.017268554,0.138187379,-0.121778179,-0.004639149,-0.140934714,-0.141000000,3.699758032,3.353845636,0.282516749,-0.001662427,-0.028157280,-0.350570638
1751359761.159960508,-1.729569526,-2.183238225,-0.825415143,1.594436569,-0.051154664,-1.620864000,-0.017391026,0.139167432,-0.122641854,-0.004672050,-0.141934251,-0.142000000,3.700624358,3.354473450,0.282517396,-0.001665218,-0.028157280,-0.350697197
1751359761.161977291,-1.729604430,-2.182958910,-0.825661291,1.594427192,-0.051439532,-1.621149000,-0.017513498,0.140147484,-0.123505529,-0.004704952,-0.142933788,-0.143000000,3.701496711,3.355105534,0.282518045,-0.001668028,-0.028157280,-0.350824656
1751359761.164004803,-1.729639580,-2.182677635,-0.825909165,1.594417749,-0.051726399,-1.621436000,-0.017635970,0.141127536,-0.124369204,-0.004737854,-0.143933325,-0.144000000,3.702375088,3.355741883,0.282518696,-0.001670856,-0.028157280,-0.350953015
1751359761.166098833,-1.729674974,-2.182394400,-0.826158767,1.594408240,-0.052015265,-1.621725000,-0.017758442,0.142107589,-0.125232879,-0.004770756,-0.144932862,-0.145000000,3.703259488,3.356382493,0.282519349,-0.001673703,-0.028157280,-0.351082274
1751359761.167988300,-1.729710613,-2.182109204,-0.826410097,1.594398666,-0.052306130,-1.622016000,-0.017880914,0.143087641,-0.126096554,-0.004803658,-0.145932399,-0.146000000,3.704149908,3.357027362,0.282520003,-0.001676569,-0.028157280,-0.351212433
1751359761.170015335,-1.729746498,-2.181822049,-0.826663154,1.594389026,-0.052598995,-1.622309000,-0.018003386,0.144067693,-0.126960229,-0.004836559,-0.146931936,-0.147000000,3.705046346,3.357676486,0.282520659,-0.001679453,-0.028157280,-0.351343493
1751359761.171927214,-1.729782627,-2.181532934,-0.826917938,1.594379320,-0.052893858,-1.622604000,-0.018125858,0.145047746,-0.127823904,-0.004869461,-0.147931473,-0.148000000,3.705948800,3.358329860,0.282521317,-0.001682357,-0.028157280,-0.351475452
1751359761.174070835,-1.729819001,-2.181241858,-0.827174449,1.594369548,-0.053190720,-1.622901000,-0.018248330,0.146027798,-0.128687579,-0.004902363,-0.148931010,-0.149000000,3.706857268,3.358987482,0.282521976,-0.001685279,-0.028157280,-0.351608311
1751359761.185058832,-1.729855620,-2.180948822,-0.827432688,1.594359710,-0.053489582,-1.623200000,-0.018370802,0.147007850,-0.129551254,-0.004935265,-0.149930547,-0.150000000,3.707771748,3.359649347,0.282522636,-0.001688219,-0.028157280,-0.351742071
1751359761.185188293,-1.729892484,-2.180653827,-0.827692654,1.594349807,-0.053790443,-1.623501000,-0.018493274,0.147987903,-0.130414929,-0.004968166,-0.150930084,-0.151000000,3.708692238,3.360315453,0.282523298,-0.001691179,-0.028157280,-0.351876731
1751359761.185206413,-1.729892484,-2.180653827,-0.827692654,1.594349807,-0.053790443,-1.623501000,-0.018493274,0.147987903,-0.130414929,-0.004968166,-0.150930084,-0.151000000,3.708692238,3.360315453,0.282523298,-0.001691179,-0.028157280,-0.351876731
1751359761.185224295,-1.729929593,-2.180356871,-0.827954348,1.594339838,-0.054093302,-1.623804000,-0.018615746,0.148967955,-0.131278604,-0.005001068,-0.151929621,-0.152000000,3.709618735,3.360985794,0.282523961,-0.001694157,-0.028157280,-0.352012292
1751359761.186372519,-1.729966947,-2.180057955,-0.828217769,1.594329803,-0.054398161,-1.624109000,-0.018738218,0.149948007,-0.132142279,-0.005033970,-0.152929158,-0.153000000,3.710551238,3.361660367,0.282524626,-0.001697153,-0.028157280,-0.352148753
1751359761.186475754,-1.729966947,-2.180057955,-0.828217769,1.594329803,-0.054398161,-1.624109000,-0.018738218,0.149948007,-0.132142279,-0.005033970,-0.152929158,-0.153000000,3.710551238,3.361660367,0.282524626,-0.001697153,-0.028157280,-0.352148753
1751359761.188213587,-1.730042390,-2.179454243,-0.828749793,1.594309535,-0.055013876,-1.624725000,-0.018983162,0.151908112,-0.133869629,-0.005099773,-0.154928232,-0.155000000,3.712434249,3.363022196,0.282525958,-0.001703202,-0.028157280,-0.352424376
1751359761.189963818,-1.730080479,-2.179149446,-0.829018395,1.594299303,-0.055324732,-1.625036000,-0.019105634,0.152888164,-0.134733304,-0.005132675,-0.155927769,-0.156000000,3.713384755,3.363709443,0.282526626,-0.001706254,-0.028157280,-0.352563538
1751359761.191962957,-1.730118813,-2.178842690,-0.829288726,1.594289004,-0.055637587,-1.625349000,-0.019228106,0.153868217,-0.135596979,-0.005165577,-0.156927306,-0.157000000,3.714341256,3.364400907,0.282527295,-0.001709325,-0.028157280,-0.352703601
1751359761.194057941,-1.730118813,-2.178842690,-0.829288726,1.594289004,-0.055637587,-1.625349000,-0.019228106,0.153868217,-0.135596979,-0.005165577,-0.156927306,-0.157000000,3.714341256,3.364400907,0.282527295,-0.001709325,-0.028157280,-0.352703601
1751359761.198878527,-1.730157391,-2.178533973,-0.829560783,1.594278640,-0.055952441,-1.625664000,-0.019350578,0.154848269,-0.136460655,-0.005198479,-0.157926842,-0.158000000,3.715303751,3.365096584,0.282527964,-0.001712414,-0.028157280,-0.352844565
1751359761.200061083,-1.730235284,-2.177910660,-0.830110081,1.594257715,-0.056588147,-1.626300000,-0.019595522,0.156808374,-0.138188005,-0.005264282,-0.159925916,-0.160000000,3.717246715,3.366500561,0.282529306,-0.001718648,-0.028157280,-0.353129195
1751359761.202075481,-1.730274597,-2.177596063,-0.830387320,1.594247153,-0.056908998,-1.626621000,-0.019717994,0.157788426,-0.139051680,-0.005297184,-0.160925453,-0.161000000,3.718227179,3.367208853,0.282529978,-0.001721793,-0.028157280,-0.353272860
1751359761.203915119,-1.730314155,-2.177279507,-0.830666287,1.594236526,-0.057231848,-1.626944000,-0.019840466,0.158768478,-0.139915355,-0.005330086,-0.161924990,-0.162000000,3.719213628,3.367921343,0.282530651,-0.001724956,-0.028157280,-0.353417427
1751359761.206047773,-1.730353959,-2.176960989,-0.830946982,1.594225833,-0.057556698,-1.627269000,-0.019962938,0.159748531,-0.140779030,-0.005362988,-0.162924527,-0.163000000,3.720206060,3.368638025,0.282531325,-0.001728138,-0.028157280,-0.353562895
1751359761.208083153,-1.730394007,-2.176640512,-0.831229404,1.594215074,-0.057883547,-1.627596000,-0.020085410,0.160728583,-0.141642705,-0.005395889,-0.163924064,-0.164000000,3.721204471,3.369358896,0.282531999,-0.001731338,-0.028157280,-0.353709263
1751359761.210068226,-1.730434301,-2.176318075,-0.831513553,1.594204249,-0.058212394,-1.627925000,-0.020207882,0.161708635,-0.142506380,-0.005428791,-0.164923601,-0.165000000,3.722208860,3.370083952,0.282532673,-0.001734556,-0.028157280,-0.353856532
1751359761.212071657,-1.730474839,-2.175993678,-0.831799429,1.594193359,-0.058543241,-1.628256000,-0.020330354,0.162688688,-0.143370055,-0.005461693,-0.165923138,-0.166000000,3.723219225,3.370813188,0.282533348,-0.001737792,-0.028157280,-0.354004703
1751359761.214035988,-1.730515622,-2.175667320,-0.832087033,1.594182403,-0.058876087,-1.628589000,-0.020452826,0.163668740,-0.144233730,-0.005494595,-0.166922675,-0.167000000,3.724235562,3.371546601,0.282534023,-0.001741047,-0.028157280,-0.354153774
1751359761.216371298,-1.730556650,-2.175339003,-0.832376364,1.594171381,-0.059210932,-1.628924000,-0.020575298,0.164648792,-0.145097405,-0.005527496,-0.167922212,-0.168000000,3.725257870,3.372284187,0.282534699,-0.001744320,-0.028157280,-0.354303746
1751359761.218061209,-1.730597923,-2.175008725,-0.832667422,1.594160293,-0.059547776,-1.629261000,-0.020697770,0.165628845,-0.145961080,-0.005560398,-0.168921749,-0.169000000,3.726286146,3.373025941,0.282535374,-0.001747612,-0.028157280,-0.354454619
1751359761.220136642,-1.730639441,-2.174676488,-0.832960208,1.594149139,-0.059886619,-1.629600000,-0.020820242,0.166608897,-0.146824755,-0.005593300,-0.169921286,-0.170000000,3.727320387,3.373771858,0.282536050,-0.001750921,-0.028157280,-0.354606393
1751359761.222050667,-1.730681204,-2.174342290,-0.833254722,1.594137920,-0.060227461,-1.629941000,-0.020942714,0.167588949,-0.147688430,-0.005626202,-0.170920823,-0.171000000,3.728360592,3.374521936,0.282536726,-0.001754249,-0.028157280,-0.354759068
1751359761.224072933,-1.730723212,-2.174006132,-0.833550962,1.594126634,-0.060570302,-1.630284000,-0.021065186,0.168569002,-0.148552105,-0.005659103,-0.171920360,-0.172000000,3.729406757,3.375276169,0.282537402,-0.001757595,-0.028157280,-0.354912645
1751359761.225998402,-1.730765465,-2.173668014,-0.833848930,1.594115283,-0.060915142,-1.630629000,-0.021187658,0.169549054,-0.149415780,-0.005692005,-0.172919897,-0.173000000,3.730458880,3.376034553,0.282538078,-0.001760959,-0.028157280,-0.355067122
1751359761.228140354,-1.730765465,-2.173668014,-0.833848930,1.594115283,-0.060915142,-1.630629000,-0.021187658,0.169549054,-0.149415780,-0.005692005,-0.172919897,-0.173000000,3.730458880,3.376034553,0.282538078,-0.001760959,-0.028157280,-0.355067122
1751359761.230035543,-1.730807963,-2.173327935,-0.834148625,1.594103866,-0.061261982,-1.630976000,-0.021310130,0.170529106,-0.150279455,-0.005724907,-0.173919434,-0.174000000,3.731516959,3.376797083,0.282538753,-0.001764342,-0.028157280,-0.355222500
1751359761.232218266,-1.730850705,-2.172985897,-0.834450048,1.594092383,-0.061610820,-1.631325000,-0.021432602,0.171509159,-0.151143130,-0.005757809,-0.174918971,-0.175000000,3.732580991,3.377563757,0.282539429,-0.001767742,-0.028157280,-0.355378780
1751359761.234248877,-1.730893693,-2.172641899,-0.834753198,1.594080835,-0.061961657,-1.631676000,-0.021555074,0.172489211,-0.152006805,-0.005790710,-0.175918508,-0.176000000,3.733650974,3.378334568,0.282540104,-0.001771161,-0.028157280,-0.355535960
1751359761.238683939,-1.730936926,-2.172295940,-0.835058075,1.594069221,-0.062314494,-1.632029000,-0.021677546,0.173469263,-0.152870480,-0.005823612,-0.176918045,-0.177000000,3.734726904,3.379109513,0.282540779,-0.001774597,-0.028157280,-0.355694041
1751359761.240602016,-1.730936926,-2.172295940,-0.835058075,1.594069221,-0.062314494,-1.632029000,-0.021677546,0.173469263,-0.152870480,-0.005823612,-0.176918045,-0.177000000,3.734726904,3.379109513,0.282540779,-0.001774597,-0.028157280,-0.355694041
1751359761.240664721,-1.730936926,-2.172295940,-0.835058075,1.594069221,-0.062314494,-1.632029000,-0.021677546,0.173469263,-0.152870480,-0.005823612,-0.176918045,-0.177000000,3.734726904,3.379109513,0.282540779,-0.001774597,-0.028157280,-0.355694041
1751359761.245177507,-1.731068093,-2.171246304,-0.835983071,1.594033983,-0.063384998,-1.633100000,-0.022044962,0.176409420,-0.155461505,-0.005922317,-0.179916656,-0.180000000,3.737990356,3.381459106,0.282542800,-0.001785015,-0.028157280,-0.356173692
1751359761.245309353,-1.731068093,-2.171246304,-0.835983071,1.594033983,-0.063384998,-1.633100000,-0.022044962,0.176409420,-0.155461505,-0.005922317,-0.179916656,-0.180000000,3.737990356,3.381459106,0.282542800,-0.001785015,-0.028157280,-0.356173692
1751359761.246375799,-1.731112306,-2.170892505,-0.836294858,1.594022105,-0.063745831,-1.633461000,-0.022167434,0.177389473,-0.156325180,-0.005955219,-0.180916193,-0.181000000,3.739090052,3.382250542,0.282543473,-0.001788524,-0.028157280,-0.356335378
1751359761.249155283,-1.731156763,-2.170536746,-0.836608372,1.594010162,-0.064108663,-1.633824000,-0.022289906,0.178369525,-0.157188855,-0.005988121,-0.181915730,-0.182000000,3.740195683,3.383046088,0.282544145,-0.001792051,-0.028157280,-0.356497965
1751359761.250618219,-1.731201465,-2.170179027,-0.836923613,1.593998153,-0.064473494,-1.634189000,-0.022412378,0.179349577,-0.158052530,-0.006021023,-0.182915267,-0.183000000,3.741307245,3.383845742,0.282544816,-0.001795595,-0.028157280,-0.356661452
1751359761.252374887,-1.731246412,-2.169819348,-0.837240582,1.593986078,-0.064840324,-1.634556000,-0.022534850,0.180329630,-0.158916205,-0.006053925,-0.183914804,-0.184000000,3.742424737,3.384649497,0.282545487,-0.001799157,-0.028157280,-0.356825841
1751359761.254113674,-1.731246412,-2.169819348,-0.837240582,1.593986078,-0.064840324,-1.634556000,-0.022534850,0.180329630,-0.158916205,-0.006053925,-0.183914804,-0.184000000,3.742424737,3.384649497,0.282545487,-0.001799157,-0.028157280,-0.356825841
1751359761.256093264,-1.731291605,-2.169457709,-0.837559278,1.593973937,-0.065209153,-1.634925000,-0.022657322,0.181309682,-0.159779880,-0.006086826,-0.184914341,-0.185000000,3.743548156,3.385457350,0.282546156,-0.001802738,-0.028157280,-0.356991131
1751359761.260143042,-1.731337042,-2.169094109,-0.837879701,1.593961731,-0.065579981,-1.635296000,-0.022779794,0.182289734,-0.160643555,-0.006119728,-0.185913878,-0.186000000,3.744677499,3.386269296,0.282546824,-0.001806336,-0.028157280,-0.357157321
1751359761.260211229,-1.731337042,-2.169094109,-0.837879701,1.593961731,-0.065579981,-1.635296000,-0.022779794,0.182289734,-0.160643555,-0.006119728,-0.185913878,-0.186000000,3.744677499,3.386269296,0.282546824,-0.001806336,-0.028157280,-0.357157321
1751359761.262084246,-1.731382724,-2.168728550,-0.838201852,1.593949458,-0.065952809,-1.635669000,-0.022902266,0.183269787,-0.161507230,-0.006152630,-0.186913415,-0.187000000,3.745812763,3.387085331,0.282547492,-0.001809952,-0.028157280,-0.357324413
1751359761.263998508,-1.731428651,-2.168361030,-0.838525730,1.593937120,-0.066327635,-1.636044000,-0.023024738,0.184249839,-0.162370905,-0.006185532,-0.187912952,-0.188000000,3.746953945,3.387905448,0.282548158,-0.001813585,-0.028157280,-0.357492405
1751359761.266041040,-1.731474823,-2.167991551,-0.838851336,1.593924716,-0.066704460,-1.636421000,-0.023147210,0.185229891,-0.163234580,-0.006218433,-0.188912489,-0.189000000,3.748101044,3.388729645,0.282548823,-0.001817237,-0.028157280,-0.357661298
1751359761.267992735,-1.731521240,-2.167620111,-0.839178669,1.593912246,-0.067083285,-1.636800000,-0.023269682,0.186209944,-0.164098255,-0.006251335,-0.189912026,-0.190000000,3.749254055,3.389557916,0.282549486,-0.001820906,-0.028157280,-0.357831092
1751359761.269981146,-1.731567901,-2.167246711,-0.839507729,1.593899711,-0.067464108,-1.637181000,-0.023392154,0.187189996,-0.164961930,-0.006284237,-0.190911563,-0.191000000,3.750412976,3.390390256,0.282550148,-0.001824593,-0.028157280,-0.358001787
1751359761.272003889,-1.731614808,-2.166871351,-0.839838516,1.593887109,-0.067846931,-1.637564000,-0.023514626,0.188170048,-0.165825605,-0.006317139,-0.191911100,-0.192000000,3.751577805,3.391226661,0.282550809,-0.001828297,-0.028157280,-0.358173382
1751359761.274205923,-1.731661960,-2.166494031,-0.840171031,1.593874442,-0.068231753,-1.637949000,-0.023637098,0.189150101,-0.166689281,-0.006350040,-0.192910637,-0.193000000,3.752748538,3.392067126,0.282551468,-0.001832020,-0.028157280,-0.358345878
1751359761.276250839,-1.731709357,-2.166114750,-0.840505273,1.593861709,-0.068618574,-1.638336000,-0.023759570,0.190130153,-0.167552956,-0.006382942,-0.193910174,-0.194000000,3.753925172,3.392911645,0.282552126,-0.001835759,-0.028157280,-0.358519275
1751359761.278160572,-1.731756998,-2.165733510,-0.840841243,1.593848910,-0.069007394,-1.638725000,-0.023882042,0.191110205,-0.168416631,-0.006415844,-0.194909711,-0.195000000,3.755107706,3.393760215,0.282552781,-0.001839517,-0.028157280,-0.358693572
1751359761.280152082,-1.731804885,-2.165350309,-0.841178940,1.593836046,-0.069398213,-1.639116000,-0.024004514,0.192090258,-0.169280306,-0.006448746,-0.195909248,-0.196000000,3.756296135,3.394612830,0.282553435,-0.001843292,-0.028157280,-0.358868770
1751359761.282195807,-1.731853016,-2.164965149,-0.841518364,1.593823115,-0.069791031,-1.639509000,-0.024126986,0.193070310,-0.170143981,-0.006481647,-0.196908785,-0.197000000,3.757490457,3.395469485,0.282554088,-0.001847084,-0.028157280,-0.359044868
1751359761.284033298,-1.731901393,-2.164578028,-0.841859516,1.593810119,-0.070185848,-1.639904000,-0.024249458,0.194050362,-0.171007656,-0.006514549,-0.197908322,-0.198000000,3.758690670,3.396330175,0.282554738,-0.001850895,-0.028157280,-0.359221867
1751359761.286137581,-1.731950014,-2.164188947,-0.842202395,1.593797057,-0.070582664,-1.640301000,-0.024371931,0.195030415,-0.171871331,-0.006547451,-0.198907859,-0.199000000,3.759896769,3.397194896,0.282555386,-0.001854722,-0.028157280,-0.359399766
1751359761.287942171,-1.731998881,-2.163797907,-0.842547001,1.593783929,-0.070981479,-1.640700000,-0.024494403,0.196010467,-0.172735006,-0.006580353,-0.199907396,-0.200000000,3.761108752,3.398063642,0.282556032,-0.001858567,-0.028157280,-0.359578565
1751359761.289960623,-1.732047992,-2.163404906,-0.842893335,1.593770736,-0.071382293,-1.641101000,-0.024616875,0.196990519,-0.173598681,-0.006613255,-0.200906933,-0.201000000,3.762326617,3.398936408,0.282556676,-0.001862430,-0.028157280,-0.359758264
1751359761.291982174,-1.732097348,-2.163009945,-0.843241396,1.593757476,-0.071785107,-1.641504000,-0.024739347,0.197970572,-0.174462356,-0.006646156,-0.201906470,-0.202000000,3.763550360,3.399813190,0.282557317,-0.001866309,-0.028157280,-0.359938863
1751359761.300315380,-1.732146949,-2.162613023,-0.843591184,1.593744151,-0.072189919,-1.641909000,-0.024861819,0.198950624,-0.175326031,-0.006679058,-0.202906006,-0.203000000,3.764779978,3.400693982,0.282557956,-0.001870207,-0.028157279,-0.360120362
1751359761.300374031,-1.732146949,-2.162613023,-0.843591184,1.593744151,-0.072189919,-1.641909000,-0.024861819,0.198950624,-0.175326031,-0.006679058,-0.202906006,-0.203000000,3.764779978,3.400693982,0.282557956,-0.001870207,-0.028157279,-0.360120362
1751359761.302680731,-1.732146949,-2.162613023,-0.843591184,1.593744151,-0.072189919,-1.641909000,-0.024861819,0.198950624,-0.175326031,-0.006679058,-0.202906006,-0.203000000,3.764779978,3.400693982,0.282557956,-0.001870207,-0.028157279,-0.360120362
1751359761.302736759,-1.732196795,-2.162214142,-0.843942700,1.593730760,-0.072596731,-1.642316000,-0.024984291,0.199930676,-0.176189706,-0.006711960,-0.203905543,-0.204000000,3.766015468,3.401578779,0.282558593,-0.001874121,-0.028157279,-0.360302761
1751359761.305114508,-1.732246886,-2.161813301,-0.844295943,1.593717303,-0.073005541,-1.642725000,-0.025106763,0.200910729,-0.177053381,-0.006744862,-0.204905080,-0.205000000,3.767256828,3.402467576,0.282559227,-0.001878053,-0.028157279,-0.360486060
1751359761.305914640,-1.732297222,-2.161410499,-0.844650914,1.593703781,-0.073416351,-1.643136000,-0.025229235,0.201890781,-0.177917056,-0.006777763,-0.205904617,-0.206000000,3.768504053,3.403360367,0.282559859,-0.001882002,-0.028157279,-0.360670259
1751359761.307954788,-1.732347803,-2.161005737,-0.845007611,1.593690192,-0.073829160,-1.643549000,-0.025351707,0.202870833,-0.178780731,-0.006810665,-0.206904154,-0.207000000,3.769757141,3.404257149,0.282560488,-0.001885969,-0.028157279,-0.360855357
1751359761.309935093,-1.732398629,-2.160599016,-0.845366036,1.593676538,-0.074243968,-1.643964000,-0.025474179,0.203850886,-0.179644406,-0.006843567,-0.207903691,-0.208000000,3.771016090,3.405157915,0.282561114,-0.001889952,-0.028157279,-0.361041355
1751359761.311930656,-1.732449700,-2.160190334,-0.845726189,1.593662818,-0.074660775,-1.644381000,-0.025596651,0.204830938,-0.180508081,-0.006876469,-0.208903228,-0.209000000,3.772280895,3.406062660,0.282561737,-0.001893953,-0.028157279,-0.361228252
1751359761.313965797,-1.732501016,-2.159779692,-0.846088069,1.593649032,-0.075079581,-1.644800000,-0.025719123,0.205810990,-0.181371756,-0.006909370,-0.209902765,-0.210000000,3.773551553,3.406971379,0.282562358,-0.001897971,-0.028157279,-0.361416049
1751359761.317117214,-1.732552576,-2.159367090,-0.846451676,1.593635181,-0.075500386,-1.645221000,-0.025841595,0.206791043,-0.182235431,-0.006942272,-0.210902302,-0.211000000,3.774828063,3.407884067,0.282562975,-0.001902006,-0.028157279,-0.361604744
1751359761.318204403,-1.732604382,-2.158952528,-0.846817010,1.593621263,-0.075923190,-1.645644000,-0.025964067,0.207771095,-0.183099106,-0.006975174,-0.211901839,-0.212000000,3.776110419,3.408800718,0.282563589,-0.001906058,-0.028157279,-0.361794339
1751359761.320244789,-1.732656433,-2.158536006,-0.847184072,1.593607280,-0.076347993,-1.646069000,-0.026086539,0.208751147,-0.183962781,-0.007008076,-0.212901376,-0.213000000,3.777398620,3.409721327,0.282564200,-0.001910128,-0.028157279,-0.361984832
1751359761.322050810,-1.732708728,-2.158117523,-0.847552862,1.593593231,-0.076774795,-1.646496000,-0.026209011,0.209731200,-0.184826456,-0.007040977,-0.213900913,-0.214000000,3.778692662,3.410645889,0.282564808,-0.001914214,-0.028157279,-0.362176224
1751359761.324161291,-1.732761269,-2.157697081,-0.847923378,1.593579116,-0.077203597,-1.646925000,-0.026331483,0.210711252,-0.185690131,-0.007073879,-0.214900450,-0.215000000,3.779992542,3.411574398,0.282565412,-0.001918317,-0.028157279,-0.362368515
1751359761.327745438,-1.732814054,-2.157274678,-0.848295622,1.593564935,-0.077634397,-1.647356000,-0.026453955,0.211691304,-0.186553806,-0.007106781,-0.215899987,-0.216000000,3.781298256,3.412506849,0.282566013,-0.001922438,-0.028157279,-0.362561705
1751359761.328404427,-1.732867085,-2.156850316,-0.848669593,1.593550689,-0.078067197,-1.647789000,-0.026576427,0.212671357,-0.187417481,-0.007139683,-0.216899524,-0.217000000,3.782609802,3.413443237,0.282566610,-0.001926575,-0.028157279,-0.362755792
1751359761.330295324,-1.732920360,-2.156423993,-0.849045292,1.593536377,-0.078501995,-1.648224000,-0.026698899,0.213651409,-0.188281156,-0.007172585,-0.217899061,-0.218000000,3.783927175,3.414383555,0.282567204,-0.001930729,-0.028157279,-0.362950778
1751359761.332317352,-1.732973880,-2.155995710,-0.849422718,1.593521999,-0.078938793,-1.648661000,-0.026821371,0.214631461,-0.189144831,-0.007205486,-0.218898598,-0.219000000,3.785250374,3.415327799,0.282567794,-0.001934901,-0.028157279,-0.363146662
1751359761.334146976,-1.733027645,-2.155565467,-0.849801871,1.593507555,-0.079377590,-1.649100000,-0.026943843,0.215611514,-0.190008506,-0.007238388,-0.219898135,-0.220000000,3.786579394,3.416275963,0.282568380,-0.001939089,-0.028157279,-0.363343444
1751359761.336148977,-1.733081656,-2.155133264,-0.850182752,1.593493045,-0.079818386,-1.649541000,-0.027066315,0.216591566,-0.190872181,-0.007271290,-0.220897672,-0.221000000,3.787914232,3.417228042,0.282568962,-0.001943293,-0.028157279,-0.363541124
1751359761.338318348,-1.733135911,-2.154699101,-0.850565360,1.593478469,-0.080261180,-1.649984000,-0.027188787,0.217571618,-0.191735856,-0.007304192,-0.221897209,-0.222000000,3.789254885,3.418184029,0.282569540,-0.001947515,-0.028157279,-0.363739701
1751359761.340448618,-1.733190411,-2.154262977,-0.850949695,1.593463828,-0.080705974,-1.650429000,-0.027311259,0.218551671,-0.192599531,-0.007337093,-0.222896746,-0.223000000,3.790601349,3.419143920,0.282570114,-0.001951753,-0.028157279,-0.363939175
1751359761.342603207,-1.733245156,-2.153824894,-0.851335758,1.593449121,-0.081152767,-1.650876000,-0.027433731,0.219531723,-0.193463206,-0.007369995,-0.223896283,-0.224000000,3.791953622,3.420107708,0.282570684,-0.001956008,-0.028157279,-0.364139547
1751359761.344540119,-1.733300146,-2.153384851,-0.851723548,1.593434348,-0.081601559,-1.651325000,-0.027556203,0.220511775,-0.194326881,-0.007402897,-0.224895820,-0.225000000,3.793311699,3.421075388,0.282571250,-0.001960280,-0.028157279,-0.364340816
1751359761.346277237,-1.733300146,-2.153384851,-0.851723548,1.593434348,-0.081601559,-1.651325000,-0.027556203,0.220511775,-0.194326881,-0.007402897,-0.224895820,-0.225000000,3.793311699,3.421075388,0.282571250,-0.001960280,-0.028157279,-0.364340816
1751359761.348275661,-1.733355381,-2.152942847,-0.852113066,1.593419510,-0.082052351,-1.651776000,-0.027678675,0.221491828,-0.195190556,-0.007435799,-0.225895357,-0.226000000,3.794675578,3.422046955,0.282571811,-0.001964569,-0.028157279,-0.364542981
1751359761.350281715,-1.733410860,-2.152498883,-0.852504311,1.593404605,-0.082505141,-1.652229000,-0.027801147,0.222471880,-0.196054231,-0.007468700,-0.226894894,-0.227000000,3.796045255,3.423022402,0.282572368,-0.001968874,-0.028157279,-0.364746043
1751359761.352215290,-1.733466585,-2.152052959,-0.852897283,1.593389635,-0.082959930,-1.652684000,-0.027923619,0.223451933,-0.196917907,-0.007501602,-0.227894431,-0.228000000,3.797420726,3.424001724,0.282572920,-0.001973196,-0.028157279,-0.364950002
1751359761.354373217,-1.733522555,-2.151605075,-0.853291982,1.593374599,-0.083416719,-1.653141000,-0.028046091,0.224431985,-0.197781582,-0.007534504,-0.228893968,-0.229000000,3.798801988,3.424984916,0.282573467,-0.001977534,-0.028157279,-0.365154856
1751359761.356698990,-1.733578769,-2.151155231,-0.853688409,1.593359497,-0.083875506,-1.653600000,-0.028168563,0.225412037,-0.198645257,-0.007567406,-0.229893505,-0.230000000,3.800189038,3.425971971,0.282574010,-0.001981889,-0.028157279,-0.365360607
1751359761.358447313,-1.733635229,-2.150703427,-0.854086563,1.593344329,-0.084336293,-1.654061000,-0.028291035,0.226392090,-0.199508932,-0.007600307,-0.230893042,-0.231000000,3.801581872,3.426962883,0.282574548,-0.001986260,-0.028157279,-0.365567254
1751359761.360436916,-1.733691934,-2.150249663,-0.854486445,1.593329095,-0.084799078,-1.654524000,-0.028413507,0.227372142,-0.200372607,-0.007633209,-0.231892579,-0.232000000,3.802980487,3.427957647,0.282575081,-0.001990648,-0.028157279,-0.365774796
1751359761.362675190,-1.733748883,-2.149793939,-0.854888054,1.593313796,-0.085263863,-1.654989000,-0.028535979,0.228352194,-0.201236282,-0.007666111,-0.232892116,-0.233000000,3.804384878,3.428956257,0.282575609,-0.001995052,-0.028157279,-0.365983233
1751359761.371638536,-1.733806078,-2.149336254,-0.855291390,1.593298431,-0.085730647,-1.655456000,-0.028658451,0.229332247,-0.202099957,-0.007699013,-0.233891653,-0.234000000,3.805795043,3.429958707,0.282576132,-0.001999473,-0.028157279,-0.366192566
1751359761.371723175,-1.733806078,-2.149336254,-0.855291390,1.593298431,-0.085730647,-1.655456000,-0.028658451,0.229332247,-0.202099957,-0.007699013,-0.233891653,-0.234000000,3.805795043,3.429958707,0.282576132,-0.001999473,-0.028157279,-0.366192566
1751359761.372191906,-1.733979130,-2.147951440,-0.856511763,1.593251941,-0.087142993,-1.656869000,-0.029025867,0.232272404,-0.204690982,-0.007797718,-0.236890264,-0.237000000,3.810060144,3.432989038,0.282577669,-0.002012832,-0.028157279,-0.366825932
1751359761.375128746,-1.733979130,-2.147951440,-0.856511763,1.593251941,-0.087142993,-1.656869000,-0.029025867,0.232272404,-0.204690982,-0.007797718,-0.236890264,-0.237000000,3.810060144,3.432989038,0.282577669,-0.002012832,-0.028157279,-0.366825932
1751359761.376228571,-1.734095724,-2.147018431,-0.857333981,1.593220618,-0.088094552,-1.657821000,-0.029270811,0.234232508,-0.206418332,-0.007863522,-0.238889338,-0.239000000,3.812932346,3.435028350,0.282578666,-0.002021820,-0.028157279,-0.367252647
1751359761.378454685,-1.734154388,-2.146548985,-0.857747682,1.593204858,-0.088573330,-1.658300000,-0.029393283,0.235212561,-0.207282007,-0.007896423,-0.239888875,-0.240000000,3.814377077,3.436053716,0.282579157,-0.002026339,-0.028157279,-0.367467345
1751359761.380310059,-1.734213297,-2.146077580,-0.858163109,1.593189033,-0.089054107,-1.658781000,-0.029515755,0.236192613,-0.208145682,-0.007929325,-0.240888412,-0.241000000,3.815827556,3.437082879,0.282579641,-0.002030873,-0.028157279,-0.367682937
1751359761.382104158,-1.734213297,-2.146077580,-0.858163109,1.593189033,-0.089054107,-1.658781000,-0.029515755,0.236192613,-0.208145682,-0.007929325,-0.240888412,-0.241000000,3.815827556,3.437082879,0.282579641,-0.002030873,-0.028157279,-0.367682937
1751359761.384146929,-1.734272451,-2.145604215,-0.858580264,1.593173141,-0.089536884,-1.659264000,-0.029638227,0.237172665,-0.209009357,-0.007962227,-0.241887949,-0.242000000,3.817283780,3.438115834,0.282580119,-0.002035424,-0.028157279,-0.367899421
1751359761.386003494,-1.734331850,-2.145128890,-0.858999147,1.593157184,-0.090021659,-1.659749000,-0.029760699,0.238152718,-0.209873032,-0.007995129,-0.242887486,-0.243000000,3.818745744,3.439152575,0.282580592,-0.002039990,-0.028157279,-0.368116798
1751359761.388047218,-1.734391494,-2.144651604,-0.859419756,1.593141161,-0.090508434,-1.660236000,-0.029883171,0.239132770,-0.210736707,-0.008028030,-0.243887023,-0.244000000,3.820213446,3.440193096,0.282581058,-0.002044573,-0.028157279,-0.368335068
1751359761.389925718,-1.734451383,-2.144172359,-0.859842094,1.593125072,-0.090997207,-1.660725000,-0.030005643,0.240112822,-0.211600382,-0.008060932,-0.244886560,-0.245000000,3.821686881,3.441237391,0.282581518,-0.002049172,-0.028157279,-0.368554230
1751359761.392115355,-1.734511516,-2.143691153,-0.860266158,1.593108917,-0.091487980,-1.661216000,-0.030128115,0.241092875,-0.212464057,-0.008093834,-0.245886097,-0.246000000,3.823166046,3.442285453,0.282581972,-0.002053786,-0.028157279,-0.368774283
1751359761.395230055,-1.734571895,-2.143207987,-0.860691950,1.593092696,-0.091980751,-1.661709000,-0.030250587,0.242072927,-0.213327732,-0.008126736,-0.246885634,-0.247000000,3.824650936,3.443337276,0.282582420,-0.002058417,-0.028157279,-0.368995228
1751359761.396128178,-1.734632519,-2.142722861,-0.861119469,1.593076410,-0.092475522,-1.662204000,-0.030373059,0.243052979,-0.214191407,-0.008159637,-0.247885170,-0.248000000,3.826141548,3.444392854,0.282582861,-0.002063063,-0.028157279,-0.369217065
1751359761.398215771,-1.734693387,-2.142235775,-0.861548715,1.593060058,-0.092972292,-1.662701000,-0.030495531,0.244033032,-0.215055082,-0.008192539,-0.248884707,-0.249000000,3.827637879,3.445452181,0.282583295,-0.002067726,-0.028157279,-0.369439792
1751359761.400185823,-1.734754501,-2.141746729,-0.861979689,1.593043640,-0.093471061,-1.663200000,-0.030618003,0.245013084,-0.215918757,-0.008225441,-0.249884244,-0.250000000,3.829139924,3.446515250,0.282583722,-0.002072404,-0.028157279,-0.369663410
1751359761.402432203,-1.734815859,-2.141255723,-0.862412390,1.593027156,-0.093971829,-1.663701000,-0.030740475,0.245993136,-0.216782432,-0.008258343,-0.250883781,-0.251000000,3.830647680,3.447582055,0.282584143,-0.002077098,-0.028157279,-0.369887918
1751359761.404326677,-1.734877463,-2.140762756,-0.862846819,1.593010606,-0.094474596,-1.664204000,-0.030862947,0.246973189,-0.217646107,-0.008291244,-0.251883318,-0.252000000,3.832161142,3.448652589,0.282584557,-0.002081808,-0.028157279,-0.370113316
1751359761.406310081,-1.734939311,-2.140267830,-0.863282975,1.592993991,-0.094979362,-1.664709000,-0.030985419,0.247953241,-0.218509782,-0.008324146,-0.252882855,-0.253000000,3.833680308,3.449726847,0.282584964,-0.002086533,-0.028157279,-0.370339603
1751359761.408143520,-1.735001404,-2.139770944,-0.863720858,1.592977310,-0.095486128,-1.665216000,-0.031107891,0.248933293,-0.219373457,-0.008357048,-0.253882392,-0.254000000,3.835205172,3.450804822,0.282585364,-0.002091275,-0.028157279,-0.370566780
1751359761.409992456,-1.735063743,-2.139272097,-0.864160469,1.592960563,-0.095994892,-1.665725000,-0.031230363,0.249913346,-0.220237132,-0.008389950,-0.254881929,-0.255000000,3.836735731,3.451886507,0.282585756,-0.002096031,-0.028157279,-0.370794846
1751359761.412008286,-1.735126326,-2.138771290,-0.864601807,1.592943750,-0.096505655,-1.666236000,-0.031352835,0.250893398,-0.221100807,-0.008422852,-0.255881466,-0.256000000,3.838271981,3.452971896,0.282586142,-0.002100804,-0.028157279,-0.371023800
1751359761.414028883,-1.735189154,-2.138268523,-0.865044872,1.592926871,-0.097018418,-1.666749000,-0.031475307,0.251873450,-0.221964482,-0.008455753,-0.256881003,-0.257000000,3.839813918,3.454060982,0.282586520,-0.002105592,-0.028157279,-0.371253642
1751359761.416129112,-1.735252227,-2.137763796,-0.865489665,1.592909927,-0.097533179,-1.667264000,-0.031597779,0.252853503,-0.222828157,-0.008488655,-0.257880540,-0.258000000,3.841361538,3.455153760,0.282586890,-0.002110395,-0.028157279,-0.371484371
1751359761.418015242,-1.735315545,-2.137257109,-0.865936185,1.592892917,-0.098049940,-1.667781000,-0.031720251,0.253833555,-0.223691832,-0.008521557,-0.258880077,-0.259000000,3.842914838,3.456250222,0.282587252,-0.002115214,-0.028157279,-0.371715988
1751359761.420016050,-1.735379108,-2.136748462,-0.866384432,1.592875841,-0.098568700,-1.668300000,-0.031842723,0.254813607,-0.224555507,-0.008554459,-0.259879614,-0.260000000,3.844473812,3.457350361,0.282587607,-0.002120049,-0.028157279,-0.371948492
1751359761.421893597,-1.735442916,-2.136237855,-0.866834407,1.592858699,-0.099089458,-1.668821000,-0.031965195,0.255793660,-0.225419182,-0.008587360,-0.260879151,-0.261000000,3.846038458,3.458454172,0.282587954,-0.002124899,-0.028157279,-0.372181882
1751359761.423930883,-1.735506969,-2.135725287,-0.867286109,1.592841491,-0.099612216,-1.669344000,-0.032087667,0.256773712,-0.226282857,-0.008620262,-0.261878688,-0.262000000,3.847608770,3.459561648,0.282588293,-0.002129764,-0.028157279,-0.372416159
1751359761.425943613,-1.735571267,-2.135210760,-0.867739538,1.592824218,-0.100136973,-1.669869000,-0.032210139,0.257753764,-0.227146533,-0.008653164,-0.262878225,-0.263000000,3.849184746,3.460672781,0.282588624,-0.002134645,-0.028157279,-0.372651321
1751359761.428129196,-1.735635809,-2.134694272,-0.868194695,1.592806879,-0.100663729,-1.670396000,-0.032332611,0.258733817,-0.228010208,-0.008686066,-0.263877762,-0.264000000,3.850766380,3.461787566,0.282588947,-0.002139540,-0.028157279,-0.372887368
1751359761.430328846,-1.735635809,-2.134694272,-0.868194695,1.592806879,-0.100663729,-1.670396000,-0.032332611,0.258733817,-0.228010208,-0.008686066,-0.263877762,-0.264000000,3.850766380,3.461787566,0.282588947,-0.002139540,-0.028157279,-0.372887368
1751359761.432081223,-1.735700597,-2.134175825,-0.868651579,1.592789474,-0.101192484,-1.670925000,-0.032455083,0.259713869,-0.228873883,-0.008718967,-0.264877299,-0.265000000,3.852353669,3.462905995,0.282589262,-0.002144452,-0.028157279,-0.373124300
1751359761.437667847,-1.735765630,-2.133655417,-0.869110190,1.592772003,-0.101723238,-1.671456000,-0.032577555,0.260693921,-0.229737558,-0.008751869,-0.265876836,-0.266000000,3.853946608,3.464028062,0.282589568,-0.002149378,-0.028157279,-0.373362116
1751359761.439118624,-1.735830907,-2.133133049,-0.869570529,1.592754466,-0.102255992,-1.671989000,-0.032700027,0.261673974,-0.230601233,-0.008784771,-0.266876373,-0.267000000,3.855545194,3.465153761,0.282589865,-0.002154320,-0.028157279,-0.373600816
1751359761.440046072,-1.735896430,-2.132608721,-0.870032595,1.592736864,-0.102790744,-1.672524000,-0.032822499,0.262654026,-0.231464908,-0.008817673,-0.267875910,-0.268000000,3.857149423,3.466283083,0.282590154,-0.002159276,-0.028157279,-0.373840400
1751359761.442030907,-1.735962197,-2.132082433,-0.870496389,1.592719195,-0.103327495,-1.673061000,-0.032944971,0.263634078,-0.232328583,-0.008850574,-0.268875447,-0.269000000,3.858759289,3.467416023,0.282590435,-0.002164248,-0.028157279,-0.374080866
1751359761.444388151,-1.735962197,-2.132082433,-0.870496389,1.592719195,-0.103327495,-1.673061000,-0.032944971,0.263634078,-0.232328583,-0.008850574,-0.268875447,-0.269000000,3.858759289,3.467416023,0.282590435,-0.002164248,-0.028157279,-0.374080866
1751359761.446404696,-1.736028210,-2.131554185,-0.870961910,1.592701461,-0.103866246,-1.673600000,-0.033067443,0.264614131,-0.233192258,-0.008883476,-0.269874984,-0.270000000,3.860374789,3.468552574,0.282590706,-0.002169235,-0.028157279,-0.374322215
1751359761.448305130,-1.736094467,-2.131023976,-0.871429158,1.592683662,-0.104406995,-1.674141000,-0.033189915,0.265594183,-0.234055933,-0.008916378,-0.270874521,-0.271000000,3.861995919,3.469692729,0.282590968,-0.002174237,-0.028157279,-0.374564446
1751359761.450199604,-1.736160969,-2.130491808,-0.871898133,1.592665796,-0.104949744,-1.674684000,-0.033312387,0.266574235,-0.234919608,-0.008949280,-0.271874058,-0.272000000,3.863622675,3.470836480,0.282591222,-0.002179254,-0.028157279,-0.374807558
1751359761.452157497,-1.736227717,-2.129957679,-0.872368836,1.592647864,-0.105494491,-1.675229000,-0.033434859,0.267554288,-0.235783283,-0.008982182,-0.272873595,-0.273000000,3.865255051,3.471983822,0.282591466,-0.002184285,-0.028157279,-0.375051552
1751359761.454025507,-1.736294709,-2.129421591,-0.872841266,1.592629867,-0.106041238,-1.675776000,-0.033557331,0.268534340,-0.236646958,-0.009015083,-0.273873132,-0.274000000,3.866893044,3.473134747,0.282591701,-0.002189332,-0.028157279,-0.375296425
1751359761.456070900,-1.736361946,-2.128883542,-0.873315424,1.592611804,-0.106589984,-1.676325000,-0.033679803,0.269514392,-0.237510633,-0.009047985,-0.274872669,-0.275000000,3.868536650,3.474289247,0.282591927,-0.002194393,-0.028157279,-0.375542179
1751359761.459766388,-1.736429428,-2.128343533,-0.873791309,1.592593675,-0.107140729,-1.676876000,-0.033802275,0.270494445,-0.238374308,-0.009080887,-0.275872206,-0.276000000,3.870185865,3.475447317,0.282592143,-0.002199470,-0.028157279,-0.375788812
1751359761.459989548,-1.736429428,-2.128343533,-0.873791309,1.592593675,-0.107140729,-1.676876000,-0.033802275,0.270494445,-0.238374308,-0.009080887,-0.275872206,-0.276000000,3.870185865,3.475447317,0.282592143,-0.002199470,-0.028157279,-0.375788812
1751359761.462072134,-1.736497155,-2.127801564,-0.874268921,1.592575481,-0.107693473,-1.677429000,-0.033924747,0.271474497,-0.239237983,-0.009113789,-0.276871743,-0.277000000,3.871840683,3.476608949,0.282592349,-0.002204561,-0.028157279,-0.376036324
1751359761.463896751,-1.736565127,-2.127257635,-0.874748261,1.592557220,-0.108248216,-1.677984000,-0.034047219,0.272454549,-0.240101658,-0.009146690,-0.277871280,-0.278000000,3.873501100,3.477774136,0.282592546,-0.002209667,-0.028157279,-0.376284715
1751359761.466209888,-1.736633344,-2.126711746,-0.875229328,1.592538894,-0.108804958,-1.678541000,-0.034169692,0.273434602,-0.240965333,-0.009179592,-0.278870817,-0.279000000,3.875167113,3.478942871,0.282592732,-0.002214787,-0.028157279,-0.376533983
1751359761.467946768,-1.736701806,-2.126163897,-0.875712122,1.592520502,-0.109363699,-1.679100000,-0.034292164,0.274414654,-0.241829008,-0.009212494,-0.279870354,-0.280000000,3.876838717,3.480115146,0.282592909,-0.002219922,-0.028157279,-0.376784129
1751359761.470009089,-1.736770513,-2.125614088,-0.876196644,1.592502044,-0.109924439,-1.679661000,-0.034414636,0.275394706,-0.242692683,-0.009245396,-0.280869891,-0.281000000,3.878515907,3.481290956,0.282593076,-0.002225072,-0.028157279,-0.377035151
1751359761.471855402,-1.736839464,-2.125062318,-0.876682893,1.592483520,-0.110487179,-1.680224000,-0.034537108,0.276374759,-0.243556358,-0.009278297,-0.281869428,-0.282000000,3.880198679,3.482470292,0.282593233,-0.002230236,-0.028157279,-0.377287049
1751359761.473839045,-1.736908661,-2.124508588,-0.877170869,1.592464931,-0.111051917,-1.680789000,-0.034659580,0.277354811,-0.244420033,-0.009311199,-0.282868965,-0.283000000,3.881887028,3.483653147,0.282593379,-0.002235415,-0.028157279,-0.377539823
1751359761.475993633,-1.736978103,-2.123952899,-0.877660573,1.592446275,-0.111618654,-1.681356000,-0.034782052,0.278334863,-0.245283708,-0.009344101,-0.283868502,-0.284000000,3.883580951,3.484839515,0.282593515,-0.002240608,-0.028157279,-0.377793471
1751359761.478135824,-1.737047789,-2.123395249,-0.878152004,1.592427554,-0.112187391,-1.681925000,-0.034904524,0.279314916,-0.246147383,-0.009377003,-0.284868039,-0.285000000,3.885280441,3.486029388,0.282593640,-0.002245816,-0.028157279,-0.378047994
1751359761.480248213,-1.737117721,-2.122835639,-0.878645163,1.592408767,-0.112758127,-1.682496000,-0.035026996,0.280294968,-0.247011058,-0.009409904,-0.285867576,-0.286000000,3.886985496,3.487222758,0.282593754,-0.002251038,-0.028157279,-0.378303391
1751359761.482048512,-1.737187897,-2.122274069,-0.879140048,1.592389915,-0.113330861,-1.683069000,-0.035149468,0.281275020,-0.247874733,-0.009442806,-0.286867113,-0.287000000,3.888696111,3.488419618,0.282593858,-0.002256275,-0.028157279,-0.378559660
1751359761.484013796,-1.737258319,-2.121710539,-0.879636662,1.592370996,-0.113905595,-1.683644000,-0.035271940,0.282255073,-0.248738408,-0.009475708,-0.287866650,-0.288000000,3.890412280,3.489619962,0.282593951,-0.002261525,-0.028157279,-0.378816802
1751359761.485924721,-1.737328985,-2.121145049,-0.880135002,1.592352012,-0.114482328,-1.684221000,-0.035394412,0.283235125,-0.249602083,-0.009508610,-0.288866187,-0.289000000,3.892133999,3.490823782,0.282594033,-0.002266790,-0.028157279,-0.379074816
1751359761.487894297,-1.737399896,-2.120577599,-0.880635070,1.592332962,-0.115061060,-1.684800000,-0.035516884,0.284215177,-0.250465758,-0.009541512,-0.289865724,-0.290000000,3.893861265,3.492031069,0.282594104,-0.002272069,-0.028157279,-0.379333701
1751359761.489929914,-1.737471052,-2.120008188,-0.881136865,1.592313846,-0.115641791,-1.685381000,-0.035639356,0.285195230,-0.251329433,-0.009574413,-0.290865261,-0.291000000,3.895594071,3.493241818,0.282594163,-0.002277363,-0.028157279,-0.379593457
1751359761.494696617,-1.737542454,-2.119436818,-0.881640388,1.592294664,-0.116224521,-1.685964000,-0.035761828,0.286175282,-0.252193108,-0.009607315,-0.291864798,-0.292000000,3.897332414,3.494456020,0.282594211,-0.002282670,-0.028157279,-0.379854082
1751359761.494748354,-1.737614100,-2.118863487,-0.882145638,1.592275416,-0.116809250,-1.686549000,-0.035884300,0.287155334,-0.253056783,-0.009640217,-0.292864334,-0.293000000,3.899076288,3.495673669,0.282594248,-0.002287992,-0.028157279,-0.380115577
1751359761.497360706,-1.737614100,-2.118863487,-0.882145638,1.592275416,-0.116809250,-1.686549000,-0.035884300,0.287155334,-0.253056783,-0.009640217,-0.292864334,-0.293000000,3.899076288,3.495673669,0.282594248,-0.002287992,-0.028157279,-0.380115577
1751359761.499455452,-1.737614100,-2.118863487,-0.882145638,1.592275416,-0.116809250,-1.686549000,-0.035884300,0.287155334,-0.253056783,-0.009640217,-0.292864334,-0.293000000,3.899076288,3.495673669,0.282594248,-0.002287992,-0.028157279,-0.380115577
1751359761.500839710,-1.737758127,-2.117710945,-0.883161319,1.592236724,-0.117984705,-1.687725000,-0.036129244,0.289115439,-0.254784133,-0.009706020,-0.294863408,-0.295000000,3.902580614,3.498119274,0.282594286,-0.002298677,-0.028157279,-0.380641170
1751359761.503030777,-1.737830508,-2.117131735,-0.883671751,1.592217279,-0.118575432,-1.688316000,-0.036251716,0.290095491,-0.255647808,-0.009738922,-0.295862945,-0.296000000,3.904341057,3.499347215,0.282594288,-0.002304040,-0.028157279,-0.380905268
1751359761.504071474,-1.737903134,-2.116550564,-0.884183911,1.592197768,-0.119168157,-1.688909000,-0.036374188,0.291075544,-0.256511483,-0.009771824,-0.296862482,-0.297000000,3.906107012,3.500578573,0.282594277,-0.002309417,-0.028157279,-0.381170232
1751359761.505993128,-1.737976005,-2.115967432,-0.884697797,1.592178192,-0.119762882,-1.689504000,-0.036496660,0.292055596,-0.257375159,-0.009804726,-0.297862019,-0.298000000,3.907878475,3.501813339,0.282594254,-0.002314809,-0.028157279,-0.381436062
1751359761.507904291,-1.738049120,-2.115382341,-0.885213411,1.592158549,-0.120359605,-1.690101000,-0.036619132,0.293035648,-0.258238834,-0.009837627,-0.298861556,-0.299000000,3.909655442,3.503051506,0.282594219,-0.002320214,-0.028157279,-0.381702757
1751359761.509854317,-1.738122481,-2.114795290,-0.885730753,1.592138841,-0.120958328,-1.690700000,-0.036741604,0.294015701,-0.259102509,-0.009870529,-0.299861093,-0.300000000,3.911437907,3.504293066,0.282594172,-0.002325632,-0.028157279,-0.381970315
1751359761.511876583,-1.738196087,-2.114206278,-0.886249821,1.592119067,-0.121559050,-1.691301000,-0.036864076,0.294995753,-0.259966184,-0.009903431,-0.300860630,-0.301000000,3.913225866,3.505538012,0.282594112,-0.002331065,-0.028157279,-0.382238737
1751359761.515754700,-1.738269937,-2.113615307,-0.886770617,1.592099228,-0.122161771,-1.691904000,-0.036986548,0.295975805,-0.260829859,-0.009936333,-0.301860167,-0.302000000,3.915019315,3.506786335,0.282594040,-0.002336511,-0.028157279,-0.382508022
1751359761.516090870,-1.738344033,-2.113022375,-0.887293141,1.592079322,-0.122766490,-1.692509000,-0.037109020,0.296955858,-0.261693534,-0.009969234,-0.302859704,-0.303000000,3.916818247,3.508038029,0.282593954,-0.002341971,-0.028157279,-0.382778168
1751359761.517875433,-1.738418374,-2.112427483,-0.887817391,1.592059351,-0.123373209,-1.693116000,-0.037231492,0.297935910,-0.262557209,-0.010002136,-0.303859241,-0.304000000,3.918622659,3.509293085,0.282593856,-0.002347444,-0.028157279,-0.383049176
1751359761.519820690,-1.738492959,-2.111830631,-0.888343370,1.592039313,-0.123981927,-1.693725000,-0.037353964,0.298915962,-0.263420884,-0.010035038,-0.304858778,-0.305000000,3.920432545,3.510551495,0.282593746,-0.002352931,-0.028157279,-0.383321043
1751359761.521907568,-1.738567789,-2.111231820,-0.888871075,1.592019210,-0.124592644,-1.694336000,-0.037476436,0.299896015,-0.264284559,-0.010067940,-0.305858315,-0.306000000,3.922247901,3.511813252,0.282593621,-0.002358431,-0.028157279,-0.383593771
1751359761.523864746,-1.738642865,-2.110631047,-0.889400508,1.591999042,-0.125205361,-1.694949000,-0.037598908,0.300876067,-0.265148234,-0.010100842,-0.306857852,-0.307000000,3.924068721,3.513078348,0.282593484,-0.002363945,-0.028157279,-0.383867356
1751359761.526036978,-1.738718185,-2.110028315,-0.889931668,1.591978807,-0.125820076,-1.695564000,-0.037721380,0.301856119,-0.266011909,-0.010133743,-0.307857389,-0.308000000,3.925895001,3.514346776,0.282593333,-0.002369472,-0.028157279,-0.384141800
1751359761.528159857,-1.738718185,-2.110028315,-0.889931668,1.591978807,-0.125820076,-1.695564000,-0.037721380,0.301856119,-0.266011909,-0.010133743,-0.307857389,-0.308000000,3.925895001,3.514346776,0.282593333,-0.002369472,-0.028157279,-0.384141800
1751359761.529945612,-1.738793750,-2.109423623,-0.890464555,1.591958507,-0.126436790,-1.696181000,-0.037843852,0.302836172,-0.266875584,-0.010166645,-0.308856926,-0.309000000,3.927726736,3.515618526,0.282593169,-0.002375012,-0.028157279,-0.384417100
1751359761.531861544,-1.738869560,-2.108816971,-0.890999170,1.591938140,-0.127055504,-1.696800000,-0.037966324,0.303816224,-0.267739259,-0.010199547,-0.309856463,-0.310000000,3.929563920,3.516893592,0.282592991,-0.002380566,-0.028157279,-0.384693257
1751359761.533777475,-1.738945616,-2.108208358,-0.891535512,1.591917708,-0.127676216,-1.697421000,-0.038088796,0.304796276,-0.268602934,-0.010232449,-0.310856000,-0.311000000,3.931406549,3.518171965,0.282592800,-0.002386133,-0.028157279,-0.384970268
1751359761.535775423,-1.739021916,-2.107597785,-0.892073582,1.591897211,-0.128298928,-1.698044000,-0.038211268,0.305776329,-0.269466609,-0.010265350,-0.311855537,-0.312000000,3.933254617,3.519453637,0.282592595,-0.002391713,-0.028157279,-0.385248134
1751359761.537793875,-1.739098461,-2.106985253,-0.892613379,1.591876647,-0.128923638,-1.698669000,-0.038333740,0.306756381,-0.270330284,-0.010298252,-0.312855074,-0.313000000,3.935108120,3.520738601,0.282592375,-0.002397306,-0.028157279,-0.385526854
1751359761.539910316,-1.739175251,-2.106370760,-0.893154903,1.591856018,-0.129550348,-1.699296000,-0.038456212,0.307736433,-0.271193959,-0.010331154,-0.313854611,-0.314000000,3.936967052,3.522026849,0.282592142,-0.002402912,-0.028157279,-0.385806426
1751359761.541815281,-1.739252285,-2.105754307,-0.893698155,1.591835322,-0.130179057,-1.699925000,-0.038578684,0.308716486,-0.272057634,-0.010364056,-0.314854148,-0.315000000,3.938831409,3.523318371,0.282591894,-0.002408532,-0.028157279,-0.386086850
1751359761.544410467,-1.739329565,-2.105135894,-0.894243134,1.591814561,-0.130809764,-1.700556000,-0.038701156,0.309696538,-0.272921309,-0.010396957,-0.315853685,-0.316000000,3.940701184,3.524613161,0.282591632,-0.002414164,-0.028157279,-0.386368124
1751359761.556266308,-1.739641134,-2.102642641,-0.896440323,1.591730859,-0.133352587,-1.703100000,-0.039191044,0.313616747,-0.276376009,-0.010528564,-0.319851833,-0.320000000,3.948234376,3.529824831,0.282590436,-0.002436822,-0.028157279,-0.387501711
1751359761.556334496,-1.739641134,-2.102642641,-0.896440323,1.591730859,-0.133352587,-1.703100000,-0.039191044,0.313616747,-0.276376009,-0.010528564,-0.319851833,-0.320000000,3.948234376,3.529824831,0.282590436,-0.002436822,-0.028157279,-0.387501711
1751359761.556354046,-1.739641134,-2.102642641,-0.896440323,1.591730859,-0.133352587,-1.703100000,-0.039191044,0.313616747,-0.276376009,-0.010528564,-0.319851833,-0.320000000,3.948234376,3.529824831,0.282590436,-0.002436822,-0.028157279,-0.387501711
1751359761.556372166,-1.739719639,-2.102014427,-0.896993939,1.591709769,-0.133993290,-1.703741000,-0.039313516,0.314596800,-0.277239684,-0.010561466,-0.320851370,-0.321000000,3.950131170,3.531135835,0.282590100,-0.002442518,-0.028157279,-0.387787225
1751359761.556390285,-1.739798388,-2.101384254,-0.897549282,1.591688614,-0.134635992,-1.704384000,-0.039435988,0.315576852,-0.278103359,-0.010594368,-0.321850907,-0.322000000,3.952033352,3.532450058,0.282589749,-0.002448227,-0.028157279,-0.388073584
1751359761.558059692,-1.739877383,-2.100752120,-0.898106352,1.591667392,-0.135280693,-1.705029000,-0.039558460,0.316556904,-0.278967034,-0.010627270,-0.322850444,-0.323000000,3.953940917,3.533767490,0.282589382,-0.002453949,-0.028157279,-0.388360786
1751359761.559994936,-1.739877383,-2.100752120,-0.898106352,1.591667392,-0.135280693,-1.705029000,-0.039558460,0.316556904,-0.278967034,-0.010627270,-0.322850444,-0.323000000,3.953940917,3.533767490,0.282589382,-0.002453949,-0.028157279,-0.388360786
1751359761.561943054,-1.739956622,-2.100118026,-0.898665150,1.591646104,-0.135927394,-1.705676000,-0.039680932,0.317536957,-0.279830709,-0.010660171,-0.323849981,-0.324000000,3.955853859,3.535088124,0.282589000,-0.002459684,-0.028157279,-0.388648832
1751359761.563906193,-1.740036106,-2.099481972,-0.899225675,1.591624751,-0.136576093,-1.706325000,-0.039803404,0.318517009,-0.280694384,-0.010693073,-0.324849518,-0.325000000,3.957772174,3.536411952,0.282588603,-0.002465430,-0.028157279,-0.388937720
1751359761.566604853,-1.740115836,-2.098843958,-0.899787927,1.591603332,-0.137226792,-1.706976000,-0.039925876,0.319497061,-0.281558059,-0.010725975,-0.325849055,-0.326000000,3.959695855,3.537738965,0.282588189,-0.002471190,-0.028157279,-0.389227449
1751359761.568218708,-1.740195810,-2.098203984,-0.900351907,1.591581847,-0.137879489,-1.707629000,-0.040048348,0.320477114,-0.282421734,-0.010758877,-0.326848592,-0.327000000,3.961624898,3.539069154,0.282587760,-0.002476962,-0.028157279,-0.389518018
1751359761.570018768,-1.740276029,-2.097562050,-0.900917614,1.591560297,-0.138534186,-1.708284000,-0.040170820,0.321457166,-0.283285409,-0.010791779,-0.327848129,-0.328000000,3.963559296,3.540402511,0.282587315,-0.002482746,-0.028157279,-0.389809425
1751359761.572044373,-1.740356493,-2.096918155,-0.901485049,1.591538680,-0.139190882,-1.708941000,-0.040293292,0.322437218,-0.284149084,-0.010824680,-0.328847666,-0.329000000,3.965499046,3.541739029,0.282586854,-0.002488542,-0.028157279,-0.390101670
1751359761.574111462,-1.740437202,-2.096272301,-0.902054211,1.591516998,-0.139849577,-1.709600000,-0.040415764,0.323417271,-0.285012759,-0.010857582,-0.329847203,-0.330000000,3.967444140,3.543078698,0.282586376,-0.002494351,-0.028157279,-0.390394752
1751359761.576004267,-1.740518156,-2.095624486,-0.902625100,1.591495250,-0.140510271,-1.710261000,-0.040538236,0.324397323,-0.285876434,-0.010890484,-0.330846740,-0.331000000,3.969394575,3.544421509,0.282585882,-0.002500172,-0.028157279,-0.390688669
1751359761.578056812,-1.740599355,-2.094974711,-0.903197716,1.591473436,-0.141172964,-1.710924000,-0.040660708,0.325377375,-0.286740109,-0.010923386,-0.331846277,-0.332000000,3.971350344,3.545767456,0.282585372,-0.002506005,-0.028157279,-0.390983421
1751359761.579907417,-1.740680799,-2.094322977,-0.903772060,1.591451556,-0.141837656,-1.711589000,-0.040783180,0.326357428,-0.287603785,-0.010956287,-0.332845814,-0.333000000,3.973311441,3.547116528,0.282584845,-0.002511850,-0.028157279,-0.391279006
1751359761.581842899,-1.740762488,-2.093669282,-0.904348131,1.591429611,-0.142504347,-1.712256000,-0.040905652,0.327337480,-0.288467460,-0.010989189,-0.333845351,-0.334000000,3.975277862,3.548468717,0.282584301,-0.002517707,-0.028157279,-0.391575424
1751359761.583870888,-1.740844422,-2.093013627,-0.904925930,1.591407600,-0.143173037,-1.712925000,-0.041028124,0.328317532,-0.289331135,-0.011022091,-0.334844888,-0.335000000,3.977249601,3.549824015,0.282583740,-0.002523577,-0.028157278,-0.391872672
1751359761.585815907,-1.740926600,-2.092356012,-0.905505456,1.591385522,-0.143843727,-1.713596000,-0.041150596,0.329297585,-0.290194810,-0.011054993,-0.335844425,-0.336000000,3.979226652,3.551182413,0.282583162,-0.002529458,-0.028157278,-0.392170750
1751359761.587805510,-1.741009024,-2.091696436,-0.906086709,1.591363380,-0.144516415,-1.714269000,-0.041273068,0.330277637,-0.291058485,-0.011087894,-0.336843962,-0.337000000,3.981209010,3.552543903,0.282582566,-0.002535351,-0.028157278,-0.392469657
1751359761.589818716,-1.741091693,-2.091034901,-0.906669690,1.591341171,-0.145191102,-1.714944000,-0.041395540,0.331257689,-0.291922160,-0.011120796,-0.337843498,-0.338000000,3.983196669,3.553908475,0.282581954,-0.002541256,-0.028157278,-0.392769392
1751359761.591964960,-1.741174606,-2.090371406,-0.907254398,1.591318896,-0.145867789,-1.715621000,-0.041518012,0.332237742,-0.292785835,-0.011153698,-0.338843035,-0.339000000,3.985189623,3.555276122,0.282581324,-0.002547173,-0.028157278,-0.393069953
1751359761.593965530,-1.741257765,-2.089705950,-0.907840833,1.591296556,-0.146546475,-1.716300000,-0.041640484,0.333217794,-0.293649510,-0.011186600,-0.339842572,-0.340000000,3.987187867,3.556646834,0.282580676,-0.002553101,-0.028157278,-0.393371339
1751359761.603085756,-1.741424816,-2.088369159,-0.909018886,1.591251678,-0.147909843,-1.717664000,-0.041885428,0.335177899,-0.295376860,-0.011252403,-0.341841646,-0.342000000,3.991200202,3.559397418,0.282579327,-0.002564993,-0.028157278,-0.393976581
1751359761.603233099,-1.741508710,-2.087697823,-0.909610503,1.591229140,-0.148594526,-1.718349000,-0.042007900,0.336157951,-0.296240535,-0.011285305,-0.342841183,-0.343000000,3.993214282,3.560777274,0.282578626,-0.002570956,-0.028157278,-0.394280435
1751359761.603252888,-1.741508710,-2.087697823,-0.909610503,1.591229140,-0.148594526,-1.718349000,-0.042007900,0.336157951,-0.296240535,-0.011285305,-0.342841183,-0.343000000,3.993214282,3.560777274,0.282578626,-0.002570956,-0.028157278,-0.394280435
1751359761.604821444,-1.741592848,-2.087024527,-0.910203848,1.591206537,-0.149281208,-1.719036000,-0.042130372,0.337138003,-0.297104210,-0.011318207,-0.343840720,-0.344000000,3.995233629,3.562160159,0.282577906,-0.002576931,-0.028157278,-0.394585109
1751359761.607409000,-1.741677231,-2.086349271,-0.910798920,1.591183868,-0.149969889,-1.719725000,-0.042252844,0.338118056,-0.297967885,-0.011351109,-0.344840257,-0.345000000,3.997258237,3.563546066,0.282577168,-0.002582917,-0.028157278,-0.394890602
1751359761.607876539,-1.741761859,-2.085672055,-0.911395720,1.591161132,-0.150660569,-1.720416000,-0.042375316,0.339098108,-0.298831560,-0.011384010,-0.345839794,-0.346000000,3.999288100,3.564934985,0.282576411,-0.002588915,-0.028157278,-0.395196912
1751359761.609918118,-1.741846733,-2.084992878,-0.911994247,1.591138332,-0.151353248,-1.721109000,-0.042497788,0.340078160,-0.299695235,-0.011416912,-0.346839331,-0.347000000,4.001323214,3.566326908,0.282575636,-0.002594924,-0.028157278,-0.395504039
1751359761.611854792,-1.741931851,-2.084311742,-0.912594501,1.591115465,-0.152047926,-1.721804000,-0.042620260,0.341058213,-0.300558910,-0.011449814,-0.347838868,-0.348000000,4.003363571,3.567721826,0.282574842,-0.002600944,-0.028157278,-0.395811981
1751359761.613953114,-1.742017214,-2.083628645,-0.913196482,1.591092532,-0.152744603,-1.722501000,-0.042742732,0.342038265,-0.301422585,-0.011482716,-0.348838405,-0.349000000,4.005409167,3.569119729,0.282574029,-0.002606976,-0.028157278,-0.396120736
1751359761.617524624,-1.742017214,-2.083628645,-0.913196482,1.591092532,-0.152744603,-1.722501000,-0.042742732,0.342038265,-0.301422585,-0.011482716,-0.348838405,-0.349000000,4.005409167,3.569119729,0.282574029,-0.002606976,-0.028157278,-0.396120736
1751359761.617872715,-1.742102822,-2.082943589,-0.913800191,1.591069534,-0.153443280,-1.723200000,-0.042865204,0.343018317,-0.302286260,-0.011515617,-0.349837942,-0.350000000,4.007459994,3.570520608,0.282573197,-0.002613019,-0.028157278,-0.396430303
1751359761.620265007,-1.742188674,-2.082256572,-0.914405627,1.591046470,-0.154143955,-1.723901000,-0.042987676,0.343998370,-0.303149935,-0.011548519,-0.350837479,-0.351000000,4.009516048,3.571924455,0.282572346,-0.002619073,-0.028157278,-0.396740682
1751359761.622091055,-1.742274772,-2.081567595,-0.915012791,1.591023340,-0.154846630,-1.724604000,-0.043110148,0.344978422,-0.304013610,-0.011581421,-0.351837016,-0.352000000,4.011577323,3.573331261,0.282571475,-0.002625137,-0.028157278,-0.397051870
1751359761.624015093,-1.742361115,-2.080876659,-0.915621682,1.591000144,-0.155551303,-1.725309000,-0.043232620,0.345958474,-0.304877285,-0.011614323,-0.352836553,-0.353000000,4.013643812,3.574741016,0.282570585,-0.002631213,-0.028157278,-0.397363866
1751359761.625962257,-1.742447703,-2.080183762,-0.916232300,1.590976883,-0.156257976,-1.726016000,-0.043355092,0.346938527,-0.305740960,-0.011647224,-0.353836090,-0.354000000,4.015715509,3.576153711,0.282569676,-0.002637300,-0.028157278,-0.397676668
1751359761.628207207,-1.742534535,-2.079488904,-0.916844645,1.590953555,-0.156966648,-1.726725000,-0.043477564,0.347918579,-0.306604635,-0.011680126,-0.354835627,-0.355000000,4.017792410,3.577569338,0.282568746,-0.002643398,-0.028157278,-0.397990276
1751359761.630138874,-1.742534535,-2.079488904,-0.916844645,1.590953555,-0.156966648,-1.726725000,-0.043477564,0.347918579,-0.306604635,-0.011680126,-0.354835627,-0.355000000,4.017792410,3.577569338,0.282568746,-0.002643398,-0.028157278,-0.397990276
1751359761.632008553,-1.742621613,-2.078792087,-0.917458718,1.590930162,-0.157677318,-1.727436000,-0.043600036,0.348898631,-0.307468310,-0.011713028,-0.355835164,-0.356000000,4.019874506,3.578987886,0.282567797,-0.002649506,-0.028157278,-0.398304688
1751359761.634027243,-1.742708936,-2.078093310,-0.918074519,1.590906703,-0.158389988,-1.728149000,-0.043722508,0.349878684,-0.308331985,-0.011745930,-0.356834701,-0.357000000,4.021961794,3.580409348,0.282566827,-0.002655626,-0.028157278,-0.398619903
1751359761.636026382,-1.742796503,-2.077392572,-0.918692046,1.590883178,-0.159104657,-1.728864000,-0.043844981,0.350858736,-0.309195660,-0.011778831,-0.357834238,-0.358000000,4.024054266,3.581833713,0.282565837,-0.002661756,-0.028157278,-0.398935918
1751359761.638128281,-1.742884315,-2.076689875,-0.919311301,1.590859588,-0.159821325,-1.729581000,-0.043967453,0.351838788,-0.310059335,-0.011811733,-0.358833775,-0.359000000,4.026151916,3.583260972,0.282564827,-0.002667896,-0.028157278,-0.399252732
1751359761.640108347,-1.742972373,-2.075985217,-0.919932284,1.590835931,-0.160539992,-1.730300000,-0.044089925,0.352818841,-0.310923010,-0.011844635,-0.359833312,-0.360000000,4.028254739,3.584691116,0.282563796,-0.002674047,-0.028157278,-0.399570345
1751359761.642156601,-1.743060675,-2.075278600,-0.920554993,1.590812209,-0.161260658,-1.731021000,-0.044212397,0.353798893,-0.311786685,-0.011877537,-0.360832849,-0.361000000,4.030362728,3.586124136,0.282562745,-0.002680209,-0.028157278,-0.399888754
1751359761.644077063,-1.743149222,-2.074570022,-0.921179430,1.590788421,-0.161983324,-1.731744000,-0.044334869,0.354778945,-0.312650360,-0.011910439,-0.361832386,-0.362000000,4.032475877,3.587560023,0.282561673,-0.002686381,-0.028157278,-0.400207958
1751359761.646136761,-1.743238015,-2.073859484,-0.921805595,1.590764567,-0.162707988,-1.732469000,-0.044457341,0.355758998,-0.313514035,-0.011943340,-0.362831923,-0.363000000,4.034594181,3.588998767,0.282560579,-0.002692564,-0.028157278,-0.400527956
1751359761.647939682,-1.743327052,-2.073146986,-0.922433487,1.590740648,-0.163434651,-1.733196000,-0.044579813,0.356739050,-0.314377710,-0.011976242,-0.363831460,-0.364000000,4.036717632,3.590440358,0.282559465,-0.002698757,-0.028157278,-0.400848745
1751359761.649913549,-1.743416334,-2.072432528,-0.923063106,1.590716663,-0.164163314,-1.733925000,-0.044702285,0.357719102,-0.315241385,-0.012009144,-0.364830997,-0.365000000,4.038846224,3.591884788,0.282558329,-0.002704960,-0.028157278,-0.401170325
1751359761.655136824,-1.743505861,-2.071716109,-0.923694452,1.590692611,-0.164893975,-1.734656000,-0.044824757,0.358699155,-0.316105060,-0.012042046,-0.365830534,-0.366000000,4.040979953,3.593332046,0.282557172,-0.002711174,-0.028157278,-0.401492693
1751359761.656078577,-1.743685650,-2.070277393,-0.924962327,1.590644312,-0.166361296,-1.736124000,-0.045069701,0.360659259,-0.317832411,-0.012107849,-0.367829608,-0.368000000,4.045262790,3.596235012,0.282554793,-0.002723631,-0.028157278,-0.402139790
1751359761.658151150,-1.743775912,-2.069555094,-0.925598856,1.590620063,-0.167097954,-1.736861000,-0.045192173,0.361639312,-0.318696086,-0.012140751,-0.368829145,-0.369000000,4.047411887,3.597690700,0.282553571,-0.002729875,-0.028157278,-0.402464514
1751359761.660236359,-1.743866419,-2.068830835,-0.926237111,1.590595749,-0.167836612,-1.737600000,-0.045314645,0.362619364,-0.319559761,-0.012173653,-0.369828682,-0.370000000,4.049566094,3.599149179,0.282552326,-0.002736129,-0.028157278,-0.402790021
1751359761.662017584,-1.743957170,-2.068104616,-0.926877095,1.590571368,-0.168577269,-1.738341000,-0.045437117,0.363599416,-0.320423436,-0.012206554,-0.370828219,-0.371000000,4.051725404,3.600610439,0.282551060,-0.002742393,-0.028157278,-0.403116309
