mathias31415/motion_primitives_from_planned_trajectory/data/trajectory_20250701_092651_planned.csv
time_from_start,shoulder_pan_joint_pos,shoulder_lift_joint_pos,elbow_joint_pos,wrist_1_joint_pos,wrist_2_joint_pos,wrist_3_joint_pos,shoulder_pan_joint_vel,shoulder_lift_joint_vel,elbow_joint_vel,wrist_1_joint_vel,wrist_2_joint_vel,wrist_3_joint_vel,shoulder_pan_joint_acc,shoulder_lift_joint_acc,elbow_joint_acc,wrist_1_joint_acc,wrist_2_joint_acc,wrist_3_joint_acc,pose_x,pose_y,pose_z,pose_qx,pose_qy,pose_qz,pose_qw
0.000000,-0.577682,-1.788884,-1.837172,-1.078907,1.605443,0.992353,-0.000090,0.000073,0.000112,0.000011,-0.000500,0.000444,-0.090163,0.073193,0.112041,0.011050,-0.500000,0.443838,0.542989,-0.557017,0.397110,-0.000445,0.999843,0.012479,0.012574
0.100000,-0.578133,-1.788519,-1.836611,-1.078852,1.602943,0.994572,-0.009016,0.007319,0.011204,0.001105,-0.050000,0.044384,-0.090163,0.073193,0.112041,0.011050,-0.500000,0.443838,0.542697,-0.557583,0.397736,0.000887,0.999862,0.011175,0.012292
0.200000,-0.579485,-1.787421,-1.834931,-1.078686,1.595443,1.001229,-0.018033,0.014639,0.022408,0.002210,-0.100000,0.088768,-0.090163,0.073193,0.112041,0.011050,-0.500000,0.443838,0.541814,-0.559277,0.399619,0.004889,0.999896,0.007260,0.011461
0.300000,-0.581740,-1.785591,-1.832130,-1.078410,1.582943,1.012325,-0.027049,0.021958,0.033612,0.003315,-0.150000,0.133151,-0.090163,0.073193,0.112041,0.011050,-0.500000,0.443838,0.540326,-0.562091,0.402778,0.011584,0.999881,0.000725,0.010121
0.400000,-0.584895,-1.783029,-1.828208,-1.078023,1.565443,1.027860,-0.036065,0.029277,0.044816,0.004420,-0.200000,0.177535,-0.090163,0.073193,0.112041,0.011050,-0.500000,0.443838,0.538206,-0.566012,0.407241,0.021007,0.999709,-0.008443,0.008343
0.500000,-0.588953,-1.779735,-1.823166,-1.077526,1.542943,1.047832,-0.045081,0.036597,0.056021,0.005525,-0.250000,0.221919,-0.090163,0.073193,0.112041,0.011050,-0.500000,0.443838,0.535416,-0.571018,0.413051,0.033203,0.999224,-0.020260,0.006223
0.600000,-0.593911,-1.775710,-1.817004,-1.076918,1.515443,1.072244,-0.054098,0.043916,0.067225,0.006630,-0.300000,0.266303,-0.090163,0.073193,0.112041,0.011050,-0.500000,0.443838,0.531908,-0.577077,0.420258,0.048223,0.998225,-0.034741,0.003887
0.700000,-0.599540,-1.771140,-1.810009,-1.076228,1.484228,1.099953,-0.056651,0.045989,0.070397,0.006943,-0.314159,0.278872,-0.000000,0.000000,0.000000,0.000000,-0.000000,0.000000,0.527795,-0.583873,0.428580,0.065407,0.996542,-0.051219,0.001574
0.800000,-0.605206,-1.766541,-1.802970,-1.075534,1.452812,1.127840,-0.056651,0.045989,0.070397,0.006943,-0.314159,0.278872,-0.000000,0.000000,0.000000,0.000000,-0.000000,0.000000,0.523514,-0.590615,0.437106,0.082827,0.994253,-0.067834,-0.000390
0.900000,-0.610871,-1.761943,-1.795930,-1.074840,1.421396,1.155727,-0.056651,0.045989,0.070397,0.006943,-0.314159,0.278872,-0.000000,0.000000,0.000000,0.000000,-0.000000,0.000000,0.519091,-0.597253,0.445782,0.100353,0.991358,-0.084465,-0.001992
1.000000,-0.616536,-1.757344,-1.788890,-1.074145,1.389980,1.183614,-0.056651,0.045989,0.070397,0.006943,-0.314159,0.278872,-0.000000,0.000000,0.000000,0.000000,-0.000000,0.000000,0.514526,-0.603778,0.454604,0.117963,0.987853,-0.101101,-0.003233
1.100000,-0.622201,-1.752745,-1.781850,-1.073451,1.358564,1.211501,-0.056651,0.045989,0.070397,0.006943,-0.314159,0.278872,-0.000000,0.000000,0.000000,0.000000,-0.000000,0.000000,0.509818,-0.610185,0.463571,0.135636,0.983731,-0.117728,-0.004115
1.200000,-0.627866,-1.748146,-1.774811,-1.072757,1.327148,1.239389,-0.056651,0.045989,0.070397,0.006943,-0.314159,0.278872,0.000000,-0.000000,-0.000000,-0.000000,0.000000,-0.000000,0.504967,-0.616465,0.472680,0.153351,0.978988,-0.134333,-0.004640
1.300000,-0.633531,-1.743547,-1.767771,-1.072062,1.295732,1.267276,-0.056651,0.045989,0.070397,0.006943,-0.314159,0.278872,0.000000,-0.000000,-0.000000,-0.000000,0.000000,-0.000000,0.499974,-0.622610,0.481928,0.171085,0.973619,-0.150903,-0.004811
1.400000,-0.639196,-1.738948,-1.760731,-1.071368,1.264316,1.295163,-0.056651,0.045989,0.070397,0.006943,-0.314159,0.278872,0.000000,-0.000000,-0.000000,-0.000000,0.000000,-0.000000,0.494840,-0.628614,0.491312,0.188818,0.967623,-0.167426,-0.004632
1.500000,-0.644861,-1.734349,-1.753691,-1.070674,1.232900,1.323050,-0.056651,0.045989,0.070397,0.006943,-0.314159,0.278872,0.000000,-0.000000,-0.000000,-0.000000,0.000000,-0.000000,0.489564,-0.634470,0.500830,0.206527,0.960997,-0.183889,-0.004106
1.600000,-0.650526,-1.729750,-1.746652,-1.069979,1.201484,1.350937,-0.056651,0.045989,0.070397,0.006943,-0.314159,0.278872,0.000000,-0.000000,-0.000000,-0.000000,0.000000,-0.000000,0.484148,-0.640169,0.510478,0.224189,0.953738,-0.200280,-0.003238
1.700000,-0.656191,-1.725152,-1.739612,-1.069285,1.170068,1.378825,-0.056651,0.045989,0.070397,0.006943,-0.314159,0.278872,0.000000,-0.000000,-0.000000,-0.000000,0.000000,-0.000000,0.478594,-0.645706,0.520252,0.241782,0.945848,-0.216585,-0.002031
1.800000,-0.661856,-1.720553,-1.732572,-1.068591,1.138652,1.406712,-0.056651,0.045989,0.070397,0.006943,-0.314159,0.278872,0.000000,-0.000000,-0.000000,-0.000000,0.000000,-0.000000,0.472902,-0.651073,0.530149,0.259284,0.937325,-0.232795,-0.000490
1.900000,-0.667522,-1.715954,-1.725532,-1.067897,1.107236,1.434599,-0.056651,0.045989,0.070397,0.006943,-0.314159,0.278872,0.000000,-0.000000,-0.000000,-0.000000,0.000000,-0.000000,0.467073,-0.656263,0.540164,0.276672,0.928171,-0.248895,0.001379
2.000000,-0.673187,-1.711355,-1.718493,-1.067202,1.075821,1.462486,-0.056651,0.045989,0.070397,0.006943,-0.314159,0.278872,0.000000,-0.000000,-0.000000,-0.000000,0.000000,-0.000000,0.461111,-0.661269,0.550294,0.293923,0.918388,-0.264876,0.003570
2.100000,-0.678852,-1.706756,-1.711453,-1.066508,1.044405,1.490373,-0.056651,0.045989,0.070397,0.006943,-0.314159,0.278872,-0.000000,0.000000,0.000000,0.000000,-0.000000,0.000000,0.455016,-0.666086,0.560534,0.311016,0.907979,-0.280725,0.006080
2.200000,-0.684517,-1.702157,-1.704413,-1.065814,1.012989,1.518260,-0.056651,0.045989,0.070397,0.006943,-0.314159,0.278872,-0.000000,0.000000,0.000000,0.000000,-0.000000,0.000000,0.448790,-0.670706,0.570880,0.327927,0.896947,-0.296431,0.008900
2.300000,-0.690182,-1.697558,-1.697373,-1.065119,0.981573,1.546148,-0.056651,0.045989,0.070397,0.006943,-0.314159,0.278872,-0.000000,0.000000,0.000000,0.000000,-0.000000,0.000000,0.442437,-0.675124,0.581327,0.344634,0.885296,-0.311983,0.012024
2.400000,-0.695847,-1.692960,-1.690334,-1.064425,0.950157,1.574035,-0.056651,0.045989,0.070397,0.006943,-0.314159,0.278872,-0.000000,0.000000,0.000000,0.000000,-0.000000,0.000000,0.435958,-0.679332,0.591870,0.361115,0.873032,-0.327371,0.015447
2.500000,-0.701512,-1.688361,-1.683294,-1.063731,0.918741,1.601922,-0.056651,0.045989,0.070397,0.006943,-0.314159,0.278872,-0.000000,0.000000,0.000000,0.000000,-0.000000,0.000000,0.429357,-0.683326,0.602505,0.377348,0.860162,-0.342584,0.019160
2.600000,-0.707177,-1.683762,-1.676254,-1.063036,0.887325,1.629809,-0.056651,0.045989,0.070397,0.006943,-0.314159,0.278872,-0.000000,0.000000,0.000000,0.000000,-0.000000,0.000000,0.422636,-0.687100,0.613226,0.393310,0.846691,-0.357612,0.023156
2.700000,-0.712842,-1.679163,-1.669214,-1.062342,0.855909,1.657696,-0.056651,0.045989,0.070397,0.006943,-0.314159,0.278872,-0.000000,0.000000,0.000000,0.000000,-0.000000,0.000000,0.415799,-0.690647,0.624028,0.408980,0.832627,-0.372445,0.027427
2.800000,-0.718507,-1.674564,-1.662175,-1.061648,0.824493,1.685584,-0.056651,0.045989,0.070397,0.006943,-0.314159,0.278872,-0.000000,0.000000,0.000000,0.000000,-0.000000,0.000000,0.408848,-0.693964,0.634905,0.424336,0.817980,-0.387073,0.031967
2.900000,-0.724172,-1.669965,-1.655135,-1.060953,0.793077,1.713471,-0.056651,0.045989,0.070397,0.006943,-0.314159,0.278872,-0.000000,0.000000,0.000000,0.000000,-0.000000,0.000000,0.401788,-0.697044,0.645853,0.439357,0.802759,-0.401488,0.036765
3.000000,-0.729838,-1.665366,-1.648095,-1.060259,0.761661,1.741358,-0.056651,0.045989,0.070397,0.006943,-0.314159,0.278872,-0.000000,0.000000,0.000000,0.000000,-0.000000,0.000000,0.394623,-0.699882,0.656866,0.454022,0.786973,-0.415679,0.041815
3.100000,-0.735503,-1.660768,-1.641055,-1.059565,0.730245,1.769245,-0.056651,0.045989,0.070397,0.006943,-0.314159,0.278872,-0.000000,0.000000,0.000000,0.000000,-0.000000,0.000000,0.387355,-0.702475,0.667938,0.468310,0.770634,-0.429640,0.047107
3.200000,-0.741168,-1.656169,-1.634016,-1.058871,0.698829,1.797132,-0.056651,0.045989,0.070397,0.006943,-0.314159,0.278872,-0.000000,0.000000,0.000000,0.000000,-0.000000,0.000000,0.379990,-0.704818,0.679063,0.482200,0.753754,-0.443360,0.052631
3.300000,-0.746833,-1.651570,-1.626976,-1.058176,0.667413,1.825020,-0.056651,0.045989,0.070397,0.006943,-0.314159,0.278872,-0.000000,0.000000,0.000000,0.000000,-0.000000,0.000000,0.372532,-0.706906,0.690235,0.495674,0.736345,-0.456832,0.058380
3.400000,-0.752498,-1.646971,-1.619936,-1.057482,0.635998,1.852907,-0.056651,0.045989,0.070397,0.006943,-0.314159,0.278872,-0.000000,0.000000,0.000000,0.000000,-0.000000,0.000000,0.364984,-0.708736,0.701448,0.508711,0.718420,-0.470049,0.064343
3.500000,-0.758163,-1.642372,-1.612896,-1.056788,0.604582,1.880794,-0.056651,0.045989,0.070397,0.006943,-0.314159,0.278872,-0.000000,0.000000,0.000000,0.000000,-0.000000,0.000000,0.357353,-0.710304,0.712697,0.521292,0.699994,-0.483002,0.070511
3.600000,-0.763828,-1.637773,-1.605857,-1.056093,0.573166,1.908681,-0.056651,0.045989,0.070397,0.006943,-0.314159,0.278872,-0.000000,0.000000,0.000000,0.000000,-0.000000,0.000000,0.349641,-0.711607,0.723975,0.533399,0.681081,-0.495686,0.076874
3.700000,-0.769493,-1.633174,-1.598817,-1.055399,0.541750,1.936568,-0.056651,0.045989,0.070397,0.006943,-0.314159,0.278872,-0.000000,0.000000,0.000000,0.000000,-0.000000,0.000000,0.341856,-0.712642,0.735277,0.545014,0.661696,-0.508093,0.083422
3.800000,-0.775158,-1.628576,-1.591777,-1.054705,0.510334,1.964455,-0.056651,0.045989,0.070397,0.006943,-0.314159,0.278872,-0.000000,0.000000,0.000000,0.000000,-0.000000,0.000000,0.334001,-0.713405,0.746595,0.556118,0.641857,-0.520217,0.090146
3.900000,-0.780823,-1.623977,-1.584737,-1.054010,0.478918,1.992343,-0.056651,0.045989,0.070397,0.006943,-0.314159,0.278872,-0.000000,0.000000,0.000000,0.000000,-0.000000,0.000000,0.326081,-0.713896,0.757924,0.566696,0.621580,-0.532052,0.097033
4.000000,-0.786488,-1.619378,-1.577698,-1.053316,0.447502,2.020230,-0.056651,0.045989,0.070397,0.006943,-0.314159,0.278872,-0.000000,0.000000,0.000000,0.000000,-0.000000,0.000000,0.318103,-0.714110,0.769258,0.576729,0.600882,-0.543593,0.104075
4.100000,-0.792154,-1.614779,-1.570658,-1.052622,0.416086,2.048117,-0.056651,0.045989,0.070397,0.006943,-0.314159,0.278872,0.000000,-0.000000,-0.000000,-0.000000,0.000000,-0.000000,0.310072,-0.714048,0.780590,0.586204,0.579781,-0.554834,0.111261
4.200000,-0.797819,-1.610180,-1.563618,-1.051927,0.384670,2.076004,-0.056651,0.045989,0.070397,0.006943,-0.314159,0.278872,0.000000,-0.000000,-0.000000,-0.000000,0.000000,-0.000000,0.301992,-0.713706,0.791914,0.595103,0.558297,-0.565770,0.118580
4.300000,-0.803484,-1.605581,-1.556578,-1.051233,0.353254,2.103891,-0.056651,0.045989,0.070397,0.006943,-0.314159,0.278872,0.000000,-0.000000,-0.000000,-0.000000,0.000000,-0.000000,0.293871,-0.713084,0.803224,0.603414,0.536448,-0.576398,0.126021
4.400000,-0.809149,-1.600982,-1.549539,-1.050539,0.321838,2.131779,-0.056651,0.045989,0.070397,0.006943,-0.314159,0.278872,0.000000,-0.000000,-0.000000,-0.000000,0.000000,-0.000000,0.285713,-0.712181,0.814514,0.611121,0.514254,-0.586713,0.133573
4.500000,-0.814814,-1.596384,-1.542499,-1.049845,0.290422,2.159666,-0.056651,0.045989,0.070397,0.006943,-0.314159,0.278872,0.000000,-0.000000,-0.000000,-0.000000,0.000000,-0.000000,0.277525,-0.710996,0.825778,0.618212,0.491737,-0.596711,0.141225
4.600000,-0.820479,-1.591785,-1.535459,-1.049150,0.259006,2.187553,-0.056651,0.045989,0.070397,0.006943,-0.314159,0.278872,0.000000,-0.000000,-0.000000,-0.000000,0.000000,-0.000000,0.269312,-0.709529,0.837008,0.624674,0.468917,-0.606389,0.148967
4.700000,-0.826144,-1.587186,-1.528419,-1.048456,0.227590,2.215440,-0.056651,0.045989,0.070397,0.006943,-0.314159,0.278872,0.000000,-0.000000,-0.000000,-0.000000,0.000000,-0.000000,0.261081,-0.707780,0.848200,0.630496,0.445815,-0.615745,0.156787
4.800000,-0.831809,-1.582587,-1.521380,-1.047762,0.196175,2.243327,-0.056651,0.045989,0.070397,0.006943,-0.314159,0.278872,0.000000,-0.000000,-0.000000,-0.000000,0.000000,-0.000000,0.252838,-0.705749,0.859347,0.635667,0.422453,-0.624775,0.164674
4.900000,-0.837474,-1.577988,-1.514340,-1.047067,0.164759,2.271214,-0.056651,0.045989,0.070397,0.006943,-0.314159,0.278872,0.000000,-0.000000,-0.000000,-0.000000,0.000000,-0.000000,0.244588,-0.703437,0.870444,0.640175,0.398854,-0.633478,0.172617
5.000000,-0.843139,-1.573389,-1.507300,-1.046373,0.133343,2.299102,-0.056651,0.045989,0.070397,0.006943,-0.314159,0.278872,-0.000000,0.000000,0.000000,0.000000,-0.000000,0.000000,0.236338,-0.700845,0.881484,0.644013,0.375041,-0.641852,0.180605
5.100000,-0.848804,-1.568790,-1.500260,-1.045679,0.101927,2.326989,-0.056651,0.045989,0.070397,0.006943,-0.314159,0.278872,-0.000000,0.000000,0.000000,0.000000,-0.000000,0.000000,0.228094,-0.697974,0.892461,-0.647171,-0.351036,0.649895,-0.188627
5.200000,-0.854470,-1.564192,-1.493221,-1.044984,0.070511,2.354876,-0.056651,0.045989,0.070397,0.006943,-0.314159,0.278872,-0.000000,0.000000,0.000000,0.000000,-0.000000,0.000000,0.219862,-0.694825,0.903370,-0.649641,-0.326863,0.657607,-0.196671
5.300000,-0.860135,-1.559593,-1.486181,-1.044290,0.039095,2.382763,-0.056651,0.045989,0.070397,0.006943,-0.314159,0.278872,-0.000000,0.000000,0.000000,0.000000,-0.000000,0.000000,0.211649,-0.691402,0.914206,-0.651417,-0.302547,0.664987,-0.204727
5.400000,-0.865800,-1.554994,-1.479141,-1.043596,0.007679,2.410650,-0.056651,0.045989,0.070397,0.006943,-0.314159,0.278872,-0.000000,0.000000,0.000000,0.000000,-0.000000,0.000000,0.203460,-0.687705,0.924961,-0.652493,-0.278110,0.672035,-0.212784
5.500000,-0.871465,-1.550395,-1.472101,-1.042902,-0.023737,2.438538,-0.056651,0.045989,0.070397,0.006943,-0.314159,0.278872,-0.000000,0.000000,0.000000,0.000000,-0.000000,0.000000,0.195302,-0.683738,0.935633,-0.652862,-0.253578,0.678751,-0.220830
5.600000,-0.877130,-1.545796,-1.465062,-1.042207,-0.055153,2.466425,-0.056651,0.045989,0.070397,0.006943,-0.314159,0.278872,-0.000000,0.000000,0.000000,0.000000,-0.000000,0.000000,0.187181,-0.679503,0.946214,-0.652522,-0.228975,0.685136,-0.228855
5.700000,-0.882795,-1.541197,-1.458022,-1.041513,-0.086569,2.494312,-0.056651,0.045989,0.070397,0.006943,-0.314159,0.278872,-0.000000,0.000000,0.000000,0.000000,-0.000000,0.000000,0.179103,-0.675004,0.956699,-0.651468,-0.204326,0.691190,-0.236847
5.800000,-0.888460,-1.536598,-1.450982,-1.040819,-0.117985,2.522199,-0.056651,0.045989,0.070397,0.006943,-0.314159,0.278872,-0.000000,0.000000,0.000000,0.000000,-0.000000,0.000000,0.171074,-0.670243,0.967085,-0.649698,-0.179655,0.696915,-0.244797
5.900000,-0.894125,-1.532000,-1.443942,-1.040124,-0.149401,2.550086,-0.056651,0.045989,0.070397,0.006943,-0.314159,0.278872,-0.000000,0.000000,0.000000,0.000000,-0.000000,0.000000,0.163100,-0.665225,0.977366,-0.647210,-0.154988,0.702313,-0.252693
6.000000,-0.899790,-1.527401,-1.436903,-1.039430,-0.180817,2.577973,-0.056651,0.045989,0.070397,0.006943,-0.314159,0.278872,-0.000000,0.000000,0.000000,0.000000,-0.000000,0.000000,0.155187,-0.659954,0.987536,-0.644004,-0.130351,0.707386,-0.260525
6.100000,-0.905455,-1.522802,-1.429863,-1.038736,-0.212232,2.605861,-0.056651,0.045989,0.070397,0.006943,-0.314159,0.278872,-0.000000,0.000000,0.000000,0.000000,-0.000000,0.000000,0.147341,-0.654433,0.997592,-0.640079,-0.105767,0.712136,-0.268282
6.200000,-0.911120,-1.518203,-1.422823,-1.038041,-0.243648,2.633748,-0.056651,0.045989,0.070397,0.006943,-0.314159,0.278872,-0.000000,0.000000,0.000000,0.000000,-0.000000,0.000000,0.139568,-0.648667,1.007530,-0.635436,-0.081263,0.716566,-0.275954
6.300000,-0.916786,-1.513604,-1.415783,-1.037347,-0.275064,2.661635,-0.056651,0.045989,0.070397,0.006943,-0.314159,0.278872,-0.000000,0.000000,0.000000,0.000000,-0.000000,0.000000,0.131873,-0.642662,1.017344,-0.630078,-0.056864,0.720679,-0.283532
6.400000,-0.922451,-1.509005,-1.408744,-1.036653,-0.306480,2.689522,-0.056651,0.045989,0.070397,0.006943,-0.314159,0.278872,-0.000000,0.000000,0.000000,0.000000,-0.000000,0.000000,0.124261,-0.636422,1.027032,-0.624008,-0.032594,0.724478,-0.291005
6.500000,-0.928116,-1.504406,-1.401704,-1.035958,-0.337896,2.717409,-0.056651,0.045989,0.070397,0.006943,-0.314159,0.278872,-0.000000,0.000000,0.000000,0.000000,-0.000000,0.000000,0.116739,-0.629953,1.036588,-0.617228,-0.008480,0.727968,-0.298363
6.600000,-0.933781,-1.499808,-1.394664,-1.035264,-0.369312,2.745297,-0.056651,0.045989,0.070397,0.006943,-0.314159,0.278872,-0.000000,0.000000,0.000000,0.000000,-0.000000,0.000000,0.109311,-0.623259,1.046010,-0.609744,0.015454,0.731153,-0.305597
6.700000,-0.939446,-1.495209,-1.387624,-1.034570,-0.400728,2.773184,-0.056651,0.045989,0.070397,0.006943,-0.314159,0.278872,-0.000000,0.000000,0.000000,0.000000,-0.000000,0.000000,0.101983,-0.616347,1.055294,-0.601561,0.039184,0.734036,-0.312697
6.800000,-0.945111,-1.490610,-1.380585,-1.033876,-0.432144,2.801071,-0.056651,0.045989,0.070397,0.006943,-0.314159,0.278872,-0.000000,0.000000,0.000000,0.000000,-0.000000,0.000000,0.094759,-0.609223,1.064436,-0.592687,0.062683,0.736624,-0.319655
6.900000,-0.950776,-1.486011,-1.373545,-1.033181,-0.463560,2.828958,-0.056651,0.045989,0.070397,0.006943,-0.314159,0.278872,-0.000000,0.000000,0.000000,0.000000,-0.000000,0.000000,0.087645,-0.601893,1.073434,-0.583127,0.085928,0.738920,-0.326461
7.000000,-0.956441,-1.481412,-1.366505,-1.032487,-0.494976,2.856845,-0.056651,0.045989,0.070397,0.006943,-0.314159,0.278872,-0.000000,0.000000,0.000000,0.000000,-0.000000,0.000000,0.080645,-0.594364,1.082285,-0.572891,0.108895,0.740931,-0.333106
7.100000,-0.962057,-1.476853,-1.359526,-1.031799,-0.526121,2.884492,-0.053601,0.043513,0.066607,0.006569,-0.297245,0.263857,0.090163,-0.073193,-0.112041,-0.011050,0.500000,-0.443838,0.073822,-0.586708,1.090911,-0.562084,0.131365,0.742648,-0.339528
7.200000,-0.966975,-1.472861,-1.353415,-1.031196,-0.553390,2.908699,-0.044585,0.036193,0.055403,0.005464,-0.247245,0.219474,0.090163,-0.073193,-0.112041,-0.011050,0.500000,-0.443838,0.067947,-0.579854,1.098341,-0.552090,0.150777,0.743930,-0.345008
7.300000,-0.970991,-1.469601,-1.348425,-1.030704,-0.575660,2.928467,-0.035568,0.028874,0.044199,0.004359,-0.197245,0.175090,0.090163,-0.073193,-0.112041,-0.011050,0.500000,-0.443838,0.063220,-0.574156,1.104323,-0.543567,0.166437,0.744827,-0.349381
7.400000,-0.974105,-1.467073,-1.344555,-1.030322,-0.592930,2.943797,-0.026552,0.021555,0.032995,0.003254,-0.147245,0.130706,0.090163,-0.073193,-0.112041,-0.011050,0.500000,-0.443838,0.059599,-0.569676,1.108907,-0.536735,0.178456,0.745431,-0.352706
7.500000,-0.976317,-1.465277,-1.341806,-1.030051,-0.605199,2.954688,-0.017536,0.014235,0.021791,0.002149,-0.097245,0.086322,0.090163,-0.073193,-0.112041,-0.011050,0.500000,-0.443838,0.057050,-0.566462,1.112136,-0.531765,0.186927,0.745812,-0.355033
7.600000,-0.979876,-1.463661,-1.339572,-1.030243,-0.614686,2.961238,-0.057911,0.018861,0.023564,-0.006805,-0.094490,0.042494,-0.377916,0.032900,-0.001281,-0.088943,0.109498,-0.499834,0.053944,-0.563899,1.114780,-0.527855,0.193402,0.746757,-0.355413
7.700000,-0.987245,-1.461682,-1.337297,-1.031317,-0.623322,2.963019,-0.087046,0.020068,0.021179,-0.014318,-0.075341,-0.007500,-0.209606,-0.007602,-0.045154,-0.062096,0.268860,-0.499977,0.048577,-0.561389,1.117540,-0.524242,0.199192,0.749106,-0.352608
7.800000,-0.996706,-1.459779,-1.335475,-1.033011,-0.629265,2.959801,-0.099395,0.017237,0.014422,-0.019153,-0.040318,-0.057487,-0.032703,-0.050126,-0.091189,-0.033858,0.435998,-0.499742,0.042200,-0.559431,1.119819,-0.521726,0.203079,0.752285,-0.347315
7.900000,-1.005876,-1.458453,-1.334599,-1.034909,-0.630857,2.952220,-0.080048,0.008669,0.002653,-0.017999,0.009500,-0.091216,0.288187,-0.097554,-0.123615,0.032038,0.499968,-0.243304,0.036414,-0.558559,1.121014,-0.521043,0.203999,0.755476,-0.340815
8.000000,-1.012150,-1.458102,-1.334955,-1.036481,-0.627471,2.942243,-0.041072,-0.002069,-0.009844,-0.012454,0.057348,-0.102962,0.499609,-0.112047,-0.116171,0.083728,0.407207,0.070041,0.032844,-0.559110,1.120748,-0.522472,0.201577,0.757776,-0.334911
8.100000,-1.014935,-1.458716,-1.336438,-1.037560,-0.619763,2.931174,-0.028895,-0.008354,-0.018786,-0.012168,0.095889,-0.131882,-0.109547,-0.031672,-0.071223,-0.046133,0.363541,-0.500000,0.031778,-0.560985,1.119124,-0.525708,0.196255,0.758967,-0.330280
8.200000,-1.018369,-1.459709,-1.338670,-1.039006,-0.608369,2.915503,-0.039849,-0.011521,-0.025908,-0.016782,0.132243,-0.181882,-0.109547,-0.031672,-0.071223,-0.046133,0.363541,-0.500000,0.030614,-0.563785,1.116647,-0.530423,0.188356,0.760422,-0.323931
8.300000,-1.022898,-1.461019,-1.341615,-1.040913,-0.593339,2.894831,-0.050804,-0.014689,-0.033031,-0.021395,0.168597,-0.231882,-0.109547,-0.031672,-0.071223,-0.046133,0.363541,-0.500000,0.029061,-0.567458,1.113350,-0.536514,0.177860,0.762216,-0.315509
8.400000,-1.028522,-1.462645,-1.345271,-1.043282,-0.574674,2.869160,-0.061759,-0.017856,-0.040153,-0.026008,0.204951,-0.281882,-0.109547,-0.031672,-0.071223,-0.046133,0.363541,-0.500000,0.027104,-0.571988,1.109210,-0.543873,0.164706,0.764240,-0.304978
8.500000,-1.035175,-1.464568,-1.349597,-1.046083,-0.552597,2.838796,-0.068831,-0.019900,-0.044751,-0.028986,0.228420,-0.314159,-0.000000,-0.000000,-0.000000,-0.000000,0.000000,-0.000000,0.024751,-0.577297,1.104249,-0.552281,0.148984,0.766340,-0.292426
8.600000,-1.042058,-1.466558,-1.354072,-1.048982,-0.529755,2.807381,-0.068831,-0.019900,-0.044751,-0.028986,0.228420,-0.314159,-0.000000,-0.000000,-0.000000,-0.000000,0.000000,-0.000000,0.022273,-0.582733,1.099043,-0.560638,0.132538,0.768172,-0.279340
8.700000,-1.048941,-1.468548,-1.358547,-1.051881,-0.506913,2.775965,-0.068831,-0.019900,-0.044751,-0.028986,0.228420,-0.314159,-0.000000,-0.000000,-0.000000,-0.000000,0.000000,-0.000000,0.019752,-0.588109,1.093763,-0.568643,0.115920,0.769652,-0.266164
8.800000,-1.055824,-1.470538,-1.363022,-1.054779,-0.484071,2.744549,-0.068831,-0.019900,-0.044751,-0.028986,0.228420,-0.314159,-0.000000,-0.000000,-0.000000,-0.000000,0.000000,-0.000000,0.017187,-0.593423,1.088410,-0.576293,0.099138,0.770776,-0.252909
8.900000,-1.062707,-1.472528,-1.367497,-1.057678,-0.461229,2.713133,-0.068831,-0.019900,-0.044751,-0.028986,0.228420,-0.314159,-0.000000,-0.000000,-0.000000,-0.000000,0.000000,-0.000000,0.014579,-0.598671,1.082985,-0.583583,0.082202,0.771538,-0.239587
9.000000,-1.069590,-1.474518,-1.371972,-1.060577,-0.438387,2.681717,-0.068831,-0.019900,-0.044751,-0.028986,0.228420,-0.314159,-0.000000,-0.000000,-0.000000,-0.000000,0.000000,-0.000000,0.011930,-0.603853,1.077488,-0.590511,0.065121,0.771936,-0.226210
9.100000,-1.076473,-1.476508,-1.376447,-1.063475,-0.415545,2.650301,-0.068831,-0.019900,-0.044751,-0.028986,0.228420,-0.314159,-0.000000,-0.000000,-0.000000,-0.000000,0.000000,-0.000000,0.009240,-0.608965,1.071921,-0.597072,0.047905,0.771966,-0.212790
9.200000,-1.083356,-1.478498,-1.380922,-1.066374,-0.392703,2.618885,-0.068831,-0.019900,-0.044751,-0.028986,0.228420,-0.314159,-0.000000,-0.000000,-0.000000,-0.000000,0.000000,-0.000000,0.006510,-0.614007,1.066285,-0.603264,0.030563,0.771623,-0.199339
9.300000,-1.090239,-1.480488,-1.385397,-1.069273,-0.369861,2.587469,-0.068831,-0.019900,-0.044751,-0.028986,0.228420,-0.314159,-0.000000,-0.000000,-0.000000,-0.000000,0.000000,-0.000000,0.003740,-0.618974,1.060580,-0.609085,0.013106,0.770906,-0.185869
9.400000,-1.097122,-1.482478,-1.389872,-1.072171,-0.347019,2.556053,-0.068831,-0.019900,-0.044751,-0.028986,0.228420,-0.314159,-0.000000,-0.000000,-0.000000,-0.000000,0.000000,-0.000000,0.000932,-0.623867,1.054808,-0.614531,-0.004458,0.769813,-0.172393
9.500000,-1.104005,-1.484468,-1.394347,-1.075070,-0.324177,2.524637,-0.068831,-0.019900,-0.044751,-0.028986,0.228420,-0.314159,-0.000000,-0.000000,-0.000000,-0.000000,0.000000,-0.000000,-0.001913,-0.628681,1.048971,-0.619602,-0.022118,0.768341,-0.158923
9.600000,-1.110889,-1.486459,-1.398822,-1.077968,-0.301335,2.493221,-0.068831,-0.019900,-0.044751,-0.028986,0.228420,-0.314159,-0.000000,-0.000000,-0.000000,-0.000000,0.000000,-0.000000,-0.004795,-0.633416,1.043068,-0.624294,-0.039865,0.766489,-0.145472
9.700000,-1.117772,-1.488449,-1.403297,-1.080867,-0.278493,2.461805,-0.068831,-0.019900,-0.044751,-0.028986,0.228420,-0.314159,-0.000000,-0.000000,-0.000000,-0.000000,0.000000,-0.000000,-0.007712,-0.638070,1.037102,-0.628606,-0.057688,0.764256,-0.132053
9.800000,-1.124655,-1.490439,-1.407772,-1.083766,-0.255651,2.430389,-0.068831,-0.019900,-0.044751,-0.028986,0.228420,-0.314159,-0.000000,-0.000000,-0.000000,-0.000000,0.000000,-0.000000,-0.010664,-0.642640,1.031074,-0.632538,-0.075578,0.761642,-0.118679
9.900000,-1.131538,-1.492429,-1.412248,-1.086664,-0.232809,2.398973,-0.068831,-0.019900,-0.044751,-0.028986,0.228420,-0.314159,-0.000000,-0.000000,-0.000000,-0.000000,0.000000,-0.000000,-0.013649,-0.647125,1.024985,-0.636088,-0.093526,0.758646,-0.105362
10.000000,-1.138421,-1.494419,-1.416723,-1.089563,-0.209967,2.367558,-0.068831,-0.019900,-0.044751,-0.028986,0.228420,-0.314159,-0.000000,-0.000000,-0.000000,-0.000000,0.000000,-0.000000,-0.016667,-0.651523,1.018836,-0.639254,-0.111520,0.755269,-0.092116
10.100000,-1.145304,-1.496409,-1.421198,-1.092462,-0.187125,2.336142,-0.068831,-0.019900,-0.044751,-0.028986,0.228420,-0.314159,-0.000000,-0.000000,-0.000000,-0.000000,0.000000,-0.000000,-0.019716,-0.655833,1.012630,-0.642037,-0.129552,0.751512,-0.078954
10.200000,-1.152187,-1.498399,-1.425673,-1.095360,-0.164284,2.304726,-0.068831,-0.019900,-0.044751,-0.028986,0.228420,-0.314159,-0.000000,-0.000000,-0.000000,-0.000000,0.000000,-0.000000,-0.022794,-0.660051,1.006368,-0.644436,-0.147611,0.747376,-0.065888
10.300000,-1.159070,-1.500389,-1.430148,-1.098259,-0.141442,2.273310,-0.068831,-0.019900,-0.044751,-0.028986,0.228420,-0.314159,-0.000000,-0.000000,-0.000000,-0.000000,0.000000,-0.000000,-0.025902,-0.664178,1.000051,-0.646452,-0.165688,0.742863,-0.052931
10.400000,-1.165953,-1.502379,-1.434623,-1.101157,-0.118600,2.241894,-0.068831,-0.019900,-0.044751,-0.028986,0.228420,-0.314159,-0.000000,-0.000000,-0.000000,-0.000000,0.000000,-0.000000,-0.029037,-0.668212,0.993681,-0.648083,-0.183772,0.737976,-0.040097
10.500000,-1.172836,-1.504369,-1.439098,-1.104056,-0.095758,2.210478,-0.068831,-0.019900,-0.044751,-0.028986,0.228420,-0.314159,0.000000,0.000000,0.000000,0.000000,-0.000000,0.000000,-0.032198,-0.672150,0.987260,-0.649332,-0.201854,0.732716,-0.027399
10.600000,-1.179719,-1.506359,-1.443573,-1.106955,-0.072916,2.179062,-0.068831,-0.019900,-0.044751,-0.028986,0.228420,-0.314159,0.000000,0.000000,0.000000,0.000000,-0.000000,0.000000,-0.035384,-0.675991,0.980789,-0.650198,-0.219924,0.727087,-0.014849
10.700000,-1.186602,-1.508349,-1.448048,-1.109853,-0.050074,2.147646,-0.068831,-0.019900,-0.044751,-0.028986,0.228420,-0.314159,0.000000,0.000000,0.000000,0.000000,-0.000000,0.000000,-0.038594,-0.679735,0.974271,-0.650682,-0.237972,0.721093,-0.002460
10.800000,-1.193485,-1.510339,-1.452523,-1.112752,-0.027232,2.116230,-0.068831,-0.019900,-0.044751,-0.028986,0.228420,-0.314159,0.000000,0.000000,0.000000,0.000000,-0.000000,0.000000,-0.041827,-0.683380,0.967706,-0.650787,-0.255989,0.714738,0.009755
10.900000,-1.200368,-1.512329,-1.456998,-1.115651,-0.004390,2.084814,-0.068831,-0.019900,-0.044751,-0.028986,0.228420,-0.314159,0.000000,0.000000,0.000000,0.000000,-0.000000,0.000000,-0.045080,-0.686924,0.961097,-0.650512,-0.273965,0.708027,0.021783
11.000000,-1.207251,-1.514319,-1.461473,-1.118549,0.018452,2.053398,-0.068831,-0.019900,-0.044751,-0.028986,0.228420,-0.314159,0.000000,0.000000,0.000000,0.000000,-0.000000,0.000000,-0.048353,-0.690367,0.954446,-0.649861,-0.291889,0.700965,0.033612
11.100000,-1.214134,-1.516309,-1.465948,-1.121448,0.041294,2.021982,-0.068831,-0.019900,-0.044751,-0.028986,0.228420,-0.314159,0.000000,0.000000,0.000000,0.000000,-0.000000,0.000000,-0.051644,-0.693707,0.947755,-0.648835,-0.309754,0.693556,0.045230
11.200000,-1.221017,-1.518299,-1.470423,-1.124346,0.064136,1.990566,-0.068831,-0.019900,-0.044751,-0.028986,0.228420,-0.314159,0.000000,0.000000,0.000000,0.000000,-0.000000,0.000000,-0.054952,-0.696943,0.941026,-0.647436,-0.327548,0.685808,0.056624
11.300000,-1.227900,-1.520289,-1.474899,-1.127245,0.086978,1.959150,-0.068831,-0.019900,-0.044751,-0.028986,0.228420,-0.314159,0.000000,0.000000,0.000000,0.000000,-0.000000,0.000000,-0.058276,-0.700075,0.934260,-0.645667,-0.345263,0.677726,0.067782
11.400000,-1.234784,-1.522279,-1.479374,-1.130144,0.109820,1.927735,-0.068831,-0.019900,-0.044751,-0.028986,0.228420,-0.314159,0.000000,0.000000,0.000000,0.000000,-0.000000,0.000000,-0.061613,-0.703101,0.927460,-0.643530,-0.362890,0.669318,0.078693
11.500000,-1.241667,-1.524269,-1.483849,-1.133042,0.132662,1.896319,-0.068831,-0.019900,-0.044751,-0.028986,0.228420,-0.314159,0.000000,0.000000,0.000000,0.000000,-0.000000,0.000000,-0.064963,-0.706021,0.920628,-0.641029,-0.380419,0.660591,0.089345
11.600000,-1.248550,-1.526259,-1.488324,-1.135941,0.155504,1.864903,-0.068831,-0.019900,-0.044751,-0.028986,0.228420,-0.314159,0.000000,0.000000,0.000000,0.000000,-0.000000,0.000000,-0.068324,-0.708833,0.913766,-0.638167,-0.397840,0.651553,0.099727
11.700000,-1.255433,-1.528249,-1.492799,-1.138840,0.178346,1.833487,-0.068831,-0.019900,-0.044751,-0.028986,0.228420,-0.314159,0.000000,0.000000,0.000000,0.000000,-0.000000,0.000000,-0.071695,-0.711539,0.906876,-0.634947,-0.415146,0.642211,0.109826
11.800000,-1.262316,-1.530239,-1.497274,-1.141738,0.201188,1.802071,-0.068831,-0.019900,-0.044751,-0.028986,0.228420,-0.314159,0.000000,0.000000,0.000000,0.000000,-0.000000,0.000000,-0.075073,-0.714135,0.899959,-0.631372,-0.432327,0.632574,0.119634
11.900000,-1.269199,-1.532229,-1.501749,-1.144637,0.224030,1.770655,-0.068831,-0.019900,-0.044751,-0.028986,0.228420,-0.314159,0.000000,0.000000,0.000000,0.000000,-0.000000,0.000000,-0.078459,-0.716623,0.893020,0.627448,0.449374,-0.622652,-0.129138
12.000000,-1.276082,-1.534219,-1.506224,-1.147536,0.246872,1.739239,-0.068831,-0.019900,-0.044751,-0.028986,0.228420,-0.314159,0.000000,0.000000,0.000000,0.000000,-0.000000,0.000000,-0.081849,-0.719002,0.886058,0.623178,0.466279,-0.612453,-0.138328
12.100000,-1.282965,-1.536209,-1.510699,-1.150434,0.269714,1.707823,-0.068831,-0.019900,-0.044751,-0.028986,0.228420,-0.314159,0.000000,0.000000,0.000000,0.000000,-0.000000,0.000000,-0.085243,-0.721272,0.879078,0.618565,0.483033,-0.601988,-0.147195
12.200000,-1.289848,-1.538200,-1.515174,-1.153333,0.292556,1.676407,-0.068831,-0.019900,-0.044751,-0.028986,0.228420,-0.314159,0.000000,0.000000,0.000000,0.000000,-0.000000,0.000000,-0.088639,-0.723432,0.872080,0.613616,0.499628,-0.591266,-0.155729
12.300000,-1.296731,-1.540190,-1.519649,-1.156231,0.315398,1.644991,-0.068831,-0.019900,-0.044751,-0.028986,0.228420,-0.314159,0.000000,0.000000,0.000000,0.000000,-0.000000,0.000000,-0.092036,-0.725481,0.865068,0.608335,0.516055,-0.580299,-0.163919
12.400000,-1.303614,-1.542180,-1.524124,-1.159130,0.338240,1.613575,-0.068831,-0.019900,-0.044751,-0.028986,0.228420,-0.314159,0.000000,0.000000,0.000000,0.000000,-0.000000,0.000000,-0.095432,-0.727421,0.858043,0.602726,0.532306,-0.569097,-0.171758
12.500000,-1.310497,-1.544170,-1.528599,-1.162029,0.361082,1.582159,-0.068831,-0.019900,-0.044751,-0.028986,0.228420,-0.314159,0.000000,0.000000,0.000000,0.000000,-0.000000,0.000000,-0.098826,-0.729251,0.851008,0.596795,0.548373,-0.557671,-0.179237
12.600000,-1.317380,-1.546160,-1.533075,-1.164927,0.383924,1.550743,-0.068831,-0.019900,-0.044751,-0.028986,0.228420,-0.314159,0.000000,0.000000,0.000000,0.000000,-0.000000,0.000000,-0.102217,-0.730971,0.843964,0.590547,0.564249,-0.546032,-0.186347
12.700000,-1.324263,-1.548150,-1.537550,-1.167826,0.406766,1.519328,-0.068831,-0.019900,-0.044751,-0.028986,0.228420,-0.314159,0.000000,0.000000,0.000000,0.000000,-0.000000,0.000000,-0.105602,-0.732581,0.836915,0.583989,0.579926,-0.534194,-0.193080
12.800000,-1.331146,-1.550140,-1.542025,-1.170725,0.429608,1.487912,-0.068831,-0.019900,-0.044751,-0.028986,0.228420,-0.314159,0.000000,0.000000,0.000000,0.000000,-0.000000,0.000000,-0.108980,-0.734082,0.829863,0.577125,0.595396,-0.522167,-0.199428
12.900000,-1.338029,-1.552130,-1.546500,-1.173623,0.452450,1.456496,-0.068831,-0.019900,-0.044751,-0.028986,0.228420,-0.314159,0.000000,0.000000,0.000000,0.000000,-0.000000,0.000000,-0.112350,-0.735473,0.822809,0.569962,0.610652,-0.509965,-0.205385
13.000000,-1.344912,-1.554120,-1.550975,-1.176522,0.475292,1.425080,-0.068831,-0.019900,-0.044751,-0.028986,0.228420,-0.314159,0.000000,0.000000,0.000000,0.000000,-0.000000,0.000000,-0.115711,-0.736755,0.815756,0.562505,0.625687,-0.497600,-0.210944
13.100000,-1.351796,-1.556110,-1.555450,-1.179420,0.498134,1.393664,-0.068831,-0.019900,-0.044751,-0.028986,0.228420,-0.314159,0.000000,0.000000,0.000000,0.000000,-0.000000,0.000000,-0.119062,-0.737929,0.808707,0.554762,0.640494,-0.485085,-0.216099
13.200000,-1.358679,-1.558100,-1.559925,-1.182319,0.520976,1.362248,-0.068831,-0.019900,-0.044751,-0.028986,0.228420,-0.314159,0.000000,0.000000,0.000000,0.000000,-0.000000,0.000000,-0.122400,-0.738995,0.801663,0.546739,0.655066,-0.472434,-0.220843
13.300000,-1.365562,-1.560090,-1.564400,-1.185218,0.543817,1.330832,-0.068831,-0.019900,-0.044751,-0.028986,0.228420,-0.314159,0.000000,0.000000,0.000000,0.000000,-0.000000,0.000000,-0.125725,-0.739954,0.794627,0.538442,0.669396,-0.459660,-0.225171
13.400000,-1.372445,-1.562080,-1.568875,-1.188116,0.566659,1.299416,-0.068831,-0.019900,-0.044751,-0.028986,0.228420,-0.314159,0.000000,0.000000,0.000000,0.000000,-0.000000,0.000000,-0.129035,-0.740806,0.787601,0.529878,0.683478,-0.446777,-0.229078
13.500000,-1.379328,-1.564070,-1.573350,-1.191015,0.589501,1.268000,-0.068831,-0.019900,-0.044751,-0.028986,0.228420,-0.314159,0.000000,0.000000,0.000000,0.000000,-0.000000,0.000000,-0.132329,-0.741553,0.780588,0.521055,0.697307,-0.433799,-0.232561
13.600000,-1.386211,-1.566060,-1.577825,-1.193914,0.612343,1.236584,-0.068831,-0.019900,-0.044751,-0.028986,0.228420,-0.314159,0.000000,0.000000,0.000000,0.000000,-0.000000,0.000000,-0.135605,-0.742194,0.773589,0.511978,0.710875,-0.420739,-0.235614
13.700000,-1.393094,-1.568050,-1.582300,-1.196812,0.635185,1.205168,-0.068831,-0.019900,-0.044751,-0.028986,0.228420,-0.314159,0.000000,0.000000,0.000000,0.000000,-0.000000,0.000000,-0.138863,-0.742732,0.766607,0.502657,0.724177,-0.407613,-0.238234
13.800000,-1.399977,-1.570040,-1.586775,-1.199711,0.658027,1.173752,-0.068831,-0.019900,-0.044751,-0.028986,0.228420,-0.314159,0.000000,0.000000,0.000000,0.000000,-0.000000,0.000000,-0.142102,-0.743166,0.759644,0.493098,0.737208,-0.394435,-0.240418
13.900000,-1.406860,-1.572030,-1.591250,-1.202610,0.680869,1.142336,-0.068831,-0.019900,-0.044751,-0.028986,0.228420,-0.314159,0.000000,0.000000,0.000000,0.000000,-0.000000,0.000000,-0.145319,-0.743499,0.752702,0.483308,0.749962,-0.381219,-0.242164
14.000000,-1.413743,-1.574020,-1.595726,-1.205508,0.703711,1.110920,-0.068831,-0.019900,-0.044751,-0.028986,0.228420,-0.314159,0.000000,0.000000,0.000000,0.000000,-0.000000,0.000000,-0.148515,-0.743730,0.745784,0.473295,0.762433,-0.367980,-0.243470
14.100000,-1.420626,-1.576010,-1.600201,-1.208407,0.726553,1.079505,-0.068831,-0.019900,-0.044751,-0.028986,0.228420,-0.314159,0.000000,0.000000,0.000000,0.000000,-0.000000,0.000000,-0.151688,-0.743862,0.738891,0.463068,0.774618,-0.354733,-0.244334
14.200000,-1.427509,-1.578000,-1.604676,-1.211305,0.749395,1.048089,-0.068831,-0.019900,-0.044751,-0.028986,0.228420,-0.314159,0.000000,0.000000,0.000000,0.000000,-0.000000,0.000000,-0.154837,-0.743896,0.732026,0.452634,0.786512,-0.341493,-0.244754
14.300000,-1.434392,-1.579990,-1.609151,-1.214204,0.772237,1.016673,-0.068831,-0.019900,-0.044751,-0.028986,0.228420,-0.314159,0.000000,0.000000,0.000000,0.000000,-0.000000,0.000000,-0.157961,-0.743832,0.725191,0.442000,0.798109,-0.328275,-0.244732
14.400000,-1.441275,-1.581980,-1.613626,-1.217103,0.795079,0.985257,-0.068831,-0.019900,-0.044751,-0.028986,0.228420,-0.314159,0.000000,0.000000,0.000000,0.000000,-0.000000,0.000000,-0.161058,-0.743672,0.718388,0.431176,0.809405,-0.315094,-0.244265
14.500000,-1.448158,-1.583970,-1.618101,-1.220001,0.817921,0.953841,-0.068831,-0.019900,-0.044751,-0.028986,0.228420,-0.314159,0.000000,0.000000,0.000000,0.000000,-0.000000,0.000000,-0.164130,-0.743419,0.711619,0.420169,0.820398,-0.301965,-0.243356
14.600000,-1.455041,-1.585960,-1.622576,-1.222900,0.840763,0.922425,-0.068831,-0.019900,-0.044751,-0.028986,0.228420,-0.314159,0.000000,0.000000,0.000000,0.000000,-0.000000,0.000000,-0.167173,-0.743072,0.704885,0.408988,0.831082,-0.288904,-0.242005
14.700000,-1.461924,-1.587950,-1.627051,-1.225799,0.863605,0.891009,-0.068831,-0.019900,-0.044751,-0.028986,0.228420,-0.314159,0.000000,0.000000,0.000000,0.000000,-0.000000,0.000000,-0.170188,-0.742635,0.698189,0.397641,0.841454,-0.275925,-0.240214
14.800000,-1.468807,-1.589940,-1.631526,-1.228697,0.886447,0.859593,-0.068831,-0.019900,-0.044751,-0.028986,0.228420,-0.314159,0.000000,0.000000,0.000000,0.000000,-0.000000,0.000000,-0.173174,-0.742107,0.691534,0.386136,0.851511,-0.263043,-0.237985
14.900000,-1.475691,-1.591931,-1.636001,-1.231596,0.909289,0.828177,-0.068831,-0.019900,-0.044751,-0.028986,0.228420,-0.314159,0.000000,0.000000,0.000000,0.000000,-0.000000,0.000000,-0.176130,-0.741492,0.684920,0.374482,0.861249,-0.250273,-0.235320
15.000000,-1.482574,-1.593921,-1.640476,-1.234494,0.932131,0.796761,-0.068831,-0.019900,-0.044751,-0.028986,0.228420,-0.314159,0.000000,0.000000,0.000000,0.000000,-0.000000,0.000000,-0.179055,-0.740790,0.678349,0.362688,0.870667,-0.237632,-0.232223
15.100000,-1.489457,-1.595911,-1.644951,-1.237393,0.954973,0.765345,-0.068831,-0.019900,-0.044751,-0.028986,0.228420,-0.314159,0.000000,0.000000,0.000000,0.000000,-0.000000,0.000000,-0.181949,-0.740004,0.671824,0.350762,0.879761,-0.225132,-0.228697
15.200000,-1.496340,-1.597901,-1.649426,-1.240292,0.977815,0.733929,-0.068831,-0.019900,-0.044751,-0.028986,0.228420,-0.314159,0.000000,0.000000,0.000000,0.000000,-0.000000,0.000000,-0.184812,-0.739136,0.665346,0.338713,0.888528,-0.212790,-0.224747
15.300000,-1.503223,-1.599891,-1.653902,-1.243190,1.000657,0.702513,-0.068831,-0.019900,-0.044751,-0.028986,0.228420,-0.314159,0.000000,0.000000,0.000000,0.000000,-0.000000,0.000000,-0.187642,-0.738186,0.658917,0.326549,0.896968,-0.200620,-0.220378
15.400000,-1.510106,-1.601881,-1.658377,-1.246089,1.023499,0.671097,-0.068831,-0.019900,-0.044751,-0.028986,0.228420,-0.314159,0.000000,0.000000,0.000000,0.000000,-0.000000,0.000000,-0.190440,-0.737158,0.652539,0.314280,0.905077,-0.188636,-0.215594
15.500000,-1.516989,-1.603871,-1.662852,-1.248988,1.046341,0.639682,-0.068831,-0.019900,-0.044751,-0.028986,0.228420,-0.314159,0.000000,0.000000,0.000000,0.000000,-0.000000,0.000000,-0.193205,-0.736052,0.646213,0.301914,0.912854,-0.176853,-0.210401
15.600000,-1.523872,-1.605861,-1.667327,-1.251886,1.069183,0.608266,-0.068831,-0.019900,-0.044751,-0.028986,0.228420,-0.314159,0.000000,0.000000,0.000000,0.000000,-0.000000,0.000000,-0.195937,-0.734872,0.639942,0.289460,0.920298,-0.165285,-0.204807
15.700000,-1.530755,-1.607851,-1.671802,-1.254785,1.092025,0.576850,-0.068831,-0.019900,-0.044751,-0.028986,0.228420,-0.314159,0.000000,0.000000,0.000000,0.000000,-0.000000,0.000000,-0.198635,-0.733618,0.633725,0.276926,0.927407,-0.153946,-0.198816
15.800000,-1.537638,-1.609841,-1.676277,-1.257684,1.114867,0.545434,-0.068831,-0.019900,-0.044751,-0.028986,0.228420,-0.314159,0.000000,0.000000,0.000000,0.000000,-0.000000,0.000000,-0.201300,-0.732293,0.627566,0.264322,0.934182,-0.142850,-0.192438
15.900000,-1.544521,-1.611831,-1.680752,-1.260582,1.137709,0.514018,-0.068831,-0.019900,-0.044751,-0.028986,0.228420,-0.314159,0.000000,0.000000,0.000000,0.000000,-0.000000,0.000000,-0.203931,-0.730899,0.621465,0.251657,0.940620,-0.132011,-0.185679
16.000000,-1.551404,-1.613821,-1.685227,-1.263481,1.160551,0.482602,-0.068831,-0.019900,-0.044751,-0.028986,0.228420,-0.314159,0.000000,0.000000,0.000000,0.000000,-0.000000,0.000000,-0.206529,-0.729438,0.615423,0.238938,0.946721,-0.121442,-0.178548
16.100000,-1.558287,-1.615811,-1.689702,-1.266379,1.183393,0.451186,-0.068831,-0.019900,-0.044751,-0.028986,0.228420,-0.314159,-0.000000,-0.000000,-0.000000,-0.000000,0.000000,-0.000000,-0.209092,-0.727913,0.609443,0.226176,0.952486,-0.111156,-0.171054
16.200000,-1.565170,-1.617801,-1.694177,-1.269278,1.206235,0.419770,-0.068831,-0.019900,-0.044751,-0.028986,0.228420,-0.314159,-0.000000,-0.000000,-0.000000,-0.000000,0.000000,-0.000000,-0.211622,-0.726324,0.603526,0.213378,0.957914,-0.101166,-0.163206
16.300000,-1.572053,-1.619791,-1.698652,-1.272177,1.229077,0.388354,-0.068831,-0.019900,-0.044751,-0.028986,0.228420,-0.314159,-0.000000,-0.000000,-0.000000,-0.000000,0.000000,-0.000000,-0.214118,-0.724675,0.597672,0.200554,0.963006,-0.091485,-0.155013
16.400000,-1.578936,-1.621781,-1.703127,-1.275075,1.251918,0.356938,-0.068831,-0.019900,-0.044751,-0.028986,0.228420,-0.314159,-0.000000,-0.000000,-0.000000,-0.000000,0.000000,-0.000000,-0.216581,-0.722967,0.591883,0.187712,0.967761,-0.082124,-0.146486
16.500000,-1.585819,-1.623771,-1.707602,-1.277974,1.274760,0.325522,-0.068831,-0.019900,-0.044751,-0.028986,0.228420,-0.314159,-0.000000,-0.000000,-0.000000,-0.000000,0.000000,-0.000000,-0.219010,-0.721203,0.586160,0.174861,0.972182,-0.073096,-0.137635
16.600000,-1.592703,-1.625761,-1.712077,-1.280873,1.297602,0.294106,-0.068831,-0.019900,-0.044751,-0.028986,0.228420,-0.314159,-0.000000,-0.000000,-0.000000,-0.000000,0.000000,-0.000000,-0.221407,-0.719385,0.580504,0.162009,0.976268,-0.064412,-0.128472
16.700000,-1.599586,-1.627751,-1.716553,-1.283771,1.320444,0.262690,-0.068831,-0.019900,-0.044751,-0.028986,0.228420,-0.314159,-0.000000,-0.000000,-0.000000,-0.000000,0.000000,-0.000000,-0.223771,-0.717514,0.574916,0.149166,0.980021,-0.056084,-0.119007
16.800000,-1.606469,-1.629741,-1.721028,-1.286670,1.343286,0.231275,-0.068831,-0.019900,-0.044751,-0.028986,0.228420,-0.314159,-0.000000,-0.000000,-0.000000,-0.000000,0.000000,-0.000000,-0.226103,-0.715593,0.569398,0.136340,0.983443,-0.048122,-0.109253
16.900000,-1.613352,-1.631731,-1.725503,-1.289568,1.366128,0.199859,-0.068831,-0.019900,-0.044751,-0.028986,0.228420,-0.314159,-0.000000,-0.000000,-0.000000,-0.000000,0.000000,-0.000000,-0.228404,-0.713625,0.563949,0.123538,0.986534,-0.040537,-0.099222
17.000000,-1.620235,-1.633721,-1.729978,-1.292467,1.388970,0.168443,-0.068831,-0.019900,-0.044751,-0.028986,0.228420,-0.314159,-0.000000,-0.000000,-0.000000,-0.000000,0.000000,-0.000000,-0.230674,-0.711611,0.558571,0.110770,0.989298,-0.033339,-0.088927
17.100000,-1.627118,-1.635711,-1.734453,-1.295366,1.411812,0.137027,-0.068831,-0.019900,-0.044751,-0.028986,0.228420,-0.314159,-0.000000,-0.000000,-0.000000,-0.000000,0.000000,-0.000000,-0.232913,-0.709553,0.553264,0.098044,0.991736,-0.026537,-0.078380
17.200000,-1.634001,-1.637701,-1.738928,-1.298264,1.434654,0.105611,-0.068831,-0.019900,-0.044751,-0.028986,0.228420,-0.314159,-0.000000,-0.000000,-0.000000,-0.000000,0.000000,-0.000000,-0.235122,-0.707454,0.548030,0.085368,0.993850,-0.020141,-0.067595
17.300000,-1.640884,-1.639691,-1.743403,-1.301163,1.457496,0.074195,-0.068831,-0.019900,-0.044751,-0.028986,0.228420,-0.314159,-0.000000,-0.000000,-0.000000,-0.000000,0.000000,-0.000000,-0.237303,-0.705315,0.542868,0.072750,0.995643,-0.014159,-0.056585
17.400000,-1.647767,-1.641681,-1.747878,-1.304062,1.480338,0.042779,-0.068831,-0.019900,-0.044751,-0.028986,0.228420,-0.314159,-0.000000,-0.000000,-0.000000,-0.000000,0.000000,-0.000000,-0.239455,-0.703139,0.537780,0.060199,0.997118,-0.008600,-0.045365
17.500000,-1.654650,-1.643672,-1.752353,-1.306960,1.503180,0.011363,-0.068831,-0.019900,-0.044751,-0.028986,0.228420,-0.314159,-0.000000,-0.000000,-0.000000,-0.000000,0.000000,-0.000000,-0.241580,-0.700928,0.532766,0.047721,0.998278,-0.003471,-0.033949
17.600000,-1.661509,-1.645655,-1.756812,-1.309849,1.525942,-0.019942,-0.066495,-0.019225,-0.043232,-0.028003,0.220670,-0.303500,0.109547,0.031672,0.071223,0.046133,-0.363541,0.500000,-0.243671,-0.698692,0.527843,0.035370,0.999123,0.001203,-0.022393
17.700000,-1.667614,-1.647420,-1.760781,-1.312420,1.546201,-0.047806,-0.055540,-0.016058,-0.036110,-0.023390,0.184315,-0.253500,0.109547,0.031672,0.071223,0.046133,-0.363541,0.500000,-0.245511,-0.696675,0.523524,0.024451,0.999617,0.004993,-0.011968
17.800000,-1.672623,-1.648868,-1.764038,-1.314529,1.562824,-0.070669,-0.044586,-0.012891,-0.028988,-0.018776,0.147961,-0.203500,0.109547,0.031672,0.071223,0.046133,-0.363541,0.500000,-0.247006,-0.695003,0.520024,0.015548,0.999843,0.007838,-0.003323
17.900000,-1.676537,-1.649999,-1.766583,-1.316177,1.575812,-0.088532,-0.033631,-0.009723,-0.021865,-0.014163,0.111607,-0.153500,0.109547,0.031672,0.071223,0.046133,-0.363541,0.500000,-0.248165,-0.693686,0.517317,0.008629,0.999908,0.009894,0.003484
18.000000,-1.679355,-1.650814,-1.768415,-1.317364,1.585165,-0.101396,-0.022676,-0.006556,-0.014743,-0.009550,0.075253,-0.103500,0.109547,0.031672,0.071223,0.046133,-0.363541,0.500000,-0.248996,-0.692732,0.515383,0.003668,0.999894,0.011282,0.008412
18.100000,-1.681078,-1.651312,-1.769535,-1.318090,1.590882,-0.109259,-0.011722,-0.003389,-0.007621,-0.004936,0.038899,-0.053500,0.109547,0.031672,0.071223,0.046133,-0.363541,0.500000,-0.249501,-0.692147,0.514206,0.000644,0.999861,0.012093,0.011436
18.200000,-1.681705,-1.651494,-1.769943,-1.318354,1.592964,-0.112123,-0.000767,-0.000222,-0.000499,-0.000323,0.002545,-0.003500,0.109547,0.031672,0.071223,0.046133,-0.363541,0.500000,-0.249685,-0.691934,0.513779,-0.000455,0.999845,0.012381,0.012538
18.207268,-1.681708,-1.651495,-1.769945,-1.318355,1.592974,-0.112136,-0.000000,-0.000000,-0.000000,-0.000000,0.000000,-0.000000,0.109547,0.031672,0.071223,0.046133,-0.363541,0.500000,-0.249686,-0.691933,0.513777,-0.000460,0.999845,0.012382,0.012544
