mathias31415/motion_primitives_from_planned_trajectory/data/trajectory_20250702_112756_planned.csv
time_from_start,shoulder_pan_joint,shoulder_lift_joint,elbow_joint,wrist_1_joint,wrist_2_joint,wrist_3_joint,pose_x,pose_y,pose_z,pose_qx,pose_qy,pose_qz,pose_qw
0,-0.650824,-1.51304,-1.99497,-1.19931,1.6059,0.919121,0.389185,-0.51012,0.471738,-0.000470094,0.999843,0.0124243,0.0126564
0.1,-0.650921,-1.51243,-1.99448,-1.20181,1.60549,0.918298,0.388858,-0.510008,0.472132,-0.000820154,0.999848,0.0126771,0.011978
0.2,-0.651213,-1.5106,-1.99302,-1.20931,1.60423,0.91583,0.387874,-0.509668,0.473316,-0.00187211,0.999858,0.0134394,0.00994447
0.3,-0.651699,-1.50755,-1.99058,-1.22181,1.60214,0.911716,0.38622,-0.509091,0.475294,-0.00363124,0.999864,0.0147224,0.00655974
0.4,-0.652379,-1.50328,-1.98716,-1.23931,1.59921,0.905956,0.383878,-0.508258,0.478075,-0.00610626,0.999843,0.0165446,0.00183091
0.5,-0.653254,-1.49779,-1.98277,-1.26181,1.59544,0.898551,0.380817,-0.507145,0.481669,-0.00930905,0.999768,0.0189321,-0.00423175
0.6,-0.654323,-1.49107,-1.9774,-1.28931,1.59084,0.8895,0.377005,-0.505719,0.48609,-0.0132545,0.999604,0.0219181,-0.0116143
0.7,-0.655537,-1.48345,-1.9713,-1.32052,1.58561,0.879227,0.372581,-0.504016,0.491146,-0.0177732,0.99932,0.0253979,-0.0199564
0.8,-0.656758,-1.47579,-1.96517,-1.35194,1.58035,0.868887,0.368027,-0.502208,0.496274,-0.0223628,0.998928,0.0289966,-0.0283094
0.9,-0.65798,-1.46812,-1.95904,-1.38336,1.57509,0.858547,0.363372,-0.500308,0.501439,-0.0269932,0.99843,0.0326917,-0.0366179
1,-0.659201,-1.46045,-1.95291,-1.41477,1.56983,0.848208,0.358615,-0.498315,0.506643,-0.0316631,0.997824,0.0364828,-0.0448799
1.1,-0.660423,-1.45278,-1.94677,-1.44619,1.56457,0.837868,0.353759,-0.49623,0.511883,-0.0363712,0.99711,0.0403693,-0.0530934
1.2,-0.661644,-1.44511,-1.94064,-1.4776,1.55931,0.827529,0.348803,-0.494052,0.51716,-0.0411162,0.996288,0.0443507,-0.0612567
1.3,-0.662866,-1.43744,-1.93451,-1.50902,1.55405,0.817189,0.34375,-0.491782,0.522471,-0.0458967,0.995357,0.0484264,-0.0693678
1.4,-0.664087,-1.42977,-1.92837,-1.54043,1.54879,0.806849,0.3386,-0.489419,0.527817,-0.0507115,0.994318,0.0525957,-0.0774249
1.5,-0.665309,-1.4221,-1.92224,-1.57185,1.54353,0.79651,0.333354,-0.486964,0.533195,-0.0555591,0.993168,0.0568582,-0.085426
1.6,-0.66653,-1.41444,-1.91611,-1.60327,1.53827,0.78617,0.328013,-0.484417,0.538606,-0.0604381,0.991908,0.061213,-0.0933695
1.7,-0.667752,-1.40677,-1.90998,-1.63468,1.53301,0.775831,0.322578,-0.481779,0.544048,-0.0653473,0.990538,0.0656596,-0.101253
1.8,-0.668973,-1.3991,-1.90384,-1.6661,1.52775,0.765491,0.31705,-0.479048,0.549521,-0.0702853,0.989058,0.0701971,-0.109076
1.9,-0.670195,-1.39143,-1.89771,-1.69751,1.52249,0.755151,0.31143,-0.476227,0.555023,-0.0752506,0.987466,0.0748248,-0.116835
2,-0.671416,-1.38376,-1.89158,-1.72893,1.51723,0.744812,0.30572,-0.473314,0.560553,-0.0802418,0.985762,0.0795419,-0.124529
2.1,-0.672638,-1.37609,-1.88544,-1.76035,1.51197,0.734472,0.29992,-0.47031,0.56611,-0.0852576,0.983947,0.0843476,-0.132156
2.2,-0.673859,-1.36842,-1.87931,-1.79176,1.50671,0.724133,0.294032,-0.467216,0.571693,-0.0902965,0.98202,0.0892411,-0.139714
2.3,-0.675081,-1.36075,-1.87318,-1.82318,1.50145,0.713793,0.288056,-0.464031,0.577301,-0.0953571,0.97998,0.0942215,-0.147202
2.4,-0.676302,-1.35309,-1.86705,-1.85459,1.49619,0.703453,0.281994,-0.460757,0.582933,-0.100438,0.977828,0.0992878,-0.154618
2.5,-0.677524,-1.34542,-1.86091,-1.88601,1.49093,0.693114,0.275847,-0.457393,0.588588,-0.105538,0.975563,0.104439,-0.16196
2.6,-0.678745,-1.33775,-1.85478,-1.91743,1.48567,0.682774,0.269616,-0.45394,0.594264,-0.110655,0.973185,0.109675,-0.169226
2.7,-0.679967,-1.33008,-1.84865,-1.94884,1.48041,0.672435,0.263303,-0.450398,0.599961,-0.115788,0.970694,0.114993,-0.176414
2.8,-0.681188,-1.32241,-1.84251,-1.98026,1.47515,0.662095,0.256908,-0.446767,0.605676,-0.120935,0.96809,0.120394,-0.183524
2.9,-0.68241,-1.31474,-1.83638,-2.01167,1.46989,0.651755,0.250434,-0.443049,0.61141,-0.126096,0.965373,0.125875,-0.190552
3,-0.683631,-1.30707,-1.83025,-2.04309,1.46463,0.641416,0.24388,-0.439243,0.61716,-0.131267,0.962542,0.131437,-0.197498
3.1,-0.684853,-1.2994,-1.82412,-2.07451,1.45937,0.631076,0.237249,-0.435349,0.622926,-0.136449,0.959598,0.137077,-0.20436
3.2,-0.686074,-1.29174,-1.81798,-2.10592,1.45411,0.620737,0.230541,-0.43137,0.628706,-0.14164,0.95654,0.142795,-0.211136
3.3,-0.687295,-1.28407,-1.81185,-2.13734,1.44885,0.610397,0.223759,-0.427304,0.634499,-0.146838,0.953369,0.148589,-0.217824
3.4,-0.688517,-1.2764,-1.80572,-2.16875,1.44359,0.600057,0.216903,-0.423153,0.640303,-0.152041,0.950084,0.154459,-0.224423
3.5,-0.689738,-1.26873,-1.79958,-2.20017,1.43833,0.589718,0.209974,-0.418917,0.646118,-0.157248,0.946686,0.160403,-0.230931
3.6,-0.69096,-1.26106,-1.79345,-2.23159,1.43307,0.579378,0.202975,-0.414596,0.651941,-0.162458,0.943175,0.166419,-0.237347
3.7,-0.692181,-1.25339,-1.78732,-2.263,1.42781,0.569039,0.195905,-0.410192,0.657773,-0.167669,0.93955,0.172507,-0.24367
3.8,-0.693403,-1.24572,-1.78118,-2.29442,1.42255,0.558699,0.188768,-0.405704,0.66361,-0.172879,0.935811,0.178666,-0.249896
3.9,-0.694624,-1.23805,-1.77505,-2.32583,1.41729,0.548359,0.181563,-0.401134,0.669452,-0.178088,0.93196,0.184893,-0.256026
4,-0.695846,-1.23039,-1.76892,-2.35725,1.41203,0.53802,0.174293,-0.396481,0.675297,-0.183293,0.927996,0.191188,-0.262058
4.1,-0.697067,-1.22272,-1.76279,-2.38866,1.40677,0.52768,0.166958,-0.391747,0.681145,-0.188493,0.923919,0.19755,-0.267989
4.2,-0.698289,-1.21505,-1.75665,-2.42008,1.40151,0.517341,0.159561,-0.386933,0.686993,-0.193687,0.91973,0.203976,-0.273819
4.3,-0.69951,-1.20738,-1.75052,-2.4515,1.39625,0.507001,0.152102,-0.382039,0.69284,-0.198873,0.915428,0.210465,-0.279546
4.4,-0.700732,-1.19971,-1.74439,-2.48291,1.39099,0.496661,0.144583,-0.377065,0.698685,-0.204049,0.911014,0.217017,-0.285169
4.5,-0.701953,-1.19204,-1.73825,-2.51433,1.38573,0.486322,0.137006,-0.372013,0.704525,-0.209214,0.906488,0.223629,-0.290687
4.6,-0.703175,-1.18437,-1.73212,-2.54574,1.38047,0.475982,0.129371,-0.366882,0.710361,-0.214367,0.901851,0.2303,-0.296097
4.7,-0.704396,-1.1767,-1.72599,-2.57716,1.37521,0.465643,0.121681,-0.361675,0.71619,-0.219505,0.897103,0.237028,-0.301399
4.8,-0.705618,-1.16904,-1.71986,-2.60858,1.36995,0.455303,0.113936,-0.356392,0.72201,-0.224628,0.892244,0.243812,-0.306592
4.9,-0.706839,-1.16137,-1.71372,-2.63999,1.36469,0.444963,0.106139,-0.351033,0.727821,-0.229734,0.887275,0.250651,-0.311673
5,-0.708061,-1.1537,-1.70759,-2.67141,1.35943,0.434624,0.0982897,-0.345599,0.73362,-0.234822,0.882195,0.257543,-0.316642
5.1,-0.709282,-1.14603,-1.70146,-2.70282,1.35417,0.424284,0.0903908,-0.340091,0.739406,-0.239889,0.877006,0.264485,-0.321498
5.2,-0.710504,-1.13836,-1.69532,-2.73424,1.34891,0.413945,0.0824434,-0.33451,0.745178,-0.244935,0.871708,0.271477,-0.326239
5.3,-0.711725,-1.13069,-1.68919,-2.76566,1.34365,0.403605,0.074449,-0.328857,0.750934,-0.249958,0.866302,0.278517,-0.330864
5.4,-0.712947,-1.12302,-1.68306,-2.79707,1.33839,0.393265,0.0664091,-0.323132,0.756672,-0.254956,0.860787,0.285604,-0.335372
5.5,-0.714168,-1.11535,-1.67693,-2.82849,1.33313,0.382926,0.058325,-0.317337,0.762391,-0.259928,0.855164,0.292734,-0.339762
5.6,-0.71539,-1.10769,-1.67079,-2.8599,1.32787,0.372586,0.0501984,-0.311472,0.768089,-0.264872,0.849435,0.299908,-0.344032
5.7,-0.716611,-1.10002,-1.66466,-2.89132,1.32261,0.362247,0.0420306,-0.305538,0.773765,-0.269788,0.843599,0.307123,-0.348182
5.8,-0.717832,-1.09235,-1.65853,-2.92274,1.31735,0.351907,0.0338232,-0.299537,0.779417,-0.274673,0.837657,0.314377,-0.352211
5.9,-0.719054,-1.08468,-1.65239,-2.95415,1.31209,0.341567,0.0255776,-0.293468,0.785043,-0.279526,0.83161,0.321668,-0.356117
6,-0.720275,-1.07701,-1.64626,-2.98557,1.30683,0.331228,0.0172953,-0.287333,0.790642,-0.284345,0.825459,0.328996,-0.359899
6.1,-0.721497,-1.06934,-1.64013,-3.01698,1.30157,0.320888,0.0089779,-0.281134,0.796213,-0.28913,0.819203,0.336357,-0.363557
6.2,-0.722718,-1.06167,-1.634,-3.0484,1.29631,0.310548,0.000626769,-0.27487,0.801752,-0.293878,0.812845,0.343751,-0.36709
6.3,-0.72394,-1.054,-1.62786,-3.07982,1.29105,0.300209,-0.00775656,-0.268543,0.80726,-0.298588,0.806383,0.351175,-0.370496
6.4,-0.725161,-1.04634,-1.62173,-3.11123,1.28579,0.289869,-0.0161706,-0.262154,0.812734,-0.303259,0.799821,0.358627,-0.373775
6.5,-0.726383,-1.03867,-1.6156,-3.14265,1.28053,0.27953,-0.0246139,-0.255703,0.818173,-0.307889,0.793157,0.366106,-0.376926
6.6,-0.727604,-1.031,-1.60946,-3.17406,1.27527,0.26919,-0.0330849,-0.249193,0.823575,-0.312477,0.786393,0.37361,-0.379948
6.7,-0.728826,-1.02333,-1.60333,-3.20548,1.27001,0.25885,-0.0415821,-0.242623,0.828938,-0.317022,0.779529,0.381136,-0.38284
6.8,-0.730047,-1.01566,-1.5972,-3.23689,1.26476,0.248513,-0.0501024,-0.235997,0.83426,-0.32152,0.772569,0.388682,-0.385601
6.9,-0.731162,-1.00866,-1.5916,-3.26556,1.25996,0.239077,-0.0578998,-0.229898,0.839081,-0.325586,0.76613,0.395587,-0.388007
7,-0.732082,-1.00289,-1.58698,-3.28923,1.25599,0.231287,-0.0643511,-0.224828,0.843034,-0.328913,0.760754,0.401298,-0.38991
7.1,-0.732808,-0.998329,-1.58334,-3.3079,1.25287,0.225142,-0.069448,-0.220807,0.846134,-0.331517,0.756475,0.405809,-0.391359
7.2,-0.73543,-0.994702,-1.58065,-3.32256,1.25036,0.218229,-0.0739077,-0.217486,0.848487,-0.333573,0.75304,0.410204,-0.391653
7.3,-0.742068,-0.992004,-1.57915,-3.33302,1.24847,0.208447,-0.0781204,-0.214735,0.849996,-0.335084,0.750461,0.415311,-0.389928
7.4,-0.75118,-0.990463,-1.57886,-3.33848,1.24735,0.197595,-0.0815251,-0.212828,0.850589,-0.335931,0.748971,0.42029,-0.386716
7.5,-0.761612,-0.990108,-1.57967,-3.33895,1.24703,0.186848,-0.0838876,-0.211875,0.850307,-0.336106,0.748608,0.424637,-0.382493
7.6,-0.772323,-0.990962,-1.5815,-3.33441,1.24754,0.177264,-0.0850168,-0.211992,0.849187,-0.3356,0.7494,0.427908,-0.377713
7.7,-0.782196,-0.993051,-1.58425,-3.32488,1.2489,0.169981,-0.0847121,-0.213308,0.84726,-0.334397,0.751369,0.429644,-0.372867
7.8,-0.789888,-0.996358,-1.58777,-3.31055,1.25111,0.166305,-0.0827673,-0.215918,0.8446,-0.332503,0.754488,0.429368,-0.368555
7.9,-0.798136,-1.00081,-1.59227,-3.29146,1.2541,0.163441,-0.0798184,-0.219603,0.841108,-0.329944,0.758663,0.428167,-0.363649
8,-0.808545,-1.00643,-1.59796,-3.26737,1.25787,0.159826,-0.076217,-0.224317,0.836673,-0.326691,0.763886,0.426578,-0.357466
8.1,-0.821114,-1.01321,-1.60483,-3.23828,1.26243,0.155462,-0.0720484,-0.230099,0.831276,-0.322728,0.770124,0.424551,-0.350017
8.2,-0.834689,-1.02053,-1.61225,-3.20687,1.26735,0.150747,-0.0677692,-0.236449,0.825398,-0.318405,0.776778,0.422228,-0.341991
8.3,-0.848265,-1.02786,-1.61967,-3.17545,1.27227,0.146033,-0.0637246,-0.242901,0.819471,-0.31404,0.783343,0.419766,-0.333991
8.4,-0.86184,-1.03518,-1.62708,-3.14404,1.27719,0.141319,-0.0599169,-0.249448,0.813496,-0.309633,0.789818,0.417166,-0.326018
8.5,-0.875416,-1.04251,-1.6345,-3.11262,1.28211,0.136605,-0.0563483,-0.256083,0.807477,-0.305186,0.796203,0.414427,-0.318075
8.6,-0.888991,-1.04983,-1.64192,-3.0812,1.28703,0.131891,-0.0530206,-0.262798,0.801413,-0.3007,0.802498,0.411551,-0.310165
8.7,-0.902567,-1.05716,-1.64934,-3.04979,1.29194,0.127177,-0.0499355,-0.269587,0.795308,-0.296176,0.808701,0.408538,-0.30229
8.8,-0.916142,-1.06448,-1.65676,-3.01837,1.29686,0.122462,-0.0470947,-0.276441,0.789163,-0.291616,0.814812,0.405387,-0.294454
8.9,-0.929718,-1.07181,-1.66417,-2.98696,1.30178,0.117748,-0.0444994,-0.283353,0.78298,-0.287021,0.82083,0.402099,-0.286659
9,-0.943293,-1.07913,-1.67159,-2.95554,1.3067,0.113034,-0.0421508,-0.290317,0.776762,-0.282392,0.826755,0.398676,-0.278907
9.1,-0.956868,-1.08646,-1.67901,-2.92412,1.31162,0.10832,-0.0400496,-0.297324,0.770509,-0.27773,0.832585,0.395117,-0.271201
9.2,-0.970444,-1.09378,-1.68643,-2.89271,1.31654,0.103606,-0.0381967,-0.304368,0.764225,-0.273037,0.838321,0.391423,-0.263545
9.3,-0.984019,-1.10111,-1.69384,-2.86129,1.32146,0.0988915,-0.0365924,-0.31144,0.75791,-0.268314,0.843962,0.387595,-0.25594
9.4,-0.997595,-1.10843,-1.70126,-2.82988,1.32638,0.0941774,-0.035237,-0.318534,0.751566,-0.263562,0.849508,0.383633,-0.24839
9.5,-1.01117,-1.11576,-1.70868,-2.79846,1.3313,0.0894632,-0.0341306,-0.325641,0.745197,-0.258782,0.854957,0.379538,-0.240896
9.6,-1.02475,-1.12308,-1.7161,-2.76704,1.33622,0.084749,-0.0332731,-0.332755,0.738802,-0.253976,0.860309,0.375312,-0.233463
9.7,-1.03832,-1.1304,-1.72352,-2.73563,1.34114,0.0800348,-0.0326639,-0.339868,0.732385,-0.249145,0.865565,0.370955,-0.226091
9.8,-1.0519,-1.13773,-1.73093,-2.70421,1.34606,0.0753206,-0.0323027,-0.346973,0.725948,-0.244291,0.870722,0.366467,-0.218785
9.9,-1.06547,-1.14505,-1.73835,-2.6728,1.35098,0.0706065,-0.0321885,-0.354062,0.719491,-0.239414,0.875782,0.36185,-0.211546
10,-1.07905,-1.15238,-1.74577,-2.64138,1.3559,0.0658923,-0.0323204,-0.361128,0.713017,-0.234516,0.880743,0.357106,-0.204377
10.1,-1.09262,-1.1597,-1.75319,-2.60997,1.36082,0.0611781,-0.0326973,-0.368164,0.706529,-0.229598,0.885605,0.352234,-0.197281
10.2,-1.1062,-1.16703,-1.76061,-2.57855,1.36574,0.0564639,-0.0333175,-0.375163,0.700027,-0.224662,0.890368,0.347237,-0.19026
10.3,-1.11977,-1.17435,-1.76802,-2.54713,1.37066,0.0517497,-0.0341797,-0.382116,0.693513,-0.219709,0.895031,0.342115,-0.183317
10.4,-1.13335,-1.18168,-1.77544,-2.51572,1.37558,0.0470356,-0.035282,-0.389018,0.68699,-0.214739,0.899594,0.33687,-0.176455
10.5,-1.14693,-1.189,-1.78286,-2.4843,1.3805,0.0423214,-0.0366223,-0.395861,0.680459,-0.209756,0.904057,0.331503,-0.169675
10.6,-1.1605,-1.19633,-1.79028,-2.45289,1.38542,0.0376072,-0.0381984,-0.402638,0.673922,-0.204759,0.908419,0.326015,-0.162981
10.7,-1.17408,-1.20365,-1.79769,-2.42147,1.39034,0.032893,-0.0400081,-0.409342,0.667381,-0.19975,0.912681,0.320408,-0.156374
10.8,-1.18765,-1.21098,-1.80511,-2.39005,1.39525,0.0281788,-0.0420485,-0.415967,0.660838,-0.19473,0.916841,0.314683,-0.149858
10.9,-1.20123,-1.2183,-1.81253,-2.35864,1.40017,0.0234647,-0.0443171,-0.422505,0.654294,-0.189702,0.9209,0.308842,-0.143435
11,-1.2148,-1.22563,-1.81995,-2.32722,1.40509,0.0187505,-0.0468107,-0.42895,0.647752,-0.184665,0.924857,0.302886,-0.137106
11.1,-1.22838,-1.23295,-1.82737,-2.29581,1.41001,0.0140363,-0.0495263,-0.435296,0.641212,-0.179621,0.928713,0.296817,-0.130875
11.2,-1.24195,-1.24028,-1.83478,-2.26439,1.41493,0.00932213,-0.0524605,-0.441535,0.634678,-0.174573,0.932466,0.290637,-0.124744
11.3,-1.25553,-1.2476,-1.8422,-2.23297,1.41985,0.00460795,-0.0556098,-0.447662,0.62815,-0.16952,0.936118,0.284346,-0.118715
11.4,-1.2691,-1.25493,-1.84962,-2.20156,1.42477,-0.000106228,-0.0589704,-0.45367,0.62163,-0.164465,0.939667,0.277948,-0.112791
11.5,-1.28268,-1.26225,-1.85704,-2.17014,1.42969,-0.00482041,-0.0625385,-0.459553,0.615121,-0.159408,0.943114,0.271444,-0.106973
11.6,-1.29626,-1.26958,-1.86446,-2.13873,1.43461,-0.00953459,-0.0663101,-0.465305,0.608624,-0.154351,0.946458,0.264836,-0.101264
11.7,-1.30983,-1.2769,-1.87187,-2.10731,1.43953,-0.0142488,-0.0702809,-0.470921,0.60214,-0.149295,0.9497,0.258125,-0.0956654
11.8,-1.32341,-1.28423,-1.87929,-2.07589,1.44445,-0.0189629,-0.0744466,-0.476393,0.595671,-0.144242,0.95284,0.251313,-0.0901806
11.9,-1.33698,-1.29155,-1.88671,-2.04448,1.44937,-0.0236771,-0.0788026,-0.481718,0.589219,-0.139193,0.955876,0.244403,-0.0848111
12,-1.35056,-1.29888,-1.89413,-2.01306,1.45429,-0.0283913,-0.0833443,-0.486888,0.582786,-0.134149,0.95881,0.237397,-0.079559
12.1,-1.36413,-1.3062,-1.90154,-1.98165,1.45921,-0.0331055,-0.0880668,-0.4919,0.576373,-0.129111,0.961642,0.230296,-0.0744263
12.2,-1.37771,-1.31353,-1.90896,-1.95023,1.46413,-0.0378197,-0.0929651,-0.496747,0.569982,-0.124081,0.964371,0.223103,-0.0694152
12.3,-1.39128,-1.32085,-1.91638,-1.91881,1.46905,-0.0425338,-0.0980342,-0.501425,0.563614,-0.11906,0.966997,0.215819,-0.0645275
12.4,-1.40486,-1.32818,-1.9238,-1.8874,1.47397,-0.047248,-0.103269,-0.505929,0.557272,-0.114049,0.969521,0.208448,-0.0597653
12.5,-1.41843,-1.3355,-1.93122,-1.85598,1.47889,-0.0519622,-0.108663,-0.510253,0.550956,-0.10905,0.971942,0.200991,-0.0551303
12.6,-1.43201,-1.34283,-1.93863,-1.82457,1.48381,-0.0566764,-0.114212,-0.514394,0.544669,-0.104064,0.974261,0.193451,-0.0506246
12.7,-1.44559,-1.35015,-1.94605,-1.79315,1.48873,-0.0613906,-0.11991,-0.518347,0.538411,-0.0990915,0.976478,0.18583,-0.0462498
12.8,-1.45916,-1.35748,-1.95347,-1.76174,1.49364,-0.0661047,-0.125751,-0.522108,0.532185,-0.0941347,0.978593,0.17813,-0.0420077
12.9,-1.47274,-1.3648,-1.96089,-1.73032,1.49856,-0.0708189,-0.131729,-0.525672,0.525992,-0.0891944,0.980606,0.170353,-0.0379002
13,-1.48631,-1.37213,-1.96831,-1.6989,1.50348,-0.0755331,-0.137839,-0.529036,0.519833,-0.0842721,0.982517,0.162503,-0.0339288
13.1,-1.49989,-1.37945,-1.97572,-1.66749,1.5084,-0.0802473,-0.144073,-0.532196,0.51371,-0.0793689,0.984327,0.154582,-0.0300953
13.2,-1.51346,-1.38678,-1.98314,-1.63607,1.51332,-0.0849614,-0.150427,-0.535149,0.507625,-0.074486,0.986035,0.146591,-0.0264012
13.3,-1.52704,-1.3941,-1.99056,-1.60466,1.51824,-0.0896756,-0.156893,-0.537891,0.501578,-0.0696248,0.987643,0.138534,-0.0228481
13.4,-1.54061,-1.40143,-1.99798,-1.57324,1.52316,-0.0943898,-0.163465,-0.540419,0.495571,-0.0647864,0.98915,0.130414,-0.0194375
13.5,-1.55419,-1.40875,-2.00539,-1.54182,1.52808,-0.099104,-0.170138,-0.542729,0.489606,-0.059972,0.990556,0.122232,-0.0161709
13.6,-1.56776,-1.41607,-2.01281,-1.51041,1.533,-0.103818,-0.176903,-0.54482,0.483684,-0.0551829,0.991862,0.113992,-0.0130496
13.7,-1.58134,-1.4234,-2.02023,-1.47899,1.53792,-0.108532,-0.183755,-0.546689,0.477806,-0.0504203,0.993068,0.105696,-0.010075
13.8,-1.59492,-1.43072,-2.02765,-1.44758,1.54284,-0.113247,-0.190687,-0.548333,0.471974,-0.0456853,0.994175,0.0973465,-0.00724855
13.9,-1.60849,-1.43805,-2.03507,-1.41616,1.54776,-0.117961,-0.197693,-0.549749,0.466189,-0.0409793,0.995183,0.0889469,-0.00457136
14,-1.62207,-1.44537,-2.04248,-1.38474,1.55268,-0.122675,-0.204765,-0.550937,0.460452,-0.0363032,0.996091,0.0804997,-0.00204471
14.1,-1.63564,-1.4527,-2.0499,-1.35333,1.5576,-0.127389,-0.211896,-0.551894,0.454765,-0.0316583,0.996901,0.0720077,0.000330263
14.2,-1.64922,-1.46002,-2.05732,-1.32191,1.56252,-0.132103,-0.219081,-0.552619,0.449129,-0.0270459,0.997614,0.0634736,0.00255243
14.3,-1.66279,-1.46735,-2.06474,-1.2905,1.56744,-0.136817,-0.226311,-0.55311,0.443544,-0.0224669,0.998228,0.0549004,0.00462074
14.4,-1.67637,-1.47467,-2.07216,-1.25908,1.57236,-0.141532,-0.23358,-0.553366,0.438013,-0.0179226,0.998746,0.0462909,0.00653418
14.5,-1.68988,-1.48197,-2.07954,-1.2278,1.57725,-0.146225,-0.240849,-0.553386,0.432561,-0.013434,0.999165,0.0376864,0.00828438
14.6,-1.70187,-1.48843,-2.08609,-1.20007,1.5816,-0.150387,-0.247316,-0.553208,0.427771,-0.00948405,0.999457,0.0300304,0.00970654
14.7,-1.71169,-1.49373,-2.09146,-1.17733,1.58516,-0.153799,-0.252628,-0.552924,0.423878,-0.00626815,0.99964,0.0237382,0.0107808
14.8,-1.71936,-1.49787,-2.09565,-1.15959,1.58794,-0.15646,-0.256777,-0.552616,0.420862,-0.00377351,0.999749,0.0188203,0.0115614
14.9,-1.72486,-1.50084,-2.09865,-1.14686,1.58993,-0.158371,-0.259759,-0.552348,0.418708,-0.00198984,0.999808,0.0152841,0.0120908
15,-1.72821,-1.50264,-2.10048,-1.13912,1.59114,-0.159532,-0.26157,-0.552166,0.417404,-0.000909577,0.999836,0.0131342,0.0123996
15.1,-1.72939,-1.50328,-2.10113,-1.13638,1.59157,-0.159943,-0.262211,-0.552098,0.416943,-0.000528051,0.999845,0.0123734,0.0125065
15.1047,-1.72939,-1.50328,-2.10113,-1.13638,1.59157,-0.159944,-0.262212,-0.552098,0.416942,-0.000527271,0.999845,0.0123718,0.0125067
